%
(1001)
(T1  D=0.125 CR=0. - ZMIN=-0.14 - FLAT END MILL)
N10 G90 G94 G17 G91.1
N15 G20
N20 G53 G0 Z0.
(2D CONTOUR3)
N25 M9
N30 T1 M6
N35 S3000 M3
N40 G54
N45 M8
N50 G0 X0.271500002 Y0.0125
N55 G43 Z0.599999991 H1
N60 G0 Z0.199999997
N65 G1 Z0.039370079 F1.64
N70 Z-0.127500042
N75 G18 G2 X0.284000006 Z-0.14 I0.012500005 K0.000000038
N80 G1 X0.304000002 F4.921
N85 G17 G2 X0.316499988 Y0. I0. J-0.0125
N90 X-0.316499988 I-0.316499988 J0.
N95 X0.316499988 I0.316499988 J0.
N100 X0.304000002 Y-0.0125 I-0.012499986 J0.
N105 G1 X0.284000006
N110 G18 G3 X0.271500002 Z-0.127500042 I0. K0.012499995
N115 G0 Z0.599999991
N120 G17
N125 M9
N130 G53 G0 Z0.
N135 M30
%
