%
(1001)
(T2  D=0.125 CR=0. - ZMIN=-0.14 - FLAT END MILL)
N10 G90 G94 G17 G91.1
N15 G20
N20 G53 G0 Z0.
(BORE2)
N25 M9
N30 T2 M6
N35 S3000 M3
N40 G54
N45 M8
N50 G0 X0.281250008 Y0.0125
N55 G43 Z0.599999991 H2
N60 G0 Z-0.060000002
N65 G1 Z-0.127500005 F5.
N70 G18 G2 X0.293749993 Z-0.14 I0.012499986 K0.
N75 G1 X0.299999995
N80 G17 G2 X0.3125 Y0. I0. J-0.0125
N85 G3 X-0.3125 I-0.3125 J0.
N90 X0.3125 I0.3125 J0.
N95 G2 X0.299999995 Y-0.0125 I-0.012500005 J0.
N100 G1 X0.293749993
N105 G18 G3 X0.281250008 Z-0.127500005 I0. K0.012499995
N110 G0 Z0.599999991
N115 G17
N120 M9
N125 G53 G0 Z0.
N130 M30
%
