%
(24 INCH BASE DOUBLE MORTISE)
(T1  D=0.5 CR=0. - ZMIN=-0.6 - FLAT END MILL)
N10 G90 G94 G17 G91.1
N15 G20
N20 G53 G0 Z0.
(SLOT1 6)
N25 T1 M6
N30 S3000 M3
N35 G54
N40 G0 X1.3088 Y0.5
N45 G43 Z0.75 H1
N50 G0 Z0.1
N55 G1 X1.9338 Z0.08 F15.
N60 X1.3088 Z0.06
N65 X1.9338 Z0.04
N70 X1.3088 Z0.02
N75 X1.9338 Z0.
N80 X1.3088 Z-0.02
N85 X1.9338 Z-0.04
N90 X1.3088 Z-0.06
N95 X1.9338 Z-0.08
N100 X1.3088 Z-0.1
N105 X1.9338
N110 X1.3088
N115 X1.9338 Z-0.1208
N120 X1.3088 Z-0.1417
N125 X1.9338 Z-0.1625
N130 X1.3088 Z-0.1833
N135 X1.9338 Z-0.2042
N140 X1.3088 Z-0.225
N145 X1.9338 Z-0.2458
N150 X1.3088 Z-0.2667
N155 X1.9338 Z-0.2875
N160 X1.3088 Z-0.3083
N165 X1.9338 Z-0.3292
N170 X1.3088 Z-0.35
N175 X1.9338
N180 X1.3088
N185 X1.9338 Z-0.3708
N190 X1.3088 Z-0.3917
N195 X1.9338 Z-0.4125
N200 X1.3088 Z-0.4333
N205 X1.9338 Z-0.4542
N210 X1.3088 Z-0.475
N215 X1.9338 Z-0.4958
N220 X1.3088 Z-0.5167
N225 X1.9338 Z-0.5375
N230 X1.3088 Z-0.5583
N235 X1.9338 Z-0.5792
N240 X1.3088 Z-0.6
N245 X1.9338
N250 X1.3088
N255 G0 Z0.75
N260 Y-0.5
N265 Z0.1
N270 G1 X1.9338 Z0.08 F15.
N275 X1.3088 Z0.06
N280 X1.9338 Z0.04
N285 X1.3088 Z0.02
N290 X1.9338 Z0.
N295 X1.3088 Z-0.02
N300 X1.9338 Z-0.04
N305 X1.3088 Z-0.06
N310 X1.9338 Z-0.08
N315 X1.3088 Z-0.1
N320 X1.9338
N325 X1.3088
N330 X1.9338 Z-0.1208
N335 X1.3088 Z-0.1417
N340 X1.9338 Z-0.1625
N345 X1.3088 Z-0.1833
N350 X1.9338 Z-0.2042
N355 X1.3088 Z-0.225
N360 X1.9338 Z-0.2458
N365 X1.3088 Z-0.2667
N370 X1.9338 Z-0.2875
N375 X1.3088 Z-0.3083
N380 X1.9338 Z-0.3292
N385 X1.3088 Z-0.35
N390 X1.9338
N395 X1.3088
N400 X1.9338 Z-0.3708
N405 X1.3088 Z-0.3917
N410 X1.9338 Z-0.4125
N415 X1.3088 Z-0.4333
N420 X1.9338 Z-0.4542
N425 X1.3088 Z-0.475
N430 X1.9338 Z-0.4958
N435 X1.3088 Z-0.5167
N440 X1.9338 Z-0.5375
N445 X1.3088 Z-0.5583
N450 X1.9338 Z-0.5792
N455 X1.3088 Z-0.6
N460 X1.9338
N465 X1.3088
N470 G0 Z0.75
N475 G53 Z0.
N480 M30
%
