%
(41 INCH BASE DOUBLE MORTISE)
(T1  D=0.5 CR=0. - ZMIN=-0.55 - FLAT END MILL)
N10 G90 G94 G17 G91.1
N15 G20
N20 G53 G0 Z0.
(SLOT1 8)
N25 T1 M6
N30 S3000 M3
N35 G54
N40 G0 X1.9338 Y-0.5
N45 G43 Z0.75 H1
N50 G0 Z0.1
N55 G1 X1.3088 Z0.0813 F15.
N60 X1.9338 Z0.0625
N65 X1.3088 Z0.0438
N70 X1.9338 Z0.025
N75 X1.3088 Z0.0062
N80 X1.9338 Z-0.0125
N85 X1.3088 Z-0.0312
N90 X1.9338 Z-0.05
N95 X1.3088
N100 X1.9338
N105 X1.3088 Z-0.0708
N110 X1.9338 Z-0.0917
N115 X1.3088 Z-0.1125
N120 X1.9338 Z-0.1333
N125 X1.3088 Z-0.1542
N130 X1.9338 Z-0.175
N135 X1.3088 Z-0.1958
N140 X1.9338 Z-0.2167
N145 X1.3088 Z-0.2375
N150 X1.9338 Z-0.2583
N155 X1.3088 Z-0.2792
N160 X1.9338 Z-0.3
N165 X1.3088
N170 X1.9338
N175 X1.3088 Z-0.3208
N180 X1.9338 Z-0.3417
N185 X1.3088 Z-0.3625
N190 X1.9338 Z-0.3833
N195 X1.3088 Z-0.4042
N200 X1.9338 Z-0.425
N205 X1.3088 Z-0.4458
N210 X1.9338 Z-0.4667
N215 X1.3088 Z-0.4875
N220 X1.9338 Z-0.5083
N225 X1.3088 Z-0.5292
N230 X1.9338 Z-0.55
N235 X1.3088
N240 X1.9338
N245 G0 Z0.75
N250 Y0.5
N255 Z0.1
N260 G1 X1.3088 Z0.0813 F15.
N265 X1.9338 Z0.0625
N270 X1.3088 Z0.0438
N275 X1.9338 Z0.025
N280 X1.3088 Z0.0062
N285 X1.9338 Z-0.0125
N290 X1.3088 Z-0.0312
N295 X1.9338 Z-0.05
N300 X1.3088
N305 X1.9338
N310 X1.3088 Z-0.0708
N315 X1.9338 Z-0.0917
N320 X1.3088 Z-0.1125
N325 X1.9338 Z-0.1333
N330 X1.3088 Z-0.1542
N335 X1.9338 Z-0.175
N340 X1.3088 Z-0.1958
N345 X1.9338 Z-0.2167
N350 X1.3088 Z-0.2375
N355 X1.9338 Z-0.2583
N360 X1.3088 Z-0.2792
N365 X1.9338 Z-0.3
N370 X1.3088
N375 X1.9338
N380 X1.3088 Z-0.3208
N385 X1.9338 Z-0.3417
N390 X1.3088 Z-0.3625
N395 X1.9338 Z-0.3833
N400 X1.3088 Z-0.4042
N405 X1.9338 Z-0.425
N410 X1.3088 Z-0.4458
N415 X1.9338 Z-0.4667
N420 X1.3088 Z-0.4875
N425 X1.9338 Z-0.5083
N430 X1.3088 Z-0.5292
N435 X1.9338 Z-0.55
N440 X1.3088
N445 X1.9338
N450 G0 Z0.75
N455 G53 Z0.
N460 M30
%
