%
(8020 ONE BORE)
(T1  D=0.25 CR=0. - ZMIN=-1.078000031 - FLAT END MILL)
N10 G90 G94 G17 G91.1
N15 G20
N20 G53 G0 Z0.
(2D ADAPTIVE1 2)
N25 M9
N30 T1 M6
N35 S4278 M3
N40 G54
N45 G0 X-0.108366228 Y-0.048577931
N50 G43 Z0.599999991 H1
N55 G0 Z0.199999997
N60 Z0.099999998
N65 G3 X0.108355346 Y0.048571502 Z0.086972312 I0.108360787 J0.048574717 F17.
N70 X-0.108366228 Y-0.048577931 Z0.073944626 I-0.108360787 J-0.048574717
N75 X0.108355346 Y0.048571502 Z0.06091694 I0.108360787 J0.048574717
N80 X-0.108366228 Y-0.048577931 Z0.047889254 I-0.108360787 J-0.048574717
N85 X0.108355346 Y0.048571502 Z0.034861567 I0.108360787 J0.048574717
N90 X-0.108366228 Y-0.048577931 Z0.021833881 I-0.108360787 J-0.048574717
N95 X0.108355345 Y0.048571502 Z0.008806195 I0.108360787 J0.048574717
N100 X-0.108366228 Y-0.048577931 Z-0.004221491 I-0.108360787 J-0.048574717
N105 X0.108355345 Y0.048571502 Z-0.017249177 I0.108360787 J0.048574717
N110 X-0.108366228 Y-0.048577931 Z-0.030276864 I-0.108360787 J-0.048574717
N115 X0.108355345 Y0.048571502 Z-0.04330455 I0.108360787 J0.048574716
N120 X-0.108366228 Y-0.048577931 Z-0.056332236 I-0.108360787 J-0.048574716
N125 X0.108355345 Y0.048571502 Z-0.069359922 I0.108360787 J0.048574716
N130 X-0.108366228 Y-0.048577931 Z-0.082387608 I-0.108360787 J-0.048574716
N135 X0.108355345 Y0.048571502 Z-0.095415295 I0.108360787 J0.048574716
N140 X-0.108366228 Y-0.048577931 Z-0.108442981 I-0.108360787 J-0.048574716
N145 X0.108355345 Y0.048571502 Z-0.121470667 I0.108360787 J0.048574716
N150 X-0.108366228 Y-0.048577931 Z-0.134498353 I-0.108360787 J-0.048574716
N155 X0.108355345 Y0.048571502 Z-0.147526039 I0.108360787 J0.048574716
N160 X-0.108366228 Y-0.048577931 Z-0.160553726 I-0.108360787 J-0.048574716
N165 X0.108355345 Y0.048571502 Z-0.173581412 I0.108360787 J0.048574716
N170 X-0.108366228 Y-0.048577931 Z-0.186609098 I-0.108360787 J-0.048574716
N175 X0.108355345 Y0.048571502 Z-0.199636784 I0.108360786 J0.048574716
N180 X-0.108366228 Y-0.048577931 Z-0.21266447 I-0.108360786 J-0.048574716
N185 X0.108355345 Y0.048571502 Z-0.225692157 I0.108360786 J0.048574716
N190 X-0.108366228 Y-0.048577931 Z-0.238719843 I-0.108360786 J-0.048574716
N195 X0.118744561 Y-0.000003214 Z-0.249999996 I0.108360786 J0.048574716
N200 X-0.118755444 I-0.118750002 J0.
N205 X0.118744561 I0.118750002 J0.
N210 G1 X0.118907559 Y0.009743115
N215 X0.126042244 Y0.048075562
N220 X0.127790209 Y0.053815302
N225 X0.12890812 Y0.059710239
N230 X0.129458135 Y0.065684976
N235 X0.129490152 Y0.071745139
N240 X0.129001263 Y0.078246293
N245 X0.127920935 Y0.085142044
N250 X0.126183221 Y0.092376142
N255 X0.123728119 Y0.099882873
N260 X0.120503001 Y0.107587538
N265 X0.116463965 Y0.11540732
N270 X0.111577051 Y0.12325223
N275 X0.105819449 Y0.131026459
N280 X0.099180336 Y0.138629778
N285 X0.0916616 Y0.145959253
N290 X0.083278192 Y0.152910985
N295 X0.074058245 Y0.159381994
N300 X0.064042839 Y0.165272059
N305 X0.053285426 Y0.170485485
N310 X0.041851045 Y0.174932818
N315 X0.029815245 Y0.178532244
N320 X0.017262823 Y0.181211017
N325 X0.004286438 Y0.182906324
N330 X-0.009014876 Y0.18356618
N335 X-0.02253722 Y0.183149886
N340 X-0.036173331 Y0.181628381
N345 X-0.049814033 Y0.178984338
N350 X-0.063349609 Y0.175211955
N355 X-0.076671074 Y0.170316809
N360 X-0.089671349 Y0.164315381
N365 X-0.102246296 Y0.157234641
N370 X-0.114295689 Y0.149111372
N375 X-0.125724021 Y0.139991608
N380 X-0.136441255 Y0.129929912
N385 X-0.14636342 Y0.118988696
N390 X-0.155413198 Y0.107237467
N395 X-0.163520359 Y0.094752124
N400 X-0.170622191 Y0.081614162
N405 X-0.176663718 Y0.067909979
N410 X-0.181598119 Y0.053730086
N415 X-0.185386778 Y0.039168404
N420 X-0.187999489 Y0.024321499
N425 X-0.189414569 Y0.009287881
N430 X-0.18961882 Y-0.00583273
N435 X-0.188607625 Y-0.020940104
N440 X-0.186384757 Y-0.035934195
N445 X-0.18296238 Y-0.050715818
N450 X-0.178360826 Y-0.065187324
N455 X-0.172608443 Y-0.079253217
N460 X-0.165741331 Y-0.092820821
N465 X-0.157803006 Y-0.105800826
N470 X-0.148844175 Y-0.11810789
N475 X-0.138922263 Y-0.129661203
N480 X-0.128101092 Y-0.140384961
N485 X-0.116450383 Y-0.150208858
N490 X-0.104045295 Y-0.159068539
N495 X-0.090965934 Y-0.166906015
N500 X-0.077296796 Y-0.17366995
N505 X-0.063126228 Y-0.179316096
N510 X-0.048545838 Y-0.183807508
N515 X-0.033649875 Y-0.187114712
N520 X-0.018534649 Y-0.189216043
N525 X-0.003297872 Y-0.190097572
N530 X0.011961956 Y-0.189753405
N535 X0.027146196 Y-0.188185493
N540 X0.042156709 Y-0.185403824
N545 X0.056896482 Y-0.181426176
N550 X0.071270269 Y-0.176278118
N555 X0.085185194 Y-0.169992785
N560 X0.098551352 Y-0.162610651
N565 X0.111282397 Y-0.154179297
N570 X0.123296084 Y-0.144753099
N575 X0.134514824 Y-0.134392855
N580 X0.144866142 Y-0.123165367
N585 X0.154283197 Y-0.111143101
N590 X0.162705155 Y-0.098403589
N595 X0.177263613 Y-0.071992879
N600 X0.189671892 Y-0.044462549
N605 X0.197550913 Y-0.022406843
N610 X0.20289192 Y-0.002550328
N615 X0.206313884 Y0.015999973
N620 X0.20815273 Y0.033952021
N625 X0.208530445 Y0.051328549
N630 X0.207540294 Y0.068202835
N635 X0.205237058 Y0.08467173
N640 X0.20164961 Y0.100767584
N645 X0.198869311 Y0.109767116
N650 X0.197659271 Y0.113282476
N655 X0.196227765 Y0.11671362
N660 X0.194580593 Y0.120046608
N665 X0.193729945 Y0.121638052
N670 X0.1898413 Y0.128328979
N675 X0.188114099 Y0.130487164
N680 X0.16632709 Y0.157034519
N685 X0.163260933 Y0.160728928
N690 X0.157574875 Y0.165883631
N695 X0.136009671 Y0.183581874
N700 X0.127820462 Y0.19019202
N705 X0.12406826 Y0.192430996
N710 X0.090956951 Y0.21012922
N715 X0.087238409 Y0.211896859
N720 X0.083519868 Y0.213126855
N725 X0.048079392 Y0.223877674
N730 X0.043649336 Y0.224948249
N735 X0.039219274 Y0.225435674
N740 X0.0037788 Y0.228926234
N745 X-0.00065126 Y0.229165592
N750 X-0.005081319 Y0.228797939
N755 X-0.040521795 Y0.225307378
N760 X-0.044951852 Y0.224710618
N765 X-0.049381913 Y0.223482556
N770 X-0.084822384 Y0.212731737
N775 X-0.087889668 Y0.211635781
N780 X-0.090956951 Y0.21012922
N785 X-0.12406826 Y0.192430996
N790 X-0.126595619 Y0.19102166
N795 X-0.129122978 Y0.189232301
N800 X-0.157574875 Y0.165883631
N805 X-0.161069172 Y0.162937529
N810 X-0.164563449 Y0.159183506
N815 X-0.188114099 Y0.130487164
N820 X-0.191143817 Y0.126389809
N825 X-0.193729945 Y0.121638052
N830 X-0.208864043 Y0.09332394
N835 X-0.212274874 Y0.086241585
N840 X-0.223038703 Y0.050845113
N845 X-0.224361251 Y0.046420553
N850 X-0.225162187 Y0.041995997
N855 X-0.229077001 Y0.002174968
N860 X-0.229075762 Y-0.00224959
N865 X-0.225590608 Y-0.037646059
N870 X-0.224339136 Y-0.046495176
N875 X-0.213620775 Y-0.081891647
N880 X-0.212251633 Y-0.086316208
N885 X-0.210244787 Y-0.09074076
N890 X-0.196055033 Y-0.117288115
N895 X-0.191143817 Y-0.126378902
N900 X-0.184421689 Y-0.134986348
N905 X-0.164563449 Y-0.159183506
N910 X-0.162538938 Y-0.161533694
N915 X-0.155703336 Y-0.167419573
N920 X-0.129122978 Y-0.189231212
N925 X-0.126907957 Y-0.190813936
N930 X-0.124692926 Y-0.192097097
N935 X-0.093682507 Y-0.208672388
N940 X-0.089252446 Y-0.211012739
N945 X-0.084822384 Y-0.212731737
N950 X-0.049381913 Y-0.223482556
N955 X-0.044951852 Y-0.224710618
N960 X-0.040521795 Y-0.225307378
N965 X-0.005081319 Y-0.228797939
N970 X-0.00065126 Y-0.229165592
N975 X0.0037788 Y-0.228926234
N980 X0.039219274 Y-0.225435674
N985 X0.043649336 Y-0.224948249
N990 X0.048079392 Y-0.223877674
N995 X0.083519868 Y-0.213126855
N1000 X0.087949929 Y-0.211608447
N1005 X0.092379991 Y-0.209368608
N1010 X0.118960339 Y-0.195161207
N1015 X0.127820462 Y-0.190200599
N1020 X0.130527442 Y-0.188081058
N1025 X0.15440082 Y-0.168488533
N1030 X0.162517668 Y-0.161533694
N1035 X0.163260933 Y-0.160736681
N1040 X0.184421689 Y-0.134986348
N1045 X0.1898413 Y-0.128311623
N1050 X0.191288257 Y-0.126137236
N1055 X0.200784939 Y-0.108438993
N1060 X0.210244787 Y-0.09074076
N1065 X0.212235 Y-0.086316208
N1070 X0.213620775 Y-0.081891647
N1075 X0.224339136 Y-0.046495176
N1080 X0.225281772 Y-0.040781808
N1085 X0.229075762 Y-0.00224959
N1090 X0.229077001 Y0.002174968
N1095 X0.225162187 Y0.041995997
N1100 X0.224361251 Y0.046420553
N1105 X0.21228274 Y0.086241585
N1110 X0.207919699 Y0.095090697
N1115 X0.194580593 Y0.120046608
N1120 X0.192946734 Y0.122513465
N1125 X0.191032868 Y0.124770009
N1130 X0.188620565 Y0.126534034 Z-0.249815189
N1135 X0.186243398 Y0.128272367 Z-0.249274428
N1140 X0.183935466 Y0.129960071 Z-0.248385471
N1145 X0.180868065 Y0.130835003 Z-0.246903156
N1150 X0.178030911 Y0.13164426 Z-0.244988119
N1155 X0.175480091 Y0.132371844 Z-0.242678218
N1160 X0.172957248 Y0.132499464 Z-0.239723686
N1165 X0.170911143 Y0.132302609 Z-0.236374996
N1170 X0.16941245 Y0.13215842 Z-0.23274565
N1175 X0.168498173 Y0.132070457 Z-0.228925259
N1180 X0.168190885 Y0.132040893 Z-0.225008153
N1185 G0 Z0.199999997
N1190 X0.112639121 Y-0.037589972
N1195 Z-0.149999998
N1200 G3 X-0.112650004 Y0.037583543 Z-0.163027684 I-0.112644563 J0.037586758 F17.
N1205 X0.112639122 Y-0.037589972 Z-0.17605537 I0.112644563 J-0.037586758
N1210 X-0.112650005 Y0.037583543 Z-0.189083056 I-0.112644563 J0.037586758
N1215 X0.112639122 Y-0.037589972 Z-0.202110742 I0.112644563 J-0.037586758
N1220 X-0.112650005 Y0.037583544 Z-0.215138428 I-0.112644563 J0.037586758
N1225 X0.112639122 Y-0.037589972 Z-0.228166114 I0.112644564 J-0.037586758
N1230 X-0.112650005 Y0.037583544 Z-0.2411938 I-0.112644564 J0.037586758
N1235 X0.112639123 Y-0.037589973 Z-0.254221486 I0.112644564 J-0.037586758
N1240 X-0.112650006 Y0.037583544 Z-0.267249172 I-0.112644564 J0.037586758
N1245 X0.112639123 Y-0.037589973 Z-0.280276858 I0.112644564 J-0.037586758
N1250 X-0.112650006 Y0.037583544 Z-0.293304544 I-0.112644565 J0.037586758
N1255 X0.112639124 Y-0.037589973 Z-0.30633223 I0.112644565 J-0.037586758
N1260 X-0.112650007 Y0.037583544 Z-0.319359916 I-0.112644565 J0.037586758
N1265 X0.112639124 Y-0.037589973 Z-0.332387602 I0.112644565 J-0.037586758
N1270 X-0.112650007 Y0.037583544 Z-0.345415288 I-0.112644566 J0.037586759
N1275 X0.112639125 Y-0.037589973 Z-0.358442974 I0.112644566 J-0.037586759
N1280 X-0.112650008 Y0.037583544 Z-0.37147066 I-0.112644566 J0.037586759
N1285 X0.112639125 Y-0.037589973 Z-0.384498346 I0.112644566 J-0.037586759
N1290 X-0.112650008 Y0.037583545 Z-0.397526032 I-0.112644566 J0.037586759
N1295 X0.112639125 Y-0.037589973 Z-0.410553718 I0.112644567 J-0.037586759
N1300 X-0.112650008 Y0.037583545 Z-0.423581404 I-0.112644567 J0.037586759
N1305 X0.112639126 Y-0.037589973 Z-0.43660909 I0.112644567 J-0.037586759
N1310 X-0.112650009 Y0.037583545 Z-0.449636776 I-0.112644567 J0.037586759
N1315 X0.112639126 Y-0.037589974 Z-0.462664462 I0.112644567 J-0.037586759
N1320 X0.118744561 Y-0.000003214 Z-0.463999989 I-0.112644568 J0.037586759
N1325 X-0.118755444 I-0.118750002 J0.
N1330 X0.118744561 I0.118750002 J0.
N1335 G1 X0.118907559 Y0.009743115
N1340 X0.126042244 Y0.048075562
N1345 X0.127790209 Y0.053815302
N1350 X0.12890812 Y0.059710239
N1355 X0.129458135 Y0.065684976
N1360 X0.129490152 Y0.071745139
N1365 X0.129001263 Y0.078246293
N1370 X0.127920935 Y0.085142044
N1375 X0.126183221 Y0.092376142
N1380 X0.123728119 Y0.099882873
N1385 X0.120503001 Y0.107587538
N1390 X0.116463965 Y0.11540732
N1395 X0.111577051 Y0.12325223
N1400 X0.105819449 Y0.131026459
N1405 X0.099180336 Y0.138629778
N1410 X0.0916616 Y0.145959253
N1415 X0.083278192 Y0.152910985
N1420 X0.074058245 Y0.159381994
N1425 X0.064042839 Y0.165272059
N1430 X0.053285426 Y0.170485485
N1435 X0.041851045 Y0.174932818
N1440 X0.029815245 Y0.178532244
N1445 X0.017262823 Y0.181211017
N1450 X0.004286438 Y0.182906324
N1455 X-0.009014876 Y0.18356618
N1460 X-0.02253722 Y0.183149886
N1465 X-0.036173331 Y0.181628381
N1470 X-0.049814033 Y0.178984338
N1475 X-0.063349609 Y0.175211955
N1480 X-0.076671074 Y0.170316809
N1485 X-0.089671349 Y0.164315381
N1490 X-0.102246296 Y0.157234641
N1495 X-0.114295689 Y0.149111372
N1500 X-0.125724021 Y0.139991608
N1505 X-0.136441255 Y0.129929912
N1510 X-0.14636342 Y0.118988696
N1515 X-0.155413198 Y0.107237467
N1520 X-0.163520359 Y0.094752124
N1525 X-0.170622191 Y0.081614162
N1530 X-0.176663718 Y0.067909979
N1535 X-0.181598119 Y0.053730086
N1540 X-0.185386778 Y0.039168404
N1545 X-0.187999489 Y0.024321499
N1550 X-0.189414569 Y0.009287881
N1555 X-0.18961882 Y-0.00583273
N1560 X-0.188607625 Y-0.020940104
N1565 X-0.186384757 Y-0.035934195
N1570 X-0.18296238 Y-0.050715818
N1575 X-0.178360826 Y-0.065187324
N1580 X-0.172608443 Y-0.079253217
N1585 X-0.165741331 Y-0.092820821
N1590 X-0.157803006 Y-0.105800826
N1595 X-0.148844175 Y-0.11810789
N1600 X-0.138922263 Y-0.129661203
N1605 X-0.128101092 Y-0.140384961
N1610 X-0.116450383 Y-0.150208858
N1615 X-0.104045295 Y-0.159068539
N1620 X-0.090965934 Y-0.166906015
N1625 X-0.077296796 Y-0.17366995
N1630 X-0.063126228 Y-0.179316096
N1635 X-0.048545838 Y-0.183807508
N1640 X-0.033649875 Y-0.187114712
N1645 X-0.018534649 Y-0.189216043
N1650 X-0.003297872 Y-0.190097572
N1655 X0.011961956 Y-0.189753405
N1660 X0.027146196 Y-0.188185493
N1665 X0.042156709 Y-0.185403824
N1670 X0.056896482 Y-0.181426176
N1675 X0.071270269 Y-0.176278118
N1680 X0.085185194 Y-0.169992785
N1685 X0.098551352 Y-0.162610651
N1690 X0.111282397 Y-0.154179297
N1695 X0.123296084 Y-0.144753099
N1700 X0.134514824 Y-0.134392855
N1705 X0.144866142 Y-0.123165367
N1710 X0.154283197 Y-0.111143101
N1715 X0.162705155 Y-0.098403589
N1720 X0.177263613 Y-0.071992879
N1725 X0.189671892 Y-0.044462549
N1730 X0.197550913 Y-0.022406843
N1735 X0.20289192 Y-0.002550328
N1740 X0.206313884 Y0.015999973
N1745 X0.20815273 Y0.033952021
N1750 X0.208530445 Y0.051328549
N1755 X0.207540294 Y0.068202835
N1760 X0.205237058 Y0.08467173
N1765 X0.20164961 Y0.100767584
N1770 X0.198869311 Y0.109767116
N1775 X0.197659271 Y0.113282476
N1780 X0.196227765 Y0.11671362
N1785 X0.194580593 Y0.120046608
N1790 X0.193729945 Y0.121638052
N1795 X0.1898413 Y0.128328979
N1800 X0.188114099 Y0.130487164
N1805 X0.16632709 Y0.157034519
N1810 X0.163260933 Y0.160728928
N1815 X0.157574875 Y0.165883631
N1820 X0.136009671 Y0.183581874
N1825 X0.127820462 Y0.19019202
N1830 X0.12406826 Y0.192430996
N1835 X0.090956951 Y0.21012922
N1840 X0.087238409 Y0.211896859
N1845 X0.083519868 Y0.213126855
N1850 X0.048079392 Y0.223877674
N1855 X0.043649336 Y0.224948249
N1860 X0.039219274 Y0.225435674
N1865 X0.0037788 Y0.228926234
N1870 X-0.00065126 Y0.229165592
N1875 X-0.005081319 Y0.228797939
N1880 X-0.040521795 Y0.225307378
N1885 X-0.044951852 Y0.224710618
N1890 X-0.049381913 Y0.223482556
N1895 X-0.084822384 Y0.212731737
N1900 X-0.087889668 Y0.211635781
N1905 X-0.090956951 Y0.21012922
N1910 X-0.12406826 Y0.192430996
N1915 X-0.126595619 Y0.19102166
N1920 X-0.129122978 Y0.189232301
N1925 X-0.157574875 Y0.165883631
N1930 X-0.161069172 Y0.162937529
N1935 X-0.164563449 Y0.159183506
N1940 X-0.188114099 Y0.130487164
N1945 X-0.191143817 Y0.126389809
N1950 X-0.193729945 Y0.121638052
N1955 X-0.208864043 Y0.09332394
N1960 X-0.212274874 Y0.086241585
N1965 X-0.223038703 Y0.050845113
N1970 X-0.224361251 Y0.046420553
N1975 X-0.225162187 Y0.041995997
N1980 X-0.229077001 Y0.002174968
N1985 X-0.229075762 Y-0.00224959
N1990 X-0.225590608 Y-0.037646059
N1995 X-0.224339136 Y-0.046495176
N2000 X-0.213620775 Y-0.081891647
N2005 X-0.212251633 Y-0.086316208
N2010 X-0.210244787 Y-0.09074076
N2015 X-0.196055033 Y-0.117288115
N2020 X-0.191143817 Y-0.126378902
N2025 X-0.184421689 Y-0.134986348
N2030 X-0.164563449 Y-0.159183506
N2035 X-0.162538938 Y-0.161533694
N2040 X-0.155703336 Y-0.167419573
N2045 X-0.129122978 Y-0.189231212
N2050 X-0.126907957 Y-0.190813936
N2055 X-0.124692926 Y-0.192097097
N2060 X-0.093682507 Y-0.208672388
N2065 X-0.089252446 Y-0.211012739
N2070 X-0.084822384 Y-0.212731737
N2075 X-0.049381913 Y-0.223482556
N2080 X-0.044951852 Y-0.224710618
N2085 X-0.040521795 Y-0.225307378
N2090 X-0.005081319 Y-0.228797939
N2095 X-0.00065126 Y-0.229165592
N2100 X0.0037788 Y-0.228926234
N2105 X0.039219274 Y-0.225435674
N2110 X0.043649336 Y-0.224948249
N2115 X0.048079392 Y-0.223877674
N2120 X0.083519868 Y-0.213126855
N2125 X0.087949929 Y-0.211608447
N2130 X0.092379991 Y-0.209368608
N2135 X0.118960339 Y-0.195161207
N2140 X0.127820462 Y-0.190200599
N2145 X0.130527442 Y-0.188081058
N2150 X0.15440082 Y-0.168488533
N2155 X0.162517668 Y-0.161533694
N2160 X0.163260933 Y-0.160736681
N2165 X0.184421689 Y-0.134986348
N2170 X0.1898413 Y-0.128311623
N2175 X0.191288257 Y-0.126137236
N2180 X0.200784939 Y-0.108438993
N2185 X0.210244787 Y-0.09074076
N2190 X0.212235 Y-0.086316208
N2195 X0.213620775 Y-0.081891647
N2200 X0.224339136 Y-0.046495176
N2205 X0.225281772 Y-0.040781808
N2210 X0.229075762 Y-0.00224959
N2215 X0.229077001 Y0.002174968
N2220 X0.225162187 Y0.041995997
N2225 X0.224361251 Y0.046420553
N2230 X0.21228274 Y0.086241585
N2235 X0.207919699 Y0.095090697
N2240 X0.194580593 Y0.120046608
N2245 G3 X0.168190885 Y0.132040893 I-0.021623345 J-0.012547144
N2250 G1 X0.164351763 Y0.131295272 Z-0.463692201
N2255 X0.160607172 Y0.13056801 Z-0.462776409
N2260 X0.157049316 Y0.129877015 Z-0.461275164
N2265 X0.153765802 Y0.129239302 Z-0.45922543
N2270 X0.15083748 Y0.128670573 Z-0.456677679
N2275 X0.148336456 Y0.128184833 Z-0.453694644
N2280 X0.146324313 Y0.127794042 Z-0.450349778
N2285 X0.144850597 Y0.127507822 Z-0.446725442
N2290 X0.143951597 Y0.127333221 Z-0.442910879
N2295 X0.143649447 Y0.12727454 Z-0.439000017
N2300 G0 Z0.599999991
(2D CONTOUR2 2)
N2305 G0 X0.175000007 Y-0.025
N2310 Z0.599999991
N2315 Z0.199999997
N2320 G1 Z0.039370079 F17.
N2325 Z-0.459000032
N2330 G18 G2 X0.199999997 Z-0.484000003 I0.02499999 K0.000000038
N2335 G1 X0.225000006
N2340 G17 G3 X0.249999996 Y0. I0. J0.025
N2345 X-0.249999996 I-0.249999996 J0.
N2350 X0.249999996 I0.249999996 J0.
N2355 X0.225000006 Y0.025 I-0.02499999 J0.
N2360 G1 X0.199999997
N2365 G18 G3 X0.175000007 Z-0.459000032 I0. K0.025000009
N2370 G0 Z0.599999991
N2375 G17
(BORE9 2)
N2380 G0 X-0.017 Y-0.020499999
N2385 Z0.599999991
N2390 Z-0.404499985
N2395 G1 Z-0.459499997 F17.
N2400 G18 G2 X0.008 Z-0.484500006 I0.025 K0.
N2405 G1 X0.020499999
N2410 G17 G3 X0.040999998 Y0. I0. J0.020499999
N2415 X-0.040999998 Z-0.504185047 I-0.040999998 J0.
N2420 X0.040999998 Z-0.523870087 I0.040999998 J0.
N2425 X-0.040999998 Z-0.543555127 I-0.040999998 J0.
N2430 X0.040999998 Z-0.563240167 I0.040999998 J0.
N2435 X-0.040999999 Z-0.582925207 I-0.040999998 J0.
N2440 X0.040999999 Z-0.602610248 I0.040999999 J0.
N2445 X-0.040999999 Z-0.622295288 I-0.040999999 J0.
N2450 X0.040999999 Z-0.641980328 I0.040999999 J0.
N2455 X-0.040999999 Z-0.661665368 I-0.040999999 J0.
N2460 X0.040999999 Z-0.681350408 I0.040999999 J0.
N2465 X-0.040999999 Z-0.701035449 I-0.040999999 J0.
N2470 X0.040999999 Z-0.720720489 I0.040999999 J0.
N2475 X-0.040999999 Z-0.740405529 I-0.040999999 J0.
N2480 X0.040999999 Z-0.760090569 I0.040999999 J0.
N2485 X-0.040999999 Z-0.779775609 I-0.040999999 J0.
N2490 X0.040999999 Z-0.799460649 I0.040999999 J0.
N2495 X-0.040999999 Z-0.81914569 I-0.040999999 J0.
N2500 X0.040999999 Z-0.83883073 I0.040999999 J0.
N2505 X-0.040999999 Z-0.85851577 I-0.040999999 J0.
N2510 X0.040999999 Z-0.87820081 I0.040999999 J0.
N2515 X-0.040999999 Z-0.89788585 I-0.040999999 J0.
N2520 X0.040999999 Z-0.917570891 I0.040999999 J0.
N2525 X-0.040999999 Z-0.937255931 I-0.040999999 J0.
N2530 X0.040999999 Z-0.956940971 I0.040999999 J0.
N2535 X-0.041 Z-0.976626011 I-0.040999999 J0.
N2540 X0.041 Z-0.996311051 I0.041 J0.
N2545 X-0.041 Z-1.015996092 I-0.041 J0.
N2550 X0.041 Z-1.035681132 I0.041 J0.
N2555 X-0.041 Z-1.055366172 I-0.041 J0.
N2560 X0.041 Z-1.075051212 I0.041 J0.
N2565 X0.036542955 Y0.018590654 Z-1.078000031 I-0.041 J0.
N2570 X-0.036542955 Y-0.018590654 I-0.036542955 J-0.018590654
N2575 X0.036542955 Y0.018590654 I0.036542955 J0.018590654
N2580 X0.008976151 Y0.027566806 I-0.018271478 J-0.009295327
N2585 G1 X-0.002164994 Y0.021898922
N2590 X-0.005650713 Y0.020125618 Z-1.077692239
N2595 X-0.009050602 Y0.018395978 Z-1.076776442
N2600 X-0.012280945 Y0.016752592 Z-1.075275191
N2605 X-0.015262198 Y0.015235926 Z-1.073225451
N2610 X-0.017920955 Y0.013883325 Z-1.070677695
N2615 X-0.020191748 Y0.012728095 Z-1.067694656
N2620 X-0.022018662 Y0.011798681 Z-1.064349786
N2625 X-0.023356713 Y0.011117969 Z-1.060725448
N2630 X-0.024172953 Y0.010702719 Z-1.056910884
N2635 X-0.024447284 Y0.010563157 Z-1.053000022
N2640 G0 Z0.599999991
N2645 G53 Z0.
N2650 M30
%
