%
(8020 END BORE)
(T1  D=0.25 CR=0. - ZMIN=-1.078000031 - FLAT END MILL)
N10 G90 G94 G17 G91.1
N15 G20
N20 G53 G0 Z0.
(2D ADAPTIVE1)
N25 M9
N30 T1 M6
N35 S4278 M3
N40 G54
N45 G0 X-0.108370762 Y-0.798582392
N50 G43 Z0.599999991 H1
N55 G0 Z0.199999997
N60 Z0.099999998
N65 G3 X0.108350797 Y-0.701433016 Z0.086972312 I0.108360779 J0.048574688 F17.
N70 X-0.108370763 Y-0.798582393 Z0.073944626 I-0.10836078 J-0.048574688
N75 X0.108350798 Y-0.701433016 Z0.06091694 I0.10836078 J0.048574688
N80 X-0.108370764 Y-0.798582393 Z0.047889254 I-0.108360781 J-0.048574689
N85 X0.108350799 Y-0.701433015 Z0.034861568 I0.108360781 J0.048574689
N90 X-0.108370766 Y-0.798582394 Z0.021833881 I-0.108360782 J-0.048574689
N95 X0.1083508 Y-0.701433015 Z0.008806195 I0.108360782 J0.048574689
N100 X-0.108370767 Y-0.798582394 Z-0.004221491 I-0.108360783 J-0.04857469
N105 X0.108350801 Y-0.701433014 Z-0.017249177 I0.108360784 J0.04857469
N110 X-0.108370768 Y-0.798582395 Z-0.030276863 I-0.108360784 J-0.04857469
N115 X0.108350802 Y-0.701433014 Z-0.043304549 I0.108360785 J0.04857469
N120 X-0.108370769 Y-0.798582395 Z-0.056332236 I-0.108360785 J-0.048574691
N125 X0.108350803 Y-0.701433013 Z-0.069359922 I0.108360786 J0.048574691
N130 X-0.10837077 Y-0.798582396 Z-0.082387608 I-0.108360787 J-0.048574691
N135 X0.108350805 Y-0.701433013 Z-0.095415294 I0.108360787 J0.048574692
N140 X-0.108370771 Y-0.798582397 Z-0.10844298 I-0.108360788 J-0.048574692
N145 X0.108350806 Y-0.701433012 Z-0.121470666 I0.108360788 J0.048574692
N150 X-0.108370772 Y-0.798582397 Z-0.134498353 I-0.108360789 J-0.048574692
N155 X0.108350807 Y-0.701433012 Z-0.147526039 I0.108360789 J0.048574693
N160 X-0.108370774 Y-0.798582398 Z-0.160553725 I-0.10836079 J-0.048574693
N165 X0.108350808 Y-0.701433011 Z-0.173581411 I0.108360791 J0.048574693
N170 X-0.108370775 Y-0.798582398 Z-0.186609097 I-0.108360791 J-0.048574693
N175 X0.108350809 Y-0.701433011 Z-0.199636784 I0.108360792 J0.048574694
N180 X-0.108370776 Y-0.798582399 Z-0.21266447 I-0.108360792 J-0.048574694
N185 X0.10835081 Y-0.70143301 Z-0.225692156 I0.108360793 J0.048574694
N190 X-0.108370777 Y-0.798582399 Z-0.238719842 I-0.108360793 J-0.048574694
N195 X0.118740018 Y-0.750007704 Z-0.249999996 I0.108360794 J0.048574695
N200 X-0.118759984 I-0.118750001 J0.
N205 X0.118740018 I0.118750001 J0.
N210 G1 X0.118903016 Y-0.740261378
N215 X0.126037701 Y-0.701928927
N220 X0.127785666 Y-0.696189159
N225 X0.128903577 Y-0.690294251
N230 X0.129453591 Y-0.684319519
N235 X0.129485609 Y-0.678259331
N240 X0.12899672 Y-0.671758201
N245 X0.127916392 Y-0.66486246
N250 X0.126178678 Y-0.657628352
N255 X0.123723576 Y-0.650121584
N260 X0.120498468 Y-0.642416947
N265 X0.116459422 Y-0.634597193
N270 X0.111572508 Y-0.626752245
N275 X0.105814906 Y-0.618977997
N280 X0.099175793 Y-0.611374697
N285 X0.091657057 Y-0.604045222
N290 X0.083273649 Y-0.5970935
N295 X0.074053707 Y-0.590622481
N300 X0.064038296 Y-0.584732416
N305 X0.053280883 Y-0.579518971
N310 X0.041846506 Y-0.575071658
N315 X0.029810705 Y-0.571472213
N320 X0.017258282 Y-0.568793439
N325 X0.004281896 Y-0.567098152
N330 X-0.009019418 Y-0.566438314
N335 X-0.022541763 Y-0.56685459
N340 X-0.036177875 Y-0.568376076
N345 X-0.049818576 Y-0.571020156
N350 X-0.063354152 Y-0.574792539
N355 X-0.076675617 Y-0.579687667
N360 X-0.089675883 Y-0.585689094
N365 X-0.102250839 Y-0.592769826
N370 X-0.114300232 Y-0.600893103
N375 X-0.125728564 Y-0.610012858
N380 X-0.136445789 Y-0.620074573
N385 X-0.146367963 Y-0.631015808
N390 X-0.155417741 Y-0.642767028
N395 X-0.163524902 Y-0.655252352
N400 X-0.170626734 Y-0.668390304
N405 X-0.176668261 Y-0.682094529
N410 X-0.181602662 Y-0.696274389
N415 X-0.185391321 Y-0.710836095
N420 X-0.188004032 Y-0.725683002
N425 X-0.189419112 Y-0.740716589
N430 X-0.189623363 Y-0.755837208
N435 X-0.188612168 Y-0.77094461
N440 X-0.1863893 Y-0.785938698
N445 X-0.182966923 Y-0.800720275
N450 X-0.178365369 Y-0.815191795
N455 X-0.172612986 Y-0.829257665
N460 X-0.165745874 Y-0.842825296
N465 X-0.157807549 Y-0.855805329
N470 X-0.148848718 Y-0.868112384
N475 X-0.138926806 Y-0.87966566
N480 X-0.128105635 Y-0.890389465
N485 X-0.116454917 Y-0.900213362
N490 X-0.104049829 Y-0.909072996
N495 X-0.090970467 Y-0.916910472
N500 X-0.077301334 Y-0.923674426
N505 X-0.063130771 Y-0.929320553
N510 X-0.048550377 Y-0.933811984
N515 X-0.033654418 Y-0.937119206
N520 X-0.018539191 Y-0.939220519
N525 X-0.003302414 Y-0.940102029
N530 X0.011957415 Y-0.93975788
N535 X0.027141656 Y-0.93818995
N540 X0.042152165 Y-0.935408299
N545 X0.056891944 Y-0.931430651
N550 X0.07126573 Y-0.926282612
N555 X0.085180651 Y-0.919997223
N560 X0.098546809 Y-0.912615108
N565 X0.111277854 Y-0.904183801
N570 X0.123291541 Y-0.894757594
N575 X0.134510281 Y-0.884397311
N580 X0.144861599 Y-0.873169861
N585 X0.154278654 Y-0.861147558
N590 X0.162700612 Y-0.848408046
N595 X0.17725907 Y-0.82199735
N600 X0.189667349 Y-0.794467025
N605 X0.197546369 Y-0.772411316
N610 X0.202887377 Y-0.752554766
N615 X0.206309341 Y-0.734004524
N620 X0.208148187 Y-0.716052468
N625 X0.208525902 Y-0.698675922
N630 X0.207535751 Y-0.681801668
N635 X0.205232515 Y-0.665332764
N640 X0.201645085 Y-0.649236919
N645 X0.19887117 Y-0.640258113
N650 X0.197638677 Y-0.636683787
N655 X0.196177246 Y-0.633196793
N660 X0.194492978 Y-0.62981185
N665 X0.191288295 Y-0.623862762
N670 X0.1898413 Y-0.62168861
N675 X0.180981178 Y-0.610821454
N680 X0.163260933 Y-0.58926312
N685 X0.162517799 Y-0.588466314
N690 X0.15440082 Y-0.58151185
N695 X0.130525762 Y-0.56191895
N700 X0.127820462 Y-0.559800779
N705 X0.118960339 Y-0.554839495
N710 X0.092379991 Y-0.540630461
N715 X0.087949929 Y-0.538389439
N720 X0.083519868 Y-0.53687167
N725 X0.048079392 Y-0.526121845
N730 X0.043649336 Y-0.52505174
N735 X0.039219274 Y-0.524564353
N740 X0.0037788 Y-0.521073754
N745 X-0.00065126 Y-0.520834397
N750 X-0.005081319 Y-0.52120205
N755 X-0.040521795 Y-0.52469261
N760 X-0.044951852 Y-0.52528937
N765 X-0.049400226 Y-0.526522464
N770 X-0.084822384 Y-0.537266769
N775 X-0.089252446 Y-0.538986199
N780 X-0.111402743 Y-0.550799445
N785 X-0.124692926 Y-0.557903943
N790 X-0.126907957 Y-0.559187424
N795 X-0.129122978 Y-0.560770223
N800 X-0.155703336 Y-0.582580754
N805 X-0.16253905 Y-0.588466314
N810 X-0.164563449 Y-0.590816295
N815 X-0.184421577 Y-0.615013641
N820 X-0.191143817 Y-0.62362104
N825 X-0.196055183 Y-0.632711921
N830 X-0.210245369 Y-0.65925921
N835 X-0.212251877 Y-0.663683809
N840 X-0.217724166 Y-0.681635263
N845 X-0.224338873 Y-0.703504818
N850 X-0.225590496 Y-0.712353939
N855 X-0.229075725 Y-0.747750425
N860 X-0.229076964 Y-0.752174948
N865 X-0.225162056 Y-0.791996032
N870 X-0.224360988 Y-0.796420555
N875 X-0.21498575 Y-0.827392443
N880 X-0.212275137 Y-0.836241564
N885 X-0.208864043 Y-0.843324962
N890 X-0.193730039 Y-0.87163805
N895 X-0.191143817 Y-0.876389826
N900 X-0.188113948 Y-0.880487172
N905 X-0.164563449 Y-0.909183682
N910 X-0.161069003 Y-0.91293763
N915 X-0.157574556 Y-0.915883658
N920 X-0.129122978 Y-0.939230881
N925 X-0.126594681 Y-0.941020936
N930 X-0.124066383 Y-0.942431022
N935 X-0.090958837 Y-0.96012919
N940 X-0.087890616 Y-0.961637046
N945 X-0.084822384 Y-0.962733396
N950 X-0.049381913 Y-0.973483634
N955 X-0.044951852 Y-0.974711245
N960 X-0.040521795 Y-0.97530793
N965 X-0.005081319 Y-0.978798153
N970 X-0.00065126 Y-0.979165806
N975 X0.0037788 Y-0.978926411
N980 X0.039219274 Y-0.975436263
N985 X0.043649336 Y-0.974948838
N990 X0.048079392 Y-0.97387877
N995 X0.083519868 Y-0.963128533
N1000 X0.087239357 Y-0.961898218
N1005 X0.090958837 Y-0.96012919
N1010 X0.124066383 Y-0.942431022
N1015 X0.127820462 Y-0.940190788
N1020 X0.136680584 Y-0.933030121
N1025 X0.157574556 Y-0.915883658
N1030 X0.163260933 Y-0.910729085
N1035 X0.17358947 Y-0.898185415
N1040 X0.188113948 Y-0.880487172
N1045 X0.1898413 Y-0.878328714
N1050 X0.193730039 Y-0.87163805
N1055 X0.207920225 Y-0.845090686
N1060 X0.212283191 Y-0.836241564
N1065 X0.224360988 Y-0.796420555
N1070 X0.225162056 Y-0.791996032
N1075 X0.229076964 Y-0.752174948
N1080 X0.229075725 Y-0.747750425
N1085 X0.225281772 Y-0.709219354
N1090 X0.224338873 Y-0.703504818
N1095 X0.213620982 Y-0.668108332
N1100 X0.212235432 Y-0.663683809
N1105 X0.210245369 Y-0.65925921
N1110 X0.194492978 Y-0.62981185
N1115 X0.192851128 Y-0.627350308
N1120 X0.190929954 Y-0.625099986
N1125 X0.188511941 Y-0.623343799 Z-0.249815189
N1130 X0.186129147 Y-0.621613191 Z-0.249274428
N1135 X0.18381575 Y-0.619932986 Z-0.248385471
N1140 X0.180745529 Y-0.619068008 Z-0.246903156
N1145 X0.177905768 Y-0.618267957 Z-0.244988119
N1150 X0.175352604 Y-0.61754865 Z-0.242678218
N1155 X0.172910446 Y-0.617429065 Z-0.239834335
N1160 X0.170830884 Y-0.617632546 Z-0.236466549
N1165 X0.169307006 Y-0.617781656 Z-0.232810933
N1170 X0.168377093 Y-0.617872648 Z-0.228959317
N1175 X0.168064504 Y-0.617903236 Z-0.225008453
N1180 G0 Z0.199999997
N1185 X0.112634578 Y-0.787594412
N1190 Z-0.149999998
N1195 G3 X-0.112654545 Y-0.712420996 Z-0.163027684 I-0.112644561 J0.037586708 F17.
N1200 X0.11263458 Y-0.787594413 Z-0.17605537 I0.112644562 J-0.037586708
N1205 X-0.112654547 Y-0.712420996 Z-0.189083056 I-0.112644563 J0.037586708
N1210 X0.112634581 Y-0.787594413 Z-0.202110742 I0.112644564 J-0.037586709
N1215 X-0.112654548 Y-0.712420995 Z-0.215138428 I-0.112644565 J0.037586709
N1220 X0.112634583 Y-0.787594414 Z-0.228166114 I0.112644565 J-0.037586709
N1225 X-0.11265455 Y-0.712420995 Z-0.2411938 I-0.112644566 J0.037586709
N1230 X0.112634585 Y-0.787594414 Z-0.254221486 I0.112644567 J-0.03758671
N1235 X-0.112654552 Y-0.712420994 Z-0.267249173 I-0.112644568 J0.03758671
N1240 X0.112634586 Y-0.787594415 Z-0.280276859 I0.112644569 J-0.03758671
N1245 X-0.112654553 Y-0.712420994 Z-0.293304545 I-0.112644569 J0.037586711
N1250 X0.112634588 Y-0.787594416 Z-0.306332231 I0.11264457 J-0.037586711
N1255 X-0.112654555 Y-0.712420993 Z-0.319359917 I-0.112644571 J0.037586711
N1260 X0.11263459 Y-0.787594416 Z-0.332387603 I0.112644572 J-0.037586711
N1265 X-0.112654557 Y-0.712420993 Z-0.345415289 I-0.112644573 J0.037586712
N1270 X0.112634591 Y-0.787594417 Z-0.358442975 I0.112644574 J-0.037586712
N1275 X-0.112654558 Y-0.712420992 Z-0.371470661 I-0.112644574 J0.037586712
N1280 X0.112634593 Y-0.787594417 Z-0.384498347 I0.112644575 J-0.037586712
N1285 X-0.11265456 Y-0.712420991 Z-0.397526033 I-0.112644576 J0.037586713
N1290 X0.112634595 Y-0.787594418 Z-0.41055372 I0.112644577 J-0.037586713
N1295 X-0.112654562 Y-0.712420991 Z-0.423581406 I-0.112644578 J0.037586713
N1300 X0.112634596 Y-0.787594418 Z-0.436609092 I0.112644579 J-0.037586714
N1305 X-0.112654563 Y-0.71242099 Z-0.449636778 I-0.112644579 J0.037586714
N1310 X0.112634598 Y-0.787594419 Z-0.462664464 I0.11264458 J-0.037586714
N1315 X0.118740018 Y-0.750007704 Z-0.463999989 I-0.112644581 J0.037586714
N1320 X-0.118759984 I-0.118750001 J0.
N1325 X0.118740018 I0.118750001 J0.
N1330 G1 X0.118903016 Y-0.740261378
N1335 X0.126037701 Y-0.701928927
N1340 X0.127785666 Y-0.696189159
N1345 X0.128903577 Y-0.690294251
N1350 X0.129453591 Y-0.684319519
N1355 X0.129485609 Y-0.678259331
N1360 X0.12899672 Y-0.671758201
N1365 X0.127916392 Y-0.66486246
N1370 X0.126178678 Y-0.657628352
N1375 X0.123723576 Y-0.650121584
N1380 X0.120498468 Y-0.642416947
N1385 X0.116459422 Y-0.634597193
N1390 X0.111572508 Y-0.626752245
N1395 X0.105814906 Y-0.618977997
N1400 X0.099175793 Y-0.611374697
N1405 X0.091657057 Y-0.604045222
N1410 X0.083273649 Y-0.5970935
N1415 X0.074053707 Y-0.590622481
N1420 X0.064038296 Y-0.584732416
N1425 X0.053280883 Y-0.579518971
N1430 X0.041846506 Y-0.575071658
N1435 X0.029810705 Y-0.571472213
N1440 X0.017258282 Y-0.568793439
N1445 X0.004281896 Y-0.567098152
N1450 X-0.009019418 Y-0.566438314
N1455 X-0.022541763 Y-0.56685459
N1460 X-0.036177875 Y-0.568376076
N1465 X-0.049818576 Y-0.571020156
N1470 X-0.063354152 Y-0.574792539
N1475 X-0.076675617 Y-0.579687667
N1480 X-0.089675883 Y-0.585689094
N1485 X-0.102250839 Y-0.592769826
N1490 X-0.114300232 Y-0.600893103
N1495 X-0.125728564 Y-0.610012858
N1500 X-0.136445789 Y-0.620074573
N1505 X-0.146367963 Y-0.631015808
N1510 X-0.155417741 Y-0.642767028
N1515 X-0.163524902 Y-0.655252352
N1520 X-0.170626734 Y-0.668390304
N1525 X-0.176668261 Y-0.682094529
N1530 X-0.181602662 Y-0.696274389
N1535 X-0.185391321 Y-0.710836095
N1540 X-0.188004032 Y-0.725683002
N1545 X-0.189419112 Y-0.740716589
N1550 X-0.189623363 Y-0.755837208
N1555 X-0.188612168 Y-0.77094461
N1560 X-0.1863893 Y-0.785938698
N1565 X-0.182966923 Y-0.800720275
N1570 X-0.178365369 Y-0.815191795
N1575 X-0.172612986 Y-0.829257665
N1580 X-0.165745874 Y-0.842825296
N1585 X-0.157807549 Y-0.855805329
N1590 X-0.148848718 Y-0.868112384
N1595 X-0.138926806 Y-0.87966566
N1600 X-0.128105635 Y-0.890389465
N1605 X-0.116454917 Y-0.900213362
N1610 X-0.104049829 Y-0.909072996
N1615 X-0.090970467 Y-0.916910472
N1620 X-0.077301334 Y-0.923674426
N1625 X-0.063130771 Y-0.929320553
N1630 X-0.048550377 Y-0.933811984
N1635 X-0.033654418 Y-0.937119206
N1640 X-0.018539191 Y-0.939220519
N1645 X-0.003302414 Y-0.940102029
N1650 X0.011957415 Y-0.93975788
N1655 X0.027141656 Y-0.93818995
N1660 X0.042152165 Y-0.935408299
N1665 X0.056891944 Y-0.931430651
N1670 X0.07126573 Y-0.926282612
N1675 X0.085180651 Y-0.919997223
N1680 X0.098546809 Y-0.912615108
N1685 X0.111277854 Y-0.904183801
N1690 X0.123291541 Y-0.894757594
N1695 X0.134510281 Y-0.884397311
N1700 X0.144861599 Y-0.873169861
N1705 X0.154278654 Y-0.861147558
N1710 X0.162700612 Y-0.848408046
N1715 X0.17725907 Y-0.82199735
N1720 X0.189667349 Y-0.794467025
N1725 X0.197546369 Y-0.772411316
N1730 X0.202887377 Y-0.752554766
N1735 X0.206309341 Y-0.734004524
N1740 X0.208148187 Y-0.716052468
N1745 X0.208525902 Y-0.698675922
N1750 X0.207535751 Y-0.681801668
N1755 X0.205232515 Y-0.665332764
N1760 X0.201645085 Y-0.649236919
N1765 X0.19887117 Y-0.640258113
N1770 X0.197638677 Y-0.636683787
N1775 X0.196177246 Y-0.633196793
N1780 X0.194492978 Y-0.62981185
N1785 X0.191288295 Y-0.623862762
N1790 X0.1898413 Y-0.62168861
N1795 X0.180981178 Y-0.610821454
N1800 X0.163260933 Y-0.58926312
N1805 X0.162517799 Y-0.588466314
N1810 X0.15440082 Y-0.58151185
N1815 X0.130525762 Y-0.56191895
N1820 X0.127820462 Y-0.559800779
N1825 X0.118960339 Y-0.554839495
N1830 X0.092379991 Y-0.540630461
N1835 X0.087949929 Y-0.538389439
N1840 X0.083519868 Y-0.53687167
N1845 X0.048079392 Y-0.526121845
N1850 X0.043649336 Y-0.52505174
N1855 X0.039219274 Y-0.524564353
N1860 X0.0037788 Y-0.521073754
N1865 X-0.00065126 Y-0.520834397
N1870 X-0.005081319 Y-0.52120205
N1875 X-0.040521795 Y-0.52469261
N1880 X-0.044951852 Y-0.52528937
N1885 X-0.049400226 Y-0.526522464
N1890 X-0.084822384 Y-0.537266769
N1895 X-0.089252446 Y-0.538986199
N1900 X-0.111402743 Y-0.550799445
N1905 X-0.124692926 Y-0.557903943
N1910 X-0.126907957 Y-0.559187424
N1915 X-0.129122978 Y-0.560770223
N1920 X-0.155703336 Y-0.582580754
N1925 X-0.16253905 Y-0.588466314
N1930 X-0.164563449 Y-0.590816295
N1935 X-0.184421577 Y-0.615013641
N1940 X-0.191143817 Y-0.62362104
N1945 X-0.196055183 Y-0.632711921
N1950 X-0.210245369 Y-0.65925921
N1955 X-0.212251877 Y-0.663683809
N1960 X-0.217724166 Y-0.681635263
N1965 X-0.224338873 Y-0.703504818
N1970 X-0.225590496 Y-0.712353939
N1975 X-0.229075725 Y-0.747750425
N1980 X-0.229076964 Y-0.752174948
N1985 X-0.225162056 Y-0.791996032
N1990 X-0.224360988 Y-0.796420555
N1995 X-0.21498575 Y-0.827392443
N2000 X-0.212275137 Y-0.836241564
N2005 X-0.208864043 Y-0.843324962
N2010 X-0.193730039 Y-0.87163805
N2015 X-0.191143817 Y-0.876389826
N2020 X-0.188113948 Y-0.880487172
N2025 X-0.164563449 Y-0.909183682
N2030 X-0.161069003 Y-0.91293763
N2035 X-0.157574556 Y-0.915883658
N2040 X-0.129122978 Y-0.939230881
N2045 X-0.126594681 Y-0.941020936
N2050 X-0.124066383 Y-0.942431022
N2055 X-0.090958837 Y-0.96012919
N2060 X-0.087890616 Y-0.961637046
N2065 X-0.084822384 Y-0.962733396
N2070 X-0.049381913 Y-0.973483634
N2075 X-0.044951852 Y-0.974711245
N2080 X-0.040521795 Y-0.97530793
N2085 X-0.005081319 Y-0.978798153
N2090 X-0.00065126 Y-0.979165806
N2095 X0.0037788 Y-0.978926411
N2100 X0.039219274 Y-0.975436263
N2105 X0.043649336 Y-0.974948838
N2110 X0.048079392 Y-0.97387877
N2115 X0.083519868 Y-0.963128533
N2120 X0.087239357 Y-0.961898218
N2125 X0.090958837 Y-0.96012919
N2130 X0.124066383 Y-0.942431022
N2135 X0.127820462 Y-0.940190788
N2140 X0.136680584 Y-0.933030121
N2145 X0.157574556 Y-0.915883658
N2150 X0.163260933 Y-0.910729085
N2155 X0.17358947 Y-0.898185415
N2160 X0.188113948 Y-0.880487172
N2165 X0.1898413 Y-0.878328714
N2170 X0.193730039 Y-0.87163805
N2175 X0.207920225 Y-0.845090686
N2180 X0.212283191 Y-0.836241564
N2185 X0.224360988 Y-0.796420555
N2190 X0.225162056 Y-0.791996032
N2195 X0.229076964 Y-0.752174948
N2200 X0.229075725 Y-0.747750425
N2205 X0.225281772 Y-0.709219354
N2210 X0.224338873 Y-0.703504818
N2215 X0.213620982 Y-0.668108332
N2220 X0.212235432 Y-0.663683809
N2225 X0.210245369 Y-0.65925921
N2230 X0.194492978 Y-0.62981185
N2235 X0.192851128 Y-0.627350308
N2240 X0.190929954 Y-0.625099986
N2245 X0.188511941 Y-0.623343799 Z-0.463815181
N2250 X0.186129147 Y-0.621613191 Z-0.463274421
N2255 X0.18381575 Y-0.619932986 Z-0.462385463
N2260 X0.180745529 Y-0.619068008 Z-0.460903148
N2265 X0.177905768 Y-0.618267957 Z-0.458988111
N2270 X0.175352604 Y-0.61754865 Z-0.45667821
N2275 X0.172910446 Y-0.617429065 Z-0.453834346
N2280 X0.170830879 Y-0.617632547 Z-0.45046655
N2285 X0.169307 Y-0.617781656 Z-0.446810924
N2290 X0.168377088 Y-0.617872648 Z-0.442959298
N2295 X0.168064504 Y-0.617903236 Z-0.439008427
N2300 G0 Z0.199999997
N2305 X-0.108354561 Y0.701432716
N2310 Z0.099999998
N2315 G3 X0.108367007 Y0.798582092 Z0.086972312 I0.108360784 J0.048574688 F17.
N2320 X-0.108354562 Y0.701432716 Z0.073944626 I-0.108360784 J-0.048574688
N2325 X0.108367007 Y0.798582092 Z0.06091694 I0.108360784 J0.048574688
N2330 X-0.108354562 Y0.701432716 Z0.047889254 I-0.108360785 J-0.048574688
N2335 X0.108367008 Y0.798582093 Z0.034861568 I0.108360785 J0.048574688
N2340 X-0.108354563 Y0.701432715 Z0.021833881 I-0.108360785 J-0.048574689
N2345 X0.108367008 Y0.798582093 Z0.008806195 I0.108360785 J0.048574689
N2350 X-0.108354563 Y0.701432715 Z-0.004221491 I-0.108360786 J-0.048574689
N2355 X0.108367009 Y0.798582093 Z-0.017249177 I0.108360786 J0.048574689
N2360 X-0.108354564 Y0.701432715 Z-0.030276863 I-0.108360786 J-0.048574689
N2365 X0.10836701 Y0.798582093 Z-0.043304549 I0.108360786 J0.048574689
N2370 X-0.108354564 Y0.701432715 Z-0.056332236 I-0.108360787 J-0.048574689
N2375 X0.10836701 Y0.798582094 Z-0.069359922 I0.108360787 J0.048574689
N2380 X-0.108354565 Y0.701432715 Z-0.082387608 I-0.108360787 J-0.048574689
N2385 X0.108367011 Y0.798582094 Z-0.095415294 I0.108360788 J0.04857469
N2390 X-0.108354565 Y0.701432714 Z-0.10844298 I-0.108360788 J-0.04857469
N2395 X0.108367011 Y0.798582094 Z-0.121470666 I0.108360788 J0.04857469
N2400 X-0.108354566 Y0.701432714 Z-0.134498353 I-0.108360788 J-0.04857469
N2405 X0.108367012 Y0.798582094 Z-0.147526039 I0.108360789 J0.04857469
N2410 X-0.108354566 Y0.701432714 Z-0.160553725 I-0.108360789 J-0.04857469
N2415 X0.108367012 Y0.798582095 Z-0.173581411 I0.108360789 J0.04857469
N2420 X-0.108354567 Y0.701432714 Z-0.186609097 I-0.108360789 J-0.04857469
N2425 X0.108367013 Y0.798582095 Z-0.199636783 I0.10836079 J0.048574691
N2430 X-0.108354567 Y0.701432713 Z-0.21266447 I-0.10836079 J-0.048574691
N2435 X0.108367013 Y0.798582095 Z-0.225692156 I0.10836079 J0.048574691
N2440 X-0.108354568 Y0.701432713 Z-0.238719842 I-0.10836079 J-0.048574691
N2445 X0.118756219 Y0.750007404 Z-0.249999996 I0.108360791 J0.048574691
N2450 X-0.118743774 I-0.118749996 J0.
N2455 X0.118756219 I0.118749996 J0.
N2460 G1 X0.118919226 Y0.75975373
N2465 X0.126053911 Y0.798086181
N2470 X0.127801867 Y0.803825949
N2475 X0.128919787 Y0.809720858
N2480 X0.129469802 Y0.81569559
N2485 X0.12950182 Y0.821755777
N2490 X0.129012921 Y0.828256983
N2495 X0.127932603 Y0.835152724
N2500 X0.126194888 Y0.842386756
N2505 X0.123739787 Y0.849893525
N2510 X0.120514669 Y0.857598162
N2515 X0.116475623 Y0.865417991
N2520 X0.111588718 Y0.873262901
N2525 X0.105831116 Y0.881037074
N2530 X0.099192004 Y0.888640411
N2535 X0.091673258 Y0.895969886
N2540 X0.08328985 Y0.902921647
N2545 X0.074069913 Y0.909392665
N2550 X0.064054502 Y0.915282692
N2555 X0.053297089 Y0.920496137
N2560 X0.041862712 Y0.924943488
N2565 X0.02982691 Y0.928542896
N2570 X0.017274488 Y0.931221669
N2575 X0.004298102 Y0.932916957
N2580 X-0.009003212 Y0.933576794
N2585 X-0.022525557 Y0.933160557
N2590 X-0.036161669 Y0.931639033
N2595 X-0.04980237 Y0.928994952
N2600 X-0.063337947 Y0.925222607
N2605 X-0.076659411 Y0.920327479
N2610 X-0.089659681 Y0.914326014
N2615 X-0.102234628 Y0.907245321
N2620 X-0.114284022 Y0.899122043
N2625 X-0.125712353 Y0.890002288
N2630 X-0.136429588 Y0.879940574
N2635 X-0.146351752 Y0.868999376
N2640 X-0.15540153 Y0.857248156
N2645 X-0.163508701 Y0.844762757
N2650 X-0.170610514 Y0.831624805
N2655 X-0.17665206 Y0.817920655
N2660 X-0.181586461 Y0.803740719
N2665 X-0.185375101 Y0.789179089
N2670 X-0.187987831 Y0.774332182
N2675 X-0.189402892 Y0.75929852
N2680 X-0.189607162 Y0.744177901
N2685 X-0.188595948 Y0.729070573
N2690 X-0.186373099 Y0.714076485
N2695 X-0.182950703 Y0.699294834
N2700 X-0.178349168 Y0.684823314
N2705 X-0.172596785 Y0.670757444
N2710 X-0.165729673 Y0.657189812
N2715 X-0.157791348 Y0.644209854
N2720 X-0.148832507 Y0.631902725
N2725 X-0.138910596 Y0.620349448
N2730 X-0.128089424 Y0.609625681
N2735 X-0.116438715 Y0.599801784
N2740 X-0.104033628 Y0.590942112
N2745 X-0.090954266 Y0.583104637
N2750 X-0.077285128 Y0.57634072
N2755 X-0.063114565 Y0.570694555
N2760 X-0.048534171 Y0.566203162
N2765 X-0.033638212 Y0.56289594
N2770 X-0.018522985 Y0.560794628
N2775 X-0.003286208 Y0.55991308
N2780 X0.01197362 Y0.560257266
N2785 X0.027157861 Y0.561825159
N2790 X0.042168371 Y0.564606847
N2795 X0.056908149 Y0.568584457
N2800 X0.071281936 Y0.573732534
N2805 X0.085196861 Y0.580017886
N2810 X0.09856302 Y0.587400001
N2815 X0.111294065 Y0.595831345
N2820 X0.123307752 Y0.605257552
N2825 X0.134526482 Y0.615617797
N2830 X0.144877809 Y0.626845285
N2835 X0.154294855 Y0.638867551
N2840 X0.162716832 Y0.651607063
N2845 X0.177275271 Y0.678017759
N2850 X0.18968355 Y0.705548084
N2855 X0.197562571 Y0.727603792
N2860 X0.202903597 Y0.747460343
N2865 X0.206325542 Y0.76601066
N2870 X0.208164407 Y0.78396264
N2875 X0.208542103 Y0.801339187
N2880 X0.207551971 Y0.818213515
N2885 X0.205248716 Y0.83468242
N2890 X0.201661286 Y0.850778264
N2895 X0.198904586 Y0.859701352
N2900 X0.197694471 Y0.863216881
N2905 X0.196262833 Y0.866648306
N2910 X0.194615529 Y0.869981435
N2915 X0.193730039 Y0.87163805
N2920 X0.1898413 Y0.878328714
N2925 X0.188113948 Y0.880487172
N2930 X0.16632724 Y0.907034536
N2935 X0.163260933 Y0.910729085
N2940 X0.157574556 Y0.915883658
N2945 X0.136008272 Y0.9335819
N2950 X0.127820462 Y0.940190788
N2955 X0.124066383 Y0.942431022
N2960 X0.090958837 Y0.96012919
N2965 X0.087239357 Y0.961898218
N2970 X0.083519868 Y0.963128533
N2975 X0.048079392 Y0.97387877
N2980 X0.043649336 Y0.974948838
N2985 X0.039219274 Y0.975436263
N2990 X0.0037788 Y0.978926411
N2995 X-0.00065126 Y0.979165806
N3000 X-0.005081319 Y0.978798153
N3005 X-0.040521795 Y0.97530793
N3010 X-0.044951852 Y0.974711245
N3015 X-0.049381913 Y0.973483634
N3020 X-0.084822384 Y0.962733396
N3025 X-0.087890616 Y0.961637046
N3030 X-0.090958837 Y0.96012919
N3035 X-0.124066383 Y0.942431022
N3040 X-0.126594681 Y0.941020936
N3045 X-0.129122978 Y0.939230881
N3050 X-0.157574556 Y0.915883658
N3055 X-0.161069003 Y0.91293763
N3060 X-0.164563449 Y0.909183682
N3065 X-0.188113948 Y0.880487172
N3070 X-0.191143817 Y0.876389826
N3075 X-0.193730039 Y0.87163805
N3080 X-0.208864043 Y0.843324962
N3085 X-0.212275137 Y0.836241564
N3090 X-0.223038497 Y0.800845079
N3095 X-0.224360988 Y0.796420555
N3100 X-0.225162056 Y0.791996032
N3105 X-0.229076964 Y0.752174948
N3110 X-0.229075725 Y0.747750425
N3115 X-0.225590496 Y0.712353939
N3120 X-0.224338873 Y0.703504818
N3125 X-0.213620982 Y0.668108332
N3130 X-0.212251877 Y0.663683809
N3135 X-0.210245369 Y0.65925921
N3140 X-0.196055183 Y0.632711921
N3145 X-0.191143817 Y0.62362104
N3150 X-0.184421577 Y0.615013641
N3155 X-0.164563449 Y0.590816295
N3160 X-0.16253905 Y0.588466314
N3165 X-0.155703336 Y0.582580754
N3170 X-0.129122978 Y0.560770223
N3175 X-0.126907957 Y0.559187424
N3180 X-0.124692926 Y0.557903943
N3185 X-0.093682507 Y0.541326756
N3190 X-0.089252446 Y0.538986199
N3195 X-0.084822384 Y0.537266769
N3200 X-0.049381913 Y0.526516907
N3205 X-0.044951852 Y0.52528937
N3210 X-0.040521795 Y0.52469261
N3215 X-0.005081319 Y0.52120205
N3220 X-0.00065126 Y0.520834397
N3225 X0.0037788 Y0.521073754
N3230 X0.039219274 Y0.524564353
N3235 X0.043649336 Y0.52505174
N3240 X0.048079392 Y0.526121845
N3245 X0.083519868 Y0.53687167
N3250 X0.087949929 Y0.538389439
N3255 X0.092379991 Y0.540630461
N3260 X0.118960339 Y0.554839495
N3265 X0.127820462 Y0.559800779
N3270 X0.130525762 Y0.56191895
N3275 X0.15440082 Y0.58151185
N3280 X0.162517799 Y0.588466314
N3285 X0.163260933 Y0.58926312
N3290 X0.184421577 Y0.615013641
N3295 X0.1898413 Y0.62168861
N3300 X0.191288295 Y0.623862762
N3305 X0.200785239 Y0.641560968
N3310 X0.210245369 Y0.65925921
N3315 X0.212235432 Y0.663683809
N3320 X0.213620982 Y0.668108332
N3325 X0.224338873 Y0.703504818
N3330 X0.225281772 Y0.709219354
N3335 X0.229075725 Y0.747750425
N3340 X0.229076964 Y0.752174948
N3345 X0.225162056 Y0.791996032
N3350 X0.224360988 Y0.796420555
N3355 X0.212283191 Y0.836241564
N3360 X0.207920225 Y0.845090686
N3365 X0.194615529 Y0.869981435
N3370 X0.192981644 Y0.87244829
N3375 X0.191067748 Y0.874704827
N3380 X0.18865542 Y0.876468811 Z-0.249815188
N3385 X0.186278228 Y0.878207103 Z-0.249274428
N3390 X0.183970271 Y0.879894767 Z-0.248385471
N3395 X0.180902863 Y0.880769661 Z-0.246903155
N3400 X0.178065703 Y0.881578884 Z-0.244988118
N3405 X0.175514878 Y0.882306437 Z-0.242678218
N3410 X0.172992335 Y0.882434019 Z-0.239724118
N3415 X0.170946102 Y0.882237149 Z-0.236375351
N3420 X0.169447314 Y0.882092951 Z-0.232745902
N3425 X0.168532978 Y0.882004987 Z-0.228925391
N3430 X0.168225672 Y0.881975429 Z-0.225008154
N3435 G0 X0.168225671 Z0.199999997
N3440 X0.112650789 Y0.712420696
N3445 Z-0.149999998
N3450 G3 X-0.112638344 Y0.787594112 Z-0.163027684 I-0.112644566 J0.037586708 F17.
N3455 X0.11265079 Y0.712420696 Z-0.17605537 I0.112644566 J-0.037586708
N3460 X-0.112638344 Y0.787594112 Z-0.189083056 I-0.112644567 J0.037586708
N3465 X0.112650791 Y0.712420696 Z-0.202110742 I0.112644567 J-0.037586708
N3470 X-0.112638345 Y0.787594113 Z-0.215138428 I-0.112644568 J0.037586708
N3475 X0.112650791 Y0.712420695 Z-0.228166114 I0.112644568 J-0.037586709
N3480 X-0.112638346 Y0.787594113 Z-0.2411938 I-0.112644569 J0.037586709
N3485 X0.112650792 Y0.712420695 Z-0.254221486 I0.112644569 J-0.037586709
N3490 X-0.112638347 Y0.787594113 Z-0.267249173 I-0.11264457 J0.037586709
N3495 X0.112650793 Y0.712420695 Z-0.280276859 I0.11264457 J-0.037586709
N3500 X-0.112638348 Y0.787594114 Z-0.293304545 I-0.112644571 J0.037586709
N3505 X0.112650794 Y0.712420694 Z-0.306332231 I0.112644571 J-0.037586709
N3510 X-0.112638349 Y0.787594114 Z-0.319359917 I-0.112644571 J0.03758671
N3515 X0.112650795 Y0.712420694 Z-0.332387603 I0.112644572 J-0.03758671
N3520 X-0.11263835 Y0.787594114 Z-0.345415289 I-0.112644572 J0.03758671
N3525 X0.112650796 Y0.712420694 Z-0.358442975 I0.112644573 J-0.03758671
N3530 X-0.112638351 Y0.787594115 Z-0.371470661 I-0.112644573 J0.03758671
N3535 X0.112650797 Y0.712420694 Z-0.384498347 I0.112644574 J-0.03758671
N3540 X-0.112638352 Y0.787594115 Z-0.397526033 I-0.112644574 J0.037586711
N3545 X0.112650798 Y0.712420693 Z-0.41055372 I0.112644575 J-0.037586711
N3550 X-0.112638353 Y0.787594115 Z-0.423581406 I-0.112644575 J0.037586711
N3555 X0.112650799 Y0.712420693 Z-0.436609092 I0.112644576 J-0.037586711
N3560 X-0.112638354 Y0.787594115 Z-0.449636778 I-0.112644576 J0.037586711
N3565 X0.1126508 Y0.712420693 Z-0.462664464 I0.112644577 J-0.037586711
N3570 X0.118756219 Y0.750007404 Z-0.463999989 I-0.112644577 J0.037586712
N3575 X-0.118743774 I-0.118749996 J0.
N3580 X0.118756219 I0.118749996 J0.
N3585 G1 X0.118919226 Y0.75975373
N3590 X0.126053911 Y0.798086181
N3595 X0.127801867 Y0.803825949
N3600 X0.128919787 Y0.809720858
N3605 X0.129469802 Y0.81569559
N3610 X0.12950182 Y0.821755777
N3615 X0.129012921 Y0.828256983
N3620 X0.127932603 Y0.835152724
N3625 X0.126194888 Y0.842386756
N3630 X0.123739787 Y0.849893525
N3635 X0.120514669 Y0.857598162
N3640 X0.116475623 Y0.865417991
N3645 X0.111588718 Y0.873262901
N3650 X0.105831116 Y0.881037074
N3655 X0.099192004 Y0.888640411
N3660 X0.091673258 Y0.895969886
N3665 X0.08328985 Y0.902921647
N3670 X0.074069913 Y0.909392665
N3675 X0.064054502 Y0.915282692
N3680 X0.053297089 Y0.920496137
N3685 X0.041862712 Y0.924943488
N3690 X0.02982691 Y0.928542896
N3695 X0.017274488 Y0.931221669
N3700 X0.004298102 Y0.932916957
N3705 X-0.009003212 Y0.933576794
N3710 X-0.022525557 Y0.933160557
N3715 X-0.036161669 Y0.931639033
N3720 X-0.04980237 Y0.928994952
N3725 X-0.063337947 Y0.925222607
N3730 X-0.076659411 Y0.920327479
N3735 X-0.089659681 Y0.914326014
N3740 X-0.102234628 Y0.907245321
N3745 X-0.114284022 Y0.899122043
N3750 X-0.125712353 Y0.890002288
N3755 X-0.136429588 Y0.879940574
N3760 X-0.146351752 Y0.868999376
N3765 X-0.15540153 Y0.857248156
N3770 X-0.163508701 Y0.844762757
N3775 X-0.170610514 Y0.831624805
N3780 X-0.17665206 Y0.817920655
N3785 X-0.181586461 Y0.803740719
N3790 X-0.185375101 Y0.789179089
N3795 X-0.187987831 Y0.774332182
N3800 X-0.189402892 Y0.75929852
N3805 X-0.189607162 Y0.744177901
N3810 X-0.188595948 Y0.729070573
N3815 X-0.186373099 Y0.714076485
N3820 X-0.182950703 Y0.699294834
N3825 X-0.178349168 Y0.684823314
N3830 X-0.172596785 Y0.670757444
N3835 X-0.165729673 Y0.657189812
N3840 X-0.157791348 Y0.644209854
N3845 X-0.148832507 Y0.631902725
N3850 X-0.138910596 Y0.620349448
N3855 X-0.128089424 Y0.609625681
N3860 X-0.116438715 Y0.599801784
N3865 X-0.104033628 Y0.590942112
N3870 X-0.090954266 Y0.583104637
N3875 X-0.077285128 Y0.57634072
N3880 X-0.063114565 Y0.570694555
N3885 X-0.048534171 Y0.566203162
N3890 X-0.033638212 Y0.56289594
N3895 X-0.018522985 Y0.560794628
N3900 X-0.003286208 Y0.55991308
N3905 X0.01197362 Y0.560257266
N3910 X0.027157861 Y0.561825159
N3915 X0.042168371 Y0.564606847
N3920 X0.056908149 Y0.568584457
N3925 X0.071281936 Y0.573732534
N3930 X0.085196861 Y0.580017886
N3935 X0.09856302 Y0.587400001
N3940 X0.111294065 Y0.595831345
N3945 X0.123307752 Y0.605257552
N3950 X0.134526482 Y0.615617797
N3955 X0.144877809 Y0.626845285
N3960 X0.154294855 Y0.638867551
N3965 X0.162716832 Y0.651607063
N3970 X0.177275271 Y0.678017759
N3975 X0.18968355 Y0.705548084
N3980 X0.197562571 Y0.727603792
N3985 X0.202903597 Y0.747460343
N3990 X0.206325542 Y0.76601066
N3995 X0.208164407 Y0.78396264
N4000 X0.208542103 Y0.801339187
N4005 X0.207551971 Y0.818213515
N4010 X0.205248716 Y0.83468242
N4015 X0.201661286 Y0.850778264
N4020 X0.198904586 Y0.859701352
N4025 X0.197694471 Y0.863216881
N4030 X0.196262833 Y0.866648306
N4035 X0.194615529 Y0.869981435
N4040 X0.193730039 Y0.87163805
N4045 X0.1898413 Y0.878328714
N4050 X0.188113948 Y0.880487172
N4055 X0.16632724 Y0.907034536
N4060 X0.163260933 Y0.910729085
N4065 X0.157574556 Y0.915883658
N4070 X0.136008272 Y0.9335819
N4075 X0.127820462 Y0.940190788
N4080 X0.124066383 Y0.942431022
N4085 X0.090958837 Y0.96012919
N4090 X0.087239357 Y0.961898218
N4095 X0.083519868 Y0.963128533
N4100 X0.048079392 Y0.97387877
N4105 X0.043649336 Y0.974948838
N4110 X0.039219274 Y0.975436263
N4115 X0.0037788 Y0.978926411
N4120 X-0.00065126 Y0.979165806
N4125 X-0.005081319 Y0.978798153
N4130 X-0.040521795 Y0.97530793
N4135 X-0.044951852 Y0.974711245
N4140 X-0.049381913 Y0.973483634
N4145 X-0.084822384 Y0.962733396
N4150 X-0.087890616 Y0.961637046
N4155 X-0.090958837 Y0.96012919
N4160 X-0.124066383 Y0.942431022
N4165 X-0.126594681 Y0.941020936
N4170 X-0.129122978 Y0.939230881
N4175 X-0.157574556 Y0.915883658
N4180 X-0.161069003 Y0.91293763
N4185 X-0.164563449 Y0.909183682
N4190 X-0.188113948 Y0.880487172
N4195 X-0.191143817 Y0.876389826
N4200 X-0.193730039 Y0.87163805
N4205 X-0.208864043 Y0.843324962
N4210 X-0.212275137 Y0.836241564
N4215 X-0.223038497 Y0.800845079
N4220 X-0.224360988 Y0.796420555
N4225 X-0.225162056 Y0.791996032
N4230 X-0.229076964 Y0.752174948
N4235 X-0.229075725 Y0.747750425
N4240 X-0.225590496 Y0.712353939
N4245 X-0.224338873 Y0.703504818
N4250 X-0.213620982 Y0.668108332
N4255 X-0.212251877 Y0.663683809
N4260 X-0.210245369 Y0.65925921
N4265 X-0.196055183 Y0.632711921
N4270 X-0.191143817 Y0.62362104
N4275 X-0.184421577 Y0.615013641
N4280 X-0.164563449 Y0.590816295
N4285 X-0.16253905 Y0.588466314
N4290 X-0.155703336 Y0.582580754
N4295 X-0.129122978 Y0.560770223
N4300 X-0.126907957 Y0.559187424
N4305 X-0.124692926 Y0.557903943
N4310 X-0.093682507 Y0.541326756
N4315 X-0.089252446 Y0.538986199
N4320 X-0.084822384 Y0.537266769
N4325 X-0.049381913 Y0.526516907
N4330 X-0.044951852 Y0.52528937
N4335 X-0.040521795 Y0.52469261
N4340 X-0.005081319 Y0.52120205
N4345 X-0.00065126 Y0.520834397
N4350 X0.0037788 Y0.521073754
N4355 X0.039219274 Y0.524564353
N4360 X0.043649336 Y0.52505174
N4365 X0.048079392 Y0.526121845
N4370 X0.083519868 Y0.53687167
N4375 X0.087949929 Y0.538389439
N4380 X0.092379991 Y0.540630461
N4385 X0.118960339 Y0.554839495
N4390 X0.127820462 Y0.559800779
N4395 X0.130525762 Y0.56191895
N4400 X0.15440082 Y0.58151185
N4405 X0.162517799 Y0.588466314
N4410 X0.163260933 Y0.58926312
N4415 X0.184421577 Y0.615013641
N4420 X0.1898413 Y0.62168861
N4425 X0.191288295 Y0.623862762
N4430 X0.200785239 Y0.641560968
N4435 X0.210245369 Y0.65925921
N4440 X0.212235432 Y0.663683809
N4445 X0.213620982 Y0.668108332
N4450 X0.224338873 Y0.703504818
N4455 X0.225281772 Y0.709219354
N4460 X0.229075725 Y0.747750425
N4465 X0.229076964 Y0.752174948
N4470 X0.225162056 Y0.791996032
N4475 X0.224360988 Y0.796420555
N4480 X0.212283191 Y0.836241564
N4485 X0.207920225 Y0.845090686
N4490 X0.194615529 Y0.869981435
N4495 G3 X0.168225671 Y0.881975429 I-0.021623195 J-0.01254735
N4500 G1 X0.164386559 Y0.881229761 Z-0.463692201
N4505 X0.160641976 Y0.880502454 Z-0.462776409
N4510 X0.157084129 Y0.879811416 Z-0.461275164
N4515 X0.153800622 Y0.879173664 Z-0.45922543
N4520 X0.150872307 Y0.8786049 Z-0.456677679
N4525 X0.148371289 Y0.87811913 Z-0.453694644
N4530 X0.14635915 Y0.877728315 Z-0.450349778
N4535 X0.144885438 Y0.877442078 Z-0.446725442
N4540 X0.143986439 Y0.877267469 Z-0.442910879
N4545 X0.14368429 Y0.877208785 Z-0.439000017
N4550 G0 Z0.599999991
(2D CONTOUR2)
N4555 G0 X0.175000007 Y0.725000036
N4560 Z0.599999991
N4565 Z0.199999997
N4570 G1 Z0.039370079 F17.
N4575 Z-0.459000032
N4580 G18 G2 X0.199999997 Z-0.484000003 I0.02499999 K0.000000038
N4585 G1 X0.225000006
N4590 G17 G3 X0.249999996 Y0.74999997 I0. J0.024999934
N4595 X-0.249999996 I-0.249999996 J0.
N4600 X0.249999996 I0.249999996 J0.
N4605 X0.225000006 Y0.774999979 I-0.02499999 J0.
N4610 G1 X0.199999997
N4615 G18 G3 X0.175000007 Z-0.459000032 I0. K0.025000009
N4620 G0 Z0.199999997
N4625 Y-0.774999979
N4630 G1 Z0.039370079 F17.
N4635 Z-0.459000032
N4640 G2 X0.199999997 Z-0.484000003 I0.02499999 K0.000000038
N4645 G1 X0.225000006
N4650 G17 G3 X0.249999996 Y-0.74999997 I0. J0.025000009
N4655 X-0.249999996 I-0.249999996 J0.
N4660 X0.249999996 I0.249999996 J0.
N4665 X0.225000006 Y-0.725000036 I-0.02499999 J0.
N4670 G1 X0.199999997
N4675 G18 G3 X0.175000007 Z-0.459000032 I0. K0.025000009
N4680 G0 Z0.599999991
N4685 G17
(BORE9)
N4690 G0 X-0.017 Y0.729500027
N4695 Z0.599999991
N4700 Z-0.404499985
N4705 G1 Z-0.459499997 F17.
N4710 G18 G2 X0.008 Z-0.484500006 I0.025 K0.
N4715 G1 X0.020499999
N4720 G17 G3 X0.040999998 Y0.74999997 I0. J0.020499943
N4725 X-0.040999999 Z-0.504185046 I-0.040999998 J0.
N4730 X0.041 Z-0.523870086 I0.040999999 J0.
N4735 X-0.041000001 Z-0.543555126 I-0.041 J0.
N4740 X0.041000002 Z-0.563240166 I0.041000001 J0.
N4745 X-0.041000003 Z-0.582925206 I-0.041000002 J0.
N4750 X0.041000004 Z-0.602610246 I0.041000003 J0.
N4755 X-0.041000005 Z-0.622295286 I-0.041000004 J0.
N4760 X0.041000006 Z-0.641980326 I0.041000005 J0.
N4765 X-0.041000007 Z-0.661665366 I-0.041000006 J0.
N4770 X0.041000008 Z-0.681350405 I0.041000007 J0.
N4775 X-0.041000009 Z-0.701035445 I-0.041000008 J0.
N4780 X0.04100001 Z-0.720720485 I0.041000009 J0.
N4785 X-0.041000011 Z-0.740405525 I-0.04100001 J0.
N4790 X0.041000012 Z-0.760090565 I0.041000011 J0.
N4795 X-0.041000013 Z-0.779775605 I-0.041000012 J0.
N4800 X0.041000014 Z-0.799460645 I0.041000013 J0.
N4805 X-0.041000015 Z-0.819145685 I-0.041000014 J0.
N4810 X0.041000016 Z-0.838830725 I0.041000015 J0.
N4815 X-0.041000017 Z-0.858515765 I-0.041000016 J0.
N4820 X0.041000018 Z-0.878200804 I0.041000017 J0.
N4825 X-0.041000019 Z-0.897885844 I-0.041000018 J0.
N4830 X0.04100002 Z-0.917570884 I0.041000019 J0.
N4835 X-0.041000021 Z-0.937255924 I-0.04100002 J0.
N4840 X0.041000022 Z-0.956940964 I0.041000021 J0.
N4845 X-0.041000023 Z-0.976626004 I-0.041000022 J0.
N4850 X0.041000024 Z-0.996311044 I0.041000023 J0.
N4855 X-0.041000025 Z-1.015996084 I-0.041000024 J0.
N4860 X0.041000026 Z-1.035681124 I0.041000025 J0.
N4865 X-0.041000027 Z-1.055366164 I-0.041000026 J0.
N4870 X0.041000028 Z-1.075051204 I0.041000027 J0.
N4875 X0.036542955 Y0.768590687 Z-1.078000031 I-0.041000028 J0.
N4880 X-0.036542955 Y0.731409253 I-0.036542955 J-0.018590717
N4885 X0.036542955 Y0.768590687 I0.036542955 J0.018590717
N4890 X0.008976151 Y0.77756679 I-0.018271478 J-0.009295396
N4895 G1 X-0.002164994 Y0.771898885
N4900 X-0.005650714 Y0.770125583 Z-1.077692237
N4905 X-0.009050604 Y0.768395946 Z-1.076776439
N4910 X-0.012280947 Y0.766752563 Z-1.075275187
N4915 X-0.0152622 Y0.7652359 Z-1.073225447
N4920 X-0.017920957 Y0.763883303 Z-1.07067769
N4925 X-0.020191749 Y0.762728076 Z-1.067694651
N4930 X-0.022018663 Y0.761798665 Z-1.064349781
N4935 X-0.023356713 Y0.761117957 Z-1.060725444
N4940 X-0.024172953 Y0.76070271 Z-1.056910882
N4945 X-0.024447284 Y0.760563152 Z-1.053000022
N4950 G0 Z0.199999997
N4955 X-0.017 Y-0.770499988
N4960 Z-0.403999982
N4965 G1 Z-0.458999994 F17.
N4970 G18 G2 X0.008 Z-0.484000003 I0.025 K0.
N4975 G1 X0.020499999
N4980 G17 G3 X0.040999998 Y-0.74999997 I0. J0.020500018
N4985 X-0.040999998 Z-0.503685043 I-0.040999998 J0.
N4990 X0.040999998 Z-0.523370083 I0.040999998 J0.
N4995 X-0.040999998 Z-0.543055123 I-0.040999998 J0.
N5000 X0.040999998 Z-0.562740163 I0.040999998 J0.
N5005 X-0.040999998 Z-0.582425203 I-0.040999998 J0.
N5010 X0.040999998 Z-0.602110243 I0.040999998 J0.
N5015 X-0.040999998 Z-0.621795283 I-0.040999998 J0.
N5020 X0.040999998 Z-0.641480323 I0.040999998 J0.
N5025 X-0.040999998 Z-0.661165363 I-0.040999998 J0.
N5030 X0.040999998 Z-0.680850403 I0.040999998 J0.
N5035 X-0.040999998 Z-0.700535443 I-0.040999998 J0.
N5040 X0.040999998 Z-0.720220484 I0.040999998 J0.
N5045 X-0.040999998 Z-0.739905524 I-0.040999998 J0.
N5050 X0.040999998 Z-0.759590564 I0.040999998 J0.
N5055 X-0.040999998 Z-0.779275604 I-0.040999998 J0.
N5060 X0.040999998 Z-0.798960644 I0.040999998 J0.
N5065 X-0.040999998 Z-0.818645684 I-0.040999998 J0.
N5070 X0.040999998 Z-0.838330724 I0.040999998 J0.
N5075 X-0.040999998 Z-0.858015764 I-0.040999998 J0.
N5080 X0.040999998 Z-0.877700804 I0.040999998 J0.
N5085 X-0.040999998 Z-0.897385844 I-0.040999998 J0.
N5090 X0.040999998 Z-0.917070884 I0.040999998 J0.
N5095 X-0.040999998 Z-0.936755924 I-0.040999998 J0.
N5100 X0.040999998 Z-0.956440964 I0.040999998 J0.
N5105 X-0.040999998 Z-0.976126004 I-0.040999998 J0.
N5110 X0.040999998 Z-0.995811044 I0.040999998 J0.
N5115 X-0.040999998 Z-1.015496084 I-0.040999998 J0.
N5120 X0.040999998 Z-1.035181124 I0.040999998 J0.
N5125 X-0.040999998 Z-1.054866164 I-0.040999998 J0.
N5130 X0.004550788 Y-0.790746628 Z-1.065405607 I0.040999998 J0.
N5135 X0.03998977 Y-0.740954632 Z-1.075945051 I-0.004550788 J0.040746658
N5140 X-0.03998977 Y-0.759045308 I-0.03998977 J-0.009045338
N5145 X0.03998977 Y-0.740954632 I0.03998977 J0.009045338
N5150 X0.015472214 Y-0.72548243 I-0.019994885 J-0.004522669
N5155 G1 X0.00328021 Y-0.728240201
N5160 X-0.000534292 Y-0.729103002 Z-1.075637257
N5165 X-0.004254867 Y-0.729944558 Z-1.074721459
N5170 X-0.007789903 Y-0.730744147 Z-1.073220207
N5175 X-0.011052355 Y-0.73148208 Z-1.071170466
N5180 X-0.013961892 Y-0.732140186 Z-1.06862271
N5185 X-0.01644687 Y-0.73270226 Z-1.06563967
N5190 X-0.018446103 Y-0.733154463 Z-1.062294801
N5195 X-0.019910361 Y-0.73348566 Z-1.058670464
N5200 X-0.02080359 Y-0.733687694 Z-1.054855902
N5205 X-0.021103797 Y-0.733755592 Z-1.050945042
N5210 G0 Z0.599999991
N5215 G53 Z0.
N5220 M30
%
