%
(AIRAGORN HABITAT)
(T1  D=0.25 CR=0. - ZMIN=-0.9449 - FLAT END MILL)
N10 G90 G94 G17 G91.1
N15 G20
N20 G53 G0 Z0.
(ADAPTIVE1)
N25 T1 M6
N30 S3000 M3
N35 G54
N40 M8
N45 G0 X0.1125 Y0.038
N50 G43 Z0.6 H1
N55 G0 Z0.2
N60 Z0.1
N65 G3 X-0.1125 Y-0.038 Z0.087 I-0.1125 J-0.038 F15.
N70 X0.1125 Y0.038 Z0.0739 I0.1125 J0.038
N75 X-0.1125 Y-0.038 Z0.0609 I-0.1125 J-0.038
N80 X0.1125 Y0.038 Z0.0479 I0.1125 J0.038
N85 X-0.1125 Y-0.038 Z0.0349 I-0.1125 J-0.038
N90 X0.1125 Y0.038 Z0.0218 I0.1125 J0.038
N95 X-0.1125 Y-0.038 Z0.0088 I-0.1125 J-0.038
N100 X0.1125 Y0.038 Z-0.0042 I0.1125 J0.038
N105 X-0.1125 Y-0.038 Z-0.0172 I-0.1125 J-0.038
N110 X0.1125 Y0.038 Z-0.0303 I0.1125 J0.038
N115 X-0.1125 Y-0.038 Z-0.0433 I-0.1125 J-0.038
N120 X0.1125 Y0.038 Z-0.0563 I0.1125 J0.038
N125 X-0.1125 Y-0.038 Z-0.0694 I-0.1125 J-0.038
N130 X0.1125 Y0.038 Z-0.0824 I0.1125 J0.038
N135 X-0.1125 Y-0.038 Z-0.0954 I-0.1125 J-0.038
N140 X0.1125 Y0.038 Z-0.1084 I0.1125 J0.038
N145 X-0.1125 Y-0.038 Z-0.1215 I-0.1125 J-0.038
N150 X0.1125 Y0.038 Z-0.1345 I0.1125 J0.038
N155 X-0.1125 Y-0.038 Z-0.1475 I-0.1125 J-0.038
N160 X0.1125 Y0.038 Z-0.1606 I0.1125 J0.038
N165 X-0.1125 Y-0.038 Z-0.1736 I-0.1125 J-0.038
N170 X0.1125 Y0.038 Z-0.1866 I0.1125 J0.038
N175 X-0.1125 Y-0.038 Z-0.1996 I-0.1125 J-0.038
N180 X0.1125 Y0.038 Z-0.2127 I0.1125 J0.038
N185 X-0.1125 Y-0.038 Z-0.2257 I-0.1125 J-0.038
N190 X0.1125 Y0.038 Z-0.2387 I0.1125 J0.038
N195 X-0.1125 Y-0.038 Z-0.2517 I-0.1125 J-0.038
N200 X0.1125 Y0.038 Z-0.2648 I0.1125 J0.038
N205 X-0.1125 Y-0.038 Z-0.2778 I-0.1125 J-0.038
N210 X0.1125 Y0.038 Z-0.2908 I0.1125 J0.038
N215 X-0.1125 Y-0.038 Z-0.3039 I-0.1125 J-0.038
N220 X0.1125 Y0.038 Z-0.3169 I0.1125 J0.038
N225 X-0.1125 Y-0.038 Z-0.3299 I-0.1125 J-0.038
N230 X0.1125 Y0.038 Z-0.3429 I0.1125 J0.038
N235 X-0.1125 Y-0.038 Z-0.356 I-0.1125 J-0.038
N240 X0.1125 Y0.038 Z-0.369 I0.1125 J0.038
N245 X-0.1125 Y-0.038 Z-0.382 I-0.1125 J-0.038
N250 X0.1187 Y0. Z-0.3937 I0.1125 J0.038
N255 X-0.1187 I-0.1187 J0.
N260 X0.1187 I0.1187 J0.
N265 G1 X0.1189 Y0.0097
N270 X0.126 Y0.0481
N275 X0.1278 Y0.0538
N280 X0.1289 Y0.0597
N285 X0.1295 Y0.0657
N290 Y0.0717
N295 X0.129 Y0.0782
N300 X0.1279 Y0.0851
N305 X0.1262 Y0.0924
N310 X0.1237 Y0.0999
N315 X0.1205 Y0.1076
N320 X0.1165 Y0.1154
N325 X0.1116 Y0.1233
N330 X0.1058 Y0.131
N335 X0.0992 Y0.1386
N340 X0.0917 Y0.146
N345 X0.0833 Y0.1529
N350 X0.0741 Y0.1594
N355 X0.064 Y0.1653
N360 X0.0533 Y0.1705
N365 X0.0419 Y0.1749
N370 X0.0298 Y0.1785
N375 X0.0173 Y0.1812
N380 X0.0043 Y0.1829
N385 X-0.009 Y0.1836
N390 X-0.0225 Y0.1832
N395 X-0.0362 Y0.1816
N400 X-0.0498 Y0.179
N405 X-0.0633 Y0.1752
N410 X-0.0767 Y0.1703
N415 X-0.0897 Y0.1643
N420 X-0.1022 Y0.1572
N425 X-0.1143 Y0.1491
N430 X-0.1257 Y0.14
N435 X-0.1364 Y0.1299
N440 X-0.1464 Y0.119
N445 X-0.1554 Y0.1072
N450 X-0.1635 Y0.0948
N455 X-0.1706 Y0.0816
N460 X-0.1767 Y0.0679
N465 X-0.1816 Y0.0537
N470 X-0.1854 Y0.0392
N475 X-0.188 Y0.0243
N480 X-0.1894 Y0.0093
N485 X-0.1896 Y-0.0058
N490 X-0.1886 Y-0.0209
N495 X-0.1864 Y-0.0359
N500 X-0.183 Y-0.0507
N505 X-0.1784 Y-0.0652
N510 X-0.1726 Y-0.0792
N515 X-0.1657 Y-0.0928
N520 X-0.1578 Y-0.1058
N525 X-0.1488 Y-0.1181
N530 X-0.1389 Y-0.1297
N535 X-0.1281 Y-0.1404
N540 X-0.1164 Y-0.1502
N545 X-0.104 Y-0.1591
N550 X-0.091 Y-0.1669
N555 X-0.0773 Y-0.1737
N560 X-0.0631 Y-0.1793
N565 X-0.0485 Y-0.1838
N570 X-0.0336 Y-0.1871
N575 X-0.0185 Y-0.1892
N580 X-0.0033 Y-0.1901
N585 X0.012 Y-0.1898
N590 X0.0272 Y-0.1882
N595 X0.0422 Y-0.1854
N600 X0.0569 Y-0.1814
N605 X0.0713 Y-0.1763
N610 X0.0852 Y-0.17
N615 X0.0986 Y-0.1626
N620 X0.1113 Y-0.1542
N625 X0.1233 Y-0.1447
N630 X0.1345 Y-0.1344
N635 X0.1449 Y-0.1232
N640 X0.1543 Y-0.1111
N645 X0.1627 Y-0.0984
N650 X0.1773 Y-0.072
N655 X0.1897 Y-0.0445
N660 X0.1976 Y-0.0224
N665 X0.2029 Y-0.0025
N670 X0.2063 Y0.016
N675 X0.2082 Y0.034
N680 X0.2085 Y0.0513
N685 X0.2075 Y0.0682
N690 X0.2052 Y0.0847
N695 X0.2017 Y0.1008
N700 X0.1968 Y0.1165
N705 X0.1907 Y0.1318
N710 X0.1833 Y0.1466
N715 X0.1748 Y0.1609
N720 X0.165 Y0.1746
N725 X0.154 Y0.1875
N730 X0.1419 Y0.1997
N735 X0.1288 Y0.211
N740 X0.1145 Y0.2214
N745 X0.0993 Y0.2307
N750 X0.0831 Y0.2388
N755 X0.0661 Y0.2458
N760 X0.0484 Y0.2514
N765 X0.03 Y0.2556
N770 X0.0111 Y0.2584
N775 X-0.0081 Y0.2597
N780 X-0.0276 Y0.2594
N785 X-0.0472 Y0.2576
N790 X-0.0668 Y0.2541
N795 X-0.0861 Y0.249
N800 X-0.1052 Y0.2424
N805 X-0.1237 Y0.2342
N810 X-0.1417 Y0.2245
N815 X-0.159 Y0.2133
N820 X-0.1753 Y0.2006
N825 X-0.1907 Y0.1867
N830 X-0.205 Y0.1714
N835 X-0.218 Y0.155
N840 X-0.2298 Y0.1376
N845 X-0.2401 Y0.1192
N850 X-0.249 Y0.0999
N855 X-0.2563 Y0.08
N860 X-0.262 Y0.0595
N865 X-0.266 Y0.0385
N870 X-0.2684 Y0.0173
N875 X-0.269 Y-0.0041
N880 X-0.268 Y-0.0255
N885 X-0.2652 Y-0.0468
N890 X-0.2607 Y-0.0678
N895 X-0.2545 Y-0.0885
N900 X-0.2466 Y-0.1085
N905 X-0.2372 Y-0.1279
N910 X-0.2263 Y-0.1465
N915 X-0.2139 Y-0.1642
N920 X-0.2001 Y-0.1808
N925 X-0.185 Y-0.1962
N930 X-0.1687 Y-0.2104
N935 X-0.1513 Y-0.2233
N940 X-0.1329 Y-0.2347
N945 X-0.1137 Y-0.2446
N950 X-0.0937 Y-0.253
N955 X-0.0731 Y-0.2597
N960 X-0.0521 Y-0.2647
N965 X-0.0307 Y-0.2681
N970 X-0.0091 Y-0.2697
N975 X0.0126 Y-0.2695
N980 X0.0342 Y-0.2677
N985 X0.0555 Y-0.2641
N990 X0.0765 Y-0.2588
N995 X0.097 Y-0.2518
N1000 X0.1169 Y-0.2432
N1005 X0.1361 Y-0.233
N1010 X0.1543 Y-0.2214
N1015 X0.1716 Y-0.2083
N1020 X0.1899 Y-0.1919
N1025 X0.2082 Y-0.1727
N1030 X0.2254 Y-0.1515
N1035 X0.2411 Y-0.1285
N1040 X0.2549 Y-0.1045
N1045 X0.2664 Y-0.0801
N1050 X0.2757 Y-0.0554
N1055 X0.2828 Y-0.0306
N1060 X0.2877 Y-0.0059
N1065 X0.2907 Y0.0187
N1070 X0.2916 Y0.0431
N1075 X0.2906 Y0.0672
N1080 X0.2877 Y0.091
N1085 X0.2829 Y0.1143
N1090 X0.2762 Y0.1371
N1095 X0.2678 Y0.1592
N1100 X0.2576 Y0.1806
N1105 X0.2458 Y0.2012
N1110 X0.2322 Y0.2208
N1115 X0.2171 Y0.2393
N1120 X0.2004 Y0.2567
N1125 X0.1823 Y0.2728
N1130 X0.1627 Y0.2874
N1135 X0.1419 Y0.3006
N1140 X0.1199 Y0.3122
N1145 X0.0969 Y0.322
N1150 X0.0729 Y0.3301
N1155 X0.0482 Y0.3362
N1160 X0.0229 Y0.3404
N1165 X-0.0029 Y0.3425
N1170 X-0.0289
N1175 X-0.0551 Y0.3405
N1180 X-0.0811 Y0.3363
N1185 X-0.107 Y0.33
N1190 X-0.1323 Y0.3216
N1195 X-0.1571 Y0.3112
N1200 X-0.1811 Y0.2987
N1205 X-0.2041 Y0.2843
N1210 X-0.226 Y0.268
N1215 X-0.2465 Y0.2499
N1220 X-0.2657 Y0.2301
N1225 X-0.2833 Y0.2088
N1230 X-0.2991 Y0.1861
N1235 X-0.3131 Y0.162
N1240 X-0.3252 Y0.1369
N1245 X-0.3353 Y0.1108
N1250 X-0.3432 Y0.084
N1255 X-0.349 Y0.0565
N1260 X-0.3525 Y0.0286
N1265 X-0.3538 Y0.0004
N1270 X-0.3529 Y-0.0278
N1275 X-0.3497 Y-0.0558
N1280 X-0.3442 Y-0.0836
N1285 X-0.3365 Y-0.1108
N1290 X-0.3266 Y-0.1374
N1295 X-0.3147 Y-0.1631
N1300 X-0.3007 Y-0.1877
N1305 X-0.2847 Y-0.2112
N1310 X-0.267 Y-0.2334
N1315 X-0.2474 Y-0.254
N1320 X-0.2263 Y-0.2731
N1325 X-0.2037 Y-0.2903
N1330 X-0.1798 Y-0.3057
N1335 X-0.1548 Y-0.3192
N1340 X-0.1287 Y-0.3306
N1345 X-0.1018 Y-0.3399
N1350 X-0.0742 Y-0.3469
N1355 X-0.0461 Y-0.3518
N1360 X-0.0178 Y-0.3544
N1365 X0.0107 Y-0.3547
N1370 X0.0391 Y-0.3527
N1375 X0.0673 Y-0.3484
N1380 X0.095 Y-0.3419
N1385 X0.1221 Y-0.3332
N1390 X0.1485 Y-0.3223
N1395 X0.1745 Y-0.309
N1400 X0.2002 Y-0.2932
N1405 X0.2254 Y-0.2748
N1410 X0.2496 Y-0.2538
N1415 X0.2725 Y-0.2305
N1420 X0.2937 Y-0.2052
N1425 X0.3129 Y-0.1782
N1430 X0.3298 Y-0.1498
N1435 X0.3443 Y-0.1204
N1440 X0.3562 Y-0.0901
N1445 X0.3656 Y-0.0592
N1450 X0.3725 Y-0.0279
N1455 X0.3767 Y0.0036
N1460 X0.3785 Y0.0351
N1465 X0.3777 Y0.0664
N1470 X0.3744 Y0.0973
N1475 X0.3686 Y0.1278
N1480 X0.3605 Y0.1577
N1485 X0.3499 Y0.1867
N1490 X0.3371 Y0.2148
N1495 X0.3221 Y0.2419
N1500 X0.3049 Y0.2676
N1505 X0.2857 Y0.292
N1510 X0.2644 Y0.3149
N1515 X0.2413 Y0.336
N1520 X0.2165 Y0.3554
N1525 X0.19 Y0.3728
N1530 X0.162 Y0.3881
N1535 X0.1328 Y0.4011
N1540 X0.1024 Y0.4119
N1545 X0.071 Y0.4202
N1550 X0.0389 Y0.426
N1555 X0.0063 Y0.4293
N1560 X-0.0267 Y0.4299
N1565 X-0.0599 Y0.4278
N1570 X-0.0929 Y0.4231
N1575 X-0.1256 Y0.4157
N1580 X-0.1577 Y0.4057
N1585 X-0.1891 Y0.393
N1590 X-0.2196 Y0.3778
N1595 X-0.2488 Y0.3602
N1600 X-0.2766 Y0.3401
N1605 X-0.3028 Y0.3178
N1610 X-0.3272 Y0.2934
N1615 X-0.3497 Y0.2671
N1620 X-0.37 Y0.2389
N1625 X-0.388 Y0.2092
N1630 X-0.4037 Y0.178
N1635 X-0.4168 Y0.1455
N1640 X-0.4273 Y0.1121
N1645 X-0.4351 Y0.0778
N1650 X-0.4401 Y0.043
N1655 X-0.4423 Y0.0079
N1660 X-0.4417 Y-0.0274
N1665 X-0.4382 Y-0.0626
N1670 X-0.432 Y-0.0974
N1675 X-0.4229 Y-0.1316
N1680 X-0.4112 Y-0.165
N1685 X-0.3967 Y-0.1974
N1690 X-0.3797 Y-0.2285
N1695 X-0.3603 Y-0.2582
N1700 X-0.3385 Y-0.2862
N1705 X-0.3145 Y-0.3125
N1710 X-0.2885 Y-0.3367
N1715 X-0.2607 Y-0.3587
N1720 X-0.2311 Y-0.3785
N1725 X-0.2 Y-0.3958
N1730 X-0.1677 Y-0.4106
N1735 X-0.1342 Y-0.4228
N1740 X-0.0999 Y-0.4322
N1745 X-0.0649 Y-0.4388
N1750 X-0.0295 Y-0.4426
N1755 X0.0061 Y-0.4436
N1760 X0.0416 Y-0.4417
N1765 X0.0769 Y-0.4369
N1770 X0.1119 Y-0.4293
N1775 X0.1463 Y-0.4189
N1780 X0.1802 Y-0.4055
N1785 X0.2134 Y-0.3893
N1790 X0.2457 Y-0.3701
N1795 X0.2769 Y-0.348
N1800 X0.3068 Y-0.3231
N1805 X0.3346 Y-0.2957
N1810 X0.3601 Y-0.2663
N1815 X0.3833 Y-0.2349
N1820 X0.4039 Y-0.2018
N1825 X0.4218 Y-0.1672
N1830 X0.437 Y-0.1313
N1835 X0.4493 Y-0.0943
N1840 X0.4586 Y-0.0564
N1845 X0.4648 Y-0.0179
N1850 X0.4679 Y0.0207
N1855 Y0.0593
N1860 X0.4648 Y0.0977
N1865 X0.4587 Y0.1355
N1870 X0.4496 Y0.1727
N1875 X0.4375 Y0.209
N1880 X0.4225 Y0.2441
N1885 X0.4048 Y0.278
N1890 X0.3844 Y0.3104
N1895 X0.3614 Y0.3411
N1900 X0.336 Y0.3699
N1905 X0.3082 Y0.3967
N1910 X0.2782 Y0.4213
N1915 X0.2463 Y0.4435
N1920 X0.2126 Y0.463
N1925 X0.1774 Y0.4799
N1930 X0.141 Y0.4938
N1935 X0.1036 Y0.5049
N1940 X0.0655 Y0.5129
N1945 X0.0268 Y0.518
N1950 X-0.0122 Y0.52
N1955 X-0.0511 Y0.5189
N1960 X-0.0899 Y0.5149
N1965 X-0.1283 Y0.5079
N1970 X-0.166 Y0.4979
N1975 X-0.2028 Y0.4851
N1980 X-0.2386 Y0.4696
N1985 X-0.273 Y0.4514
N1990 X-0.3061 Y0.4306
N1995 X-0.3374 Y0.4074
N2000 X-0.3669 Y0.3819
N2005 X-0.3944 Y0.3543
N2010 X-0.4197 Y0.3246
N2015 X-0.4427 Y0.2931
N2020 X-0.4633 Y0.26
N2025 X-0.4814 Y0.2255
N2030 X-0.4969 Y0.1897
N2035 X-0.5097 Y0.1529
N2040 X-0.5198 Y0.1152
N2045 X-0.527 Y0.0769
N2050 X-0.5315 Y0.0382
N2055 X-0.5331 Y-0.0008
N2060 X-0.5318 Y-0.0397
N2065 X-0.5277 Y-0.0785
N2070 X-0.5206 Y-0.1169
N2075 X-0.5108 Y-0.1546
N2080 X-0.4981 Y-0.1915
N2085 X-0.4829 Y-0.2274
N2090 X-0.465 Y-0.262
N2095 X-0.4447 Y-0.2953
N2100 X-0.422 Y-0.327
N2105 X-0.3971 Y-0.357
N2110 X-0.3701 Y-0.3851
N2115 X-0.3411 Y-0.4111
N2120 X-0.3102 Y-0.435
N2125 X-0.2777 Y-0.4565
N2130 X-0.2436 Y-0.4755
N2135 X-0.2083 Y-0.492
N2140 X-0.1719 Y-0.5058
N2145 X-0.1345 Y-0.517
N2150 X-0.0964 Y-0.5254
N2155 X-0.0579 Y-0.5311
N2160 X-0.019 Y-0.5339
N2165 X0.02 Y-0.534
N2170 X0.0589 Y-0.5312
N2175 X0.0975 Y-0.5255
N2180 X0.1355 Y-0.517
N2185 X0.1729 Y-0.5058
N2190 X0.2093 Y-0.4919
N2195 X0.2447 Y-0.4754
N2200 X0.2788 Y-0.4566
N2205 X0.3116 Y-0.4355
N2210 X0.3428 Y-0.4122
N2215 X0.3724 Y-0.3867
N2220 X0.4001 Y-0.3593
N2225 X0.4259 Y-0.3301
N2230 X0.4497 Y-0.2992
N2235 X0.4715 Y-0.2669
N2240 X0.4911 Y-0.2332
N2245 X0.5083 Y-0.1982
N2250 X0.5231 Y-0.1621
N2255 X0.5355 Y-0.1251
N2260 X0.5453 Y-0.0874
N2265 X0.5527 Y-0.0491
N2270 X0.5574 Y-0.0104
N2275 X0.5596 Y0.0285
N2280 X0.559 Y0.0675
N2285 X0.5557 Y0.1064
N2290 X0.5498 Y0.1449
N2295 X0.5413 Y0.1829
N2300 X0.5302 Y0.2203
N2305 X0.5167 Y0.2569
N2310 X0.5006 Y0.2924
N2315 X0.4821 Y0.3267
N2320 X0.4612 Y0.3597
N2325 X0.4382 Y0.3911
N2330 X0.413 Y0.4209
N2335 X0.386 Y0.449
N2340 X0.3571 Y0.4752
N2345 X0.3264 Y0.4993
N2350 X0.2942 Y0.5212
N2355 X0.2605 Y0.5409
N2360 X0.2257 Y0.5583
N2365 X0.1897 Y0.5734
N2370 X0.1528 Y0.586
N2375 X0.1152 Y0.5962
N2380 X0.0769 Y0.6038
N2385 X0.0382 Y0.6088
N2390 X-0.0007 Y0.6112
N2395 X-0.0397 Y0.6111
N2400 X-0.0786 Y0.6085
N2405 X-0.1172 Y0.6034
N2410 X-0.1554 Y0.5957
N2415 X-0.1931 Y0.5855
N2420 X-0.23 Y0.5729
N2425 X-0.266 Y0.5579
N2430 X-0.301 Y0.5407
N2435 X-0.3348 Y0.5213
N2440 X-0.3673 Y0.4998
N2445 X-0.3983 Y0.4762
N2450 X-0.4278 Y0.4506
N2455 X-0.4555 Y0.4232
N2460 X-0.4814 Y0.3941
N2465 X-0.5055 Y0.3634
N2470 X-0.5275 Y0.3313
N2475 X-0.5475 Y0.2978
N2480 X-0.5653 Y0.2631
N2485 X-0.5808 Y0.2273
N2490 X-0.5941 Y0.1906
N2495 X-0.605 Y0.1532
N2500 X-0.6137 Y0.1152
N2505 X-0.62 Y0.0767
N2510 X-0.6238 Y0.0379
N2515 X-0.6251 Y-0.0011
N2520 X-0.6239 Y-0.04
N2525 X-0.6203 Y-0.0789
N2530 X-0.6142 Y-0.1174
N2535 X-0.6059 Y-0.1555
N2540 X-0.5951 Y-0.1929
N2545 X-0.582 Y-0.2297
N2550 X-0.5666 Y-0.2655
N2555 X-0.549 Y-0.3002
N2560 X-0.5292 Y-0.3339
N2565 X-0.5075 Y-0.3662
N2570 X-0.4838 Y-0.3972
N2575 X-0.4582 Y-0.4266
N2580 X-0.4308 Y-0.4544
N2585 X-0.4017 Y-0.4803
N2590 X-0.371 Y-0.5044
N2595 X-0.3389 Y-0.5265
N2600 X-0.3055 Y-0.5466
N2605 X-0.2709 Y-0.5646
N2610 X-0.2353 Y-0.5804
N2615 X-0.1987 Y-0.5939
N2620 X-0.1613 Y-0.6051
N2625 X-0.1234 Y-0.6139
N2630 X-0.0849 Y-0.6204
N2635 X-0.0461 Y-0.6246
N2640 X-0.0072 Y-0.6263
N2645 X0.0318 Y-0.6257
N2650 X0.0706 Y-0.6225
N2655 X0.1092 Y-0.6168
N2660 X0.1474 Y-0.6088
N2665 X0.185 Y-0.5985
N2670 X0.2219 Y-0.586
N2675 X0.258 Y-0.5712
N2680 X0.2931 Y-0.5543
N2685 X0.3272 Y-0.5353
N2690 X0.36 Y-0.5142
N2695 X0.3915 Y-0.4913
N2700 X0.4216 Y-0.4665
N2705 X0.4503 Y-0.44
N2710 X0.4773 Y-0.412
N2715 X0.5027 Y-0.3824
N2720 X0.5263 Y-0.3514
N2725 X0.5481 Y-0.319
N2730 X0.5679 Y-0.2854
N2735 X0.5858 Y-0.2508
N2740 X0.6016 Y-0.2152
N2745 X0.6154 Y-0.1787
N2750 X0.6271 Y-0.1415
N2755 X0.6366 Y-0.1037
N2760 X0.6438 Y-0.0654
N2765 X0.6488 Y-0.0267
N2770 X0.6515 Y0.0122
N2775 X0.652 Y0.0512
N2780 X0.6501 Y0.0901
N2785 X0.6461 Y0.1289
N2790 X0.6397 Y0.1674
N2795 X0.631 Y0.2054
N2800 X0.6201 Y0.2428
N2805 X0.607 Y0.2796
N2810 X0.5918 Y0.3155
N2815 X0.5746 Y0.3504
N2820 X0.5553 Y0.3843
N2825 X0.534 Y0.417
N2830 X0.5108 Y0.4483
N2835 X0.4858 Y0.4782
N2840 X0.4591 Y0.5067
N2845 X0.4308 Y0.5335
N2850 X0.401 Y0.5586
N2855 X0.3697 Y0.582
N2860 X0.3372 Y0.6034
N2865 X0.3034 Y0.6229
N2870 X0.2686 Y0.6404
N2875 X0.2328 Y0.6559
N2880 X0.1962 Y0.6693
N2885 X0.1588 Y0.6806
N2890 X0.1209 Y0.6897
N2895 X0.0826 Y0.6966
N2900 X0.0439 Y0.7013
N2905 X0.0049 Y0.7037
N2910 X-0.034 Y0.7039
N2915 X-0.073 Y0.702
N2920 X-0.1118 Y0.6978
N2925 X-0.1502 Y0.6915
N2930 X-0.1883 Y0.6831
N2935 X-0.2258 Y0.6725
N2940 X-0.2627 Y0.6597
N2945 X-0.2987 Y0.6449
N2950 X-0.3339 Y0.6281
N2955 X-0.3682 Y0.6095
N2960 X-0.4013 Y0.5889
N2965 X-0.4332 Y0.5666
N2970 X-0.4639 Y0.5424
N2975 X-0.4931 Y0.5166
N2980 X-0.5208 Y0.4892
N2985 X-0.547 Y0.4603
N2990 X-0.5715 Y0.43
N2995 X-0.5944 Y0.3984
N3000 X-0.6155 Y0.3656
N3005 X-0.6347 Y0.3317
N3010 X-0.6521 Y0.2968
N3015 X-0.6675 Y0.261
N3020 X-0.6808 Y0.2243
N3025 X-0.6922 Y0.187
N3030 X-0.7015 Y0.1492
N3035 X-0.7088 Y0.1109
N3040 X-0.714 Y0.0722
N3045 X-0.7171 Y0.0334
N3050 X-0.718 Y-0.0056
N3055 X-0.7167 Y-0.0446
N3060 X-0.7133 Y-0.0834
N3065 X-0.7078 Y-0.122
N3070 X-0.7002 Y-0.1603
N3075 X-0.6906 Y-0.1981
N3080 X-0.679 Y-0.2353
N3085 X-0.6653 Y-0.2718
N3090 X-0.6496 Y-0.3075
N3095 X-0.632 Y-0.3423
N3100 X-0.6125 Y-0.376
N3105 X-0.5913 Y-0.4087
N3110 X-0.5683 Y-0.4402
N3115 X-0.5437 Y-0.4705
N3120 X-0.5174 Y-0.4993
N3125 X-0.4897 Y-0.5267
N3130 X-0.4604 Y-0.5524
N3135 X-0.4298 Y-0.5766
N3140 X-0.3979 Y-0.599
N3145 X-0.3648 Y-0.6197
N3150 X-0.3307 Y-0.6386
N3155 X-0.2957 Y-0.6556
N3160 X-0.2597 Y-0.6707
N3165 X-0.223 Y-0.6838
N3170 X-0.1856 Y-0.6949
N3175 X-0.1477 Y-0.7039
N3180 X-0.1093 Y-0.7108
N3185 X-0.0706 Y-0.7158
N3190 X-0.0317 Y-0.7186
N3195 X0.0073 Y-0.7193
N3200 X0.0462 Y-0.718
N3205 X0.0851 Y-0.7144
N3210 X0.1236 Y-0.7087
N3215 X0.1618 Y-0.701
N3220 X0.1996 Y-0.6912
N3225 X0.2368 Y-0.6795
N3230 X0.2733 Y-0.6658
N3235 X0.3091 Y-0.6503
N3240 X0.3439 Y-0.6329
N3245 X0.3778 Y-0.6136
N3250 X0.4106 Y-0.5925
N3255 X0.4423 Y-0.5698
N3260 X0.4728 Y-0.5455
N3265 X0.502 Y-0.5196
N3270 X0.5299 Y-0.4923
N3275 X0.5563 Y-0.4637
N3280 X0.5812 Y-0.4337
N3285 X0.6046 Y-0.4025
N3290 X0.6263 Y-0.3701
N3295 X0.6463 Y-0.3366
N3300 X0.6646 Y-0.3022
N3305 X0.6811 Y-0.2669
N3310 X0.6959 Y-0.2308
N3315 X0.7088 Y-0.194
N3320 X0.7199 Y-0.1566
N3325 X0.7289 Y-0.1187
N3330 X0.736 Y-0.0804
N3335 X0.7411 Y-0.0417
N3340 X0.7442 Y-0.0028
N3345 X0.7454 Y0.0361
N3350 X0.7445 Y0.0751
N3355 X0.7417 Y0.114
N3360 X0.7369 Y0.1527
N3365 X0.7301 Y0.1911
N3370 X0.7213 Y0.2291
N3375 X0.7105 Y0.2665
N3380 X0.6978 Y0.3034
N3385 X0.6832 Y0.3396
N3390 X0.6668 Y0.3749
N3395 X0.6486 Y0.4094
N3400 X0.6287 Y0.4429
N3405 X0.6071 Y0.4754
N3410 X0.5837 Y0.5066
N3415 X0.5588 Y0.5366
N3420 X0.5323 Y0.5652
N3425 X0.5045 Y0.5925
N3430 X0.4753 Y0.6184
N3435 X0.4448 Y0.6427
N3440 X0.4131 Y0.6654
N3445 X0.3803 Y0.6865
N3450 X0.3465 Y0.7058
N3455 X0.3117 Y0.7234
N3460 X0.276 Y0.7391
N3465 X0.2396 Y0.7531
N3470 X0.2025 Y0.7652
N3475 X0.1649 Y0.7755
N3480 X0.1268 Y0.7838
N3485 X0.0884 Y0.7902
N3490 X0.0496 Y0.7946
N3495 X0.0107 Y0.7971
N3500 X-0.0283 Y0.7976
N3505 X-0.0672 Y0.7961
N3510 X-0.1061 Y0.7927
N3515 X-0.1447 Y0.7875
N3520 X-0.1831 Y0.7803
N3525 X-0.221 Y0.7713
N3530 X-0.2584 Y0.7603
N3535 X-0.2952 Y0.7475
N3540 X-0.3313 Y0.7328
N3545 X-0.3667 Y0.7164
N3550 X-0.4012 Y0.6983
N3555 X-0.4349 Y0.6785
N3560 X-0.4675 Y0.6571
N3565 X-0.499 Y0.6342
N3570 X-0.5293 Y0.6097
N3575 X-0.5584 Y0.5837
N3580 X-0.5862 Y0.5564
N3585 X-0.6125 Y0.5276
N3590 X-0.6375 Y0.4977
N3595 X-0.661 Y0.4665
N3600 X-0.6829 Y0.4343
N3605 X-0.7033 Y0.4011
N3610 X-0.7221 Y0.3669
N3615 X-0.7391 Y0.3318
N3620 X-0.7544 Y0.296
N3625 X-0.7679 Y0.2594
N3630 X-0.7796 Y0.2222
N3635 X-0.7896 Y0.1845
N3640 X-0.7977 Y0.1464
N3645 X-0.804 Y0.1079
N3650 X-0.8085 Y0.0692
N3655 X-0.8111 Y0.0303
N3660 X-0.8117 Y-0.0087
N3665 X-0.8104 Y-0.0477
N3670 X-0.8073 Y-0.0866
N3675 X-0.8022 Y-0.1252
N3680 X-0.7954 Y-0.1636
N3685 X-0.7867 Y-0.2016
N3690 X-0.7762 Y-0.2392
N3695 X-0.764 Y-0.2762
N3700 X-0.7499 Y-0.3126
N3705 X-0.7341 Y-0.3482
N3710 X-0.7165 Y-0.383
N3715 X-0.6973 Y-0.417
N3720 X-0.6765 Y-0.4499
N3725 X-0.6542 Y-0.4819
N3730 X-0.6304 Y-0.5128
N3735 X-0.6052 Y-0.5425
N3740 X-0.5785 Y-0.571
N3745 X-0.5505 Y-0.5981
N3750 X-0.5212 Y-0.6238
N3755 X-0.4907 Y-0.6481
N3760 X-0.459 Y-0.6708
N3765 X-0.4263 Y-0.6921
N3770 X-0.3927 Y-0.7117
N3775 X-0.3581 Y-0.7298
N3780 X-0.3227 Y-0.7462
N3785 X-0.2866 Y-0.7609
N3790 X-0.2498 Y-0.7737
N3795 X-0.2124 Y-0.7848
N3800 X-0.1745 Y-0.794
N3805 X-0.1363 Y-0.8015
N3810 X-0.0977 Y-0.8071
N3815 X-0.0589 Y-0.8109
N3820 X-0.0199 Y-0.8128
N3825 X0.0191 Y-0.813
N3830 X0.058 Y-0.8112
N3835 X0.0968 Y-0.8074
N3840 X0.1354 Y-0.8019
N3845 X0.1737 Y-0.7944
N3850 X0.2116 Y-0.7852
N3855 X0.249 Y-0.7743
N3860 X0.2859 Y-0.7616
N3865 X0.3221 Y-0.7472
N3870 X0.3577 Y-0.7312
N3875 X0.3924 Y-0.7135
N3880 X0.4262 Y-0.6941
N3885 X0.4591 Y-0.6731
N3890 X0.491 Y-0.6507
N3895 X0.5218 Y-0.6268
N3900 X0.5516 Y-0.6016
N3905 X0.5801 Y-0.5751
N3910 X0.6075 Y-0.5473
N3915 X0.6335 Y-0.5183
N3920 X0.6582 Y-0.4881
N3925 X0.6814 Y-0.4568
N3930 X0.7032 Y-0.4244
N3935 X0.7235 Y-0.3911
N3940 X0.7423 Y-0.3569
N3945 X0.7595 Y-0.322
N3950 X0.7751 Y-0.2862
N3955 X0.7892 Y-0.2499
N3960 X0.8016 Y-0.2129
N3965 X0.8122 Y-0.1754
N3970 X0.8211 Y-0.1374
N3975 X0.8283 Y-0.0991
N3980 X0.8336 Y-0.0605
N3985 X0.8373 Y-0.0217
N3990 X0.8391 Y0.0173
N3995 X0.8393 Y0.0563
N4000 X0.8376 Y0.0952
N4005 X0.8342 Y0.1341
N4010 X0.829 Y0.1727
N4015 X0.822 Y0.2111
N4020 X0.8132 Y0.2491
N4025 X0.8027 Y0.2866
N4030 X0.7905 Y0.3236
N4035 X0.7766 Y0.36
N4040 X0.761 Y0.3958
N4045 X0.7439 Y0.4308
N4050 X0.7252 Y0.465
N4055 X0.7049 Y0.4984
N4060 X0.6831 Y0.5307
N4065 X0.6598 Y0.5619
N4070 X0.6351 Y0.5921
N4075 X0.609 Y0.6211
N4080 X0.5817 Y0.6489
N4085 X0.5531 Y0.6754
N4090 X0.5234 Y0.7006
N4095 X0.4925 Y0.7245
N4100 X0.4606 Y0.7469
N4105 X0.4277 Y0.7678
N4110 X0.3939 Y0.7871
N4115 X0.3592 Y0.8049
N4120 X0.3237 Y0.8211
N4125 X0.2875 Y0.8357
N4130 X0.2508 Y0.8487
N4135 X0.2134 Y0.86
N4140 X0.1757 Y0.8697
N4145 X0.1375 Y0.8776
N4150 X0.099 Y0.8838
N4155 X0.0603 Y0.8882
N4160 X0.0214 Y0.8908
N4165 X-0.0176 Y0.8918
N4170 X-0.0566 Y0.8909
N4175 X-0.0955 Y0.8884
N4180 X-0.1343 Y0.8842
N4185 X-0.1728 Y0.8783
N4190 X-0.2111 Y0.8707
N4195 X-0.2489 Y0.8613
N4200 X-0.2863 Y0.8503
N4205 X-0.3232 Y0.8376
N4210 X-0.3594 Y0.8233
N4215 X-0.395 Y0.8074
N4220 X-0.4299 Y0.7899
N4225 X-0.464 Y0.771
N4230 X-0.4972 Y0.7506
N4235 X-0.5296 Y0.7288
N4240 X-0.5609 Y0.7056
N4245 X-0.5911 Y0.681
N4250 X-0.6202 Y0.655
N4255 X-0.6481 Y0.6278
N4260 X-0.6749 Y0.5994
N4265 X-0.7003 Y0.5699
N4270 X-0.7245 Y0.5393
N4275 X-0.7473 Y0.5077
N4280 X-0.7688 Y0.4751
N4285 X-0.7888 Y0.4417
N4290 X-0.8074 Y0.4074
N4295 X-0.8243 Y0.3723
N4300 X-0.8398 Y0.3365
N4305 X-0.8536 Y0.3
N4310 X-0.8659 Y0.263
N4315 X-0.8766 Y0.2255
N4320 X-0.8856 Y0.1876
N4325 X-0.8931 Y0.1493
N4330 X-0.8989 Y0.1108
N4335 X-0.903 Y0.072
N4340 X-0.9054 Y0.0331
N4345 X-0.9061 Y-0.0059
N4350 X-0.905 Y-0.0449
N4355 X-0.9023 Y-0.0838
N4360 X-0.8979 Y-0.1225
N4365 X-0.8919 Y-0.1611
N4370 X-0.8842 Y-0.1993
N4375 X-0.875 Y-0.2372
N4380 X-0.8641 Y-0.2746
N4385 X-0.8516 Y-0.3115
N4390 X-0.8374 Y-0.3479
N4395 X-0.8217 Y-0.3835
N4400 X-0.8045 Y-0.4185
N4405 X-0.7857 Y-0.4527
N4410 X-0.7656 Y-0.4861
N4415 X-0.744 Y-0.5186
N4420 X-0.7211 Y-0.5501
N4425 X-0.6969 Y-0.5807
N4430 X-0.6714 Y-0.6102
N4435 X-0.6446 Y-0.6385
N4440 X-0.6165 Y-0.6656
N4445 X-0.5874 Y-0.6914
N4450 X-0.5571 Y-0.716
N4455 X-0.5258 Y-0.7393
N4460 X-0.4936 Y-0.7612
N4465 X-0.4604 Y-0.7817
N4470 X-0.4264 Y-0.8008
N4475 X-0.3917 Y-0.8185
N4480 X-0.3562 Y-0.8346
N4485 X-0.32 Y-0.8492
N4490 X-0.2832 Y-0.8621
N4495 X-0.2459 Y-0.8734
N4500 X-0.2081 Y-0.8831
N4505 X-0.17 Y-0.8913
N4510 X-0.1315 Y-0.8978
N4515 X-0.0929 Y-0.9026
N4520 X-0.054 Y-0.9059
N4525 X-0.015 Y-0.9075
N4530 X0.0239 Y-0.9073
N4535 X0.0629 Y-0.9054
N4540 X0.1017 Y-0.9019
N4545 X0.1404 Y-0.8967
N4550 X0.1787 Y-0.8898
N4555 X0.2168 Y-0.8814
N4560 X0.2545 Y-0.8713
N4565 X0.2917 Y-0.8597
N4570 X0.3284 Y-0.8466
N4575 X0.3646 Y-0.8319
N4580 X0.4 Y-0.8157
N4585 X0.4347 Y-0.798
N4590 X0.4687 Y-0.7788
N4595 X0.5018 Y-0.7582
N4600 X0.534 Y-0.7363
N4605 X0.5653 Y-0.713
N4610 X0.5957 Y-0.6885
N4615 X0.625 Y-0.6628
N4620 X0.6532 Y-0.6359
N4625 X0.6804 Y-0.6079
N4630 X0.7063 Y-0.5788
N4635 X0.731 Y-0.5486
N4640 X0.7544 Y-0.5174
N4645 X0.7765 Y-0.4853
N4650 X0.7972 Y-0.4523
N4655 X0.8166 Y-0.4185
N4660 X0.8347 Y-0.3839
N4665 X0.8513 Y-0.3487
N4670 X0.8666 Y-0.3128
N4675 X0.8803 Y-0.2763
N4680 X0.8925 Y-0.2393
N4685 X0.9032 Y-0.2018
N4690 X0.9122 Y-0.1638
N4695 X0.9197 Y-0.1256
N4700 X0.9257 Y-0.087
N4705 X0.93 Y-0.0483
N4710 X0.9328 Y-0.0094
N4715 X0.934 Y0.0296
N4720 X0.9337 Y0.0686
N4725 X0.9317 Y0.1075
N4730 X0.9281 Y0.1463
N4735 X0.9229 Y0.185
N4740 X0.916 Y0.2234
N4745 X0.9076 Y0.2614
N4750 X0.8976 Y0.2991
N4755 X0.8861 Y0.3364
N4760 X0.8731 Y0.3731
N4765 X0.8585 Y0.4093
N4770 X0.8426 Y0.4449
N4775 X0.8252 Y0.4798
N4780 X0.8063 Y0.5139
N4785 X0.786 Y0.5472
N4790 X0.7643 Y0.5796
N4795 X0.7413 Y0.6111
N4800 X0.717 Y0.6416
N4805 X0.6915 Y0.6711
N4810 X0.6649 Y0.6995
N4815 X0.6371 Y0.7268
N4820 X0.6082 Y0.753
N4825 X0.5783 Y0.778
N4830 X0.5473 Y0.8017
N4835 X0.5154 Y0.8241
N4840 X0.4826 Y0.8452
N4845 X0.4489 Y0.8648
N4850 X0.4144 Y0.8831
N4855 X0.3793 Y0.9
N4860 X0.3435 Y0.9154
N4865 X0.3071 Y0.9294
N4870 X0.2702 Y0.9419
N4875 X0.2328 Y0.953
N4880 X0.195 Y0.9625
N4885 X0.1568 Y0.9704
N4890 X0.1183 Y0.9767
N4895 X0.0796 Y0.9814
N4900 X0.0407 Y0.9846
N4905 X0.0018 Y0.9862
N4910 X-0.0372 Y0.9863
N4915 X-0.0762 Y0.9848
N4920 X-0.115 Y0.9818
N4925 X-0.1538 Y0.9773
N4930 X-0.1923 Y0.9711
N4935 X-0.2305 Y0.9635
N4940 X-0.2684 Y0.9542
N4945 X-0.3059 Y0.9434
N4950 X-0.3429 Y0.9312
N4955 X-0.3794 Y0.9174
N4960 X-0.4153 Y0.9023
N4965 X-0.4506 Y0.8858
N4970 X-0.4852 Y0.8678
N4975 X-0.5191 Y0.8486
N4980 X-0.5523 Y0.828
N4985 X-0.5845 Y0.8061
N4990 X-0.6158 Y0.7829
N4995 X-0.6462 Y0.7584
N5000 X-0.6756 Y0.7328
N5005 X-0.7039 Y0.706
N5010 X-0.7312 Y0.6781
N5015 X-0.7573 Y0.6492
N5020 X-0.7824 Y0.6193
N5025 X-0.8062 Y0.5885
N5030 X-0.8288 Y0.5567
N5035 X-0.8502 Y0.5241
N5040 X-0.8702 Y0.4906
N5045 X-0.8888 Y0.4564
N5050 X-0.9061 Y0.4214
N5055 X-0.9219 Y0.3858
N5060 X-0.9364 Y0.3496
N5065 X-0.9495 Y0.3128
N5070 X-0.9611 Y0.2756
N5075 X-0.9713 Y0.238
N5080 X-0.9801 Y0.2
N5085 X-0.9873 Y0.1617
N5090 X-0.993 Y0.1231
N5095 X-0.9972 Y0.0844
N5100 X-0.9998 Y0.0455
N5105 X-1.0009 Y0.0065
N5110 X-1.0004 Y-0.0325
N5115 X-0.9984 Y-0.0715
N5120 X-0.995 Y-0.1103
N5125 X-0.99 Y-0.149
N5130 X-0.9836 Y-0.1874
N5135 X-0.9757 Y-0.2256
N5140 X-0.9663 Y-0.2634
N5145 X-0.9553 Y-0.3009
N5150 X-0.9429 Y-0.3378
N5155 X-0.9291 Y-0.3743
N5160 X-0.9138 Y-0.4102
N5165 X-0.8972 Y-0.4454
N5170 X-0.8792 Y-0.48
N5175 X-0.8599 Y-0.5139
N5180 X-0.8393 Y-0.547
N5185 X-0.8174 Y-0.5793
N5190 X-0.7944 Y-0.6107
N5195 X-0.7701 Y-0.6412
N5200 X-0.7446 Y-0.6707
N5205 X-0.7179 Y-0.6992
N5210 X-0.6902 Y-0.7266
N5215 X-0.6614 Y-0.7528
N5220 X-0.6316 Y-0.778
N5225 X-0.6008 Y-0.802
N5230 X-0.5692 Y-0.8248
N5235 X-0.5367 Y-0.8463
N5240 X-0.5034 Y-0.8666
N5245 X-0.4694 Y-0.8856
N5250 X-0.4346 Y-0.9032
N5255 X-0.3991 Y-0.9194
N5260 X-0.363 Y-0.9342
N5265 X-0.3264 Y-0.9476
N5270 X-0.2893 Y-0.9596
N5275 X-0.2517 Y-0.9701
N5280 X-0.2138 Y-0.9791
N5285 X-0.1756 Y-0.9868
N5290 X-0.1371 Y-0.9929
N5295 X-0.0984 Y-0.9976
N5300 X-0.0595 Y-1.0007
N5305 X-0.0205 Y-1.0023
N5310 X0.0184
N5315 X0.0574 Y-1.0008
N5320 X0.0963 Y-0.9978
N5325 X0.135 Y-0.9933
N5330 X0.1735 Y-0.9873
N5335 X0.2118 Y-0.9799
N5340 X0.2498 Y-0.971
N5345 X0.2874 Y-0.9607
N5350 X0.3246 Y-0.949
N5355 X0.3613 Y-0.9358
N5360 X0.3974 Y-0.9212
N5365 X0.433 Y-0.9052
N5370 X0.4679 Y-0.8878
N5375 X0.5021 Y-0.8692
N5380 X0.5356 Y-0.8492
N5385 X0.5684 Y-0.828
N5390 X0.6003 Y-0.8057
N5395 X0.6314 Y-0.7821
N5400 X0.6615 Y-0.7574
N5405 X0.6908 Y-0.7316
N5410 X0.719 Y-0.7047
N5415 X0.7462 Y-0.6768
N5420 X0.7723 Y-0.6478
N5425 X0.7973 Y-0.6179
N5430 X0.8212 Y-0.5871
N5435 X0.8439 Y-0.5554
N5440 X0.8654 Y-0.5229
N5445 X0.8857 Y-0.4896
N5450 X0.9048 Y-0.4556
N5455 X0.9226 Y-0.4209
N5460 X0.9392 Y-0.3856
N5465 X0.9544 Y-0.3497
N5470 X0.9682 Y-0.3132
N5475 X0.9806 Y-0.2763
N5480 X0.9916 Y-0.2389
N5485 X1.0012 Y-0.2011
N5490 X1.0095 Y-0.163
N5495 X1.0163 Y-0.1246
N5500 X1.0216 Y-0.086
N5505 X1.0256 Y-0.0472
N5510 X1.0282 Y-0.0083
N5515 X1.0293 Y0.0307
N5520 X1.0289 Y0.0697
N5525 X1.027 Y0.1086
N5530 X1.0236 Y0.1475
N5535 X1.0188 Y0.1862
N5540 X1.0125 Y0.2247
N5545 X1.0048 Y0.2629
N5550 X0.9957 Y0.3008
N5555 X0.9852 Y0.3383
N5560 X0.9733 Y0.3755
N5565 X0.96 Y0.4121
N5570 X0.9454 Y0.4483
N5575 X0.9294 Y0.4839
N5580 X0.9121 Y0.5188
N5585 X0.8934 Y0.553
N5590 X0.8735 Y0.5865
N5595 X0.8523 Y0.6193
N5600 X0.8299 Y0.6512
N5605 X0.8064 Y0.6823
N5610 X0.7817 Y0.7124
N5615 X0.7559 Y0.7417
N5620 X0.7291 Y0.77
N5625 X0.7012 Y0.7972
N5630 X0.6723 Y0.8234
N5635 X0.6424 Y0.8485
N5640 X0.6116 Y0.8724
N5645 X0.58 Y0.8951
N5650 X0.5475 Y0.9167
N5655 X0.5142 Y0.937
N5660 X0.4802 Y0.9561
N5665 X0.4455 Y0.9739
N5670 X0.4102 Y0.9904
N5675 X0.3743 Y1.0057
N5680 X0.3379 Y1.0196
N5685 X0.3009 Y1.0321
N5690 X0.2636 Y1.0432
N5695 X0.2258 Y1.0529
N5700 X0.1877 Y1.0612
N5705 X0.1493 Y1.0681
N5710 X0.1107 Y1.0736
N5715 X0.072 Y1.0777
N5720 X0.0331 Y1.0803
N5725 X-0.0059 Y1.0816
N5730 X-0.0449 Y1.0814
N5735 X-0.0839 Y1.0798
N5740 X-0.1227 Y1.0768
N5745 X-0.1615 Y1.0723
N5750 X-0.2 Y1.0664
N5755 X-0.2383 Y1.0591
N5760 X-0.2763 Y1.0504
N5765 X-0.314 Y1.0403
N5770 X-0.3512 Y1.0288
N5775 X-0.3881 Y1.0161
N5780 X-0.4244 Y1.002
N5785 X-0.4603 Y0.9866
N5790 X-0.4955 Y0.9699
N5795 X-0.5301 Y0.952
N5800 X-0.5641 Y0.9328
N5805 X-0.5973 Y0.9123
N5810 X-0.6297 Y0.8907
N5815 X-0.6613 Y0.8679
N5820 X-0.6921 Y0.8439
N5825 X-0.722 Y0.8189
N5830 X-0.751 Y0.7928
N5835 X-0.779 Y0.7657
N5840 X-0.8061 Y0.7376
N5845 X-0.8321 Y0.7086
N5850 X-0.8571 Y0.6787
N5855 X-0.8809 Y0.6478
N5860 X-0.9036 Y0.6161
N5865 X-0.9252 Y0.5836
N5870 X-0.9456 Y0.5504
N5875 X-0.9647 Y0.5164
N5880 X-0.9826 Y0.4818
N5885 X-0.9993 Y0.4466
N5890 X-1.0147 Y0.4107
N5895 X-1.0289 Y0.3744
N5900 X-1.0418 Y0.3376
N5905 X-1.0533 Y0.3004
N5910 X-1.0635 Y0.2627
N5915 X-1.0723 Y0.2247
N5920 X-1.0797 Y0.1865
N5925 X-1.0858 Y0.148
N5930 X-1.0905 Y0.1092
N5935 X-1.0937 Y0.0704
N5940 X-1.0956 Y0.0314
N5945 X-1.0961 Y-0.0075
N5950 X-1.0953 Y-0.0465
N5955 X-1.093 Y-0.0854
N5960 X-1.0894 Y-0.1243
N5965 X-1.0844 Y-0.1629
N5970 X-1.078 Y-0.2014
N5975 X-1.0702 Y-0.2396
N5980 X-1.0611 Y-0.2775
N5985 X-1.0506 Y-0.3151
N5990 X-1.0388 Y-0.3522
N5995 X-1.0256 Y-0.3889
N6000 X-1.0112 Y-0.4251
N6005 X-0.9955 Y-0.4608
N6010 X-0.9785 Y-0.4959
N6015 X-0.9603 Y-0.5304
N6020 X-0.9409 Y-0.5643
N6025 X-0.9204 Y-0.5974
N6030 X-0.8986 Y-0.6297
N6035 X-0.8757 Y-0.6613
N6040 X-0.8517 Y-0.692
N6045 X-0.8265 Y-0.7218
N6050 X-0.8004 Y-0.7507
N6055 X-0.7732 Y-0.7787
N6060 X-0.7451 Y-0.8057
N6065 X-0.716 Y-0.8316
N6070 X-0.686 Y-0.8566
N6075 X-0.6552 Y-0.8805
N6080 X-0.6235 Y-0.9032
N6085 X-0.5911 Y-0.9248
N6090 X-0.5579 Y-0.9453
N6095 X-0.5239 Y-0.9645
N6100 X-0.4893 Y-0.9825
N6105 X-0.4541 Y-0.9992
N6110 X-0.4184 Y-1.0147
N6115 X-0.382 Y-1.0289
N6120 X-0.3453 Y-1.0418
N6125 X-0.308 Y-1.0535
N6130 X-0.2704 Y-1.0638
N6135 X-0.2325 Y-1.0728
N6140 X-0.1943 Y-1.0804
N6145 X-0.1558 Y-1.0866
N6150 X-0.1171 Y-1.0915
N6155 X-0.0783 Y-1.095
N6160 X-0.0393 Y-1.0971
N6165 X-0.0003 Y-1.0977
N6170 X0.0387 Y-1.0971
N6175 X0.0776 Y-1.095
N6180 X0.1164 Y-1.0916
N6185 X0.1551 Y-1.0868
N6190 X0.1936 Y-1.0807
N6195 X0.2319 Y-1.0732
N6200 X0.2699 Y-1.0644
N6205 X0.3075 Y-1.0543
N6210 X0.3448 Y-1.0428
N6215 X0.3816 Y-1.03
N6220 X0.418 Y-1.0159
N6225 X0.4538 Y-1.0005
N6230 X0.4891 Y-0.984
N6235 X0.5238 Y-0.9662
N6240 X0.5579 Y-0.9472
N6245 X0.5913 Y-0.9271
N6250 X0.6239 Y-0.9058
N6255 X0.6559 Y-0.8834
N6260 X0.687 Y-0.8599
N6265 X0.7173 Y-0.8354
N6270 X0.7467 Y-0.8098
N6275 X0.7752 Y-0.7832
N6280 X0.8028 Y-0.7557
N6285 X0.8295 Y-0.7272
N6290 X0.8551 Y-0.6978
N6295 X0.8797 Y-0.6676
N6300 X0.9033 Y-0.6366
N6305 X0.9259 Y-0.6047
N6310 X0.9473 Y-0.5722
N6315 X0.9676 Y-0.5389
N6320 X0.9868 Y-0.5049
N6325 X1.0048 Y-0.4703
N6330 X1.0216 Y-0.4352
N6335 X1.0372 Y-0.3994
N6340 X1.0515 Y-0.3632
N6345 X1.0646 Y-0.3264
N6350 X1.0764 Y-0.2893
N6355 X1.087 Y-0.2518
N6360 X1.0963 Y-0.2139
N6365 X1.1043 Y-0.1757
N6370 X1.111 Y-0.1373
N6375 X1.1164 Y-0.0987
N6380 X1.1205 Y-0.0599
N6385 X1.1232 Y-0.021
N6390 X1.1246 Y0.0179
N6395 Y0.0569
N6400 X1.1233 Y0.0959
N6405 X1.1207 Y0.1348
N6410 X1.1167 Y0.1736
N6415 X1.1114 Y0.2122
N6420 X1.1048 Y0.2506
N6425 X1.0969 Y0.2888
N6430 X1.0877 Y0.3267
N6435 X1.0772 Y0.3643
N6440 X1.0654 Y0.4014
N6445 X1.0523 Y0.4382
N6450 X1.038 Y0.4744
N6455 X1.0224 Y0.5102
N6460 X1.0056 Y0.5454
N6465 X0.9876 Y0.5799
N6470 X0.9684 Y0.6139
N6475 X0.9481 Y0.6472
N6480 X0.9267 Y0.6797
N6485 X0.9041 Y0.7116
N6490 X0.8805 Y0.7426
N6495 X0.8559 Y0.7728
N6500 X0.8302 Y0.8021
N6505 X0.8035 Y0.8305
N6510 X0.7758 Y0.858
N6515 X0.7472 Y0.8845
N6520 X0.7178 Y0.9101
N6525 X0.6874 Y0.9346
N6530 X0.6563 Y0.958
N6535 X0.6244 Y0.9804
N6540 X0.5917 Y1.0017
N6545 X0.5583 Y1.0219
N6550 X0.5243 Y1.0409
N6555 X0.4896 Y1.0587
N6560 X0.4544 Y1.0754
N6565 X0.4186 Y1.0908
N6570 X0.3823 Y1.105
N6575 X0.3455 Y1.118
N6580 X0.3083 Y1.1297
N6585 X0.2707 Y1.1401
N6590 X0.2328 Y1.1493
N6595 X0.1946 Y1.1572
N6600 X0.1562 Y1.1638
N6605 X0.1176 Y1.1691
N6610 X0.0788 Y1.1731
N6615 X0.0399 Y1.1757
N6620 X0.0009 Y1.1771
N6625 X-0.0381 Y1.1772
N6630 X-0.077 Y1.1759
N6635 X-0.1159 Y1.1733
N6640 X-0.1547 Y1.1694
N6645 X-0.1934 Y1.1642
N6650 X-0.2318 Y1.1578
N6655 X-0.27 Y1.15
N6660 X-0.308 Y1.141
N6665 X-0.3456 Y1.1307
N6670 X-0.3828 Y1.1192
N6675 X-0.4197 Y1.1064
N6680 X-0.4561 Y1.0924
N6685 X-0.492 Y1.0772
N6690 X-0.5273 Y1.0608
N6695 X-0.5621 Y1.0432
N6700 X-0.5963 Y1.0245
N6705 X-0.6299 Y1.0046
N6710 X-0.6628 Y0.9837
N6715 X-0.6949 Y0.9617
N6720 X-0.7264 Y0.9386
N6725 X-0.757 Y0.9144
N6730 X-0.7868 Y0.8893
N6735 X-0.8158 Y0.8632
N6740 X-0.8439 Y0.8362
N6745 X-0.8711 Y0.8082
N6750 X-0.8973 Y0.7794
N6755 X-0.9225 Y0.7497
N6760 X-0.9468 Y0.7192
N6765 X-0.9701 Y0.6878
N6770 X-0.9922 Y0.6558
N6775 X-1.0134 Y0.623
N6780 X-1.0334 Y0.5896
N6785 X-1.0523 Y0.5555
N6790 X-1.0701 Y0.5208
N6795 X-1.0868 Y0.4855
N6800 X-1.1022 Y0.4497
N6805 X-1.1165 Y0.4135
N6810 X-1.1296 Y0.3767
N6815 X-1.1415 Y0.3396
N6820 X-1.1521 Y0.3021
N6825 X-1.1615 Y0.2642
N6830 X-1.1696 Y0.2261
N6835 X-1.1765 Y0.1877
N6840 X-1.1821 Y0.1491
N6845 X-1.1865 Y0.1104
N6850 X-1.1896 Y0.0715
N6855 X-1.1914 Y0.0326
N6860 X-1.1919 Y-0.0064
N6865 X-1.1911 Y-0.0454
N6870 X-1.1891 Y-0.0843
N6875 X-1.1858 Y-0.1232
N6880 X-1.1812 Y-0.1619
N6885 X-1.1753 Y-0.2005
N6890 X-1.1682 Y-0.2388
N6895 X-1.1598 Y-0.2769
N6900 X-1.1502 Y-0.3147
N6905 X-1.1393 Y-0.3521
N6910 X-1.1273 Y-0.3892
N6915 X-1.114 Y-0.4259
N6920 X-1.0995 Y-0.4621
N6925 X-1.0839 Y-0.4978
N6930 X-1.0671 Y-0.5329
N6935 X-1.0491 Y-0.5676
N6940 X-1.03 Y-0.6016
N6945 X-1.0098 Y-0.6349
N6950 X-0.9886 Y-0.6676
N6955 X-0.9663 Y-0.6996
N6960 X-0.9429 Y-0.7308
N6965 X-0.9186 Y-0.7612
N6970 X-0.8932 Y-0.7909
N6975 X-0.8669 Y-0.8197
N6980 X-0.8397 Y-0.8476
N6985 X-0.8116 Y-0.8746
N6990 X-0.7826 Y-0.9007
N6995 X-0.7527 Y-0.9258
N7000 X-0.7221 Y-0.9499
N7005 X-0.6907 Y-0.973
N7010 X-0.6585 Y-0.995
N7015 X-0.6257 Y-1.016
N7020 X-0.5922 Y-1.0359
N7025 X-0.558 Y-1.0547
N7030 X-0.5232 Y-1.0724
N7035 X-0.4879 Y-1.089
N7040 X-0.4521 Y-1.1044
N7045 X-0.4158 Y-1.1185
N7050 X-0.379 Y-1.1315
N7055 X-0.3419 Y-1.1433
N7060 X-0.3043 Y-1.1539
N7065 X-0.2665 Y-1.1632
N7070 X-0.2283 Y-1.1713
N7075 X-0.19 Y-1.1782
N7080 X-0.1514 Y-1.1838
N7085 X-0.1126 Y-1.1881
N7090 X-0.0737 Y-1.1911
N7095 X-0.0348 Y-1.1929
N7100 X0.0042 Y-1.1935
N7105 X0.0432 Y-1.1927
N7110 X0.0821 Y-1.1907
N7115 X0.121 Y-1.1874
N7120 X0.1597 Y-1.1829
N7125 X0.1982 Y-1.1771
N7130 X0.2366 Y-1.17
N7135 X0.2747 Y-1.1617
N7140 X0.3125 Y-1.1522
N7145 X0.35 Y-1.1415
N7150 X0.3871 Y-1.1295
N7155 X0.4238 Y-1.1164
N7160 X0.4601 Y-1.1021
N7165 X0.4959 Y-1.0867
N7170 X0.5312 Y-1.0701
N7175 X0.5659 Y-1.0523
N7180 X0.6 Y-1.0335
N7185 X0.6336 Y-1.0136
N7190 X0.6664 Y-0.9926
N7195 X0.6986 Y-0.9706
N7200 X0.7301 Y-0.9476
N7205 X0.7608 Y-0.9236
N7210 X0.7908 Y-0.8986
N7215 X0.8199 Y-0.8727
N7220 X0.8482 Y-0.8459
N7225 X0.8757 Y-0.8182
N7230 X0.9022 Y-0.7897
N7235 X0.9279 Y-0.7603
N7240 X0.9526 Y-0.7301
N7245 X0.9763 Y-0.6992
N7250 X0.9991 Y-0.6675
N7255 X1.0208 Y-0.6352
N7260 X1.0415 Y-0.6021
N7265 X1.0612 Y-0.5684
N7270 X1.0798 Y-0.5342
N7275 X1.0973 Y-0.4993
N7280 X1.1137 Y-0.464
N7285 X1.129 Y-0.4281
N7290 X1.1432 Y-0.3918
N7295 X1.1562 Y-0.355
N7300 X1.168 Y-0.3179
N7305 X1.1787 Y-0.2804
N7310 X1.1881 Y-0.2425
N7315 X1.1964 Y-0.2044
N7320 X1.2034 Y-0.1661
N7325 X1.2093 Y-0.1275
N7330 X1.2139 Y-0.0888
N7335 X1.2174 Y-0.05
N7340 X1.2196 Y-0.0111
N7345 X1.2205 Y0.0279
N7350 X1.2203 Y0.0669
N7355 X1.2188 Y0.1059
N7360 X1.2161 Y0.1448
N7365 X1.2121 Y0.1836
N7370 X1.2069 Y0.2222
N7375 X1.2005 Y0.2607
N7380 X1.1928 Y0.2989
N7385 X1.184 Y0.3369
N7390 X1.174 Y0.3745
N7395 X1.1627 Y0.4119
N7400 X1.1504 Y0.4489
N7405 X1.1368 Y0.4854
N7410 X1.1221 Y0.5215
N7415 X1.1063 Y0.5572
N7420 X1.0893 Y0.5923
N7425 X1.0713 Y0.6268
N7430 X1.0521 Y0.6608
N7435 X1.0319 Y0.6941
N7440 X1.0106 Y0.7268
N7445 X0.9883 Y0.7588
N7450 X0.965 Y0.79
N7455 X0.9407 Y0.8206
N7460 X0.9155 Y0.8503
N7465 X0.8894 Y0.8792
N7470 X0.8623 Y0.9073
N7475 X0.8344 Y0.9345
N7480 X0.8056 Y0.9609
N7485 X0.7761 Y0.9863
N7490 X0.7457 Y1.0107
N7495 X0.7146 Y1.0342
N7500 X0.6827 Y1.0567
N7505 X0.6502 Y1.0782
N7510 X0.617 Y1.0986
N7515 X0.5831 Y1.118
N7520 X0.5487 Y1.1363
N7525 X0.5137 Y1.1535
N7530 X0.4782 Y1.1696
N7535 X0.4422 Y1.1846
N7540 X0.4058 Y1.1985
N7545 X0.3689 Y1.2112
N7550 X0.3317 Y1.2228
N7555 X0.2941 Y1.2332
N7560 X0.2562 Y1.2424
N7565 X0.2181 Y1.2504
N7570 X0.1797 Y1.2572
N7575 X0.1411 Y1.2628
N7580 X0.1023 Y1.2672
N7585 X0.0635 Y1.2704
N7590 X0.0246 Y1.2724
N7595 X-0.0144 Y1.2731
N7600 X-0.0534 Y1.2727
N7605 X-0.0924 Y1.2711
N7610 X-0.1313 Y1.2683
N7615 X-0.17 Y1.2642
N7620 X-0.2087 Y1.259
N7625 X-0.2471 Y1.2525
N7630 X-0.2854 Y1.2449
N7635 X-0.3233 Y1.2361
N7640 X-0.361 Y1.2261
N7645 X-0.3984 Y1.2149
N7650 X-0.4354 Y1.2026
N7655 X-0.472 Y1.1892
N7660 X-0.5082 Y1.1746
N7665 X-0.5439 Y1.159
N7670 X-0.5791 Y1.1422
N7675 X-0.6138 Y1.1244
N7680 X-0.6479 Y1.1056
N7685 X-0.6814 Y1.0857
N7690 X-0.7143 Y1.0647
N7695 X-0.7465 Y1.0427
N7700 X-0.7781 Y1.0198
N7705 X-0.8089 Y0.9959
N7710 X-0.8389 Y0.9711
N7715 X-0.8682 Y0.9453
N7720 X-0.8967 Y0.9187
N7725 X-0.9244 Y0.8912
N7730 X-0.9512 Y0.8629
N7735 X-0.9771 Y0.8338
N7740 X-1.0022 Y0.8039
N7745 X-1.0263 Y0.7733
N7750 X-1.0494 Y0.7419
N7755 X-1.0716 Y0.7098
N7760 X-1.0928 Y0.6771
N7765 X-1.113 Y0.6437
N7770 X-1.1321 Y0.6098
N7775 X-1.1502 Y0.5752
N7780 X-1.1673 Y0.5402
N7785 X-1.1832 Y0.5046
N7790 X-1.1981 Y0.4686
N7795 X-1.2119 Y0.4321
N7800 X-1.2246 Y0.3952
N7805 X-1.2361 Y0.358
N7810 X-1.2465 Y0.3204
N7815 X-1.2539 Y0.2901
N7820 X-1.2541 Y0.2895
N7825 X-1.2667 Y0.2292
N7830 X-1.2682 Y0.2214
N7835 X-1.2717 Y0.2037
N7840 X-1.2735 Y0.1949
N7845 X-1.2854 Y0.0797
N7850 X-1.286 Y0.0709
N7855 X-1.2868 Y0.0443
N7860 Y-0.0443
N7865 X-1.286 Y-0.0709
N7870 X-1.2854 Y-0.0797
N7875 X-1.2735 Y-0.1949
N7880 X-1.27 Y-0.2126
N7885 X-1.2682 Y-0.2214
N7890 X-1.2664 Y-0.2303
N7895 X-1.249 Y-0.3139
N7900 X-1.2459 Y-0.3277
N7905 X-1.2433 Y-0.3366
N7910 X-1.2122 Y-0.434
N7915 X-1.2026 Y-0.4606
N7920 X-1.1991 Y-0.4695
N7925 X-1.1565 Y-0.5669
N7930 X-1.1515 Y-0.577
N7935 X-1.1476 Y-0.5846
N7940 X-1.1427 Y-0.5935
N7945 X-1.0976 Y-0.6732
N7950 X-1.0922 Y-0.6821
N7955 X-1.0807 Y-0.7001
N7960 X-1.075 Y-0.7086
N7965 X-1.0183 Y-0.7883
N7970 X-1.0118 Y-0.7972
N7975 X-1.0047 Y-0.8061
N7980 X-0.9389 Y-0.8809
N7985 X-0.9346 Y-0.8858
N7990 X-0.9178 Y-0.9035
N7995 X-0.9124 Y-0.9089
N8000 X-0.8321 Y-0.9832
N8005 X-0.8238 Y-0.9906
N8010 X-0.7263 Y-1.0637
N8015 X-0.7175 Y-1.0696
N8020 X-0.7086 Y-1.0753
N8025 X-0.6998 Y-1.0807
N8030 X-0.62 Y-1.1286
N8035 X-0.6107 Y-1.1338
N8040 X-0.5846 Y-1.1471
N8045 X-0.496 Y-1.1886
N8050 X-0.4872 Y-1.192
N8055 X-0.4695 Y-1.1989
N8060 X-0.4606 Y-1.2022
N8065 X-0.377 Y-1.2312
N8070 X-0.372 Y-1.2328
N8075 X-0.3455 Y-1.2405
N8080 X-0.3277 Y-1.2448
N8085 X-0.2569 Y-1.2615
N8090 X-0.2303 Y-1.2672
N8095 X-0.2214 Y-1.2688
N8100 X-0.1063 Y-1.2837
N8105 X-0.0974 Y-1.2842
N8110 X-0.0797 Y-1.285
N8115 X-0.0709 Y-1.2854
N8120 X0.0089 Y-1.2874
N8125 X0.0177 Y-1.2875
N8130 X0.0443 Y-1.2871
N8135 X0.0531 Y-1.2865
N8140 X0.1594 Y-1.2783
N8145 X0.1683 Y-1.2773
N8150 X0.2037 Y-1.2708
N8155 X0.2835 Y-1.2563
N8160 X0.2923 Y-1.2542
N8165 X0.313 Y-1.249
N8170 X0.3189 Y-1.2473
N8175 X0.4046 Y-1.2224
N8180 X0.4252 Y-1.216
N8185 X0.4317 Y-1.2135
N8190 X0.5226 Y-1.1766
N8195 X0.5315 Y-1.1727
N8200 X0.5492 Y-1.1648
N8205 X0.558 Y-1.1607
N8210 X0.6418 Y-1.1161
N8215 X0.6466 Y-1.1134
N8220 X0.6732 Y-1.0978
N8225 X0.6821 Y-1.092
N8230 X0.7647 Y-1.0364
N8235 X0.7706 Y-1.0318
N8240 X0.7883 Y-1.0178
N8245 X0.7972 Y-1.0107
N8250 X0.8726 Y-0.9478
N8255 X0.8769 Y-0.9438
N8260 X0.9594 Y-0.8592
N8265 X0.9655 Y-0.8526
N8270 X0.975 Y-0.8415
N8275 X0.9832 Y-0.8311
N8280 X1.0311 Y-0.7706
N8285 X1.0364 Y-0.7639
N8290 X1.0574 Y-0.7352
N8295 X1.1137 Y-0.6466
N8300 X1.1161 Y-0.6426
N8305 X1.1249 Y-0.6272
N8310 X1.1286 Y-0.62
N8315 X1.1729 Y-0.5315
N8320 X1.1771 Y-0.5226
N8325 X1.1847 Y-0.5049
N8330 X1.1869 Y-0.4993
N8335 X1.2224 Y-0.4052
N8340 X1.2312 Y-0.377
N8345 X1.2327 Y-0.372
N8350 X1.2537 Y-0.2923
N8355 X1.2559 Y-0.2835
N8360 X1.2621 Y-0.2569
N8365 X1.2636 Y-0.248
N8370 X1.2802 Y-0.1417
N8375 X1.2814 Y-0.1329
N8380 X1.283 Y-0.1063
N8385 X1.2876 Y-0.0177
N8390 X1.2877 Y-0.0089
N8395 Y0.0089
N8400 X1.2876 Y0.0177
N8405 X1.283 Y0.1063
N8410 X1.2814 Y0.1329
N8415 X1.2802 Y0.1417
N8420 X1.2636 Y0.248
N8425 X1.2621 Y0.2569
N8430 X1.2559 Y0.2835
N8435 X1.2537 Y0.2923
N8440 X1.2327 Y0.372
N8445 X1.2312 Y0.377
N8450 X1.2224 Y0.4052
N8455 X1.1869 Y0.4993
N8460 X1.1847 Y0.5049
N8465 X1.1771 Y0.5226
N8470 X1.1729 Y0.5315
N8475 X1.1286 Y0.62
N8480 X1.1249 Y0.6272
N8485 X1.1161 Y0.6426
N8490 X1.1137 Y0.6466
N8495 X1.0574 Y0.7352
N8500 X1.0364 Y0.7639
N8505 X1.0311 Y0.7706
N8510 X0.982 Y0.8326
N8515 X0.975 Y0.8415
N8520 X0.9655 Y0.8526
N8525 X0.9594 Y0.8592
N8530 X0.8769 Y0.9438
N8535 X0.8726 Y0.9478
N8540 X0.7972 Y1.0107
N8545 X0.7872 Y1.0186
N8550 X0.7706 Y1.0318
N8555 X0.7647 Y1.0364
N8560 X0.6821 Y1.092
N8565 X0.6732 Y1.0978
N8570 X0.6466 Y1.1134
N8575 X0.6418 Y1.1161
N8580 X0.558 Y1.1607
N8585 X0.5492 Y1.1648
N8590 X0.5315 Y1.1727
N8595 X0.5226 Y1.1766
N8600 X0.4317 Y1.2135
N8605 X0.4252 Y1.216
N8610 X0.4046 Y1.2224
N8615 X0.3189 Y1.2473
N8620 X0.313 Y1.249
N8625 X0.2923 Y1.2542
N8630 X0.2835 Y1.2563
N8635 X0.1772 Y1.2757
N8640 X0.1683 Y1.2773
N8645 X0.1594 Y1.2783
N8650 X0.0531 Y1.2865
N8655 X0.0443 Y1.2871
N8660 X0.0177 Y1.2875
N8665 X0.0089 Y1.2874
N8670 X-0.0709 Y1.2854
N8675 X-0.0797 Y1.285
N8680 X-0.0974 Y1.2842
N8685 X-0.1063 Y1.2837
N8690 X-0.2214 Y1.2688
N8695 X-0.2303 Y1.2672
N8700 X-0.2569 Y1.2615
N8705 X-0.3366 Y1.2427
N8710 X-0.3455 Y1.2405
N8715 X-0.372 Y1.2328
N8720 X-0.377 Y1.2312
N8725 X-0.4606 Y1.2022
N8730 X-0.4695 Y1.1989
N8735 X-0.4872 Y1.192
N8740 X-0.496 Y1.1886
N8745 X-0.5846 Y1.1471
N8750 X-0.6112 Y1.1335
N8755 X-0.62 Y1.1286
N8760 X-0.6999 Y1.0807
N8765 X-0.7086 Y1.0753
N8770 X-0.7175 Y1.0696
N8775 X-0.7263 Y1.0637
N8780 X-0.8238 Y0.9906
N8785 X-0.8326 Y0.9827
N8790 X-0.9124 Y0.9089
N8795 X-0.9178 Y0.9035
N8800 X-0.9346 Y0.8858
N8805 X-0.9424 Y0.8769
N8810 X-1.0047 Y0.8061
N8815 X-1.0118 Y0.7972
N8820 X-1.0186 Y0.7879
N8825 X-1.075 Y0.7086
N8830 X-1.0809 Y0.6998
N8835 X-1.0922 Y0.6821
N8840 X-1.0976 Y0.6732
N8845 X-1.1427 Y0.5935
N8850 X-1.1476 Y0.5846
N8855 X-1.1522 Y0.5758
N8860 X-1.1565 Y0.5669
N8865 X-1.1991 Y0.4695
N8870 X-1.2026 Y0.4606
N8875 X-1.2122 Y0.434
N8880 X-1.2433 Y0.3366
N8885 X-1.2459 Y0.3277
N8890 X-1.249 Y0.3139
N8895 X-1.2541 Y0.2895
N8900 X-1.2544 Y0.2865
N8905 Y0.2836
N8910 X-1.2537 Y0.2807 Z-0.3935
N8915 X-1.253 Y0.2778 Z-0.393
N8920 X-1.2523 Y0.2751 Z-0.3921
N8925 X-1.2505 Y0.2724 Z-0.3906
N8930 X-1.2488 Y0.27 Z-0.3887
N8935 X-1.2473 Y0.2678 Z-0.3864
N8940 X-1.2453 Y0.2662 Z-0.3834
N8945 X-1.2437 Y0.265 Z-0.3801
N8950 X-1.2425 Y0.2641 Z-0.3764
N8955 X-1.2418 Y0.2635 Z-0.3726
N8960 X-1.2415 Y0.2634 Z-0.3687
N8965 G0 Z0.2
N8970 X0.933 Y0.624
N8975 Z-0.3043
N8980 G1 Z-0.3293 F15.
N8985 X0.9333 Y0.6241 Z-0.3332
N8990 X0.9342 Y0.6244 Z-0.3371
N8995 X0.9356 Y0.6248 Z-0.3407
N9000 X0.9375 Y0.6255 Z-0.344
N9005 X0.94 Y0.6263 Z-0.347
N9010 X0.9428 Y0.6272 Z-0.3496
N9015 X0.946 Y0.6282 Z-0.3516
N9020 X0.9494 Y0.6294 Z-0.3531
N9025 X0.9531 Y0.6305 Z-0.354
N9030 X0.9568 Y0.6318 Z-0.3543
N9035 G3 X1.0821 Y0.6883 I-0.1982 J0.6067
N9040 G1 X1.0872 Y0.6915
N9045 X1.0902 Y0.6979
N9050 X1.0904 Y0.705
N9055 X1.0879 Y0.7116
N9060 X1.0673 Y0.7441
N9065 X1.0629 Y0.7504
N9070 X1.0541 Y0.7625
N9075 X1.0478 Y0.7706
N9080 X0.9832 Y0.8522
N9085 X0.9774 Y0.8592
N9090 X0.9744 Y0.8626
N9095 X0.8858 Y0.9535
N9100 X0.8822 Y0.9566
N9105 X0.8592 Y0.976
N9110 X0.7883 Y1.0351
N9115 X0.7706 Y1.0479
N9120 X0.7618 Y1.0542
N9125 X0.6821 Y1.1078
N9130 X0.6732 Y1.1135
N9135 X0.653 Y1.1249
N9140 X0.6364 Y1.1338
N9145 X0.558 Y1.1755
N9150 X0.5527 Y1.1781
N9155 X0.5403 Y1.1834
N9160 X0.5315 Y1.1871
N9165 X0.4429 Y1.2231
N9170 X0.434 Y1.2266
N9175 X0.4075 Y1.2351
N9180 X0.3986 Y1.2378
N9185 X0.3189 Y1.261
N9190 X0.31 Y1.2633
N9195 X0.2923 Y1.2676
N9200 X0.2835 Y1.2696
N9205 X0.1949 Y1.2858
N9210 X0.1683 Y1.2904
N9215 X0.1594 Y1.2914
N9220 X0.0531 Y1.2996
N9225 X0.0443 Y1.3003
N9230 X0.0177 Y1.3006
N9235 X0.0089 Y1.3005
N9240 X-0.0709 Y1.2985
N9245 X-0.0797 Y1.2982
N9250 X-0.0974 Y1.2974
N9255 X-0.1063 Y1.297
N9260 X-0.2214 Y1.2821
N9265 X-0.2303 Y1.2805
N9270 X-0.2543 Y1.2755
N9275 X-0.2569 Y1.275
N9280 X-0.3366 Y1.2561
N9285 X-0.3455 Y1.254
N9290 X-0.372 Y1.2466
N9295 X-0.3809 Y1.2438
N9300 X-0.4606 Y1.216
N9305 X-0.4695 Y1.2129
N9310 X-0.4918 Y1.2047
N9315 X-0.496 Y1.203
N9320 X-0.5935 Y1.1574
N9325 X-0.6023 Y1.1532
N9330 X-0.6112 Y1.1488
N9335 X-0.62 Y1.1439
N9340 X-0.6998 Y1.096
N9345 X-0.7086 Y1.0905
N9350 X-0.7352 Y1.0734
N9355 X-0.8149 Y1.0136
N9360 X-0.8238 Y1.007
N9365 X-0.831 Y1.0009
N9370 X-0.8511 Y0.9832
N9375 X-0.8592 Y0.9759
N9380 X-0.9212 Y0.9186
N9385 X-0.9275 Y0.9124
N9390 X-0.9442 Y0.8946
N9395 X-0.9478 Y0.8906
N9400 X-1.0009 Y0.8302
N9405 X-1.0064 Y0.8238
N9410 X-1.0279 Y0.7972
N9415 X-1.0344 Y0.7883
N9420 X-1.0911 Y0.7086
N9425 X-1.097 Y0.6998
N9430 X-1.1126 Y0.6732
N9435 X-1.1604 Y0.5888
N9440 X-1.1627 Y0.5846
N9445 X-1.1747 Y0.558
N9450 X-1.1786 Y0.5492
N9455 X-1.2135 Y0.4692
N9460 X-1.2169 Y0.4606
N9465 X-1.2259 Y0.434
N9470 X-1.2542 Y0.3455
N9475 X-1.2611 Y0.3189
N9480 X-1.2632 Y0.31
N9485 X-1.2798 Y0.2303
N9490 X-1.2816 Y0.2214
N9495 X-1.2866 Y0.1949
N9500 X-1.2986 Y0.0797
N9505 X-1.2991 Y0.0709
N9510 X-1.2999 Y0.0443
N9515 Y-0.0443
N9520 X-1.2991 Y-0.0709
N9525 X-1.2986 Y-0.0797
N9530 X-1.2866 Y-0.1949
N9535 X-1.2816 Y-0.2214
N9540 X-1.2798 Y-0.2303
N9545 X-1.2632 Y-0.31
N9550 X-1.2611 Y-0.3189
N9555 X-1.2542 Y-0.3455
N9560 X-1.2259 Y-0.434
N9565 X-1.2169 Y-0.4606
N9570 X-1.2134 Y-0.4695
N9575 X-1.1781 Y-0.5503
N9580 X-1.1747 Y-0.558
N9585 X-1.1627 Y-0.5846
N9590 X-1.1604 Y-0.5888
N9595 X-1.1126 Y-0.6732
N9600 X-1.097 Y-0.6998
N9605 X-1.0911 Y-0.7086
N9610 X-1.0344 Y-0.7883
N9615 X-1.0279 Y-0.7972
N9620 X-1.0064 Y-0.8238
N9625 X-1.0009 Y-0.8302
N9630 X-0.9478 Y-0.8906
N9635 X-0.9442 Y-0.8946
N9640 X-0.9275 Y-0.9124
N9645 X-0.9212 Y-0.9186
N9650 X-0.8592 Y-0.9759
N9655 X-0.8504 Y-0.9839
N9660 X-0.831 Y-1.0009
N9665 X-0.8238 Y-1.007
N9670 X-0.7374 Y-1.0718
N9675 X-0.7352 Y-1.0734
N9680 X-0.7086 Y-1.0905
N9685 X-0.6998 Y-1.096
N9690 X-0.62 Y-1.1439
N9695 X-0.6112 Y-1.1488
N9700 X-0.6023 Y-1.1532
N9705 X-0.5935 Y-1.1574
N9710 X-0.496 Y-1.203
N9715 X-0.4918 Y-1.2047
N9720 X-0.4677 Y-1.2135
N9725 X-0.4606 Y-1.216
N9730 X-0.3809 Y-1.2438
N9735 X-0.372 Y-1.2466
N9740 X-0.3455 Y-1.254
N9745 X-0.3277 Y-1.2582
N9750 X-0.2569 Y-1.275
N9755 X-0.2543 Y-1.2755
N9760 X-0.2303 Y-1.2805
N9765 X-0.2214 Y-1.2821
N9770 X-0.1063 Y-1.297
N9775 X-0.0974 Y-1.2974
N9780 X-0.0797 Y-1.2982
N9785 X-0.0709 Y-1.2985
N9790 X0.0089 Y-1.3005
N9795 X0.0177 Y-1.3006
N9800 X0.0443 Y-1.3003
N9805 X0.0531 Y-1.2996
N9810 X0.1594 Y-1.2914
N9815 X0.1683 Y-1.2904
N9820 X0.1949 Y-1.2858
N9825 X0.2835 Y-1.2696
N9830 X0.2923 Y-1.2676
N9835 X0.31 Y-1.2633
N9840 X0.3189 Y-1.261
N9845 X0.3986 Y-1.2378
N9850 X0.4075 Y-1.2351
N9855 X0.434 Y-1.2266
N9860 X0.4448 Y-1.2224
N9865 X0.5319 Y-1.1869
N9870 X0.5403 Y-1.1834
N9875 X0.5527 Y-1.1781
N9880 X0.558 Y-1.1755
N9885 X0.6466 Y-1.1284
N9890 X0.653 Y-1.1249
N9895 X0.6732 Y-1.1135
N9900 X0.6829 Y-1.1072
N9905 X0.7619 Y-1.0541
N9910 X0.7706 Y-1.0479
N9915 X0.7883 Y-1.0351
N9920 X0.8612 Y-0.9744
N9925 X0.8822 Y-0.9566
N9930 X0.8858 Y-0.9535
N9935 X0.9744 Y-0.8626
N9940 X0.9774 Y-0.8592
N9945 X0.9832 Y-0.8522
N9950 X1.0478 Y-0.7706
N9955 X1.0546 Y-0.7618
N9960 X1.0629 Y-0.7504
N9965 X1.0673 Y-0.7441
N9970 X1.1292 Y-0.6466
N9975 X1.134 Y-0.6378
N9980 X1.1432 Y-0.62
N9985 X1.1477 Y-0.6112
N9990 X1.1876 Y-0.5315
N9995 X1.1917 Y-0.5226
N10000 X1.2021 Y-0.496
N10005 X1.2289 Y-0.4252
N10010 X1.2356 Y-0.4075
N10015 X1.2384 Y-0.3986
N10020 X1.2437 Y-0.3809
N10025 X1.2462 Y-0.372
N10030 X1.2672 Y-0.2923
N10035 X1.2695 Y-0.2835
N10040 X1.2736 Y-0.2657
N10045 X1.2755 Y-0.2569
N10050 X1.2935 Y-0.1417
N10055 X1.2946 Y-0.1329
N10060 X1.2961 Y-0.1063
N10065 X1.3007 Y-0.0177
N10070 X1.3008 Y-0.0089
N10075 Y0.0089
N10080 X1.3007 Y0.0177
N10085 X1.2961 Y0.1063
N10090 X1.2946 Y0.1329
N10095 X1.2935 Y0.1417
N10100 X1.2755 Y0.2569
N10105 X1.2736 Y0.2657
N10110 X1.2695 Y0.2835
N10115 X1.2667 Y0.2944
N10120 X1.2462 Y0.372
N10125 X1.2437 Y0.3809
N10130 X1.2384 Y0.3986
N10135 X1.2356 Y0.4075
N10140 X1.2047 Y0.4894
N10145 X1.2021 Y0.496
N10150 X1.1917 Y0.5226
N10155 X1.1876 Y0.5315
N10160 X1.1477 Y0.6112
N10165 X1.1427 Y0.6211
N10170 X1.1338 Y0.6382
N10175 X1.1292 Y0.6466
N10180 X1.0879 Y0.7116
N10185 X1.0861 Y0.714
N10190 X1.084 Y0.7161
N10195 X1.0815 Y0.7177 Z-0.3541
N10200 X1.079 Y0.7192 Z-0.3536
N10205 X1.0765 Y0.7207 Z-0.3527
N10210 X1.0734 Y0.7214 Z-0.3512
N10215 X1.0705 Y0.722 Z-0.3493
N10220 X1.0679 Y0.7225 Z-0.347
N10225 X1.0673 Z-0.3463
N10230 X1.065 Y0.7222 Z-0.3434
N10235 X1.0631 Y0.7219 Z-0.3402
N10240 X1.0618 Y0.7218 Z-0.3367
N10245 X1.0609 Y0.7216 Z-0.3331
N10250 X1.0607 Z-0.3293
N10255 G0 Z0.2
N10260 X0.9442 Y0.6311
N10265 Z-0.265
N10270 G1 Z-0.29 F15.
N10275 X0.9445 Y0.6312 Z-0.2939
N10280 X0.9453 Y0.6315 Z-0.2977
N10285 X0.9468 Y0.632 Z-0.3013
N10290 X0.9487 Y0.6326 Z-0.3047
N10295 X0.9511 Y0.6334 Z-0.3076
N10300 X0.954 Y0.6343 Z-0.3102
N10305 X0.9572 Y0.6353 Z-0.3122
N10310 X0.9606 Y0.6365 Z-0.3137
N10315 X0.9642 Y0.6377 Z-0.3147
N10320 X0.9679 Y0.6389 Z-0.315
N10325 G3 X1.0933 Y0.6954 I-0.1982 J0.6067
N10330 G1 X1.0983 Y0.6986
N10335 X1.1013 Y0.705
N10340 X1.1015 Y0.712
N10345 X1.099 Y0.7186
N10350 X1.0884 Y0.7352
N10355 X1.0711 Y0.7618
N10360 X1.0645 Y0.7706
N10365 X1.0009 Y0.851
N10370 X0.994 Y0.8592
N10375 X0.9784 Y0.8769
N10380 X0.9744 Y0.8814
N10385 X0.9124 Y0.945
N10390 X0.8858 Y0.9708
N10395 X0.8817 Y0.9744
N10400 X0.7967 Y1.0452
N10405 X0.7883 Y1.0514
N10410 X0.7706 Y1.0639
N10415 X0.7591 Y1.0718
N10420 X0.6821 Y1.1236
N10425 X0.68 Y1.1249
N10430 X0.6732 Y1.1291
N10435 X0.5758 Y1.1809
N10440 X0.5669 Y1.1856
N10445 X0.558 Y1.1901
N10450 X0.5492 Y1.1941
N10455 X0.436 Y1.2401
N10460 X0.434 Y1.2408
N10465 X0.4252 Y1.2436
N10470 X0.4163 Y1.2463
N10475 X0.3159 Y1.2755
N10480 X0.31 Y1.2769
N10485 X0.2923 Y1.281
N10490 X0.2835 Y1.2829
N10495 X0.1949 Y1.2991
N10500 X0.1683 Y1.3036
N10505 X0.1594 Y1.3046
N10510 X0.0531 Y1.3128
N10515 X0.0443 Y1.3134
N10520 X0.0177 Y1.3138
N10525 X0.0089 Y1.3136
N10530 X-0.0709 Y1.3116
N10535 X-0.0797 Y1.3113
N10540 X-0.0974 Y1.3106
N10545 X-0.1063 Y1.3102
N10550 X-0.2214 Y1.2953
N10555 X-0.2303 Y1.2937
N10560 X-0.248 Y1.2902
N10565 X-0.2569 Y1.2884
N10570 X-0.3366 Y1.2696
N10575 X-0.3455 Y1.2675
N10580 X-0.372 Y1.2605
N10585 X-0.3809 Y1.2577
N10590 X-0.4872 Y1.2207
N10595 X-0.496 Y1.2175
N10600 X-0.5138 Y1.2092
N10605 X-0.6112 Y1.1636
N10610 X-0.6175 Y1.1604
N10615 X-0.6289 Y1.1539
N10620 X-0.7263 Y1.0954
N10625 X-0.7352 Y1.0898
N10630 X-0.8238 Y1.0234
N10635 X-0.8415 Y1.0094
N10640 X-0.8504 Y1.002
N10645 X-0.9281 Y0.9301
N10650 X-0.9389 Y0.9197
N10655 X-0.9462 Y0.9124
N10660 X-1.0186 Y0.8299
N10665 X-1.0239 Y0.8238
N10670 X-1.0311 Y0.8149
N10675 X-1.0364 Y0.8082
N10680 X-1.0984 Y0.721
N10685 X-1.1072 Y0.7085
N10690 X-1.1126 Y0.6998
N10695 X-1.1604 Y0.6154
N10700 X-1.1725 Y0.5935
N10705 X-1.1774 Y0.5846
N10710 X-1.2277 Y0.4695
N10715 X-1.2311 Y0.4606
N10720 X-1.2401 Y0.4328
N10725 X-1.268 Y0.3455
N10730 X-1.2746 Y0.3189
N10735 X-1.2755 Y0.3149
N10740 X-1.2932 Y0.2302
N10745 X-1.295 Y0.2214
N10750 X-1.2998 Y0.1949
N10755 X-1.3117 Y0.0797
N10760 X-1.3123 Y0.0709
N10765 X-1.313 Y0.0443
N10770 Y-0.0443
N10775 X-1.3123 Y-0.0709
N10780 X-1.3117 Y-0.0797
N10785 X-1.2998 Y-0.1949
N10790 X-1.295 Y-0.2214
N10795 X-1.2932 Y-0.2303
N10800 X-1.2755 Y-0.3149
N10805 X-1.2746 Y-0.3189
N10810 X-1.268 Y-0.3455
N10815 X-1.2397 Y-0.434
N10820 X-1.2311 Y-0.4606
N10825 X-1.2277 Y-0.4695
N10830 X-1.1774 Y-0.5846
N10835 X-1.1692 Y-0.5994
N10840 X-1.1604 Y-0.6154
N10845 X-1.1126 Y-0.6998
N10850 X-1.1071 Y-0.7086
N10855 X-1.0883 Y-0.7352
N10860 X-1.0364 Y-0.8082
N10865 X-1.0311 Y-0.8149
N10870 X-1.0239 Y-0.8238
N10875 X-1.0186 Y-0.8299
N10880 X-0.9462 Y-0.9124
N10885 X-0.9389 Y-0.9197
N10890 X-0.9281 Y-0.9301
N10895 X-0.8504 Y-1.002
N10900 X-0.841 Y-1.0098
N10905 X-0.8238 Y-1.0234
N10910 X-0.7352 Y-1.0898
N10915 X-0.7263 Y-1.0954
N10920 X-0.6289 Y-1.1539
N10925 X-0.6175 Y-1.1604
N10930 X-0.6112 Y-1.1636
N10935 X-0.5046 Y-1.2135
N10940 X-0.496 Y-1.2175
N10945 X-0.4872 Y-1.2207
N10950 X-0.3804 Y-1.2578
N10955 X-0.372 Y-1.2605
N10960 X-0.3455 Y-1.2675
N10965 X-0.31 Y-1.2759
N10970 X-0.2569 Y-1.2884
N10975 X-0.248 Y-1.2902
N10980 X-0.2303 Y-1.2937
N10985 X-0.2214 Y-1.2953
N10990 X-0.1063 Y-1.3102
N10995 X-0.0974 Y-1.3106
N11000 X-0.0797 Y-1.3113
N11005 X-0.0709 Y-1.3116
N11010 X0.0089 Y-1.3136
N11015 X0.0177 Y-1.3138
N11020 X0.0443 Y-1.3134
N11025 X0.0531 Y-1.3128
N11030 X0.1594 Y-1.3046
N11035 X0.1683 Y-1.3036
N11040 X0.1949 Y-1.2991
N11045 X0.2835 Y-1.2829
N11050 X0.2923 Y-1.281
N11055 X0.31 Y-1.2769
N11060 X0.3159 Y-1.2755
N11065 X0.4163 Y-1.2463
N11070 X0.4252 Y-1.2436
N11075 X0.434 Y-1.2408
N11080 X0.436 Y-1.2401
N11085 X0.5492 Y-1.1941
N11090 X0.558 Y-1.1901
N11095 X0.5669 Y-1.1856
N11100 X0.5846 Y-1.1762
N11105 X0.6732 Y-1.1291
N11110 X0.68 Y-1.1249
N11115 X0.6909 Y-1.1176
N11120 X0.7618 Y-1.07
N11125 X0.7706 Y-1.0639
N11130 X0.7883 Y-1.0514
N11135 X0.7967 Y-1.0452
N11140 X0.8817 Y-0.9744
N11145 X0.8858 Y-0.9708
N11150 X0.9124 Y-0.945
N11155 X0.9744 Y-0.8814
N11160 X0.9862 Y-0.8681
N11165 X0.994 Y-0.8592
N11170 X1.0009 Y-0.851
N11175 X1.0645 Y-0.7706
N11180 X1.0711 Y-0.7618
N11185 X1.0895 Y-0.7335
N11190 X1.1249 Y-0.6778
N11195 X1.1444 Y-0.6466
N11200 X1.1491 Y-0.6378
N11205 X1.1889 Y-0.558
N11210 X1.2047 Y-0.5262
N11215 X1.2062 Y-0.5226
N11220 X1.2496 Y-0.4075
N11225 X1.2523 Y-0.3986
N11230 X1.2578 Y-0.3791
N11235 X1.2598 Y-0.372
N11240 X1.2808 Y-0.2923
N11245 X1.283 Y-0.2835
N11250 X1.2887 Y-0.2569
N11255 X1.2902 Y-0.248
N11260 X1.3067 Y-0.1417
N11265 X1.3079 Y-0.1329
N11270 X1.3138 Y-0.0177
N11275 X1.3139 Y-0.0089
N11280 Y0.0089
N11285 X1.3138 Y0.0177
N11290 X1.3079 Y0.1329
N11295 X1.3067 Y0.1417
N11300 X1.2902 Y0.248
N11305 X1.2887 Y0.2569
N11310 X1.283 Y0.2835
N11315 X1.2808 Y0.2923
N11320 X1.2598 Y0.372
N11325 X1.2573 Y0.3809
N11330 X1.2523 Y0.3986
N11335 X1.2496 Y0.4075
N11340 X1.2062 Y0.5226
N11345 X1.2047 Y0.5262
N11350 X1.1889 Y0.558
N11355 X1.1491 Y0.6378
N11360 X1.1444 Y0.6466
N11365 X1.1249 Y0.6778
N11370 X1.099 Y0.7186
N11375 X1.0972 Y0.7209
N11380 X1.0951 Y0.723
N11385 X1.0926 Y0.7246 Z-0.3148
N11390 X1.0901 Y0.7262 Z-0.3142
N11395 X1.0876 Y0.7277 Z-0.3133
N11400 X1.0845 Y0.7283 Z-0.3119
N11405 X1.0816 Y0.7289 Z-0.3099
N11410 X1.079 Y0.7295 Z-0.3076
N11415 X1.0784 Z-0.307
N11420 X1.0761 Y0.7292 Z-0.3041
N11425 X1.0742 Y0.7289 Z-0.3008
N11430 X1.0729 Y0.7287 Z-0.2973
N11435 X1.0721 Y0.7286 Z-0.2937
N11440 X1.0718 Z-0.29
N11445 G0 Z0.2
N11450 X0.9587 Y0.6404
N11455 Z-0.2256
N11460 G1 Z-0.2506 F15.
N11465 X0.959 Z-0.2545
N11470 X0.9599 Y0.6407 Z-0.2583
N11475 X0.9613 Y0.6412 Z-0.2619
N11480 X0.9632 Y0.6418 Z-0.2653
N11485 X0.9657 Y0.6426 Z-0.2683
N11490 X0.9685 Y0.6436 Z-0.2708
N11495 X0.9717 Y0.6446 Z-0.2729
N11500 X0.9751 Y0.6457 Z-0.2744
N11505 X0.9788 Y0.6469 Z-0.2753
N11510 X0.9825 Y0.6481 Z-0.2756
N11515 G3 X1.1078 Y0.7046 I-0.1982 J0.6067
N11520 G1 X1.1129 Y0.7079
N11525 X1.1141 Y0.7115
N11530 X1.1139 Y0.7154
N11535 X1.1125 Y0.719
N11540 X1.0852 Y0.7618
N11545 X1.0807 Y0.7683
N11550 X1.0652 Y0.7883
N11555 X1.0092 Y0.8592
N11560 X1.0019 Y0.8681
N11565 X0.9921 Y0.8792
N11570 X0.9863 Y0.8858
N11575 X0.9172 Y0.9566
N11580 X0.9035 Y0.9705
N11585 X0.8996 Y0.9744
N11590 X0.8946 Y0.9786
N11595 X0.8238 Y1.0377
N11600 X0.7972 Y1.0597
N11605 X0.7929 Y1.0629
N11610 X0.7086 Y1.1197
N11615 X0.7007 Y1.1249
N11620 X0.6821 Y1.1367
N11625 X0.6732 Y1.1422
N11630 X0.5846 Y1.1893
N11635 X0.558 Y1.2026
N11640 X0.5538 Y1.2047
N11645 X0.4517 Y1.2462
N11650 X0.4429 Y1.2497
N11655 X0.434 Y1.2532
N11660 X0.3189 Y1.2867
N11665 X0.31 Y1.2889
N11670 X0.2903 Y1.2932
N11675 X0.2835 Y1.2947
N11680 X0.1949 Y1.3108
N11685 X0.1683 Y1.3152
N11690 X0.1594 Y1.3162
N11695 X0.0531 Y1.3244
N11700 X0.0443 Y1.325
N11705 X0.0177 Y1.3253
N11710 X0.0089 Y1.3252
N11715 X-0.0709 Y1.3232
N11720 X-0.0886 Y1.3226
N11725 X-0.0974 Y1.3223
N11730 X-0.1063 Y1.3218
N11735 X-0.2303 Y1.3058
N11740 X-0.2392 Y1.3045
N11745 X-0.3632 Y1.2752
N11750 X-0.372 Y1.2728
N11755 X-0.3809 Y1.2699
N11760 X-0.492 Y1.2312
N11765 X-0.496 Y1.2297
N11770 X-0.5226 Y1.2178
N11775 X-0.5318 Y1.2135
N11780 X-0.6112 Y1.1764
N11785 X-0.62 Y1.1717
N11790 X-0.6402 Y1.1604
N11795 X-0.6466 Y1.1567
N11800 X-0.729 Y1.1072
N11805 X-0.7352 Y1.1035
N11810 X-0.7441 Y1.0974
N11815 X-0.7529 Y1.091
N11820 X-0.8257 Y1.0364
N11825 X-0.8371 Y1.0275
N11830 X-0.8504 Y1.0171
N11835 X-0.8592 Y1.0096
N11840 X-0.9389 Y0.9358
N11845 X-0.945 Y0.9301
N11850 X-0.9566 Y0.9177
N11855 X-0.9616 Y0.9124
N11860 X-1.0364 Y0.8272
N11865 X-1.0392 Y0.8238
N11870 X-1.0584 Y0.7972
N11875 X-1.0984 Y0.741
N11880 X-1.1025 Y0.7352
N11885 X-1.1205 Y0.7086
N11890 X-1.1249 Y0.7015
N11895 X-1.1811 Y0.6023
N11900 X-1.1858 Y0.5935
N11905 X-1.19 Y0.5846
N11910 X-1.2287 Y0.496
N11915 X-1.2401 Y0.4693
N11920 X-1.2434 Y0.4606
N11925 X-1.2801 Y0.3455
N11930 X-1.2844 Y0.3275
N11935 X-1.2864 Y0.3189
N11940 X-1.2884 Y0.31
N11945 X-1.305 Y0.2303
N11950 X-1.3068 Y0.2214
N11955 X-1.3114 Y0.1949
N11960 X-1.3234 Y0.0797
N11965 X-1.3239 Y0.0709
N11970 X-1.3245 Y0.0443
N11975 Y-0.0443
N11980 X-1.3239 Y-0.0709
N11985 X-1.3234 Y-0.0797
N11990 X-1.3114 Y-0.1949
N11995 X-1.3068 Y-0.2214
N12000 X-1.305 Y-0.2303
N12005 X-1.2884 Y-0.31
N12010 X-1.2864 Y-0.3189
N12015 X-1.2822 Y-0.3366
N12020 X-1.2801 Y-0.3455
N12025 X-1.2434 Y-0.4606
N12030 X-1.24 Y-0.4695
N12035 X-1.2287 Y-0.496
N12040 X-1.19 Y-0.5846
N12045 X-1.1858 Y-0.5935
N12050 X-1.1811 Y-0.6023
N12055 X-1.1249 Y-0.7015
N12060 X-1.1205 Y-0.7086
N12065 X-1.1025 Y-0.7352
N12070 X-1.0629 Y-0.7908
N12075 X-1.052 Y-0.8061
N12080 X-1.0392 Y-0.8238
N12085 X-1.0364 Y-0.8272
N12090 X-0.9616 Y-0.9124
N12095 X-0.9566 Y-0.9177
N12100 X-0.945 Y-0.9301
N12105 X-0.9355 Y-0.9389
N12110 X-0.859 Y-1.0098
N12115 X-0.8504 Y-1.0171
N12120 X-0.8326 Y-1.031
N12125 X-0.8257 Y-1.0364
N12130 X-0.7529 Y-1.091
N12135 X-0.7441 Y-1.0974
N12140 X-0.7352 Y-1.1035
N12145 X-0.7263 Y-1.1088
N12150 X-0.6466 Y-1.1567
N12155 X-0.6378 Y-1.1618
N12160 X-0.62 Y-1.1717
N12165 X-0.6112 Y-1.1764
N12170 X-0.5315 Y-1.2137
N12175 X-0.5226 Y-1.2178
N12180 X-0.496 Y-1.2297
N12185 X-0.492 Y-1.2312
N12190 X-0.3809 Y-1.2699
N12195 X-0.372 Y-1.2728
N12200 X-0.3632 Y-1.2752
N12205 X-0.2392 Y-1.3045
N12210 X-0.2303 Y-1.3058
N12215 X-0.1063 Y-1.3218
N12220 X-0.0974 Y-1.3223
N12225 X-0.0797 Y-1.3229
N12230 X-0.0709 Y-1.3232
N12235 X0.0089 Y-1.3252
N12240 X0.0177 Y-1.3253
N12245 X0.0443 Y-1.325
N12250 X0.0531 Y-1.3244
N12255 X0.1594 Y-1.3162
N12260 X0.1683 Y-1.3152
N12265 X0.1949 Y-1.3108
N12270 X0.2835 Y-1.2947
N12275 X0.2923 Y-1.2928
N12280 X0.31 Y-1.2889
N12285 X0.3189 Y-1.2867
N12290 X0.434 Y-1.2532
N12295 X0.4448 Y-1.249
N12300 X0.4695 Y-1.239
N12305 X0.5538 Y-1.2047
N12310 X0.558 Y-1.2026
N12315 X0.5846 Y-1.1893
N12320 X0.6732 Y-1.1422
N12325 X0.6821 Y-1.1367
N12330 X0.7007 Y-1.1249
N12335 X0.7798 Y-1.0718
N12340 X0.7929 Y-1.0629
N12345 X0.7972 Y-1.0597
N12350 X0.8254 Y-1.0364
N12355 X0.8946 Y-0.9786
N12360 X0.8996 Y-0.9744
N12365 X0.9124 Y-0.9616
N12370 X0.9172 Y-0.9566
N12375 X0.9863 Y-0.8858
N12380 X0.9941 Y-0.8769
N12385 X1.0019 Y-0.8681
N12390 X1.0098 Y-0.8584
N12395 X1.0652 Y-0.7883
N12400 X1.0807 Y-0.7683
N12405 X1.0852 Y-0.7618
N12410 X1.1416 Y-0.6732
N12415 X1.1527 Y-0.6555
N12420 X1.1576 Y-0.6466
N12425 X1.2135 Y-0.5347
N12430 X1.2151 Y-0.5315
N12435 X1.2185 Y-0.5226
N12440 X1.2619 Y-0.4075
N12445 X1.2646 Y-0.3986
N12450 X1.2717 Y-0.372
N12455 X1.2932 Y-0.2904
N12460 X1.295 Y-0.2835
N12465 X1.3004 Y-0.2569
N12470 X1.3021 Y-0.2467
N12475 X1.3143 Y-0.1683
N12480 X1.3183 Y-0.1417
N12485 X1.3195 Y-0.1329
N12490 X1.3254 Y-0.0177
N12495 X1.3255 Y-0.0089
N12500 Y0.0089
N12505 X1.3254 Y0.0177
N12510 X1.3195 Y0.1329
N12515 X1.3183 Y0.1417
N12520 X1.3143 Y0.1683
N12525 X1.3019 Y0.248
N12530 X1.3004 Y0.2569
N12535 X1.295 Y0.2835
N12540 X1.2932 Y0.2904
N12545 X1.2717 Y0.372
N12550 X1.2646 Y0.3986
N12555 X1.2619 Y0.4075
N12560 X1.2185 Y0.5226
N12565 X1.2151 Y0.5315
N12570 X1.2135 Y0.5347
N12575 X1.1576 Y0.6466
N12580 X1.1527 Y0.6555
N12585 X1.1416 Y0.6732
N12590 X1.1125 Y0.719
N12595 X1.1107 Y0.7213
N12600 X1.1086 Y0.7234
N12605 X1.106 Y0.725 Z-0.2754
N12610 X1.1035 Y0.7266 Z-0.2749
N12615 X1.1011 Y0.7281 Z-0.274
N12620 X1.098 Y0.7287 Z-0.2725
N12625 X1.0951 Y0.7293 Z-0.2706
N12630 X1.0925 Y0.7298 Z-0.2683
N12635 X1.0919 Z-0.2676
N12640 X1.0895 Y0.7295 Z-0.2647
N12645 X1.0877 Y0.7293 Z-0.2615
N12650 X1.0863 Y0.7291 Z-0.258
N12655 X1.0855 Y0.729 Z-0.2543
N12660 X1.0852 Y0.7289 Z-0.2506
N12665 G0 Z0.2
N12670 X0.9928 Y-0.6009
N12675 Z-0.1862
N12680 G1 Z-0.2112 F15.
N12685 X0.993 Y-0.6012 Z-0.2151
N12690 X0.9936 Y-0.6018 Z-0.2189
N12695 X0.9947 Y-0.6029 Z-0.2226
N12700 X0.9961 Y-0.6044 Z-0.2259
N12705 X0.9978 Y-0.6063 Z-0.2289
N12710 X0.9999 Y-0.6085 Z-0.2314
N12715 X1.0021 Y-0.6109 Z-0.2335
N12720 X1.0046 Y-0.6135 Z-0.235
N12725 X1.0072 Y-0.6163 Z-0.2359
N12730 X1.0099 Y-0.6192 Z-0.2362
N12735 G3 X1.1142 Y-0.7087 I0.4655 J0.4367
N12740 G1 X1.1193 Y-0.712
N12745 X1.1229 Y-0.7119
N12750 X1.1261 Y-0.7105
N12755 X1.1286 Y-0.7079
N12760 X1.1515 Y-0.6719
N12765 X1.1561 Y-0.6643
N12770 X1.166 Y-0.6466
N12775 X1.1692 Y-0.6405
N12780 X1.2135 Y-0.5519
N12785 X1.2148 Y-0.5492
N12790 X1.2229 Y-0.5315
N12795 X1.2267 Y-0.5226
N12800 X1.2601 Y-0.434
N12805 X1.2701 Y-0.4075
N12810 X1.2727 Y-0.3986
N12815 X1.303 Y-0.2835
N12820 X1.3051 Y-0.2746
N12825 X1.3082 Y-0.2569
N12830 X1.3097 Y-0.248
N12835 X1.3221 Y-0.1683
N12840 X1.326 Y-0.1417
N12845 X1.3272 Y-0.1329
N12850 X1.3331 Y-0.0177
N12855 X1.3332 Y-0.0089
N12860 Y0.0089
N12865 X1.3331 Y0.0177
N12870 X1.3272 Y0.1329
N12875 X1.326 Y0.1417
N12880 X1.3221 Y0.1683
N12885 X1.3097 Y0.248
N12890 X1.3082 Y0.2569
N12895 X1.3051 Y0.2746
N12900 X1.303 Y0.2835
N12905 X1.2727 Y0.3986
N12910 X1.2701 Y0.4075
N12915 X1.2568 Y0.4429
N12920 X1.2267 Y0.5226
N12925 X1.2224 Y0.5326
N12930 X1.2148 Y0.5492
N12935 X1.2135 Y0.5519
N12940 X1.1692 Y0.6405
N12945 X1.166 Y0.6466
N12950 X1.1561 Y0.6643
N12955 X1.1515 Y0.6719
N12960 X1.0944 Y0.7618
N12965 X1.0895 Y0.7687
N12970 X1.0718 Y0.7923
N12975 X1.0681 Y0.7972
N12980 X1.0049 Y0.8769
N12985 X1.0009 Y0.8814
N12990 X0.997 Y0.8858
N12995 X0.9107 Y0.9744
N13000 X0.9005 Y0.9832
N13005 X0.8858 Y0.996
N13010 X0.8769 Y1.0034
N13015 X0.8055 Y1.0629
N13020 X0.7972 Y1.0692
N13025 X0.7935 Y1.0718
N13030 X0.7086 Y1.1289
N13035 X0.7011 Y1.1338
N13040 X0.6821 Y1.1455
N13045 X0.6732 Y1.1509
N13050 X0.5888 Y1.1958
N13055 X0.5846 Y1.198
N13060 X0.558 Y1.211
N13065 X0.5524 Y1.2135
N13070 X0.4653 Y1.249
N13075 X0.4428 Y1.2578
N13080 X0.434 Y1.2612
N13085 X0.3189 Y1.2947
N13090 X0.31 Y1.2969
N13095 X0.2856 Y1.3021
N13100 X0.2835 Y1.3025
N13105 X0.1949 Y1.3186
N13110 X0.1683 Y1.3229
N13115 X0.1594 Y1.3239
N13120 X0.0531 Y1.3321
N13125 X0.0443 Y1.3327
N13130 X0.0177 Y1.333
N13135 X0.0089 Y1.3329
N13140 X-0.0709 Y1.3309
N13145 X-0.0974 Y1.33
N13150 X-0.1063 Y1.3296
N13155 X-0.2214 Y1.3147
N13160 X-0.2303 Y1.3132
N13165 X-0.248 Y1.3099
N13170 X-0.2569 Y1.3082
N13175 X-0.3455 Y1.2873
N13180 X-0.372 Y1.2808
N13185 X-0.3809 Y1.278
N13190 X-0.49 Y1.2401
N13195 X-0.496 Y1.2379
N13200 X-0.5226 Y1.2262
N13205 X-0.5315 Y1.2222
N13210 X-0.6112 Y1.1849
N13215 X-0.62 Y1.1803
N13220 X-0.6403 Y1.1692
N13225 X-0.6466 Y1.1657
N13230 X-0.7292 Y1.1161
N13235 X-0.7352 Y1.1124
N13240 X-0.7555 Y1.0984
N13245 X-0.7618 Y1.094
N13250 X-0.8504 Y1.0275
N13255 X-0.8592 Y1.02
N13260 X-0.9389 Y0.9463
N13265 X-0.9466 Y0.9389
N13270 X-0.9655 Y0.9191
N13275 X-0.9718 Y0.9124
N13280 X-1.0341 Y0.8415
N13285 X-1.0452 Y0.8283
N13290 X-1.0489 Y0.8238
N13295 X-1.1245 Y0.7175
N13300 X-1.1249 Y0.7168
N13305 X-1.1297 Y0.7086
N13310 X-1.1348 Y0.6998
N13315 X-1.1799 Y0.62
N13320 X-1.1849 Y0.6112
N13325 X-1.1984 Y0.5846
N13330 X-1.241 Y0.4872
N13335 X-1.2448 Y0.4783
N13340 X-1.249 Y0.4677
N13345 X-1.2514 Y0.4606
N13350 X-1.2882 Y0.3455
N13355 X-1.2902 Y0.3366
N13360 X-1.2943 Y0.3189
N13365 X-1.2962 Y0.31
N13370 X-1.3129 Y0.2303
N13375 X-1.3146 Y0.2214
N13380 X-1.3192 Y0.1949
N13385 X-1.3311 Y0.0797
N13390 X-1.3317 Y0.0709
N13395 X-1.3322 Y0.0443
N13400 Y-0.0443
N13405 X-1.3317 Y-0.0709
N13410 X-1.3311 Y-0.0797
N13415 X-1.3192 Y-0.1949
N13420 X-1.3146 Y-0.2214
N13425 X-1.3129 Y-0.2303
N13430 X-1.2962 Y-0.31
N13435 X-1.2943 Y-0.3189
N13440 X-1.2902 Y-0.3366
N13445 X-1.2882 Y-0.3455
N13450 X-1.2514 Y-0.4606
N13455 X-1.249 Y-0.4677
N13460 X-1.2448 Y-0.4783
N13465 X-1.2401 Y-0.4892
N13470 X-1.1984 Y-0.5846
N13475 X-1.1849 Y-0.6112
N13480 X-1.1749 Y-0.6289
N13485 X-1.1338 Y-0.7015
N13490 X-1.1297 Y-0.7086
N13495 X-1.1249 Y-0.7168
N13500 X-1.1245 Y-0.7175
N13505 X-1.0489 Y-0.8238
N13510 X-1.0452 Y-0.8283
N13515 X-1.0341 Y-0.8415
N13520 X-0.9718 Y-0.9124
N13525 X-0.9655 Y-0.9191
N13530 X-0.9466 Y-0.9389
N13535 X-0.9389 Y-0.9463
N13540 X-0.8592 Y-1.02
N13545 X-0.8503 Y-1.0275
N13550 X-0.7618 Y-1.094
N13555 X-0.7427 Y-1.1072
N13560 X-0.7352 Y-1.1124
N13565 X-0.7263 Y-1.1178
N13570 X-0.6466 Y-1.1657
N13575 X-0.6378 Y-1.1706
N13580 X-0.62 Y-1.1803
N13585 X-0.6112 Y-1.1849
N13590 X-0.5311 Y-1.2224
N13595 X-0.5226 Y-1.2262
N13600 X-0.496 Y-1.2379
N13605 X-0.49 Y-1.2401
N13610 X-0.3809 Y-1.278
N13615 X-0.372 Y-1.2808
N13620 X-0.3455 Y-1.2873
N13625 X-0.2569 Y-1.3082
N13630 X-0.248 Y-1.3099
N13635 X-0.2303 Y-1.3132
N13640 X-0.2214 Y-1.3147
N13645 X-0.1063 Y-1.3296
N13650 X-0.0974 Y-1.33
N13655 X-0.0709 Y-1.3309
N13660 X0.0089 Y-1.3329
N13665 X0.0177 Y-1.333
N13670 X0.0443 Y-1.3327
N13675 X0.0531 Y-1.3321
N13680 X0.1594 Y-1.3239
N13685 X0.1683 Y-1.3229
N13690 X0.1949 Y-1.3186
N13695 X0.2835 Y-1.3025
N13700 X0.2856 Y-1.3021
N13705 X0.31 Y-1.2969
N13710 X0.3189 Y-1.2947
N13715 X0.434 Y-1.2612
N13720 X0.4429 Y-1.2578
N13725 X0.4653 Y-1.249
N13730 X0.5524 Y-1.2135
N13735 X0.558 Y-1.211
N13740 X0.5846 Y-1.198
N13745 X0.6054 Y-1.1869
N13750 X0.6732 Y-1.1509
N13755 X0.6821 Y-1.1455
N13760 X0.7011 Y-1.1338
N13765 X0.7086 Y-1.1289
N13770 X0.7935 Y-1.0718
N13775 X0.7972 Y-1.0692
N13780 X0.8055 Y-1.0629
N13785 X0.8799 Y-1.0009
N13790 X0.8858 Y-0.996
N13795 X0.9035 Y-0.9806
N13800 X0.9107 Y-0.9744
N13805 X0.997 Y-0.8858
N13810 X1.0009 Y-0.8814
N13815 X1.0049 Y-0.8769
N13820 X1.0681 Y-0.7972
N13825 X1.0718 Y-0.7923
N13830 X1.0895 Y-0.7687
N13835 X1.0944 Y-0.7618
N13840 X1.1286 Y-0.7079
N13845 X1.13 Y-0.7053
N13850 X1.131 Y-0.7025
N13855 X1.1315 Y-0.6988 Z-0.2359
N13860 X1.1321 Y-0.6952 Z-0.2351
N13865 X1.1315 Y-0.6922 Z-0.2339
N13870 X1.131 Y-0.6893 Z-0.2323
N13875 X1.1305 Y-0.6866 Z-0.2303
N13880 X1.1292 Y-0.6844 Z-0.2277
N13885 X1.1281 Y-0.6825 Z-0.2249
N13890 X1.1273 Y-0.681 Z-0.2217
N13895 X1.1266 Y-0.6799 Z-0.2183
N13900 X1.1262 Y-0.6793 Z-0.2148
N13905 X1.1261 Y-0.679 Z-0.2112
N13910 G0 Z0.2
N13915 X0.9319 Y-0.7047
N13920 Z-0.1469
N13925 G1 Z-0.1719 F15.
N13930 X0.9321 Y-0.7049 Z-0.1758
N13935 X0.9326 Y-0.7057 Z-0.1796
N13940 X0.9335 Y-0.7069 Z-0.1832
N13945 X0.9348 Y-0.7085 Z-0.1865
N13950 X0.9363 Y-0.7105 Z-0.1895
N13955 X0.9381 Y-0.7129 Z-0.1921
N13960 X0.9402 Y-0.7156 Z-0.1941
N13965 X0.9424 Y-0.7184 Z-0.1956
N13970 X0.9447 Y-0.7215 Z-0.1965
N13975 X0.947 Y-0.7246 Z-0.1969
N13980 G3 X1.0416 Y-0.8244 I0.5079 J0.3865
N13985 G1 X1.0463 Y-0.8281
N13990 X1.0498 Y-0.8284
N13995 X1.0531 Y-0.8274
N14000 X1.0558 Y-0.8251
N14005 X1.0807 Y-0.7936
N14010 X1.0917 Y-0.7795
N14015 X1.0978 Y-0.7706
N14020 X1.1542 Y-0.6821
N14025 X1.1597 Y-0.6732
N14030 X1.1746 Y-0.6466
N14035 X1.1781 Y-0.64
N14040 X1.2191 Y-0.558
N14045 X1.2224 Y-0.551
N14050 X1.2312 Y-0.5312
N14055 X1.235 Y-0.5226
N14060 X1.2717 Y-0.4252
N14065 X1.275 Y-0.4163
N14070 X1.2781 Y-0.4075
N14075 X1.2806 Y-0.3986
N14080 X1.3086 Y-0.2923
N14085 X1.3108 Y-0.2835
N14090 X1.316 Y-0.2569
N14095 X1.3174 Y-0.248
N14100 X1.334 Y-0.1417
N14105 X1.3349 Y-0.1329
N14110 X1.3408 Y-0.0177
N14115 X1.3409 Y-0.0089
N14120 Y0.0089
N14125 X1.3408 Y0.0177
N14130 X1.3349 Y0.1329
N14135 X1.334 Y0.1417
N14140 X1.3174 Y0.248
N14145 X1.316 Y0.2569
N14150 X1.3108 Y0.2835
N14155 X1.3086 Y0.2923
N14160 X1.2806 Y0.3986
N14165 X1.2781 Y0.4075
N14170 X1.275 Y0.4163
N14175 X1.2717 Y0.4252
N14180 X1.235 Y0.5226
N14185 X1.2311 Y0.5315
N14190 X1.2224 Y0.551
N14195 X1.219 Y0.558
N14200 X1.1781 Y0.64
N14205 X1.1746 Y0.6466
N14210 X1.1597 Y0.6732
N14215 X1.1542 Y0.6821
N14220 X1.0978 Y0.7706
N14225 X1.0917 Y0.7795
N14230 X1.0779 Y0.7972
N14235 X1.0098 Y0.8832
N14240 X1.0076 Y0.8858
N14245 X1.0009 Y0.8928
N14250 X0.9212 Y0.9746
N14255 X0.9124 Y0.9833
N14260 X0.8858 Y1.006
N14265 X0.8175 Y1.0629
N14270 X0.8149 Y1.065
N14275 X0.7941 Y1.0807
N14280 X0.7086 Y1.1382
N14285 X0.7017 Y1.1427
N14290 X0.6875 Y1.1515
N14295 X0.6821 Y1.1549
N14300 X0.5719 Y1.2135
N14305 X0.5669 Y1.2158
N14310 X0.5511 Y1.2224
N14315 X0.4695 Y1.2556
N14320 X0.4639 Y1.2578
N14325 X0.4408 Y1.2667
N14330 X0.434 Y1.2692
N14335 X0.3189 Y1.3027
N14340 X0.31 Y1.305
N14345 X0.2835 Y1.3103
N14350 X0.1949 Y1.3265
N14355 X0.1683 Y1.3306
N14360 X0.1594 Y1.3316
N14365 X0.0531 Y1.3398
N14370 X0.0443 Y1.3404
N14375 X0.0177 Y1.3407
N14380 X0.0089 Y1.3406
N14385 X-0.0709 Y1.3385
N14390 X-0.1042 Y1.3375
N14395 X-0.1063 Y1.3373
N14400 X-0.2214 Y1.3224
N14405 X-0.2303 Y1.321
N14410 X-0.248 Y1.3178
N14415 X-0.2569 Y1.3161
N14420 X-0.372 Y1.2889
N14425 X-0.3809 Y1.2862
N14430 X-0.496 Y1.2461
N14435 X-0.5049 Y1.2426
N14440 X-0.5226 Y1.2348
N14445 X-0.5315 Y1.2307
N14450 X-0.6289 Y1.1851
N14455 X-0.6378 Y1.1799
N14460 X-0.6556 Y1.1692
N14465 X-0.7294 Y1.1249
N14470 X-0.7352 Y1.1214
N14475 X-0.7618 Y1.1034
N14480 X-0.7687 Y1.0984
N14485 X-0.8514 Y1.0364
N14490 X-0.8592 Y1.0299
N14495 X-0.8681 Y1.0222
N14500 X-0.872 Y1.0186
N14505 X-0.9486 Y0.9478
N14510 X-0.9566 Y0.9397
N14515 X-0.9744 Y0.921
N14520 X-0.9921 Y0.9009
N14525 X-1.0287 Y0.8592
N14530 X-1.0364 Y0.8504
N14535 X-1.0541 Y0.8291
N14540 X-1.0584 Y0.8238
N14545 X-1.1214 Y0.7352
N14550 X-1.1249 Y0.73
N14555 X-1.1383 Y0.7086
N14560 X-1.1427 Y0.7014
N14565 X-1.1887 Y0.62
N14570 X-1.1935 Y0.6112
N14575 X-1.2068 Y0.5846
N14580 X-1.2455 Y0.496
N14585 X-1.2578 Y0.4656
N14590 X-1.2595 Y0.4606
N14595 X-1.2963 Y0.3455
N14600 X-1.2983 Y0.3366
N14605 X-1.3022 Y0.3189
N14610 X-1.3041 Y0.31
N14615 X-1.3207 Y0.2303
N14620 X-1.3224 Y0.2214
N14625 X-1.3269 Y0.1949
N14630 X-1.3388 Y0.0797
N14635 X-1.3394 Y0.0709
N14640 X-1.3399 Y0.0443
N14645 Y-0.0443
N14650 X-1.3394 Y-0.0709
N14655 X-1.3388 Y-0.0797
N14660 X-1.3269 Y-0.1949
N14665 X-1.3224 Y-0.2214
N14670 X-1.3207 Y-0.2303
N14675 X-1.3041 Y-0.31
N14680 X-1.3021 Y-0.3192
N14685 X-1.2983 Y-0.3366
N14690 X-1.2963 Y-0.3455
N14695 X-1.2595 Y-0.4606
N14700 X-1.2578 Y-0.4656
N14705 X-1.2455 Y-0.496
N14710 X-1.2068 Y-0.5846
N14715 X-1.1935 Y-0.6112
N14720 X-1.1887 Y-0.62
N14725 X-1.1427 Y-0.7014
N14730 X-1.1383 Y-0.7086
N14735 X-1.1249 Y-0.73
N14740 X-1.1213 Y-0.7352
N14745 X-1.0584 Y-0.8238
N14750 X-1.0541 Y-0.8291
N14755 X-1.0364 Y-0.8504
N14760 X-1.0275 Y-0.8606
N14765 X-0.982 Y-0.9124
N14770 X-0.9742 Y-0.9212
N14775 X-0.9566 Y-0.9397
N14780 X-0.9486 Y-0.9478
N14785 X-0.872 Y-1.0186
N14790 X-0.8681 Y-1.0222
N14795 X-0.8592 Y-1.0299
N14800 X-0.8514 Y-1.0364
N14805 X-0.7687 Y-1.0984
N14810 X-0.7618 Y-1.1034
N14815 X-0.7352 Y-1.1214
N14820 X-0.7263 Y-1.1268
N14825 X-0.6409 Y-1.1781
N14830 X-0.6378 Y-1.1799
N14835 X-0.6289 Y-1.1851
N14840 X-0.5303 Y-1.2312
N14845 X-0.5226 Y-1.2348
N14850 X-0.5049 Y-1.2426
N14855 X-0.496 Y-1.2461
N14860 X-0.3809 Y-1.2862
N14865 X-0.372 Y-1.2889
N14870 X-0.2569 Y-1.3161
N14875 X-0.248 Y-1.3178
N14880 X-0.2303 Y-1.321
N14885 X-0.2214 Y-1.3224
N14890 X-0.1063 Y-1.3373
N14895 X-0.1042 Y-1.3375
N14900 X-0.0709 Y-1.3385
N14905 X0.0089 Y-1.3406
N14910 X0.0177 Y-1.3407
N14915 X0.0443 Y-1.3404
N14920 X0.0531 Y-1.3398
N14925 X0.1594 Y-1.3316
N14930 X0.1683 Y-1.3306
N14935 X0.1949 Y-1.3265
N14940 X0.2835 Y-1.3103
N14945 X0.31 Y-1.305
N14950 X0.3189 Y-1.3027
N14955 X0.434 Y-1.2692
N14960 X0.4429 Y-1.2659
N14965 X0.4639 Y-1.2578
N14970 X0.4783 Y-1.252
N14975 X0.5511 Y-1.2224
N14980 X0.5669 Y-1.2158
N14985 X0.5719 Y-1.2135
N14990 X0.6821 Y-1.1549
N14995 X0.6998 Y-1.1439
N15000 X0.7017 Y-1.1427
N15005 X0.7086 Y-1.1382
N15010 X0.7941 Y-1.0807
N15015 X0.8149 Y-1.065
N15020 X0.8175 Y-1.0629
N15025 X0.8858 Y-1.006
N15030 X0.9124 Y-0.9832
N15035 X0.9214 Y-0.9744
N15040 X1.0009 Y-0.8928
N15045 X1.0076 Y-0.8858
N15050 X1.0098 Y-0.8832
N15055 X1.0558 Y-0.8251
N15060 X1.0574 Y-0.8226
N15065 X1.0587 Y-0.82
N15070 X1.0594 Y-0.817 Z-0.1967
N15075 X1.06 Y-0.8142 Z-0.1961
N15080 X1.0606 Y-0.8114 Z-0.1952
N15085 Y-0.8103 Z-0.1948
N15090 X1.0601 Y-0.8071 Z-0.1931
N15095 X1.0596 Y-0.8042 Z-0.1909
N15100 X1.0591 Y-0.8016 Z-0.1883
N15105 X1.0581 Y-0.7997 Z-0.1855
N15110 X1.0573 Y-0.7982 Z-0.1823
N15115 X1.0567 Y-0.797 Z-0.179
N15120 X1.0564 Y-0.7963 Z-0.1755
N15125 X1.0562 Y-0.7961 Z-0.1719
N15130 G0 Z0.2
N15135 X0.9048 Y0.749
N15140 Z-0.1075
N15145 G1 Z-0.1325 F15.
N15150 X0.9051 Y0.7491 Z-0.1364
N15155 X0.9059 Y0.7495 Z-0.1402
N15160 X0.9073 Y0.7501 Z-0.1438
N15165 X0.9092 Y0.751 Z-0.1472
N15170 X0.9115 Y0.752 Z-0.1502
N15175 X0.9142 Y0.7532 Z-0.1527
N15180 X0.9173 Y0.7546 Z-0.1548
N15185 X0.9206 Y0.756 Z-0.1563
N15190 X0.9241 Y0.7576 Z-0.1572
N15195 X0.9277 Y0.7592 Z-0.1575
N15200 G3 X1.0465 Y0.8283 I-0.2595 J0.5831
N15205 G1 X1.049 Y0.8302
N15210 X1.0516 Y0.8338
N15215 X1.0521 Y0.8381
N15220 X1.0503 Y0.8422
N15225 X1.0186 Y0.8822
N15230 X1.0157 Y0.8858
N15235 X1.0077 Y0.8946
N15240 X1.0009 Y0.9019
N15245 X0.9301 Y0.9746
N15250 X0.9212 Y0.9834
N15255 X0.9122 Y0.9921
N15260 X0.8946 Y1.0069
N15265 X0.8274 Y1.0629
N15270 X0.8238 Y1.0659
N15275 X0.7972 Y1.086
N15280 X0.7923 Y1.0895
N15285 X0.7086 Y1.1458
N15290 X0.6998 Y1.1517
N15295 X0.6909 Y1.157
N15300 X0.6732 Y1.1668
N15305 X0.5846 Y1.2139
N15310 X0.5758 Y1.2181
N15315 X0.558 Y1.2262
N15320 X0.5492 Y1.23
N15325 X0.4695 Y1.2624
N15330 X0.4587 Y1.2667
N15335 X0.4429 Y1.2728
N15340 X0.435 Y1.2755
N15345 X0.3189 Y1.3093
N15350 X0.3125 Y1.311
N15355 X0.2835 Y1.3168
N15360 X0.1949 Y1.3329
N15365 X0.186 Y1.3345
N15370 X0.1647 Y1.3375
N15375 X0.0504 Y1.3464
N15380 X0.0443 Y1.3468
N15385 X0.0177 Y1.3471
N15390 X0.0089 Y1.3469
N15395 X-0.0709 Y1.3449
N15400 X-0.0974 Y1.344
N15405 X-0.1063 Y1.3436
N15410 X-0.1329 Y1.3403
N15415 X-0.2227 Y1.3287
N15420 X-0.2303 Y1.3274
N15425 X-0.248 Y1.3243
N15430 X-0.2569 Y1.3226
N15435 X-0.3455 Y1.3017
N15440 X-0.372 Y1.2953
N15445 X-0.3791 Y1.2932
N15450 X-0.4075 Y1.2837
N15455 X-0.4872 Y1.2559
N15460 X-0.496 Y1.2528
N15465 X-0.5138 Y1.2457
N15470 X-0.5226 Y1.2418
N15475 X-0.6112 Y1.2004
N15480 X-0.6204 Y1.1958
N15485 X-0.6378 Y1.1869
N15490 X-0.6466 Y1.182
N15495 X-0.7417 Y1.1249
N15500 X-0.7441 Y1.1234
N15505 X-0.7618 Y1.1113
N15510 X-0.7675 Y1.1072
N15515 X-0.8504 Y1.045
N15520 X-0.8616 Y1.0364
N15525 X-0.8681 Y1.0308
N15530 X-0.8858 Y1.0146
N15535 X-0.9579 Y0.9478
N15540 X-0.9655 Y0.9401
N15545 X-0.9749 Y0.9301
N15550 X-1.0372 Y0.8592
N15555 X-1.0452 Y0.8497
N15560 X-1.0629 Y0.828
N15565 X-1.0662 Y0.8238
N15570 X-1.1291 Y0.7352
N15575 X-1.1427 Y0.7134
N15580 X-1.1456 Y0.7086
N15585 X-1.1509 Y0.6998
N15590 X-1.196 Y0.62
N15595 X-1.2007 Y0.6112
N15600 X-1.2137 Y0.5846
N15605 X-1.2524 Y0.496
N15610 X-1.2595 Y0.4783
N15615 X-1.263 Y0.4695
N15620 X-1.2662 Y0.4606
N15625 X-1.2944 Y0.372
N15630 X-1.3028 Y0.3455
N15635 X-1.305 Y0.3366
N15640 X-1.3272 Y0.2303
N15645 X-1.3287 Y0.2228
N15650 X-1.3333 Y0.1949
N15655 X-1.3452 Y0.0797
N15660 X-1.3458 Y0.0709
N15665 X-1.3463 Y0.0443
N15670 Y-0.0443
N15675 X-1.3458 Y-0.0709
N15680 X-1.3452 Y-0.0797
N15685 X-1.3333 Y-0.1949
N15690 X-1.3287 Y-0.2228
N15695 X-1.3272 Y-0.2303
N15700 X-1.305 Y-0.3366
N15705 X-1.3028 Y-0.3455
N15710 X-1.2916 Y-0.3809
N15715 X-1.2662 Y-0.4606
N15720 X-1.263 Y-0.4695
N15725 X-1.256 Y-0.4872
N15730 X-1.2524 Y-0.496
N15735 X-1.2137 Y-0.5846
N15740 X-1.2007 Y-0.6112
N15745 X-1.1958 Y-0.6204
N15750 X-1.1509 Y-0.6998
N15755 X-1.1456 Y-0.7086
N15760 X-1.1338 Y-0.7277
N15765 X-1.1291 Y-0.7352
N15770 X-1.0662 Y-0.8238
N15775 X-1.0629 Y-0.828
N15780 X-1.0447 Y-0.8504
N15785 X-1.0372 Y-0.8592
N15790 X-0.9749 Y-0.9301
N15795 X-0.9655 Y-0.9401
N15800 X-0.9579 Y-0.9478
N15805 X-0.8858 Y-1.0146
N15810 X-0.8681 Y-1.0308
N15815 X-0.8616 Y-1.0364
N15820 X-0.8504 Y-1.045
N15825 X-0.7675 Y-1.1072
N15830 X-0.7618 Y-1.1113
N15835 X-0.7441 Y-1.1234
N15840 X-0.7417 Y-1.1249
N15845 X-0.6466 Y-1.182
N15850 X-0.6377 Y-1.1869
N15855 X-0.62 Y-1.196
N15860 X-0.6112 Y-1.2004
N15865 X-0.5226 Y-1.2418
N15870 X-0.5138 Y-1.2457
N15875 X-0.496 Y-1.2528
N15880 X-0.4872 Y-1.2559
N15885 X-0.4054 Y-1.2844
N15890 X-0.3791 Y-1.2932
N15895 X-0.372 Y-1.2953
N15900 X-0.3438 Y-1.3021
N15905 X-0.2569 Y-1.3226
N15910 X-0.248 Y-1.3243
N15915 X-0.2303 Y-1.3274
N15920 X-0.2227 Y-1.3287
N15925 X-0.1329 Y-1.3403
N15930 X-0.1063 Y-1.3436
N15935 X-0.0974 Y-1.344
N15940 X-0.0709 Y-1.3449
N15945 X0.0089 Y-1.3469
N15950 X0.0177 Y-1.3471
N15955 X0.0443 Y-1.3468
N15960 X0.0531 Y-1.3462
N15965 X0.1647 Y-1.3375
N15970 X0.186 Y-1.3345
N15975 X0.1949 Y-1.3329
N15980 X0.2835 Y-1.3168
N15985 X0.3125 Y-1.311
N15990 X0.3189 Y-1.3093
N15995 X0.435 Y-1.2755
N16000 X0.4429 Y-1.2728
N16005 X0.4606 Y-1.2659
N16010 X0.4695 Y-1.2624
N16015 X0.5492 Y-1.23
N16020 X0.558 Y-1.2262
N16025 X0.5758 Y-1.2181
N16030 X0.5846 Y-1.2139
N16035 X0.6732 Y-1.1668
N16040 X0.6909 Y-1.157
N16045 X0.7001 Y-1.1515
N16050 X0.7086 Y-1.1458
N16055 X0.7923 Y-1.0895
N16060 X0.7972 Y-1.086
N16065 X0.8238 Y-1.0659
N16070 X0.8274 Y-1.0629
N16075 X0.8946 Y-1.0069
N16080 X0.9124 Y-0.9919
N16085 X0.9214 Y-0.9832
N16090 X0.9303 Y-0.9744
N16095 X1.0009 Y-0.9019
N16100 X1.0077 Y-0.8946
N16105 X1.0157 Y-0.8858
N16110 X1.0186 Y-0.8822
N16115 X1.093 Y-0.7883
N16120 X1.0984 Y-0.7806
N16125 X1.1072 Y-0.7675
N16130 X1.111 Y-0.7618
N16135 X1.1617 Y-0.6821
N16140 X1.1672 Y-0.6732
N16145 X1.1818 Y-0.6466
N16150 X1.1869 Y-0.6365
N16155 X1.2261 Y-0.558
N16160 X1.2302 Y-0.5492
N16165 X1.2401 Y-0.5266
N16170 X1.2417 Y-0.5226
N16175 X1.2718 Y-0.4429
N16180 X1.2755 Y-0.4328
N16185 X1.2846 Y-0.4075
N16190 X1.2872 Y-0.3986
N16195 X1.3152 Y-0.2923
N16200 X1.3174 Y-0.2835
N16205 X1.3224 Y-0.2569
N16210 X1.3239 Y-0.248
N16215 X1.3363 Y-0.1683
N16220 X1.3388 Y-0.1506
N16225 X1.3401 Y-0.1417
N16230 X1.3412 Y-0.1329
N16235 X1.3471 Y-0.0177
N16240 X1.3473 Y-0.0089
N16245 Y0.0089
N16250 X1.3471 Y0.0177
N16255 X1.3412 Y0.1329
N16260 X1.3401 Y0.1417
N16265 X1.3375 Y0.1598
N16270 X1.3363 Y0.1683
N16275 X1.3239 Y0.248
N16280 X1.3224 Y0.2569
N16285 X1.3174 Y0.2835
N16290 X1.3152 Y0.2923
N16295 X1.2872 Y0.3986
N16300 X1.2846 Y0.4075
N16305 X1.2751 Y0.434
N16310 X1.2551 Y0.4872
N16315 X1.2417 Y0.5226
N16320 X1.2401 Y0.5266
N16325 X1.2302 Y0.5492
N16330 X1.2261 Y0.558
N16335 X1.1863 Y0.6378
N16340 X1.1818 Y0.6466
N16345 X1.1672 Y0.6732
N16350 X1.1617 Y0.6821
N16355 X1.111 Y0.7618
N16360 X1.1072 Y0.7675
N16365 X1.0984 Y0.7806
N16370 X1.093 Y0.7883
N16375 X1.0503 Y0.8422
N16380 X1.0483 Y0.8443
N16385 X1.046 Y0.8462
N16390 X1.0433 Y0.8475 Z-0.1573
N16395 X1.0407 Y0.8488 Z-0.1568
N16400 X1.0381 Y0.85 Z-0.1559
N16405 X1.0357 Y0.8504 Z-0.1548
N16410 X1.0334 Y0.8507 Z-0.1535
N16415 X1.0313 Y0.851 Z-0.1519
N16420 X1.0288 Y0.8505 Z-0.1495
N16425 X1.0266 Y0.8502 Z-0.1467
N16430 X1.0248 Y0.8498 Z-0.1437
N16435 X1.0235 Y0.8496 Z-0.1405
N16440 X1.0226 Y0.8494 Z-0.1371
N16445 X1.0223 Y0.8493 Z-0.1348
N16450 X1.0222 Z-0.1325
N16455 G0 Z0.2
N16460 X0.9372 Y0.7206
N16465 Z-0.0681
N16470 G1 Z-0.0931 F15.
N16475 X0.9374 Y0.7208 Z-0.097
N16480 X0.9382 Y0.7214 Z-0.1008
N16485 X0.9393 Y0.7223 Z-0.1045
N16490 X0.9409 Y0.7236 Z-0.1078
N16495 X0.9429 Y0.7252 Z-0.1108
N16500 X0.9452 Y0.7271 Z-0.1133
N16505 X0.9478 Y0.7292 Z-0.1154
N16510 X0.9506 Y0.7315 Z-0.1169
N16515 X0.9536 Y0.7339 Z-0.1178
N16520 X0.9566 Y0.7363 Z-0.1181
N16525 G3 X1.0536 Y0.8339 I-0.4016 J0.4961
N16530 G1 X1.0554 Y0.8363
N16535 X1.0557 Y0.8393
N16540 X1.0545 Y0.842
N16545 X1.0364 Y0.865
N16550 X1.0338 Y0.8681
N16555 X1.0184 Y0.8858
N16560 X1.0009 Y0.9056
N16565 X0.9949 Y0.9124
N16570 X0.9921 Y0.9155
N16575 X0.9478 Y0.9609
N16580 X0.9433 Y0.9655
N16585 X0.9343 Y0.9744
N16590 X0.9035 Y1.0029
N16595 X0.8946 Y1.0107
N16600 X0.8854 Y1.0186
N16605 X0.8592 Y1.0406
N16610 X0.8504 Y1.0479
N16615 X0.8321 Y1.0629
N16620 X0.8238 Y1.0693
N16625 X0.7968 Y1.0895
N16630 X0.7883 Y1.0958
N16635 X0.7618 Y1.1139
N16640 X0.7352 Y1.1318
N16645 X0.7042 Y1.1515
N16650 X0.6747 Y1.1692
N16655 X0.6466 Y1.1845
N16660 X0.62 Y1.1987
N16665 X0.6112 Y1.2033
N16670 X0.5911 Y1.2135
N16675 X0.5846 Y1.2166
N16680 X0.558 Y1.229
N16685 X0.5532 Y1.2312
N16690 X0.5315 Y1.2405
N16695 X0.5226 Y1.2442
N16700 X0.496 Y1.255
N16705 X0.4665 Y1.2667
N16710 X0.4606 Y1.2688
N16715 X0.434 Y1.278
N16720 X0.4075 Y1.2867
N16725 X0.3986 Y1.2894
N16730 X0.3455 Y1.3049
N16735 X0.3189 Y1.3115
N16740 X0.31 Y1.3136
N16745 X0.2923 Y1.3178
N16750 X0.2835 Y1.3198
N16755 X0.2569 Y1.3248
N16760 X0.2126 Y1.3329
N16765 X0.2037 Y1.3345
N16770 X0.1949 Y1.3357
N16775 X0.1683 Y1.3392
N16780 X0.1594 Y1.3402
N16785 X0.1417 Y1.3423
N16790 X0.1329 Y1.3432
N16795 X0.0797 Y1.3473
N16800 X0.0709 Y1.3479
N16805 X0.0443 Y1.349
N16810 X0.0177 Y1.3497
N16815 X0.0089
N16820 X-0.0089 Y1.3496
N16825 X-0.0177 Y1.3494
N16830 X-0.0709 Y1.3481
N16835 X-0.0797 Y1.3476
N16840 X-0.1152 Y1.3448
N16845 X-0.1329 Y1.3434
N16850 X-0.1417 Y1.3424
N16855 X-0.2037 Y1.3343
N16860 X-0.2214 Y1.3315
N16865 X-0.2303 Y1.33
N16870 X-0.248 Y1.3267
N16875 X-0.2569 Y1.3251
N16880 X-0.2835 Y1.3196
N16885 X-0.2923 Y1.3175
N16890 X-0.3455 Y1.305
N16895 X-0.3543 Y1.3026
N16900 X-0.3986 Y1.2897
N16905 X-0.4075 Y1.287
N16910 X-0.4606 Y1.2685
N16915 X-0.4659 Y1.2667
N16920 X-0.4895 Y1.2578
N16925 X-0.496 Y1.2553
N16930 X-0.5226 Y1.2445
N16935 X-0.5327 Y1.2401
N16940 X-0.5526 Y1.2312
N16945 X-0.558 Y1.2287
N16950 X-0.5846 Y1.2163
N16955 X-0.5935 Y1.2121
N16960 X-0.6112 Y1.2035
N16965 X-0.62 Y1.199
N16970 X-0.6466 Y1.1848
N16975 X-0.6741 Y1.1692
N16980 X-0.7036 Y1.1515
N16985 X-0.7325 Y1.1338
N16990 X-0.7352 Y1.1321
N16995 X-0.7618 Y1.1142
N17000 X-0.7718 Y1.1072
N17005 X-0.7883 Y1.0955
N17010 X-0.7972 Y1.0889
N17015 X-0.8238 Y1.069
N17020 X-0.8317 Y1.0629
N17025 X-0.854 Y1.0452
N17030 X-0.8769 Y1.0261
N17035 X-0.8858 Y1.0186
N17040 X-0.9052 Y1.0009
N17045 X-0.9435 Y0.9655
N17050 X-0.9478 Y0.9612
N17055 X-0.9696 Y0.9389
N17060 X-0.9744 Y0.9341
N17065 X-0.9921 Y0.9153
N17070 X-0.9947 Y0.9124
N17075 X-1.0336 Y0.8681
N17080 X-1.0411 Y0.8592
N17085 X-1.0452 Y0.8542
N17090 X-1.0629 Y0.8318
N17095 X-1.0693 Y0.8238
N17100 X-1.0895 Y0.7963
N17105 X-1.0984 Y0.784
N17110 X-1.1141 Y0.7618
N17115 X-1.1203 Y0.7529
N17120 X-1.1249 Y0.7463
N17125 X-1.1545 Y0.6998
N17130 X-1.1846 Y0.6466
N17135 X-1.1869 Y0.6423
N17140 X-1.1988 Y0.62
N17145 X-1.2034 Y0.6112
N17150 X-1.2167 Y0.5846
N17155 X-1.2287 Y0.558
N17160 X-1.2327 Y0.5492
N17165 X-1.2443 Y0.5226
N17170 X-1.2554 Y0.496
N17175 X-1.2588 Y0.4872
N17180 X-1.2667 Y0.4662
N17185 X-1.272 Y0.4517
N17190 X-1.2751 Y0.4429
N17195 X-1.2949 Y0.3809
N17200 X-1.2976 Y0.372
N17205 X-1.3048 Y0.3455
N17210 X-1.3117 Y0.3189
N17215 X-1.3138 Y0.31
N17220 X-1.3249 Y0.2569
N17225 X-1.3283 Y0.2392
N17230 X-1.3299 Y0.2303
N17235 X-1.3315 Y0.2214
N17240 X-1.3356 Y0.1949
N17245 X-1.3391 Y0.1683
N17250 X-1.3401 Y0.1594
N17255 X-1.3456 Y0.1063
N17260 X-1.3464 Y0.0951
N17265 X-1.3473 Y0.0797
N17270 X-1.3478 Y0.0709
N17275 X-1.3492 Y0.0443
N17280 X-1.3494 Y0.0177
N17285 Y-0.0089
N17290 Y-0.0177
N17295 X-1.3492 Y-0.0443
N17300 X-1.3478 Y-0.0709
N17305 X-1.3473 Y-0.0797
N17310 X-1.3462 Y-0.0974
N17315 X-1.3456 Y-0.1063
N17320 X-1.3401 Y-0.1594
N17325 X-1.3391 Y-0.1683
N17330 X-1.3356 Y-0.1949
N17335 X-1.3315 Y-0.2214
N17340 X-1.3299 Y-0.2303
N17345 X-1.3266 Y-0.248
N17350 X-1.3249 Y-0.2569
N17355 X-1.3138 Y-0.31
N17360 X-1.3117 Y-0.3189
N17365 X-1.3048 Y-0.3455
N17370 X-1.2976 Y-0.372
N17375 X-1.2949 Y-0.3809
N17380 X-1.2751 Y-0.4429
N17385 X-1.272 Y-0.4517
N17390 X-1.2667 Y-0.4662
N17395 X-1.2578 Y-0.4897
N17400 X-1.2554 Y-0.496
N17405 X-1.2443 Y-0.5226
N17410 X-1.2312 Y-0.5525
N17415 X-1.2247 Y-0.5669
N17420 X-1.2167 Y-0.5846
N17425 X-1.2034 Y-0.6112
N17430 X-1.1988 Y-0.62
N17435 X-1.1869 Y-0.6423
N17440 X-1.1846 Y-0.6466
N17445 X-1.1545 Y-0.6998
N17450 X-1.1249 Y-0.7462
N17455 X-1.1203 Y-0.7529
N17460 X-1.1141 Y-0.7618
N17465 X-1.0952 Y-0.7883
N17470 X-1.0889 Y-0.7972
N17475 X-1.0693 Y-0.8238
N17480 X-1.0541 Y-0.843
N17485 X-1.0452 Y-0.8542
N17490 X-1.0364 Y-0.8648
N17495 X-1.0336 Y-0.8681
N17500 X-0.9947 Y-0.9124
N17505 X-0.9921 Y-0.9153
N17510 X-0.9744 Y-0.9341
N17515 X-0.961 Y-0.9478
N17520 X-0.9478 Y-0.9612
N17525 X-0.9435 Y-0.9655
N17530 X-0.9035 Y-1.0025
N17535 X-0.8858 Y-1.0187
N17540 X-0.8753 Y-1.0275
N17545 X-0.854 Y-1.0452
N17550 X-0.8317 Y-1.0629
N17555 X-0.8238 Y-1.069
N17560 X-0.7964 Y-1.0895
N17565 X-0.7883 Y-1.0955
N17570 X-0.7706 Y-1.1081
N17575 X-0.7618 Y-1.1142
N17580 X-0.7352 Y-1.1321
N17585 X-0.7325 Y-1.1338
N17590 X-0.7036 Y-1.1515
N17595 X-0.6741 Y-1.1692
N17600 X-0.6466 Y-1.1848
N17605 X-0.62 Y-1.199
N17610 X-0.6112 Y-1.2035
N17615 X-0.5905 Y-1.2135
N17620 X-0.5716 Y-1.2224
N17625 X-0.558 Y-1.2287
N17630 X-0.5526 Y-1.2312
N17635 X-0.5315 Y-1.2407
N17640 X-0.5226 Y-1.2445
N17645 X-0.496 Y-1.2553
N17650 X-0.4872 Y-1.2587
N17655 X-0.4659 Y-1.2667
N17660 X-0.4517 Y-1.2716
N17665 X-0.4075 Y-1.287
N17670 X-0.3986 Y-1.2897
N17675 X-0.3543 Y-1.3026
N17680 X-0.3455 Y-1.305
N17685 X-0.2923 Y-1.3175
N17690 X-0.2835 Y-1.3196
N17695 X-0.2569 Y-1.3251
N17700 X-0.248 Y-1.3267
N17705 X-0.2303 Y-1.33
N17710 X-0.2214 Y-1.3315
N17715 X-0.2037 Y-1.3343
N17720 X-0.1417 Y-1.3424
N17725 X-0.1329 Y-1.3434
N17730 X-0.0951 Y-1.3464
N17735 X-0.0797 Y-1.3476
N17740 X-0.0709 Y-1.3481
N17745 X-0.0177 Y-1.3494
N17750 X-0.0089 Y-1.3496
N17755 X0.0089 Y-1.3497
N17760 X0.0177
N17765 X0.0443 Y-1.349
N17770 X0.0709 Y-1.3479
N17775 X0.0797 Y-1.3473
N17780 X0.1329 Y-1.3432
N17785 X0.1417 Y-1.3423
N17790 X0.1594 Y-1.3402
N17795 X0.1683 Y-1.3392
N17800 X0.1949 Y-1.3357
N17805 X0.2037 Y-1.3345
N17810 X0.2126 Y-1.3329
N17815 X0.2569 Y-1.3248
N17820 X0.2835 Y-1.3198
N17825 X0.2923 Y-1.3178
N17830 X0.31 Y-1.3136
N17835 X0.321 Y-1.311
N17840 X0.3455 Y-1.3049
N17845 X0.3986 Y-1.2894
N17850 X0.4075 Y-1.2867
N17855 X0.434 Y-1.278
N17860 X0.4606 Y-1.2688
N17865 X0.4665 Y-1.2667
N17870 X0.496 Y-1.255
N17875 X0.5226 Y-1.2442
N17880 X0.5403 Y-1.2367
N17885 X0.5532 Y-1.2312
N17890 X0.558 Y-1.229
N17895 X0.5846 Y-1.2166
N17900 X0.5911 Y-1.2135
N17905 X0.6112 Y-1.2033
N17910 X0.62 Y-1.1987
N17915 X0.6466 Y-1.1845
N17920 X0.6747 Y-1.1692
N17925 X0.7042 Y-1.1515
N17930 X0.7352 Y-1.1318
N17935 X0.7618 Y-1.1139
N17940 X0.7883 Y-1.0958
N17945 X0.7972 Y-1.0892
N17950 X0.8238 Y-1.0693
N17955 X0.8321 Y-1.0629
N17960 X0.8536 Y-1.0452
N17965 X0.8769 Y-1.0258
N17970 X0.8858 Y-1.0184
N17975 X0.8956 Y-1.0098
N17980 X0.9035 Y-1.0029
N17985 X0.9343 Y-0.9744
N17990 X0.9433 Y-0.9655
N17995 X0.9478 Y-0.9609
N18000 X0.9921 Y-0.9155
N18005 X0.9949 Y-0.9124
N18010 X1.0028 Y-0.9035
N18015 X1.0186 Y-0.8855
N18020 X1.0338 Y-0.8681
N18025 X1.0364 Y-0.865
N18030 X1.0689 Y-0.8238
N18035 X1.0895 Y-0.7967
N18040 X1.0956 Y-0.7883
N18045 X1.1082 Y-0.7706
N18050 X1.1143 Y-0.7618
N18055 X1.1249 Y-0.7457
N18060 X1.1542 Y-0.6998
N18065 X1.1692 Y-0.6743
N18070 X1.1849 Y-0.6466
N18075 X1.1869 Y-0.6429
N18080 X1.1986 Y-0.62
N18085 X1.2047 Y-0.6081
N18090 X1.2164 Y-0.5846
N18095 X1.229 Y-0.558
N18100 X1.2312 Y-0.5531
N18105 X1.2446 Y-0.5226
N18110 X1.2551 Y-0.496
N18115 X1.2652 Y-0.4695
N18120 X1.2718 Y-0.4517
N18125 X1.2755 Y-0.4418
N18130 X1.2783 Y-0.434
N18135 X1.2867 Y-0.4075
N18140 X1.2922 Y-0.3897
N18145 X1.2949 Y-0.3809
N18150 X1.2975 Y-0.372
N18155 X1.3115 Y-0.3189
N18160 X1.3136 Y-0.31
N18165 X1.3196 Y-0.2835
N18170 X1.3252 Y-0.2569
N18175 X1.3268 Y-0.248
N18180 X1.3298 Y-0.2303
N18185 X1.3312 Y-0.2214
N18190 X1.3354 Y-0.1949
N18195 X1.3393 Y-0.1683
N18200 X1.3404 Y-0.1594
N18205 X1.3432 Y-0.1329
N18210 X1.3457 Y-0.1063
N18215 X1.3464 Y-0.094
N18220 X1.3489 Y-0.0443
N18225 X1.3496 Y-0.0177
N18230 X1.3497 Y-0.0089
N18235 Y0.0089
N18240 X1.3496 Y0.0177
N18245 X1.3489 Y0.0443
N18250 X1.3462 Y0.0974
N18255 X1.3457 Y0.1063
N18260 X1.3432 Y0.1329
N18265 X1.3404 Y0.1594
N18270 X1.3393 Y0.1683
N18275 X1.3354 Y0.1949
N18280 X1.3312 Y0.2214
N18285 X1.3287 Y0.2368
N18290 X1.3268 Y0.248
N18295 X1.3252 Y0.2569
N18300 X1.3196 Y0.2835
N18305 X1.3136 Y0.31
N18310 X1.3115 Y0.3189
N18315 X1.2975 Y0.372
N18320 X1.2949 Y0.3809
N18325 X1.2895 Y0.3986
N18330 X1.2867 Y0.4075
N18335 X1.2783 Y0.434
N18340 X1.2751 Y0.4429
N18345 X1.2718 Y0.4517
N18350 X1.2578 Y0.489
N18355 X1.2551 Y0.496
N18360 X1.2446 Y0.5226
N18365 X1.2312 Y0.5531
N18370 X1.229 Y0.558
N18375 X1.2164 Y0.5846
N18380 X1.2031 Y0.6112
N18385 X1.1941 Y0.6289
N18390 X1.1869 Y0.6429
N18395 X1.1849 Y0.6466
N18400 X1.1692 Y0.6743
N18405 X1.1542 Y0.6998
N18410 X1.1249 Y0.7457
N18415 X1.1143 Y0.7618
N18420 X1.1072 Y0.772
N18425 X1.0956 Y0.7883
N18430 X1.0892 Y0.7972
N18435 X1.0689 Y0.8238
N18440 X1.0545 Y0.842
N18445 X1.0525 Y0.8442
N18450 X1.0502 Y0.8461
N18455 X1.0475 Y0.8474 Z-0.1179
N18460 X1.0448 Y0.8486 Z-0.1174
N18465 X1.0423 Y0.8499 Z-0.1165
N18470 X1.0399 Y0.8502 Z-0.1154
N18475 X1.0376 Y0.8506 Z-0.1141
N18480 X1.0355 Y0.8508 Z-0.1125
N18485 X1.0329 Y0.8504 Z-0.1101
N18490 X1.0308 Y0.85 Z-0.1074
N18495 X1.029 Y0.8497 Z-0.1043
N18500 X1.0277 Y0.8495 Z-0.1011
N18505 X1.0268 Y0.8493 Z-0.0977
N18510 X1.0265 Y0.8492 Z-0.0954
N18515 X1.0264 Z-0.0931
N18520 G0 Z0.2
N18525 X1.0918 Y0.459
N18530 Z-0.0287
N18535 G1 Z-0.0537 F15.
N18540 X1.0921 Y0.4592 Z-0.0577
N18545 X1.0929 Y0.4595 Z-0.0615
N18550 X1.0943 Y0.4602 Z-0.0651
N18555 X1.0961 Y0.461 Z-0.0684
N18560 X1.0985 Y0.462 Z-0.0714
N18565 X1.1012 Y0.4633 Z-0.074
N18570 X1.1042 Y0.4646 Z-0.076
N18575 X1.1075 Y0.4661 Z-0.0775
N18580 X1.111 Y0.4677 Z-0.0784
N18585 X1.1146 Y0.4693 Z-0.0787
N18590 G3 X1.2332 Y0.5389 I-0.262 J0.582
N18595 G1 X1.2355 Y0.5408
N18600 X1.2366 Y0.5436
N18605 X1.2362 Y0.5466
N18610 X1.2195 Y0.5846
N18615 X1.2154 Y0.5935
N18620 X1.2135 Y0.5975
N18625 X1.2047 Y0.6152
N18630 X1.1869 Y0.6469
N18635 X1.157 Y0.6998
N18640 X1.1515 Y0.7091
N18645 X1.1409 Y0.7263
N18650 X1.1354 Y0.7352
N18655 X1.1231 Y0.7529
N18660 X1.0727 Y0.8238
N18665 X1.066 Y0.8326
N18670 X1.0629 Y0.8365
N18675 X1.0517 Y0.8504
N18680 X1.0452 Y0.8581
N18685 X0.9976 Y0.9124
N18690 X0.9817 Y0.9301
N18695 X0.9744 Y0.9382
N18700 X0.9649 Y0.9478
N18705 X0.9465 Y0.9655
N18710 X0.9371 Y0.9744
N18715 X0.8858 Y1.0218
N18720 X0.8769 Y1.0297
N18725 X0.8692 Y1.0364
N18730 X0.8586 Y1.0452
N18735 X0.8504 Y1.0517
N18740 X0.7972 Y1.0916
N18745 X0.7706 Y1.1114
N18750 X0.7642 Y1.1161
N18755 X0.751 Y1.1249
N18760 X0.7352 Y1.1351
N18765 X0.7175 Y1.1457
N18770 X0.6555 Y1.183
N18775 X0.6466 Y1.188
N18780 X0.6378 Y1.1927
N18785 X0.6146 Y1.2047
N18790 X0.5315 Y1.2436
N18795 X0.5226 Y1.2476
N18800 X0.496 Y1.2584
N18805 X0.4872 Y1.2616
N18810 X0.4075 Y1.2893
N18815 X0.3986 Y1.2922
N18820 X0.3809 Y1.2977
N18825 X0.372 Y1.3004
N18830 X0.3632 Y1.3028
N18835 X0.3543 Y1.3051
N18840 X0.2835 Y1.3218
N18845 X0.2569 Y1.328
N18850 X0.2536 Y1.3287
N18855 X0.2303 Y1.3328
N18860 X0.2214 Y1.3342
N18865 X0.1417 Y1.3445
N18870 X0.1329 Y1.3456
N18875 X0.1063 Y1.3484
N18880 X0.0974 Y1.3489
N18885 X0.0797 Y1.3499
N18890 X0.0709 Y1.3502
N18895 X-0.0089 Y1.3523
N18900 X-0.0177 Y1.3524
N18905 X-0.0443 Y1.3519
N18910 X-0.0531 Y1.3514
N18915 X-0.0709 Y1.3501
N18920 X-0.0886 Y1.3488
N18925 X-0.1329 Y1.3454
N18930 X-0.1594 Y1.343
N18935 X-0.1683 Y1.3421
N18940 X-0.1949 Y1.3383
N18945 X-0.2835 Y1.3222
N18950 X-0.3012 Y1.3184
N18955 X-0.31 Y1.3165
N18960 X-0.3189 Y1.3144
N18965 X-0.3455 Y1.3071
N18970 X-0.3986 Y1.2917
N18975 X-0.4075 Y1.2891
N18980 X-0.434 Y1.2811
N18985 X-0.4517 Y1.275
N18990 X-0.4606 Y1.2717
N18995 X-0.4695 Y1.2682
N19000 X-0.5492 Y1.2358
N19005 X-0.558 Y1.232
N19010 X-0.5846 Y1.2198
N19015 X-0.5967 Y1.2135
N19020 X-0.6732 Y1.1728
N19025 X-0.6821 Y1.1677
N19030 X-0.6998 Y1.1575
N19035 X-0.7086 Y1.152
N19040 X-0.7361 Y1.1338
N19045 X-0.7887 Y1.0984
N19050 X-0.7972 Y1.0925
N19055 X-0.8238 Y1.0729
N19060 X-0.8252 Y1.0718
N19065 X-0.9035 Y1.0064
N19070 X-0.9098 Y1.0009
N19075 X-0.9124 Y0.9986
N19080 X-0.9193 Y0.9921
N19085 X-0.9377 Y0.9744
N19090 X-1.0009 Y0.9095
N19095 X-1.0066 Y0.9035
N19100 X-1.0223 Y0.8858
N19105 X-1.0275 Y0.8794
N19110 X-1.0367 Y0.8681
N19115 X-1.0807 Y0.8125
N19120 X-1.0927 Y0.7972
N19125 X-1.099 Y0.7883
N19130 X-1.1161 Y0.7637
N19135 X-1.1515 Y0.708
N19140 X-1.1622 Y0.6909
N19145 X-1.1692 Y0.6797
N19150 X-1.1732 Y0.6732
N19155 X-1.1832 Y0.6555
N19160 X-1.1869 Y0.6484
N19165 X-1.2312 Y0.5597
N19170 X-1.2321 Y0.558
N19175 X-1.2361 Y0.5492
N19180 X-1.2439 Y0.5315
N19185 X-1.2474 Y0.5226
N19190 X-1.2775 Y0.4429
N19195 X-1.2808 Y0.434
N19200 X-1.2898 Y0.4075
N19205 X-1.2924 Y0.3986
N19210 X-1.2973 Y0.3809
N19215 X-1.2997 Y0.372
N19220 X-1.3137 Y0.3189
N19225 X-1.316 Y0.31
N19230 X-1.3204 Y0.2923
N19235 X-1.3226 Y0.2835
N19240 X-1.3278 Y0.2569
N19245 X-1.3287 Y0.2519
N19250 X-1.3417 Y0.1683
N19255 X-1.3429 Y0.1594
N19260 X-1.345 Y0.1417
N19265 X-1.346 Y0.1329
N19270 X-1.3479 Y0.1063
N19275 X-1.3488 Y0.0886
N19280 X-1.3525 Y0.0177
N19285 X-1.3526 Y0.0089
N19290 Y-0.0089
N19295 X-1.3525 Y-0.0177
N19300 X-1.3484 Y-0.0974
N19305 X-1.3479 Y-0.1063
N19310 X-1.346 Y-0.1329
N19315 X-1.345 Y-0.1417
N19320 X-1.3429 Y-0.1594
N19325 X-1.3417 Y-0.1683
N19330 X-1.3287 Y-0.2519
N19335 X-1.3278 Y-0.2569
N19340 X-1.3226 Y-0.2835
N19345 X-1.3198 Y-0.2948
N19350 X-1.316 Y-0.31
N19355 X-1.3137 Y-0.3189
N19360 X-1.2997 Y-0.372
N19365 X-1.2932 Y-0.3955
N19370 X-1.2924 Y-0.3986
N19375 X-1.2898 Y-0.4075
N19380 X-1.2808 Y-0.434
N19385 X-1.2755 Y-0.4481
N19390 X-1.2474 Y-0.5226
N19395 X-1.2439 Y-0.5315
N19400 X-1.2361 Y-0.5492
N19405 X-1.2321 Y-0.558
N19410 X-1.1878 Y-0.6466
N19415 X-1.1869 Y-0.6484
N19420 X-1.1832 Y-0.6555
N19425 X-1.1732 Y-0.6732
N19430 X-1.1692 Y-0.6797
N19435 X-1.1567 Y-0.6998
N19440 X-1.1511 Y-0.7086
N19445 X-1.1161 Y-0.7637
N19450 X-1.0984 Y-0.7893
N19455 X-1.0927 Y-0.7972
N19460 X-1.0541 Y-0.8461
N19465 X-1.0364 Y-0.8685
N19470 X-1.0275 Y-0.8794
N19475 X-1.0223 Y-0.8858
N19480 X-1.0066 Y-0.9035
N19485 X-1.0009 Y-0.9095
N19490 X-0.9377 Y-0.9744
N19495 X-0.9193 Y-0.9921
N19500 X-0.9124 Y-0.9986
N19505 X-0.9098 Y-1.0009
N19510 X-0.9035 Y-1.0064
N19515 X-0.8252 Y-1.0718
N19520 X-0.8238 Y-1.0729
N19525 X-0.7972 Y-1.0925
N19530 X-0.7883 Y-1.0986
N19535 X-0.7352 Y-1.1344
N19540 X-0.7086 Y-1.152
N19545 X-0.6998 Y-1.1575
N19550 X-0.6795 Y-1.1692
N19555 X-0.6732 Y-1.1728
N19560 X-0.5967 Y-1.2135
N19565 X-0.5846 Y-1.2198
N19570 X-0.558 Y-1.232
N19575 X-0.5492 Y-1.2358
N19580 X-0.4695 Y-1.2682
N19585 X-0.4606 Y-1.2717
N19590 X-0.4517 Y-1.275
N19595 X-0.434 Y-1.2811
N19600 X-0.4075 Y-1.2891
N19605 X-0.3628 Y-1.3021
N19610 X-0.3455 Y-1.3071
N19615 X-0.3189 Y-1.3144
N19620 X-0.31 Y-1.3165
N19625 X-0.2923 Y-1.3203
N19630 X-0.2835 Y-1.3222
N19635 X-0.1949 Y-1.3383
N19640 X-0.1683 Y-1.3421
N19645 X-0.1594 Y-1.343
N19650 X-0.1329 Y-1.3454
N19655 X-0.0797 Y-1.3495
N19660 X-0.062 Y-1.3507
N19665 X-0.0531 Y-1.3514
N19670 X-0.0443 Y-1.3519
N19675 X-0.0177 Y-1.3524
N19680 X-0.0089 Y-1.3523
N19685 X0.0709 Y-1.3502
N19690 X0.0797 Y-1.3499
N19695 X0.0974 Y-1.3489
N19700 X0.1063 Y-1.3484
N19705 X0.1329 Y-1.3456
N19710 X0.1417 Y-1.3445
N19715 X0.2214 Y-1.3342
N19720 X0.2303 Y-1.3328
N19725 X0.2536 Y-1.3287
N19730 X0.2569 Y-1.328
N19735 X0.292 Y-1.3198
N19740 X0.3543 Y-1.3051
N19745 X0.3632 Y-1.3028
N19750 X0.372 Y-1.3004
N19755 X0.3809 Y-1.2977
N19760 X0.3986 Y-1.2922
N19765 X0.4075 Y-1.2893
N19770 X0.4872 Y-1.2616
N19775 X0.496 Y-1.2584
N19780 X0.5226 Y-1.2476
N19785 X0.5315 Y-1.2436
N19790 X0.6146 Y-1.2047
N19795 X0.6378 Y-1.1927
N19800 X0.6466 Y-1.188
N19805 X0.6555 Y-1.183
N19810 X0.7263 Y-1.1404
N19815 X0.7352 Y-1.1351
N19820 X0.751 Y-1.1249
N19825 X0.7642 Y-1.1161
N19830 X0.7762 Y-1.1072
N19835 X0.8 Y-1.0895
N19840 X0.8504 Y-1.0517
N19845 X0.8592 Y-1.0447
N19850 X0.8692 Y-1.0364
N19855 X0.8769 Y-1.0297
N19860 X0.8858 Y-1.0218
N19865 X0.9389 Y-0.9727
N19870 X0.9465 Y-0.9655
N19875 X0.9655 Y-0.9472
N19880 X0.9744 Y-0.9382
N19885 X0.9921 Y-0.9185
N19890 X0.9976 Y-0.9124
N19895 X1.0452 Y-0.8581
N19900 X1.0517 Y-0.8504
N19905 X1.0629 Y-0.8365
N19910 X1.066 Y-0.8326
N19915 X1.0727 Y-0.8238
N19920 X1.1249 Y-0.7503
N19925 X1.1354 Y-0.7352
N19930 X1.1463 Y-0.7175
N19935 X1.1518 Y-0.7086
N19940 X1.157 Y-0.6998
N19945 X1.1871 Y-0.6466
N19950 X1.2047 Y-0.6152
N19955 X1.2135 Y-0.5975
N19960 X1.2154 Y-0.5935
N19965 X1.2195 Y-0.5846
N19970 X1.2583 Y-0.496
N19975 X1.2617 Y-0.4872
N19980 X1.2685 Y-0.4695
N19985 X1.2717 Y-0.4606
N19990 X1.2755 Y-0.4488
N19995 X1.3029 Y-0.3632
N20000 X1.3054 Y-0.3543
N20005 X1.3078 Y-0.3455
N20010 X1.314 Y-0.3189
N20015 X1.316 Y-0.31
N20020 X1.3327 Y-0.2303
N20025 X1.3344 Y-0.2214
N20030 X1.3386 Y-0.1949
N20035 X1.3423 Y-0.1594
N20040 X1.3478 Y-0.1063
N20045 X1.3501 Y-0.0797
N20050 X1.3507 Y-0.0709
N20055 X1.3516 Y-0.0443
N20060 Y0.0443
N20065 X1.3507 Y0.0709
N20070 X1.3501 Y0.0797
N20075 X1.3478 Y0.1063
N20080 X1.3414 Y0.1683
N20085 X1.3386 Y0.1949
N20090 X1.3344 Y0.2214
N20095 X1.3327 Y0.2303
N20100 X1.316 Y0.31
N20105 X1.314 Y0.3189
N20110 X1.3078 Y0.3455
N20115 X1.3054 Y0.3543
N20120 X1.3029 Y0.3632
N20125 X1.2746 Y0.4517
N20130 X1.2717 Y0.4606
N20135 X1.2685 Y0.4695
N20140 X1.2617 Y0.4872
N20145 X1.2583 Y0.496
N20150 X1.2362 Y0.5466
N20155 X1.2347 Y0.5492
N20160 X1.233 Y0.5516
N20165 X1.2307 Y0.5535 Z-0.0786
N20170 X1.2285 Y0.5555 Z-0.078
N20175 X1.2263 Y0.5573 Z-0.0771
N20180 X1.2233 Y0.5584 Z-0.0756
N20185 X1.2206 Y0.5595 Z-0.0737
N20190 X1.2181 Y0.5604 Z-0.0714
N20195 X1.2156 Y0.5606 Z-0.0685
N20200 X1.2136 Y0.5608 Z-0.0653
N20205 X1.2124 Y0.5607 Z-0.0625
N20210 X1.2115 Z-0.0597
N20215 X1.211 Y0.5606 Z-0.0567
N20220 X1.2108 Z-0.0537
N20225 G0 Z0.2
N20230 X-0.8375 Y0.8394
N20235 Z0.0106
N20240 G1 Z-0.0144 F15.
N20245 X-0.8377 Y0.8396 Z-0.0183
N20250 X-0.8384 Y0.8402 Z-0.0221
N20255 X-0.8395 Y0.8413 Z-0.0257
N20260 X-0.841 Y0.8427 Z-0.0291
N20265 X-0.8428 Y0.8445 Z-0.032
N20270 X-0.845 Y0.8465 Z-0.0346
N20275 X-0.8474 Y0.8488 Z-0.0366
N20280 X-0.85 Y0.8513 Z-0.0381
N20285 X-0.8528 Y0.854 Z-0.0391
N20290 X-0.8556 Y0.8567 Z-0.0394
N20295 G3 X-0.9648 Y0.9403 I-0.4404 J-0.462
N20300 G1 X-0.9674 Y0.9417
N20305 X-0.9704
N20310 X-0.973 Y0.9401
N20315 X-1.0009 Y0.9115
N20320 X-1.0084 Y0.9035
N20325 X-1.0243 Y0.8858
N20330 X-1.0275 Y0.8819
N20335 X-1.0946 Y0.7972
N20340 X-1.0984 Y0.792
N20345 X-1.1161 Y0.7662
N20350 X-1.119 Y0.7618
N20355 X-1.1697 Y0.6821
N20360 X-1.1752 Y0.6732
N20365 X-1.185 Y0.6555
N20370 X-1.2337 Y0.558
N20375 X-1.2378 Y0.5492
N20380 X-1.2418 Y0.5403
N20385 X-1.2456 Y0.5315
N20390 X-1.279 Y0.4429
N20395 X-1.2823 Y0.434
N20400 X-1.2916 Y0.4075
N20405 X-1.2932 Y0.4021
N20410 X-1.3222 Y0.2923
N20415 X-1.3244 Y0.2835
N20420 X-1.3292 Y0.2569
N20425 X-1.3307 Y0.248
N20430 X-1.3431 Y0.1683
N20435 X-1.3444 Y0.1594
N20440 X-1.3469 Y0.1417
N20445 X-1.348 Y0.1329
N20450 X-1.3539 Y0.0177
N20455 X-1.354 Y0.0089
N20460 Y-0.0089
N20465 X-1.3539 Y-0.0177
N20470 X-1.348 Y-0.1329
N20475 X-1.3469 Y-0.1417
N20480 X-1.3444 Y-0.1594
N20485 X-1.3431 Y-0.1683
N20490 X-1.3307 Y-0.248
N20495 X-1.3292 Y-0.2569
N20500 X-1.3244 Y-0.2835
N20505 X-1.3222 Y-0.2923
N20510 X-1.2932 Y-0.4021
N20515 X-1.2916 Y-0.4075
N20520 X-1.2823 Y-0.434
N20525 X-1.2755 Y-0.4521
N20530 X-1.2456 Y-0.5315
N20535 X-1.2418 Y-0.5403
N20540 X-1.2378 Y-0.5492
N20545 X-1.2337 Y-0.558
N20550 X-1.185 Y-0.6555
N20555 X-1.1752 Y-0.6732
N20560 X-1.1692 Y-0.6828
N20565 X-1.119 Y-0.7618
N20570 X-1.1161 Y-0.7662
N20575 X-1.0984 Y-0.792
N20580 X-1.0946 Y-0.7972
N20585 X-1.0275 Y-0.8819
N20590 X-1.0243 Y-0.8858
N20595 X-1.0084 Y-0.9035
N20600 X-1.0009 Y-0.9115
N20605 X-0.9397 Y-0.9744
N20610 X-0.9212 Y-0.9925
N20615 X-0.9123 Y-1.0009
N20620 X-0.8274 Y-1.0718
N20625 X-0.8238 Y-1.0747
N20630 X-0.7972 Y-1.0944
N20635 X-0.7086 Y-1.154
N20640 X-0.6998 Y-1.1594
N20645 X-0.6732 Y-1.1744
N20650 X-0.5935 Y-1.2169
N20655 X-0.5846 Y-1.2215
N20660 X-0.558 Y-1.2335
N20665 X-0.5492 Y-1.2373
N20670 X-0.4606 Y-1.2733
N20675 X-0.4546 Y-1.2755
N20680 X-0.434 Y-1.2828
N20685 X-0.3189 Y-1.3163
N20690 X-0.31 Y-1.3185
N20695 X-0.2835 Y-1.3236
N20700 X-0.1949 Y-1.3398
N20705 X-0.1683 Y-1.3438
N20710 X-0.1594 Y-1.3447
N20715 X-0.0531 Y-1.3529
N20720 X-0.0443 Y-1.3536
N20725 X-0.0177 Y-1.3538
N20730 X-0.0089 Y-1.3537
N20735 X0.0886 Y-1.3512
N20740 X0.0974 Y-1.3509
N20745 X0.1063 Y-1.3505
N20750 X0.2303 Y-1.3345
N20755 X0.2392 Y-1.3329
N20760 X0.248 Y-1.3313
N20765 X0.2569 Y-1.3296
N20770 X0.3732 Y-1.3021
N20775 X0.3809 Y-1.2997
N20780 X0.4002 Y-1.2932
N20785 X0.4075 Y-1.2908
N20790 X0.4872 Y-1.2631
N20795 X0.496 Y-1.2599
N20800 X0.523 Y-1.249
N20805 X0.5315 Y-1.2451
N20810 X0.6112 Y-1.2078
N20815 X0.6177 Y-1.2047
N20820 X0.6378 Y-1.1946
N20825 X0.6466 Y-1.1899
N20830 X0.7548 Y-1.1249
N20835 X0.7618 Y-1.1199
N20840 X0.7795 Y-1.1067
N20845 X0.8504 Y-1.0535
N20850 X0.8592 Y-1.0465
N20855 X0.8718 Y-1.0364
N20860 X0.8769 Y-1.032
N20865 X0.9478 Y-0.9663
N20870 X0.9677 Y-0.9478
N20875 X0.9744 Y-0.9409
N20880 X1.0462 Y-0.8592
N20885 X1.0541 Y-0.85
N20890 X1.0629 Y-0.8396
N20895 X1.0681 Y-0.8326
N20900 X1.1374 Y-0.7352
N20905 X1.1428 Y-0.7263
N20910 X1.1536 Y-0.7086
N20915 X1.1604 Y-0.6967
N20920 X1.2047 Y-0.6184
N20925 X1.2086 Y-0.6112
N20930 X1.2135 Y-0.6016
N20935 X1.2172 Y-0.5935
N20940 X1.2598 Y-0.496
N20945 X1.2633 Y-0.4872
N20950 X1.2701 Y-0.4695
N20955 X1.2732 Y-0.4606
N20960 X1.3072 Y-0.3543
N20965 X1.31 Y-0.3455
N20970 X1.311 Y-0.3411
N20975 X1.3341 Y-0.2303
N20980 X1.3358 Y-0.2214
N20985 X1.3401 Y-0.1949
N20990 X1.352 Y-0.0797
N20995 X1.3525 Y-0.0709
N21000 X1.353 Y-0.0443
N21005 Y0.0443
N21010 X1.3525 Y0.0709
N21015 X1.352 Y0.0797
N21020 X1.3401 Y0.1949
N21025 X1.3358 Y0.2214
N21030 X1.3341 Y0.2303
N21035 X1.311 Y0.3411
N21040 X1.31 Y0.3455
N21045 X1.293 Y0.3986
N21050 X1.2732 Y0.4606
