%
(BRANDON3)
(T1  D=0.25 CR=0. - ZMIN=-0.29 - FLAT END MILL)
N10 G90 G94 G17 G91.1
N15 G20
N20 G53 G0 Z0.
(2D POCKET3)
N25 M9
N30 T1 M6
N35 S2000 M3
N40 G54
N45 M8
N50 G0 X-3.3469 Y-1.1988
N55 G43 Z0.6 H1
N60 G0 Z0.2
N65 G1 Z0.05 F10.
N70 G3 X-3.5304 Y-1.048 Z0.037 I-0.0918 J0.0754 F5.
N75 X-3.3469 Y-1.1988 Z0.0239 I0.0918 J-0.0754
N80 X-3.5304 Y-1.048 Z0.0109 I-0.0918 J0.0754
N85 X-3.3469 Y-1.1988 Z-0.0021 I0.0918 J-0.0754
N90 X-3.5304 Y-1.048 Z-0.0151 I-0.0918 J0.0754
N95 X-3.3469 Y-1.1988 Z-0.0282 I0.0918 J-0.0754
N100 X-3.5304 Y-1.048 Z-0.0412 I-0.0918 J0.0754
N105 X-3.3469 Y-1.1988 Z-0.0542 I0.0918 J-0.0754
N110 X-3.5304 Y-1.048 Z-0.0672 I-0.0918 J0.0754
N115 X-3.3469 Y-1.1988 Z-0.0803 I0.0918 J-0.0754
N120 X-3.5304 Y-1.048 Z-0.0933 I-0.0918 J0.0754
N125 X-3.3469 Y-1.1988 Z-0.1063 I0.0918 J-0.0754
N130 X-3.5304 Y-1.048 Z-0.1194 I-0.0918 J0.0754
N135 X-3.4027 Y-1.2366 Z-0.13 I0.0918 J-0.0754
N140 X-3.3585 Y-1.2159 I-0.0564 J0.1778
N145 X-3.3381 Y-1.1918 I-0.029 J0.0453
N150 X-3.3001 Y-1.0868 I-0.8903 J0.3812
N155 X-3.309 Y-1.0792 I-0.0061 J0.0018
N160 G2 X-3.367 Y-1.1058 I-0.8347 J1.7468
N165 X-3.4266 Y-1.1287 I-0.284 J0.6484
N170 X-3.5071 Y-1.1521 I-0.3321 J0.9936
N175 X-3.5903 Y-1.1626 I-0.0862 J0.3483
N180 G1 X-3.6693
N185 G2 X-3.7846 Y-1.1447 I0. J0.3803
N190 X-3.8897 Y-1.0943 I0.1275 J0.401
N195 G3 X-3.9006 Y-1.1002 I-0.0039 J-0.0058
N200 G1 Y-1.242
N205 G3 X-3.8878 Y-1.2548 I0.0128 J0.
N210 G1 X-3.662
N215 G3 X-3.5027 Y-1.2508 I0. J3.2346
N220 X-3.4284 Y-1.2428 I-0.0316 J0.6416
N225 X-3.4027 Y-1.2366 I-0.0308 J0.184
N230 G2 X-3.3321 Y-1.2574 I0.0199 J-0.0628
N235 G3 X-3.2588 Y-1.2494 I0.034 J0.0281
N240 G1 X-3.256 Y-1.2433
N245 G3 X-3.2001 Y-1.063 I-0.8376 J0.3587
N250 X-3.179 Y-0.8754 I-1.0897 J0.2175
N255 X-3.1884 Y-0.8718 I-0.0053 J0.0001
N260 G2 X-3.3094 Y-0.9715 I-0.3387 J0.2878
N265 X-3.4522 Y-1.0362 I-0.4453 J0.7928
N270 X-3.5216 Y-1.0575 I-0.2914 J0.8259
N275 X-3.5936 Y-1.0668 I-0.072 J0.2749
N280 G1 X-3.6693
N285 G2 X-3.7935 Y-1.0394 I0. J0.2948
N290 X-3.8956 Y-0.9635 I0.1319 J0.284
N295 G3 X-3.9094 I-0.0069 J-0.0061
N300 G2 X-3.9852 Y-1.0251 I-0.2263 J0.2013
N305 G3 X-3.9964 Y-1.0443 I0.011 J-0.0192
N310 G1 Y-1.338
N315 G3 X-3.9839 Y-1.3505 I0.0125 J0.
N320 G1 X-3.785
N325 G3 X-3.544 Y-1.348 I0. J11.6761
N330 X-3.4182 Y-1.3372 I-0.0201 J0.9714
N335 X-3.3003 Y-1.2919 I-0.0442 J0.2912
N340 G1 X-3.2959 Y-1.2892
N345 X-3.2915 Y-1.2864
N350 G3 X-3.2588 Y-1.2494 I-0.0557 J0.0821
N355 G1 Z0.2 F10.
N360 G0 X-3.5023 Y1.2355
N365 G1 Z0.05 F10.
N370 G3 X-3.4329 Y1.0083 Z0.037 I0.0347 J-0.1136 F5.
N375 X-3.5023 Y1.2355 Z0.0239 I-0.0347 J0.1136
N380 X-3.4329 Y1.0083 Z0.0109 I0.0347 J-0.1136
N385 X-3.5023 Y1.2355 Z-0.0021 I-0.0347 J0.1136
N390 X-3.4329 Y1.0083 Z-0.0151 I0.0347 J-0.1136
N395 X-3.5023 Y1.2355 Z-0.0282 I-0.0347 J0.1136
N400 X-3.4329 Y1.0083 Z-0.0412 I0.0347 J-0.1136
N405 X-3.5023 Y1.2355 Z-0.0542 I-0.0347 J0.1136
N410 X-3.4329 Y1.0083 Z-0.0672 I0.0347 J-0.1136
N415 X-3.5023 Y1.2355 Z-0.0803 I-0.0347 J0.1136
N420 X-3.4329 Y1.0083 Z-0.0933 I0.0347 J-0.1136
N425 X-3.5023 Y1.2355 Z-0.1063 I-0.0347 J0.1136
N430 X-3.4329 Y1.0083 Z-0.1194 I0.0347 J-0.1136
N435 X-3.4348 Y1.2361 Z-0.13 I-0.0347 J0.1136
N440 X-3.452 Y1.2404 I-0.0777 J-0.2708
N445 G1 X-3.4534
N450 X-3.4548 Y1.2399
N455 X-3.4558 Y1.239
N460 X-3.4564 Y1.2377
N465 X-3.4565 Y1.2363
N470 X-3.4561 Y1.2349
N475 X-3.4551 Y1.2338
N480 X-3.4539 Y1.2332
N485 G2 X-3.4207 Y1.2231 I-0.7213 J-2.4395
N490 G1 X-3.4193 Y1.223
N495 X-3.4179 Y1.2233
N500 X-3.4168 Y1.2242
N505 X-3.4161 Y1.2254
N510 X-3.4159 Y1.2268
N515 X-3.4162 Y1.2282
N520 X-3.417 Y1.2294
N525 X-3.4181 Y1.2302
N530 G3 X-3.4348 Y1.2361 I-0.0574 J-0.1361
N535 G1 Z0.05 F10.
N540 X-3.7972 Y1.266 F5.
N545 G3 X-3.9972 Y1.3941 Z0.037 I-0.1 J0.064
N550 X-3.7972 Y1.266 Z0.0239 I0.1 J-0.064
N555 X-3.9972 Y1.3941 Z0.0109 I-0.1 J0.064
N560 X-3.7972 Y1.266 Z-0.0021 I0.1 J-0.064
N565 X-3.9972 Y1.3941 Z-0.0151 I-0.1 J0.064
N570 X-3.7972 Y1.266 Z-0.0282 I0.1 J-0.064
N575 X-3.9972 Y1.3941 Z-0.0412 I-0.1 J0.064
N580 X-3.7972 Y1.266 Z-0.0542 I0.1 J-0.064
N585 X-3.9972 Y1.3941 Z-0.0672 I-0.1 J0.064
N590 X-3.7972 Y1.266 Z-0.0803 I0.1 J-0.064
N595 X-3.9972 Y1.3941 Z-0.0933 I-0.1 J0.064
N600 X-3.7972 Y1.266 Z-0.1063 I0.1 J-0.064
N605 X-3.9972 Y1.3941 Z-0.1194 I-0.1 J0.064
N610 X-3.8482 Y1.2219 Z-0.13 I0.1 J-0.064
N615 G2 X-3.8086 Y1.2375 I0.1788 J-0.3948
N620 G1 X-3.8073 Y1.2382
N625 X-3.8063 Y1.2394
N630 X-3.8058 Y1.2408
N635 Y1.2422
N640 X-3.8063 Y1.2436
N645 X-3.8072 Y1.2448
N650 X-3.8085 Y1.2455
N655 X-3.8099 Y1.2458
N660 X-3.8533
N665 X-3.8535
N670 G3 X-3.8658 Y1.2334 I0. J-0.0124
N675 G1 Y1.2259
N680 G3 X-3.8548 Y1.2188 I0.0078 J0.
N685 G1 X-3.8482 Y1.2219
N690 G2 X-3.7226 Y1.191 I0.0431 J-0.0952
N695 G3 X-3.6074 Y1.1323 I0.1205 J0.0941
N700 G2 X-3.5789 Y1.1311 I-0.0619 J-1.7987
N705 X-3.4897 Y1.1159 I-0.0192 J-0.3818
N710 X-3.3444 Y1.0593 I-0.2625 J-0.888
N715 X-3.2196 Y0.9657 I-0.185 J-0.377
N720 G3 X-3.21 Y0.9696 I0.0041 J0.0037
N725 X-3.2282 Y1.1268 I-0.8964 J-0.0246
N730 X-3.278 Y1.2771 I-0.6711 J-0.139
N735 X-3.3124 Y1.3149 I-0.078 J-0.0363
N740 X-3.3926 Y1.3505 I-0.194 J-0.3294
N745 X-3.4787 Y1.368 I-0.1296 J-0.4159
N750 X-3.5463 Y1.3722 I-0.0894 J-0.8902
N755 X-3.614 Y1.3731 I-0.073 J-3.0007
N760 G1 X-3.9823 Y1.3747
N765 G3 X-3.9947 Y1.3623 I0. J-0.0124
N770 G1 Y1.1129
N775 G3 X-3.9814 Y1.0897 I0.0269 J0.
N780 G2 X-3.9105 Y1.0322 I-0.1542 J-0.2626
N785 G3 X-3.8944 I0.008 J0.0073
N790 G2 X-3.7926 Y1.1065 I0.233 J-0.2122
N795 X-3.6693 Y1.1334 I0.1232 J-0.2694
N800 X-3.6074 Y1.1323 I0. J-1.7998
N805 X-3.4861 Y1.0339 I-0.0045 J-0.1295
N810 G3 X-3.3928 Y0.9087 I0.1957 J0.0484
N815 G1 X-3.3917 Y0.908
N820 G2 X-3.3812 Y0.9012 I-0.0762 J-0.1292
N825 G1 X-3.3688 Y0.8924
N830 G2 X-3.3571 Y0.8832 I-0.0867 J-0.1224
N835 G1 X-3.3459 Y0.8735
N840 G2 X-3.3337 Y0.8616 I-0.0984 J-0.1132
N845 G1 X-3.3238 Y0.8508
N850 G2 X-3.3129 Y0.8374 I-0.1107 J-0.1013
N855 G1 X-3.3043 Y0.8255
N860 G2 X-3.2957 Y0.8122 I-0.1216 J-0.0878
N865 G1 X-3.2883 Y0.7993
N870 G2 X-3.2819 Y0.7868 I-0.1302 J-0.0745
N875 G1 X-3.2757 Y0.773
N880 G2 X-3.2711 Y0.7618 I-0.1366 J-0.062
N885 G1 X-3.2659 Y0.7472
N890 G2 X-3.2627 Y0.7372 I-0.1412 J-0.0507
N895 G1 X-3.2583 Y0.7218
N900 X-3.2562 Y0.7134
N905 X-3.2527 Y0.6974
N910 X-3.2513 Y0.6902
N915 X-3.2484 Y0.6737
N920 X-3.2476 Y0.6678
N925 X-3.2454 Y0.6507
N930 X-3.2448 Y0.646
N935 X-3.2431 Y0.6285
N940 X-3.2428 Y0.6249
N945 X-3.2415 Y0.6071
N950 X-3.2413 Y0.6045
N955 X-3.2403 Y0.5864
N960 X-3.2402 Y0.5846
N965 X-3.2394 Y0.5664
N970 Y0.5655
N975 X-3.2387 Y0.5472
N980 X-3.2386 Y0.5391
N985 X-3.2389 Y0.5208
N990 Y0.52
N995 X-3.2393 Y0.5019
N1000 Y0.5002
N1005 X-3.2399 Y0.4823
N1010 X-3.24 Y0.4797
N1015 X-3.2409 Y0.462
N1020 X-3.2411 Y0.4585
N1025 X-3.2424 Y0.4411
N1030 X-3.2428 Y0.4365
N1035 X-3.2446 Y0.4195
N1040 X-3.2453 Y0.4139
N1045 X-3.2476 Y0.3973
N1050 X-3.2487 Y0.3905
N1055 X-3.2518 Y0.3744
N1060 X-3.2536 Y0.3662
N1065 X-3.2574 Y0.3508
N1070 X-3.2586 Y0.346
N1075 X-3.2601 Y0.3413
N1080 X-3.2648 Y0.3265
N1085 G2 X-3.2687 Y0.3156 I-0.1429 J0.0455
N1090 G1 X-3.2744 Y0.3016
N1095 G2 X-3.2799 Y0.2895 I-0.139 J0.0563
N1100 G1 X-3.2867 Y0.2763
N1105 G2 X-3.2942 Y0.2634 I-0.1335 J0.0684
N1110 G1 X-3.3021 Y0.2511
N1115 G2 X-3.3119 Y0.2377 I-0.126 J0.0814
N1120 G1 X-3.3199 Y0.2278
N1125 X-3.3159 Y0.2287
N1130 X-3.3009 Y0.2322
N1135 X-3.2866 Y0.2357
N1140 X-3.273 Y0.2392
N1145 X-3.2601 Y0.2428
N1150 X-3.248 Y0.2465
N1155 X-3.2366 Y0.2502
N1160 X-3.2261 Y0.2541
N1165 X-3.2165 Y0.2581
N1170 X-3.2077 Y0.2621
N1175 X-3.1997 Y0.2662
N1180 X-3.1925 Y0.2703
N1185 X-3.1858 Y0.2746
N1190 X-3.1789 Y0.2796
N1195 X-3.1716 Y0.2854
N1200 X-3.1638 Y0.2922
N1205 X-3.1556 Y0.2999
N1210 X-3.1469 Y0.3084
N1215 X-3.1378 Y0.3178
N1220 X-3.1284 Y0.3281
N1225 X-3.1185 Y0.339
N1230 X-3.1171 Y0.3407
N1235 X-3.1123 Y0.355
N1240 X-3.1055 Y0.3757
N1245 X-3.0991 Y0.396
N1250 X-3.093 Y0.416
N1255 X-3.0874 Y0.4355
N1260 X-3.0822 Y0.4547
N1265 X-3.0775 Y0.4735
N1270 X-3.0735 Y0.4919
N1275 X-3.0699 Y0.5103
N1280 X-3.0668 Y0.5288
N1285 X-3.0641 Y0.5477
N1290 X-3.0619 Y0.567
N1295 X-3.06 Y0.5866
N1300 X-3.0584 Y0.6066
N1305 X-3.0572 Y0.627
N1310 X-3.0563 Y0.6477
N1315 X-3.0556 Y0.6687
N1320 X-3.0552 Y0.6901
N1325 X-3.0549 Y0.7118
N1330 X-3.0548 Y0.7338
N1335 X-3.0549 Y0.7561
N1340 X-3.055 Y0.7787
N1345 X-3.0552 Y0.8016
N1350 Y0.8044
N1355 X-3.0548 Y0.8353
N1360 X-3.0545 Y0.8658
N1365 X-3.0544 Y0.8959
N1370 X-3.0546 Y0.9255
N1375 X-3.055 Y0.9547
N1380 X-3.0558 Y0.9834
N1385 X-3.057 Y1.0115
N1390 X-3.0587 Y1.0391
N1395 X-3.0609 Y1.0661
N1400 X-3.0638 Y1.0925
N1405 X-3.0672 Y1.1183
N1410 X-3.0714 Y1.1435
N1415 X-3.0763 Y1.168
N1420 X-3.0819 Y1.192
N1425 X-3.0884 Y1.2155
N1430 X-3.0959 Y1.239
N1435 X-3.1045 Y1.263
N1440 X-3.1141 Y1.2874
N1445 X-3.1245 Y1.3123
N1450 X-3.1358 Y1.3377
N1455 X-3.1478 Y1.3635
N1460 X-3.1605 Y1.3899
N1465 X-3.1692 Y1.4076
N1470 X-3.1803 Y1.4148
N1475 X-3.2019 Y1.4286
N1480 X-3.2231 Y1.4416
N1485 X-3.2437 Y1.4538
N1490 X-3.2638 Y1.4649
N1495 X-3.2834 Y1.475
N1500 X-3.3024 Y1.484
N1505 X-3.3209 Y1.4918
N1510 X-3.3391 Y1.4985
N1515 X-3.3578 Y1.5044
N1520 X-3.3772 Y1.5095
N1525 X-3.3975 Y1.5139
N1530 X-3.4185 Y1.5177
N1535 X-3.4404 Y1.5209
N1540 X-3.4631 Y1.5235
N1545 X-3.4865 Y1.5255
N1550 X-3.5106 Y1.5271
N1555 X-3.5355 Y1.5281
N1560 X-3.5609 Y1.5288
N1565 X-3.587 Y1.5292
N1570 X-3.6137 Y1.5293
N1575 X-3.6409
N1580 X-3.6686 Y1.5292
N1585 X-3.6693
N1590 X-4.1492
N1595 Y0.9771
N1600 X-4.1356
N1605 G2 X-3.9856 Y0.8271 I0. J-0.15
N1610 G1 Y-0.7622
N1615 G2 X-4.1356 Y-0.9122 I-0.15 J0.
N1620 G1 X-4.1492
N1625 Y-1.5033
N1630 X-3.6209
N1635 X-3.5938 Y-1.5032
N1640 X-3.567 Y-1.503
N1645 X-3.5408 Y-1.5026
N1650 X-3.5153 Y-1.5019
N1655 X-3.4904 Y-1.5009
N1660 X-3.4663 Y-1.4995
N1665 X-3.443 Y-1.4976
N1670 X-3.4205 Y-1.4952
N1675 X-3.3989 Y-1.4923
N1680 X-3.3782 Y-1.4887
N1685 X-3.3584 Y-1.4845
N1690 X-3.3396 Y-1.4797
N1695 X-3.3218 Y-1.4742
N1700 X-3.3047 Y-1.4679
N1705 X-3.2879 Y-1.4608
N1710 X-3.2708 Y-1.4524
N1715 X-3.253 Y-1.4427
N1720 X-3.2348 Y-1.4318
N1725 X-3.216 Y-1.4198
N1730 X-3.1967 Y-1.4067
N1735 X-3.1768 Y-1.3926
N1740 X-3.1565 Y-1.3777
N1745 X-3.1443 Y-1.3686
N1750 X-3.1334 Y-1.3443
N1755 X-3.1207 Y-1.3156
N1760 X-3.1086 Y-1.2874
N1765 X-3.0972 Y-1.2596
N1770 X-3.0866 Y-1.2322
N1775 X-3.0769 Y-1.2053
N1780 X-3.0681 Y-1.1787
N1785 X-3.0604 Y-1.1526
N1790 X-3.0537 Y-1.1265
N1795 X-3.0478 Y-1.1001
N1800 X-3.0428 Y-1.073
N1805 X-3.0385 Y-1.0454
N1810 X-3.035 Y-1.0172
N1815 X-3.032 Y-0.9885
N1820 X-3.0297 Y-0.9592
N1825 X-3.028 Y-0.9293
N1830 X-3.0267 Y-0.899
N1835 X-3.0259 Y-0.8682
N1840 X-3.0254 Y-0.8369
N1845 X-3.0253 Y-0.8051
N1850 Y-0.773
N1855 X-3.0256 Y-0.7404
N1860 X-3.0259 Y-0.7075
N1865 Y-0.7042
N1870 X-3.0256 Y-0.6801
N1875 X-3.0253 Y-0.6563
N1880 X-3.0251 Y-0.6328
N1885 Y-0.6095
N1890 X-3.0252 Y-0.5865
N1895 X-3.0255 Y-0.5639
N1900 X-3.026 Y-0.5415
N1905 X-3.0268 Y-0.5195
N1910 X-3.0279 Y-0.4978
N1915 X-3.0293 Y-0.4764
N1920 X-3.0311 Y-0.4553
N1925 X-3.0332 Y-0.4346
N1930 X-3.0358 Y-0.4143
N1935 X-3.0388 Y-0.3942
N1940 X-3.0422 Y-0.3745
N1945 X-3.0462 Y-0.3547
N1950 X-3.0508 Y-0.3347
N1955 X-3.0558 Y-0.3142
N1960 X-3.0614 Y-0.2934
N1965 X-3.0674 Y-0.2722
N1970 X-3.0738 Y-0.2506
N1975 X-3.0805 Y-0.2286
N1980 X-3.0845 Y-0.2159
N1985 X-3.0853 Y-0.215
N1990 X-3.0967 Y-0.2031
N1995 X-3.1076 Y-0.1919
N2000 X-3.1182 Y-0.1814
N2005 X-3.1285 Y-0.1718
N2010 X-3.1385 Y-0.163
N2015 X-3.148 Y-0.155
N2020 X-3.1572 Y-0.1479
N2025 X-3.1662 Y-0.1416
N2030 X-3.1754 Y-0.1357
N2035 X-3.1853 Y-0.13
N2040 X-3.1958 Y-0.1244
N2045 X-3.2071 Y-0.1189
N2050 X-3.2191 Y-0.1136
N2055 X-3.2319 Y-0.1084
N2060 X-3.2453 Y-0.1033
N2065 X-3.2594 Y-0.0983
N2070 X-3.2741 Y-0.0934
N2075 X-3.2894 Y-0.0886
N2080 X-3.3053 Y-0.0838
N2085 X-3.3172 Y-0.0803
N2090 X-3.3161 Y-0.0813
N2095 G2 X-3.3037 Y-0.0943 I-0.1022 J-0.1098
N2100 G1 X-3.2936 Y-0.1063
N2105 G2 X-3.2834 Y-0.1198 I-0.1146 J-0.0968
N2110 G1 X-3.2747 Y-0.133
N2115 G2 X-3.2669 Y-0.1459 I-0.1248 J-0.0833
N2120 G1 X-3.2594 Y-0.1602
N2125 G2 X-3.2537 Y-0.172 I-0.1325 J-0.0703
N2130 G1 X-3.2473 Y-0.1872
N2135 G2 X-3.2433 Y-0.1977 I-0.1381 J-0.0585
N2140 G1 X-3.2379 Y-0.2139
N2145 X-3.2351 Y-0.2228
N2150 X-3.2306 Y-0.2397
N2155 X-3.2288 Y-0.2473
N2160 X-3.225 Y-0.2649
N2165 X-3.2238 Y-0.2711
N2170 X-3.2207 Y-0.2893
N2175 X-3.22 Y-0.2942
N2180 X-3.2174 Y-0.3129
N2185 X-3.217 Y-0.3167
N2190 X-3.2149 Y-0.3358
N2195 X-3.2146 Y-0.3386
N2200 X-3.2128 Y-0.358
N2205 X-3.2127 Y-0.3598
N2210 X-3.2111 Y-0.3793
N2215 Y-0.3802
N2220 X-3.2097 Y-0.3999
N2225 G2 X-3.2093 Y-0.4136 I-0.1496 J-0.0108
N2230 G1 X-3.2097 Y-0.4355
N2235 Y-0.4363
N2240 X-3.2103 Y-0.4582
N2245 Y-0.4599
N2250 X-3.2111 Y-0.4815
N2255 X-3.2112 Y-0.4841
N2260 X-3.2124 Y-0.5055
N2265 X-3.2126 Y-0.509
N2270 X-3.2142 Y-0.53
N2275 X-3.2146 Y-0.5345
N2280 X-3.2168 Y-0.5551
N2285 X-3.2175 Y-0.5607
N2290 X-3.2204 Y-0.5807
N2295 X-3.2216 Y-0.5876
N2300 X-3.2254 Y-0.6069
N2305 X-3.2272 Y-0.6151
N2310 X-3.2319 Y-0.6337
N2315 G2 X-3.2346 Y-0.6432 I-0.1454 J0.0367
N2320 G1 X-3.2404 Y-0.661
N2325 G2 X-3.2444 Y-0.672 I-0.1427 J0.0462
N2330 G1 X-3.2513 Y-0.6888
N2335 G2 X-3.257 Y-0.701 I-0.1387 J0.0571
N2340 G1 X-3.2652 Y-0.7168
N2345 G2 X-3.2729 Y-0.7298 I-0.133 J0.0693
N2350 G1 X-3.2826 Y-0.7446
N2355 G2 X-3.2925 Y-0.758 I-0.1254 J0.0823
N2360 G1 X-3.3037 Y-0.7715
N2365 G2 X-3.3154 Y-0.784 I-0.1155 J0.0958
N2370 G1 X-3.3282 Y-0.7963
N2375 G2 X-3.3397 Y-0.8063 I-0.1038 J0.1083
N2380 G1 X-3.354 Y-0.8174
N2385 G2 X-3.3645 Y-0.8249 I-0.0922 J0.1183
N2390 G1 X-3.3801 Y-0.8351
N2395 G2 X-3.3893 Y-0.8406 I-0.0817 J0.1258
N2400 G1 X-3.4061 Y-0.8498
N2405 X-3.4138 Y-0.8538
N2410 X-3.4315 Y-0.8623
N2415 X-3.4378 Y-0.8651
N2420 X-3.4563 Y-0.8729
N2425 X-3.4612 Y-0.8749
N2430 X-3.4804 Y-0.8822
N2435 X-3.484 Y-0.8835
N2440 X-3.5036 Y-0.8905
N2445 X-3.506 Y-0.8913
N2450 X-3.526 Y-0.8979
N2455 X-3.5271 Y-0.8983
N2460 X-3.5472 Y-0.9049
N2465 G2 X-3.5936 Y-0.9122 I-0.0464 J0.1426
N2470 G1 X-3.6693
N2475 G2 X-3.8193 Y-0.7622 I0. J0.15
N2480 G1 Y-0.1177
N2485 G2 X-3.6693 Y0.0323 I0.15 J0.
N2490 G1 X-3.5961
N2495 G2 X-3.5623 Y0.0284 I0. J-0.15
N2500 G1 X-3.5435 Y0.0241
N2505 X-3.5424 Y0.0238
N2510 X-3.5237 Y0.0194
N2515 X-3.5215 Y0.0188
N2520 X-3.5031 Y0.0141
N2525 X-3.4998 Y0.0132
N2530 X-3.4817 Y0.0082
N2535 X-3.4771 Y0.0068
N2540 X-3.4596 Y0.0013
N2545 X-3.4536 Y-0.0007
N2550 X-3.4422 Y-0.0049
N2555 G2 X-3.4525 Y0.1358 I0.1269 J0.08
N2560 G1 X-3.4569 Y0.1339
N2565 X-3.4618 Y0.1319
N2570 X-3.4776 Y0.1257
N2575 X-3.4812 Y0.1244
N2580 X-3.4975 Y0.1185
N2585 X-3.4998 Y0.1177
N2590 X-3.5164 Y0.1121
N2595 X-3.5175 Y0.1117
N2600 X-3.5342 Y0.1062
N2605 G2 X-3.5814 Y0.0985 I-0.0473 J0.1424
N2610 G1 X-3.6693
N2615 G2 X-3.8193 Y0.2485 I0. J0.15
N2620 G1 Y0.8271
N2625 G2 X-3.6693 Y0.9771 I0.15 J0.
N2630 G1 X-3.5936
N2635 G2 X-3.5522 Y0.9713 I0. J-0.15
N2640 G1 X-3.5351 Y0.9664
N2645 X-3.534 Y0.9661
N2650 X-3.5171 Y0.961
N2655 X-3.5147 Y0.9603
N2660 X-3.498 Y0.9551
N2665 X-3.4945 Y0.954
N2670 X-3.4782 Y0.9484
N2675 X-3.4734 Y0.9467
N2680 X-3.4576 Y0.9407
N2685 X-3.4515 Y0.9382
N2690 X-3.4363 Y0.9317
N2695 X-3.4286 Y0.9281
N2700 X-3.4143 Y0.9209
N2705 G2 X-3.4051 Y0.916 I-0.0671 J-0.1342
N2710 G1 X-3.3928 Y0.9087
N2715 G3 X-3.3807 Y0.9157 I0.0041 J0.0069
N2720 G1 X-3.3864 Y1.2052
N2725 X-3.3868 Y1.2074
N2730 X-3.3877 Y1.2094
N2735 X-3.3891 Y1.2111
N2740 G3 X-3.546 Y1.0328 Z-0.143 I-0.0784 J-0.0892
N2745 X-3.3891 Y1.2111 Z-0.1561 I0.0784 J0.0892
N2750 X-3.546 Y1.0328 Z-0.1691 I-0.0784 J-0.0892
N2755 X-3.3891 Y1.2111 Z-0.1821 I0.0784 J0.0892
N2760 X-3.546 Y1.0328 Z-0.1951 I-0.0784 J-0.0892
N2765 X-3.3891 Y1.2111 Z-0.2082 I0.0784 J0.0892
N2770 X-3.4348 Y1.2361 Z-0.21 I-0.0784 J-0.0892
N2775 X-3.452 Y1.2404 I-0.0777 J-0.2708
N2780 G1 X-3.4534
N2785 X-3.4548 Y1.2399
N2790 X-3.4558 Y1.239
N2795 X-3.4564 Y1.2377
N2800 X-3.4565 Y1.2363
N2805 X-3.4561 Y1.2349
N2810 X-3.4551 Y1.2338
N2815 X-3.4539 Y1.2332
N2820 G2 X-3.4207 Y1.2231 I-0.7213 J-2.4395
N2825 G1 X-3.4193 Y1.223
N2830 X-3.4179 Y1.2233
N2835 X-3.4168 Y1.2242
N2840 X-3.4161 Y1.2254
N2845 X-3.4159 Y1.2268
N2850 X-3.4162 Y1.2282
N2855 X-3.417 Y1.2294
N2860 X-3.4181 Y1.2302
N2865 G3 X-3.4348 Y1.2361 I-0.0574 J-0.1361
N2870 G1 Z-0.08 F10.
N2875 X-3.8411 Y1.2254 F5.
N2880 G3 X-3.9533 Y1.4347 Z-0.093 I-0.0561 J0.1047
N2885 X-3.8411 Y1.2254 Z-0.1061 I0.0561 J-0.1047
N2890 X-3.9533 Y1.4347 Z-0.1191 I-0.0561 J0.1047
N2895 X-3.8411 Y1.2254 Z-0.1321 I0.0561 J-0.1047
N2900 X-3.9533 Y1.4347 Z-0.1451 I-0.0561 J0.1047
N2905 X-3.8411 Y1.2254 Z-0.1582 I0.0561 J-0.1047
N2910 X-3.9533 Y1.4347 Z-0.1712 I-0.0561 J0.1047
N2915 X-3.8411 Y1.2254 Z-0.1842 I0.0561 J-0.1047
N2920 X-3.9533 Y1.4347 Z-0.1972 I-0.0561 J0.1047
N2925 X-3.8482 Y1.2219 Z-0.21 I0.0561 J-0.1047
N2930 G2 X-3.8086 Y1.2375 I0.1788 J-0.3948
N2935 G1 X-3.8073 Y1.2382
N2940 X-3.8063 Y1.2394
N2945 X-3.8058 Y1.2408
N2950 Y1.2422
N2955 X-3.8063 Y1.2436
N2960 X-3.8072 Y1.2448
N2965 X-3.8085 Y1.2455
N2970 X-3.8099 Y1.2458
N2975 X-3.8533
N2980 X-3.8535
N2985 G3 X-3.8658 Y1.2334 I0. J-0.0124
N2990 G1 Y1.2259
N2995 G3 X-3.8548 Y1.2188 I0.0078 J0.
N3000 G1 X-3.8482 Y1.2219
N3005 G2 X-3.7226 Y1.191 I0.0431 J-0.0952
N3010 G3 X-3.6074 Y1.1323 I0.1205 J0.0941
N3015 G2 X-3.5789 Y1.1311 I-0.0619 J-1.7987
N3020 X-3.4897 Y1.1159 I-0.0192 J-0.3818
N3025 X-3.3444 Y1.0593 I-0.2625 J-0.888
N3030 X-3.2196 Y0.9657 I-0.185 J-0.377
N3035 G3 X-3.21 Y0.9696 I0.0041 J0.0037
N3040 X-3.2282 Y1.1268 I-0.8964 J-0.0246
N3045 X-3.278 Y1.2771 I-0.6711 J-0.139
N3050 X-3.3124 Y1.3149 I-0.078 J-0.0363
N3055 X-3.3926 Y1.3505 I-0.194 J-0.3294
N3060 X-3.4787 Y1.368 I-0.1296 J-0.4159
N3065 X-3.5463 Y1.3722 I-0.0894 J-0.8902
N3070 X-3.614 Y1.3731 I-0.073 J-3.0007
N3075 G1 X-3.9823 Y1.3747
N3080 G3 X-3.9947 Y1.3623 I0. J-0.0124
N3085 G1 Y1.1129
N3090 G3 X-3.9814 Y1.0897 I0.0269 J0.
N3095 G2 X-3.9105 Y1.0322 I-0.1542 J-0.2626
N3100 G3 X-3.8944 I0.008 J0.0073
N3105 G2 X-3.7926 Y1.1065 I0.233 J-0.2122
N3110 X-3.6693 Y1.1334 I0.1232 J-0.2694
N3115 X-3.6074 Y1.1323 I0. J-1.7998
N3120 G1 Z0.2 F10.
N3125 G0 X-3.3953 Y-1.234
N3130 G1 Z-0.08 F10.
N3135 G3 X-3.482 Y-1.0129 Z-0.093 I-0.0434 J0.1105 F5.
N3140 X-3.3953 Y-1.234 Z-0.1061 I0.0434 J-0.1105
N3145 X-3.482 Y-1.0129 Z-0.1191 I-0.0434 J0.1105
N3150 X-3.3953 Y-1.234 Z-0.1321 I0.0434 J-0.1105
N3155 X-3.482 Y-1.0129 Z-0.1451 I-0.0434 J0.1105
N3160 X-3.3953 Y-1.234 Z-0.1582 I0.0434 J-0.1105
N3165 X-3.482 Y-1.0129 Z-0.1712 I-0.0434 J0.1105
N3170 X-3.3953 Y-1.234 Z-0.1842 I0.0434 J-0.1105
N3175 X-3.482 Y-1.0129 Z-0.1972 I-0.0434 J0.1105
N3180 X-3.4027 Y-1.2366 Z-0.21 I0.0434 J-0.1105
N3185 X-3.3585 Y-1.2159 I-0.0564 J0.1778
N3190 X-3.3381 Y-1.1918 I-0.029 J0.0453
N3195 X-3.3001 Y-1.0868 I-0.8903 J0.3812
N3200 X-3.309 Y-1.0792 I-0.0061 J0.0018
N3205 G2 X-3.367 Y-1.1058 I-0.8347 J1.7468
N3210 X-3.4266 Y-1.1287 I-0.284 J0.6484
N3215 X-3.5071 Y-1.1521 I-0.3321 J0.9936
N3220 X-3.5903 Y-1.1626 I-0.0862 J0.3483
N3225 G1 X-3.6693
N3230 G2 X-3.7846 Y-1.1447 I0. J0.3803
N3235 X-3.8897 Y-1.0943 I0.1275 J0.401
N3240 G3 X-3.9006 Y-1.1002 I-0.0039 J-0.0058
N3245 G1 Y-1.242
N3250 G3 X-3.8878 Y-1.2548 I0.0128 J0.
N3255 G1 X-3.662
N3260 G3 X-3.5027 Y-1.2508 I0. J3.2346
N3265 X-3.4284 Y-1.2428 I-0.0316 J0.6416
N3270 X-3.4027 Y-1.2366 I-0.0308 J0.184
N3275 G2 X-3.3321 Y-1.2574 I0.0199 J-0.0628
N3280 G3 X-3.2588 Y-1.2494 I0.034 J0.0281
N3285 G1 X-3.256 Y-1.2433
N3290 G3 X-3.2001 Y-1.063 I-0.8376 J0.3587
N3295 X-3.179 Y-0.8754 I-1.0897 J0.2175
N3300 X-3.1884 Y-0.8718 I-0.0053 J0.0001
N3305 G2 X-3.3094 Y-0.9715 I-0.3387 J0.2878
N3310 X-3.4522 Y-1.0362 I-0.4453 J0.7928
N3315 X-3.5216 Y-1.0575 I-0.2914 J0.8259
N3320 X-3.5936 Y-1.0668 I-0.072 J0.2749
N3325 G1 X-3.6693
N3330 G2 X-3.7935 Y-1.0394 I0. J0.2948
N3335 X-3.8956 Y-0.9635 I0.1319 J0.284
N3340 G3 X-3.9094 I-0.0069 J-0.0061
N3345 G2 X-3.9852 Y-1.0251 I-0.2263 J0.2013
N3350 G3 X-3.9964 Y-1.0443 I0.011 J-0.0192
N3355 G1 Y-1.338
N3360 G3 X-3.9839 Y-1.3505 I0.0125 J0.
N3365 G1 X-3.785
N3370 G3 X-3.544 Y-1.348 I0. J11.6761
N3375 X-3.4182 Y-1.3372 I-0.0201 J0.9714
N3380 X-3.3003 Y-1.2919 I-0.0442 J0.2912
N3385 G1 X-3.2959 Y-1.2892
N3390 X-3.2915 Y-1.2864
N3395 G3 X-3.2588 Y-1.2494 I-0.0557 J0.0821
N3400 G2 X-3.1488 Y-1.1823 I0.1095 J-0.0559
N3405 G3 X-3.0482 Y-1.1018 I0.0004 J0.1026
N3410 G1 X-3.0478 Y-1.1001
N3415 X-3.0428 Y-1.073
N3420 X-3.0385 Y-1.0454
N3425 X-3.035 Y-1.0172
N3430 X-3.032 Y-0.9885
N3435 X-3.0297 Y-0.9592
N3440 X-3.028 Y-0.9293
N3445 X-3.0267 Y-0.899
N3450 X-3.0259 Y-0.8682
N3455 X-3.0254 Y-0.8369
N3460 X-3.0253 Y-0.8051
N3465 Y-0.773
N3470 X-3.0256 Y-0.7404
N3475 X-3.0259 Y-0.7075
N3480 Y-0.7042
N3485 X-3.0256 Y-0.6801
N3490 X-3.0253 Y-0.6563
N3495 X-3.0251 Y-0.6328
N3500 Y-0.6095
N3505 X-3.0252 Y-0.5865
N3510 X-3.0255 Y-0.5639
N3515 X-3.026 Y-0.5415
N3520 X-3.0268 Y-0.5195
N3525 X-3.0279 Y-0.4978
N3530 X-3.0293 Y-0.4764
N3535 X-3.0311 Y-0.4553
N3540 X-3.0332 Y-0.4346
N3545 X-3.0358 Y-0.4143
N3550 X-3.0388 Y-0.3942
N3555 X-3.0422 Y-0.3745
N3560 X-3.0462 Y-0.3547
N3565 X-3.0508 Y-0.3347
N3570 X-3.0558 Y-0.3142
N3575 X-3.0614 Y-0.2934
N3580 X-3.0674 Y-0.2722
N3585 X-3.0738 Y-0.2506
N3590 X-3.0805 Y-0.2286
N3595 X-3.0845 Y-0.2159
N3600 X-3.0853 Y-0.215
N3605 X-3.0967 Y-0.2031
N3610 X-3.1076 Y-0.1919
N3615 X-3.1182 Y-0.1814
N3620 X-3.1285 Y-0.1718
N3625 X-3.1385 Y-0.163
N3630 X-3.148 Y-0.155
N3635 X-3.1572 Y-0.1479
N3640 X-3.1662 Y-0.1416
N3645 X-3.1754 Y-0.1357
N3650 X-3.1853 Y-0.13
N3655 X-3.1958 Y-0.1244
N3660 X-3.2071 Y-0.1189
N3665 X-3.2191 Y-0.1136
N3670 X-3.2319 Y-0.1084
N3675 X-3.2453 Y-0.1033
N3680 X-3.2594 Y-0.0983
N3685 X-3.2741 Y-0.0934
N3690 X-3.2894 Y-0.0886
N3695 X-3.3053 Y-0.0838
N3700 X-3.3172 Y-0.0803
N3705 X-3.3161 Y-0.0813
N3710 G2 X-3.3037 Y-0.0943 I-0.1022 J-0.1098
N3715 G1 X-3.2936 Y-0.1063
N3720 G2 X-3.2834 Y-0.1198 I-0.1146 J-0.0968
N3725 G1 X-3.2747 Y-0.133
N3730 G2 X-3.2669 Y-0.1459 I-0.1248 J-0.0833
N3735 G1 X-3.2594 Y-0.1602
N3740 G2 X-3.2537 Y-0.172 I-0.1325 J-0.0703
N3745 G1 X-3.2473 Y-0.1872
N3750 G2 X-3.2433 Y-0.1977 I-0.1381 J-0.0585
N3755 G1 X-3.2379 Y-0.2139
N3760 X-3.2351 Y-0.2228
N3765 X-3.2306 Y-0.2397
N3770 X-3.2288 Y-0.2473
N3775 X-3.225 Y-0.2649
N3780 X-3.2238 Y-0.2711
N3785 X-3.2207 Y-0.2893
N3790 X-3.22 Y-0.2942
N3795 X-3.2174 Y-0.3129
N3800 X-3.217 Y-0.3167
N3805 X-3.2149 Y-0.3358
N3810 X-3.2146 Y-0.3386
N3815 X-3.2128 Y-0.358
N3820 X-3.2127 Y-0.3598
N3825 X-3.2111 Y-0.3793
N3830 Y-0.3802
N3835 X-3.2097 Y-0.3999
N3840 G2 X-3.2093 Y-0.4136 I-0.1496 J-0.0108
N3845 G1 X-3.2097 Y-0.4355
N3850 Y-0.4363
N3855 X-3.2103 Y-0.4582
N3860 Y-0.4599
N3865 X-3.2111 Y-0.4815
N3870 X-3.2112 Y-0.4841
N3875 X-3.2124 Y-0.5055
N3880 X-3.2126 Y-0.509
N3885 X-3.2142 Y-0.53
N3890 X-3.2146 Y-0.5345
N3895 X-3.2168 Y-0.5551
N3900 X-3.2175 Y-0.5607
N3905 X-3.2204 Y-0.5807
N3910 X-3.2216 Y-0.5876
N3915 X-3.2254 Y-0.6069
N3920 X-3.2272 Y-0.6151
N3925 X-3.2319 Y-0.6337
N3930 G2 X-3.2346 Y-0.6432 I-0.1454 J0.0367
N3935 G1 X-3.2404 Y-0.661
N3940 G2 X-3.2444 Y-0.672 I-0.1427 J0.0462
N3945 G1 X-3.2513 Y-0.6888
N3950 G2 X-3.257 Y-0.701 I-0.1387 J0.0571
N3955 G1 X-3.2652 Y-0.7168
N3960 G2 X-3.2729 Y-0.7298 I-0.133 J0.0693
N3965 G1 X-3.2826 Y-0.7446
N3970 G2 X-3.2925 Y-0.758 I-0.1254 J0.0823
N3975 G1 X-3.3037 Y-0.7715
N3980 G2 X-3.3154 Y-0.784 I-0.1155 J0.0958
N3985 G1 X-3.3282 Y-0.7963
N3990 G2 X-3.3397 Y-0.8063 I-0.1038 J0.1083
N3995 G1 X-3.354 Y-0.8174
N4000 G2 X-3.3645 Y-0.8249 I-0.0922 J0.1183
N4005 G1 X-3.3801 Y-0.8351
N4010 G2 X-3.3893 Y-0.8406 I-0.0817 J0.1258
N4015 G1 X-3.4061 Y-0.8498
N4020 X-3.4138 Y-0.8538
N4025 X-3.4315 Y-0.8623
N4030 X-3.4378 Y-0.8651
N4035 X-3.4563 Y-0.8729
N4040 X-3.4612 Y-0.8749
N4045 X-3.4804 Y-0.8822
N4050 X-3.484 Y-0.8835
N4055 X-3.5036 Y-0.8905
N4060 X-3.506 Y-0.8913
N4065 X-3.526 Y-0.8979
N4070 X-3.5271 Y-0.8983
N4075 X-3.5472 Y-0.9049
N4080 G2 X-3.5936 Y-0.9122 I-0.0464 J0.1426
N4085 G1 X-3.6693
N4090 G2 X-3.8193 Y-0.7622 I0. J0.15
N4095 G1 Y-0.1177
N4100 G2 X-3.6693 Y0.0323 I0.15 J0.
N4105 G1 X-3.5961
N4110 G2 X-3.5623 Y0.0284 I0. J-0.15
N4115 G1 X-3.5435 Y0.0241
N4120 X-3.5424 Y0.0238
N4125 X-3.5237 Y0.0194
N4130 X-3.5215 Y0.0188
N4135 X-3.5031 Y0.0141
N4140 X-3.4998 Y0.0132
N4145 X-3.4817 Y0.0082
N4150 X-3.4771 Y0.0068
N4155 X-3.4596 Y0.0013
N4160 X-3.4536 Y-0.0007
N4165 X-3.4422 Y-0.0049
N4170 G2 X-3.4525 Y0.1358 I0.1269 J0.08
N4175 G1 X-3.4569 Y0.1339
N4180 X-3.4618 Y0.1319
N4185 X-3.4776 Y0.1257
N4190 X-3.4812 Y0.1244
N4195 X-3.4975 Y0.1185
N4200 X-3.4998 Y0.1177
N4205 X-3.5164 Y0.1121
N4210 X-3.5175 Y0.1117
N4215 X-3.5342 Y0.1062
N4220 G2 X-3.5814 Y0.0985 I-0.0473 J0.1424
N4225 G1 X-3.6693
N4230 G2 X-3.8193 Y0.2485 I0. J0.15
N4235 G1 Y0.8271
N4240 G2 X-3.6693 Y0.9771 I0.15 J0.
N4245 G1 X-3.5936
N4250 G2 X-3.5522 Y0.9713 I0. J-0.15
N4255 G1 X-3.5351 Y0.9664
N4260 X-3.534 Y0.9661
N4265 X-3.5171 Y0.961
N4270 X-3.5147 Y0.9603
N4275 X-3.498 Y0.9551
N4280 X-3.4945 Y0.954
N4285 X-3.4782 Y0.9484
N4290 X-3.4734 Y0.9467
N4295 X-3.4576 Y0.9407
N4300 X-3.4515 Y0.9382
N4305 X-3.4363 Y0.9317
N4310 X-3.4286 Y0.9281
N4315 X-3.4143 Y0.9209
N4320 G2 X-3.4051 Y0.916 I-0.0671 J-0.1342
N4325 G1 X-3.3917 Y0.908
N4330 G2 X-3.3812 Y0.9012 I-0.0762 J-0.1292
N4335 G1 X-3.3688 Y0.8924
N4340 G2 X-3.3571 Y0.8832 I-0.0867 J-0.1224
N4345 G1 X-3.3459 Y0.8735
N4350 G2 X-3.3337 Y0.8616 I-0.0984 J-0.1132
N4355 G1 X-3.3238 Y0.8508
N4360 G2 X-3.3129 Y0.8374 I-0.1107 J-0.1013
N4365 G1 X-3.3043 Y0.8255
N4370 G2 X-3.2957 Y0.8122 I-0.1216 J-0.0878
N4375 G1 X-3.2883 Y0.7993
N4380 G2 X-3.2819 Y0.7868 I-0.1302 J-0.0745
N4385 G1 X-3.2757 Y0.773
N4390 G2 X-3.2711 Y0.7618 I-0.1366 J-0.062
N4395 G1 X-3.2659 Y0.7472
N4400 G2 X-3.2627 Y0.7372 I-0.1412 J-0.0507
N4405 G1 X-3.2583 Y0.7218
N4410 X-3.2562 Y0.7134
N4415 X-3.2527 Y0.6974
N4420 X-3.2513 Y0.6902
N4425 X-3.2484 Y0.6737
N4430 X-3.2476 Y0.6678
N4435 X-3.2454 Y0.6507
N4440 X-3.2448 Y0.646
N4445 X-3.2431 Y0.6285
N4450 X-3.2428 Y0.6249
N4455 X-3.2415 Y0.6071
N4460 X-3.2413 Y0.6045
N4465 X-3.2403 Y0.5864
N4470 X-3.2402 Y0.5846
N4475 X-3.2394 Y0.5664
N4480 Y0.5655
N4485 X-3.2387 Y0.5472
N4490 X-3.2386 Y0.5391
N4495 X-3.2389 Y0.5208
N4500 Y0.52
N4505 X-3.2393 Y0.5019
N4510 Y0.5002
N4515 X-3.2399 Y0.4823
N4520 X-3.24 Y0.4797
N4525 X-3.2409 Y0.462
N4530 X-3.2411 Y0.4585
N4535 X-3.2424 Y0.4411
N4540 X-3.2428 Y0.4365
N4545 X-3.2446 Y0.4195
N4550 X-3.2453 Y0.4139
N4555 X-3.2476 Y0.3973
N4560 X-3.2487 Y0.3905
N4565 X-3.2518 Y0.3744
N4570 X-3.2536 Y0.3662
N4575 X-3.2574 Y0.3508
N4580 X-3.2586 Y0.346
N4585 X-3.2601 Y0.3413
N4590 X-3.2648 Y0.3265
N4595 G2 X-3.2687 Y0.3156 I-0.1429 J0.0455
N4600 G1 X-3.2744 Y0.3016
N4605 G2 X-3.2799 Y0.2895 I-0.139 J0.0563
N4610 G1 X-3.2867 Y0.2763
N4615 G2 X-3.2942 Y0.2634 I-0.1335 J0.0684
N4620 G1 X-3.3021 Y0.2511
N4625 G2 X-3.3119 Y0.2377 I-0.126 J0.0814
N4630 G1 X-3.3199 Y0.2278
N4635 X-3.3159 Y0.2287
N4640 X-3.3009 Y0.2322
N4645 X-3.2866 Y0.2357
N4650 X-3.273 Y0.2392
N4655 X-3.2601 Y0.2428
N4660 X-3.248 Y0.2465
N4665 X-3.2366 Y0.2502
N4670 X-3.2261 Y0.2541
N4675 X-3.2165 Y0.2581
N4680 X-3.2077 Y0.2621
N4685 X-3.1997 Y0.2662
N4690 X-3.1925 Y0.2703
N4695 X-3.1858 Y0.2746
N4700 X-3.1789 Y0.2796
N4705 X-3.1716 Y0.2854
N4710 X-3.1638 Y0.2922
N4715 X-3.1556 Y0.2999
N4720 X-3.1469 Y0.3084
N4725 X-3.1378 Y0.3178
N4730 X-3.1284 Y0.3281
N4735 X-3.1185 Y0.339
N4740 X-3.1171 Y0.3407
N4745 X-3.1123 Y0.355
N4750 X-3.1055 Y0.3757
N4755 X-3.0991 Y0.396
N4760 X-3.093 Y0.416
N4765 X-3.0874 Y0.4355
N4770 X-3.0822 Y0.4547
N4775 X-3.0775 Y0.4735
N4780 X-3.0735 Y0.4919
N4785 X-3.0699 Y0.5103
N4790 X-3.0668 Y0.5288
N4795 X-3.0641 Y0.5477
N4800 X-3.0619 Y0.567
N4805 X-3.06 Y0.5866
N4810 X-3.0584 Y0.6066
N4815 X-3.0572 Y0.627
N4820 X-3.0563 Y0.6477
N4825 X-3.0556 Y0.6687
N4830 X-3.0552 Y0.6901
N4835 X-3.0549 Y0.7118
N4840 X-3.0548 Y0.7338
N4845 X-3.0549 Y0.7561
N4850 X-3.055 Y0.7787
N4855 X-3.0552 Y0.8016
N4860 Y0.8044
N4865 X-3.0548 Y0.8353
N4870 X-3.0545 Y0.8658
N4875 X-3.0544 Y0.8959
N4880 X-3.0546 Y0.9255
N4885 X-3.055 Y0.9547
N4890 X-3.0558 Y0.9834
N4895 X-3.057 Y1.0115
N4900 X-3.0587 Y1.0391
N4905 X-3.0609 Y1.0661
N4910 X-3.0638 Y1.0925
N4915 X-3.0672 Y1.1183
N4920 X-3.0714 Y1.1435
N4925 X-3.0763 Y1.168
N4930 X-3.0819 Y1.192
N4935 X-3.0884 Y1.2155
N4940 X-3.0959 Y1.239
N4945 X-3.1045 Y1.263
N4950 X-3.1141 Y1.2874
N4955 X-3.1245 Y1.3123
N4960 X-3.1358 Y1.3377
N4965 X-3.1478 Y1.3635
N4970 X-3.1605 Y1.3899
N4975 X-3.1692 Y1.4076
N4980 X-3.1803 Y1.4148
N4985 X-3.2019 Y1.4286
N4990 X-3.2231 Y1.4416
N4995 X-3.2437 Y1.4538
N5000 X-3.2638 Y1.4649
N5005 X-3.2834 Y1.475
N5010 X-3.3024 Y1.484
N5015 X-3.3209 Y1.4918
N5020 X-3.3391 Y1.4985
N5025 X-3.3578 Y1.5044
N5030 X-3.3772 Y1.5095
N5035 X-3.3975 Y1.5139
N5040 X-3.4185 Y1.5177
N5045 X-3.4404 Y1.5209
N5050 X-3.4631 Y1.5235
N5055 X-3.4865 Y1.5255
N5060 X-3.5106 Y1.5271
N5065 X-3.5355 Y1.5281
N5070 X-3.5609 Y1.5288
N5075 X-3.587 Y1.5292
N5080 X-3.6137 Y1.5293
N5085 X-3.6409
N5090 X-3.6686 Y1.5292
N5095 X-3.6693
N5100 X-4.1492
N5105 Y0.9771
N5110 X-4.1356
N5115 G2 X-3.9856 Y0.8271 I0. J-0.15
N5120 G1 Y-0.7622
N5125 G2 X-4.1356 Y-0.9122 I-0.15 J0.
N5130 G1 X-4.1492
N5135 Y-1.5033
N5140 X-3.6209
N5145 X-3.5938 Y-1.5032
N5150 X-3.567 Y-1.503
N5155 X-3.5408 Y-1.5026
N5160 X-3.5153 Y-1.5019
N5165 X-3.4904 Y-1.5009
N5170 X-3.4663 Y-1.4995
N5175 X-3.443 Y-1.4976
N5180 X-3.4205 Y-1.4952
N5185 X-3.3989 Y-1.4923
N5190 X-3.3782 Y-1.4887
N5195 X-3.3584 Y-1.4845
N5200 X-3.3396 Y-1.4797
N5205 X-3.3218 Y-1.4742
N5210 X-3.3047 Y-1.4679
N5215 X-3.2879 Y-1.4608
N5220 X-3.2708 Y-1.4524
N5225 X-3.253 Y-1.4427
N5230 X-3.2348 Y-1.4318
N5235 X-3.216 Y-1.4198
N5240 X-3.1967 Y-1.4067
N5245 X-3.1768 Y-1.3926
N5250 X-3.1565 Y-1.3777
N5255 X-3.1443 Y-1.3686
N5260 X-3.1334 Y-1.3443
N5265 X-3.1207 Y-1.3156
N5270 X-3.1086 Y-1.2874
N5275 X-3.0972 Y-1.2596
N5280 X-3.0866 Y-1.2322
N5285 X-3.0769 Y-1.2053
N5290 X-3.0681 Y-1.1787
N5295 X-3.0604 Y-1.1526
N5300 X-3.0537 Y-1.1265
N5305 X-3.0482 Y-1.1018
N5310 G3 X-3.0842 Y-1.0713 I-0.026 J0.0057
N5315 G1 X-3.1993 Y-1.1174
N5320 X-3.4449 Y-1.228
N5325 X-3.4559 Y-1.2355
N5330 X-3.4568 Y-1.2363
N5335 X-3.4573 Y-1.2375
N5340 X-3.4572 Y-1.2387
N5345 X-3.4567 Y-1.2399
N5350 X-3.4558 Y-1.2407
N5355 X-3.4546 Y-1.2411
N5360 G3 X-3.4227 Y-1.0058 Z-0.223 I0.016 J0.1177
N5365 X-3.4546 Y-1.2411 Z-0.2361 I-0.016 J-0.1177
N5370 X-3.4227 Y-1.0058 Z-0.2491 I0.016 J0.1177
N5375 X-3.4546 Y-1.2411 Z-0.2621 I-0.016 J-0.1177
N5380 X-3.4227 Y-1.0058 Z-0.2751 I0.016 J0.1177
N5385 X-3.4546 Y-1.2411 Z-0.2882 I-0.016 J-0.1177
N5390 X-3.4027 Y-1.2366 Z-0.29 I0.016 J0.1177
N5395 X-3.3585 Y-1.2159 I-0.0564 J0.1778
N5400 X-3.3381 Y-1.1918 I-0.029 J0.0453
N5405 X-3.3001 Y-1.0868 I-0.8903 J0.3812
N5410 X-3.309 Y-1.0792 I-0.0061 J0.0018
N5415 G2 X-3.367 Y-1.1058 I-0.8347 J1.7468
N5420 X-3.4266 Y-1.1287 I-0.284 J0.6484
N5425 X-3.5071 Y-1.1521 I-0.3321 J0.9936
N5430 X-3.5903 Y-1.1626 I-0.0862 J0.3483
N5435 G1 X-3.6693
N5440 G2 X-3.7846 Y-1.1447 I0. J0.3803
N5445 X-3.8897 Y-1.0943 I0.1275 J0.401
N5450 G3 X-3.9006 Y-1.1002 I-0.0039 J-0.0058
N5455 G1 Y-1.242
N5460 G3 X-3.8878 Y-1.2548 I0.0128 J0.
N5465 G1 X-3.662
N5470 G3 X-3.5027 Y-1.2508 I0. J3.2346
N5475 X-3.4284 Y-1.2428 I-0.0316 J0.6416
N5480 X-3.4027 Y-1.2366 I-0.0308 J0.184
N5485 G2 X-3.3321 Y-1.2574 I0.0199 J-0.0628
N5490 G3 X-3.2588 Y-1.2494 I0.034 J0.0281
N5495 G1 X-3.256 Y-1.2433
N5500 G3 X-3.2001 Y-1.063 I-0.8376 J0.3587
N5505 X-3.179 Y-0.8754 I-1.0897 J0.2175
N5510 X-3.1884 Y-0.8718 I-0.0053 J0.0001
N5515 G2 X-3.3094 Y-0.9715 I-0.3387 J0.2878
N5520 X-3.4522 Y-1.0362 I-0.4453 J0.7928
N5525 X-3.5216 Y-1.0575 I-0.2914 J0.8259
N5530 X-3.5936 Y-1.0668 I-0.072 J0.2749
N5535 G1 X-3.6693
N5540 G2 X-3.7935 Y-1.0394 I0. J0.2948
N5545 X-3.8956 Y-0.9635 I0.1319 J0.284
N5550 G3 X-3.9094 I-0.0069 J-0.0061
N5555 G2 X-3.9852 Y-1.0251 I-0.2263 J0.2013
N5560 G3 X-3.9964 Y-1.0443 I0.011 J-0.0192
N5565 G1 Y-1.338
N5570 G3 X-3.9839 Y-1.3505 I0.0125 J0.
N5575 G1 X-3.785
N5580 G3 X-3.544 Y-1.348 I0. J11.6761
N5585 X-3.4182 Y-1.3372 I-0.0201 J0.9714
N5590 X-3.3003 Y-1.2919 I-0.0442 J0.2912
N5595 G1 X-3.2959 Y-1.2892
N5600 X-3.2915 Y-1.2864
N5605 G3 X-3.2588 Y-1.2494 I-0.0557 J0.0821
N5610 G1 Z0.2 F10.
N5615 G0 X-3.4425 Y1.238
N5620 G1 Z-0.16 F10.
N5625 G3 X-3.4926 Y1.0058 Z-0.173 I-0.025 J-0.1161 F5.
N5630 X-3.4425 Y1.238 Z-0.1861 I0.025 J0.1161
N5635 X-3.4926 Y1.0058 Z-0.1991 I-0.025 J-0.1161
N5640 X-3.4425 Y1.238 Z-0.2121 I0.025 J0.1161
N5645 X-3.4926 Y1.0058 Z-0.2251 I-0.025 J-0.1161
N5650 X-3.4425 Y1.238 Z-0.2382 I0.025 J0.1161
N5655 X-3.4926 Y1.0058 Z-0.2512 I-0.025 J-0.1161
N5660 X-3.4425 Y1.238 Z-0.2642 I0.025 J0.1161
N5665 X-3.4926 Y1.0058 Z-0.2772 I-0.025 J-0.1161
N5670 X-3.4348 Y1.2361 Z-0.29 I0.025 J0.1161
N5675 X-3.452 Y1.2404 I-0.0777 J-0.2708
N5680 G1 X-3.4534
N5685 X-3.4548 Y1.2399
N5690 X-3.4558 Y1.239
N5695 X-3.4564 Y1.2377
N5700 X-3.4565 Y1.2363
N5705 X-3.4561 Y1.2349
N5710 X-3.4551 Y1.2338
N5715 X-3.4539 Y1.2332
N5720 G2 X-3.4207 Y1.2231 I-0.7213 J-2.4395
N5725 G1 X-3.4193 Y1.223
N5730 X-3.4179 Y1.2233
N5735 X-3.4168 Y1.2242
N5740 X-3.4161 Y1.2254
N5745 X-3.4159 Y1.2268
N5750 X-3.4162 Y1.2282
N5755 X-3.417 Y1.2294
N5760 X-3.4181 Y1.2302
N5765 G3 X-3.4348 Y1.2361 I-0.0574 J-0.1361
N5770 G1 Z-0.16 F10.
N5775 X-3.8411 Y1.2254 F5.
N5780 G3 X-3.9533 Y1.4347 Z-0.173 I-0.0561 J0.1047
N5785 X-3.8411 Y1.2254 Z-0.1861 I0.0561 J-0.1047
N5790 X-3.9533 Y1.4347 Z-0.1991 I-0.0561 J0.1047
N5795 X-3.8411 Y1.2254 Z-0.2121 I0.0561 J-0.1047
N5800 X-3.9533 Y1.4347 Z-0.2251 I-0.0561 J0.1047
N5805 X-3.8411 Y1.2254 Z-0.2382 I0.0561 J-0.1047
N5810 X-3.9533 Y1.4347 Z-0.2512 I-0.0561 J0.1047
N5815 X-3.8411 Y1.2254 Z-0.2642 I0.0561 J-0.1047
N5820 X-3.9533 Y1.4347 Z-0.2772 I-0.0561 J0.1047
N5825 X-3.8482 Y1.2219 Z-0.29 I0.0561 J-0.1047
N5830 G2 X-3.8086 Y1.2375 I0.1788 J-0.3948
N5835 G1 X-3.8073 Y1.2382
N5840 X-3.8063 Y1.2394
N5845 X-3.8058 Y1.2408
N5850 Y1.2422
N5855 X-3.8063 Y1.2436
N5860 X-3.8072 Y1.2448
N5865 X-3.8085 Y1.2455
N5870 X-3.8099 Y1.2458
N5875 X-3.8533
N5880 X-3.8535
N5885 G3 X-3.8658 Y1.2334 I0. J-0.0124
N5890 G1 Y1.2259
N5895 G3 X-3.8548 Y1.2188 I0.0078 J0.
N5900 G1 X-3.8482 Y1.2219
N5905 G2 X-3.7226 Y1.191 I0.0431 J-0.0952
N5910 G3 X-3.6074 Y1.1323 I0.1205 J0.0941
N5915 G2 X-3.5789 Y1.1311 I-0.0619 J-1.7987
N5920 X-3.4897 Y1.1159 I-0.0192 J-0.3818
N5925 X-3.3444 Y1.0593 I-0.2625 J-0.888
N5930 X-3.2196 Y0.9657 I-0.185 J-0.377
N5935 G3 X-3.21 Y0.9696 I0.0041 J0.0037
N5940 X-3.2282 Y1.1268 I-0.8964 J-0.0246
N5945 X-3.278 Y1.2771 I-0.6711 J-0.139
N5950 X-3.3124 Y1.3149 I-0.078 J-0.0363
N5955 X-3.3926 Y1.3505 I-0.194 J-0.3294
N5960 X-3.4787 Y1.368 I-0.1296 J-0.4159
N5965 X-3.5463 Y1.3722 I-0.0894 J-0.8902
N5970 X-3.614 Y1.3731 I-0.073 J-3.0007
N5975 G1 X-3.9823 Y1.3747
N5980 G3 X-3.9947 Y1.3623 I0. J-0.0124
N5985 G1 Y1.1129
N5990 G3 X-3.9814 Y1.0897 I0.0269 J0.
N5995 G2 X-3.9105 Y1.0322 I-0.1542 J-0.2626
N6000 G3 X-3.8944 I0.008 J0.0073
N6005 G2 X-3.7926 Y1.1065 I0.233 J-0.2122
N6010 X-3.6693 Y1.1334 I0.1232 J-0.2694
N6015 X-3.6074 Y1.1323 I0. J-1.7998
N6020 X-3.4861 Y1.0339 I-0.0045 J-0.1295
N6025 G3 X-3.3928 Y0.9087 I0.1957 J0.0484
N6030 G1 X-3.3917 Y0.908
N6035 G2 X-3.3812 Y0.9012 I-0.0762 J-0.1292
N6040 G1 X-3.3688 Y0.8924
N6045 G2 X-3.3571 Y0.8832 I-0.0867 J-0.1224
N6050 G1 X-3.3459 Y0.8735
N6055 G2 X-3.3337 Y0.8616 I-0.0984 J-0.1132
N6060 G1 X-3.3238 Y0.8508
N6065 G2 X-3.3129 Y0.8374 I-0.1107 J-0.1013
N6070 G1 X-3.3043 Y0.8255
N6075 G2 X-3.2957 Y0.8122 I-0.1216 J-0.0878
N6080 G1 X-3.2883 Y0.7993
N6085 G2 X-3.2819 Y0.7868 I-0.1302 J-0.0745
N6090 G1 X-3.2757 Y0.773
N6095 G2 X-3.2711 Y0.7618 I-0.1366 J-0.062
N6100 G1 X-3.2659 Y0.7472
N6105 G2 X-3.2627 Y0.7372 I-0.1412 J-0.0507
N6110 G1 X-3.2583 Y0.7218
N6115 X-3.2562 Y0.7134
N6120 X-3.2527 Y0.6974
N6125 X-3.2513 Y0.6902
N6130 X-3.2484 Y0.6737
N6135 X-3.2476 Y0.6678
N6140 X-3.2454 Y0.6507
N6145 X-3.2448 Y0.646
N6150 X-3.2431 Y0.6285
N6155 X-3.2428 Y0.6249
N6160 X-3.2415 Y0.6071
N6165 X-3.2413 Y0.6045
N6170 X-3.2403 Y0.5864
N6175 X-3.2402 Y0.5846
N6180 X-3.2394 Y0.5664
N6185 Y0.5655
N6190 X-3.2387 Y0.5472
N6195 X-3.2386 Y0.5391
N6200 X-3.2389 Y0.5208
N6205 Y0.52
N6210 X-3.2393 Y0.5019
N6215 Y0.5002
N6220 X-3.2399 Y0.4823
N6225 X-3.24 Y0.4797
N6230 X-3.2409 Y0.462
N6235 X-3.2411 Y0.4585
N6240 X-3.2424 Y0.4411
N6245 X-3.2428 Y0.4365
N6250 X-3.2446 Y0.4195
N6255 X-3.2453 Y0.4139
N6260 X-3.2476 Y0.3973
N6265 X-3.2487 Y0.3905
N6270 X-3.2518 Y0.3744
N6275 X-3.2536 Y0.3662
N6280 X-3.2574 Y0.3508
N6285 X-3.2586 Y0.346
N6290 X-3.2601 Y0.3413
N6295 X-3.2648 Y0.3265
N6300 G2 X-3.2687 Y0.3156 I-0.1429 J0.0455
N6305 G1 X-3.2744 Y0.3016
N6310 G2 X-3.2799 Y0.2895 I-0.139 J0.0563
N6315 G1 X-3.2867 Y0.2763
N6320 G2 X-3.2942 Y0.2634 I-0.1335 J0.0684
N6325 G1 X-3.3021 Y0.2511
N6330 G2 X-3.3119 Y0.2377 I-0.126 J0.0814
N6335 G1 X-3.3199 Y0.2278
N6340 X-3.3159 Y0.2287
N6345 X-3.3009 Y0.2322
N6350 X-3.2866 Y0.2357
N6355 X-3.273 Y0.2392
N6360 X-3.2601 Y0.2428
N6365 X-3.248 Y0.2465
N6370 X-3.2366 Y0.2502
N6375 X-3.2261 Y0.2541
N6380 X-3.2165 Y0.2581
N6385 X-3.2077 Y0.2621
N6390 X-3.1997 Y0.2662
N6395 X-3.1925 Y0.2703
N6400 X-3.1858 Y0.2746
N6405 X-3.1789 Y0.2796
N6410 X-3.1716 Y0.2854
N6415 X-3.1638 Y0.2922
N6420 X-3.1556 Y0.2999
N6425 X-3.1469 Y0.3084
N6430 X-3.1378 Y0.3178
N6435 X-3.1284 Y0.3281
N6440 X-3.1185 Y0.339
N6445 X-3.1171 Y0.3407
N6450 X-3.1123 Y0.355
N6455 X-3.1055 Y0.3757
N6460 X-3.0991 Y0.396
N6465 X-3.093 Y0.416
N6470 X-3.0874 Y0.4355
N6475 X-3.0822 Y0.4547
N6480 X-3.0775 Y0.4735
N6485 X-3.0735 Y0.4919
N6490 X-3.0699 Y0.5103
N6495 X-3.0668 Y0.5288
N6500 X-3.0641 Y0.5477
N6505 X-3.0619 Y0.567
N6510 X-3.06 Y0.5866
N6515 X-3.0584 Y0.6066
N6520 X-3.0572 Y0.627
N6525 X-3.0563 Y0.6477
N6530 X-3.0556 Y0.6687
N6535 X-3.0552 Y0.6901
N6540 X-3.0549 Y0.7118
N6545 X-3.0548 Y0.7338
N6550 X-3.0549 Y0.7561
N6555 X-3.055 Y0.7787
N6560 X-3.0552 Y0.8016
N6565 Y0.8044
N6570 X-3.0548 Y0.8353
N6575 X-3.0545 Y0.8658
N6580 X-3.0544 Y0.8959
N6585 X-3.0546 Y0.9255
N6590 X-3.055 Y0.9547
N6595 X-3.0558 Y0.9834
N6600 X-3.057 Y1.0115
N6605 X-3.0587 Y1.0391
N6610 X-3.0609 Y1.0661
N6615 X-3.0638 Y1.0925
N6620 X-3.0672 Y1.1183
N6625 X-3.0714 Y1.1435
N6630 X-3.0763 Y1.168
N6635 X-3.0819 Y1.192
N6640 X-3.0884 Y1.2155
N6645 X-3.0959 Y1.239
N6650 X-3.1045 Y1.263
N6655 X-3.1141 Y1.2874
N6660 X-3.1245 Y1.3123
N6665 X-3.1358 Y1.3377
N6670 X-3.1478 Y1.3635
N6675 X-3.1605 Y1.3899
N6680 X-3.1692 Y1.4076
N6685 X-3.1803 Y1.4148
N6690 X-3.2019 Y1.4286
N6695 X-3.2231 Y1.4416
N6700 X-3.2437 Y1.4538
N6705 X-3.2638 Y1.4649
N6710 X-3.2834 Y1.475
N6715 X-3.3024 Y1.484
N6720 X-3.3209 Y1.4918
N6725 X-3.3391 Y1.4985
N6730 X-3.3578 Y1.5044
N6735 X-3.3772 Y1.5095
N6740 X-3.3975 Y1.5139
N6745 X-3.4185 Y1.5177
N6750 X-3.4404 Y1.5209
N6755 X-3.4631 Y1.5235
N6760 X-3.4865 Y1.5255
N6765 X-3.5106 Y1.5271
N6770 X-3.5355 Y1.5281
N6775 X-3.5609 Y1.5288
N6780 X-3.587 Y1.5292
N6785 X-3.6137 Y1.5293
N6790 X-3.6409
N6795 X-3.6686 Y1.5292
N6800 X-3.6693
N6805 X-4.1492
N6810 Y0.9771
N6815 X-4.1356
N6820 G2 X-3.9856 Y0.8271 I0. J-0.15
N6825 G1 Y-0.7622
N6830 G2 X-4.1356 Y-0.9122 I-0.15 J0.
N6835 G1 X-4.1492
N6840 Y-1.5033
N6845 X-3.6209
N6850 X-3.5938 Y-1.5032
N6855 X-3.567 Y-1.503
N6860 X-3.5408 Y-1.5026
N6865 X-3.5153 Y-1.5019
N6870 X-3.4904 Y-1.5009
N6875 X-3.4663 Y-1.4995
N6880 X-3.443 Y-1.4976
N6885 X-3.4205 Y-1.4952
N6890 X-3.3989 Y-1.4923
N6895 X-3.3782 Y-1.4887
N6900 X-3.3584 Y-1.4845
N6905 X-3.3396 Y-1.4797
N6910 X-3.3218 Y-1.4742
N6915 X-3.3047 Y-1.4679
N6920 X-3.2879 Y-1.4608
N6925 X-3.2708 Y-1.4524
N6930 X-3.253 Y-1.4427
N6935 X-3.2348 Y-1.4318
N6940 X-3.216 Y-1.4198
N6945 X-3.1967 Y-1.4067
N6950 X-3.1768 Y-1.3926
N6955 X-3.1565 Y-1.3777
N6960 X-3.1443 Y-1.3686
N6965 X-3.1334 Y-1.3443
N6970 X-3.1207 Y-1.3156
N6975 X-3.1086 Y-1.2874
N6980 X-3.0972 Y-1.2596
N6985 X-3.0866 Y-1.2322
N6990 X-3.0769 Y-1.2053
N6995 X-3.0681 Y-1.1787
N7000 X-3.0604 Y-1.1526
N7005 X-3.0537 Y-1.1265
N7010 X-3.0478 Y-1.1001
N7015 X-3.0428 Y-1.073
N7020 X-3.0385 Y-1.0454
N7025 X-3.035 Y-1.0172
N7030 X-3.032 Y-0.9885
N7035 X-3.0297 Y-0.9592
N7040 X-3.028 Y-0.9293
N7045 X-3.0267 Y-0.899
N7050 X-3.0259 Y-0.8682
N7055 X-3.0254 Y-0.8369
N7060 X-3.0253 Y-0.8051
N7065 Y-0.773
N7070 X-3.0256 Y-0.7404
N7075 X-3.0259 Y-0.7075
N7080 Y-0.7042
N7085 X-3.0256 Y-0.6801
N7090 X-3.0253 Y-0.6563
N7095 X-3.0251 Y-0.6328
N7100 Y-0.6095
N7105 X-3.0252 Y-0.5865
N7110 X-3.0255 Y-0.5639
N7115 X-3.026 Y-0.5415
N7120 X-3.0268 Y-0.5195
N7125 X-3.0279 Y-0.4978
N7130 X-3.0293 Y-0.4764
N7135 X-3.0311 Y-0.4553
N7140 X-3.0332 Y-0.4346
N7145 X-3.0358 Y-0.4143
N7150 X-3.0388 Y-0.3942
N7155 X-3.0422 Y-0.3745
N7160 X-3.0462 Y-0.3547
N7165 X-3.0508 Y-0.3347
N7170 X-3.0558 Y-0.3142
N7175 X-3.0614 Y-0.2934
N7180 X-3.0674 Y-0.2722
N7185 X-3.0738 Y-0.2506
N7190 X-3.0805 Y-0.2286
N7195 X-3.0845 Y-0.2159
N7200 X-3.0853 Y-0.215
N7205 X-3.0967 Y-0.2031
N7210 X-3.1076 Y-0.1919
N7215 X-3.1182 Y-0.1814
N7220 X-3.1285 Y-0.1718
N7225 X-3.1385 Y-0.163
N7230 X-3.148 Y-0.155
N7235 X-3.1572 Y-0.1479
N7240 X-3.1662 Y-0.1416
N7245 X-3.1754 Y-0.1357
N7250 X-3.1853 Y-0.13
N7255 X-3.1958 Y-0.1244
N7260 X-3.2071 Y-0.1189
N7265 X-3.2191 Y-0.1136
N7270 X-3.2319 Y-0.1084
N7275 X-3.2453 Y-0.1033
N7280 X-3.2594 Y-0.0983
N7285 X-3.2741 Y-0.0934
N7290 X-3.2894 Y-0.0886
N7295 X-3.3053 Y-0.0838
N7300 X-3.3172 Y-0.0803
N7305 X-3.3161 Y-0.0813
N7310 G2 X-3.3037 Y-0.0943 I-0.1022 J-0.1098
N7315 G1 X-3.2936 Y-0.1063
N7320 G2 X-3.2834 Y-0.1198 I-0.1146 J-0.0968
N7325 G1 X-3.2747 Y-0.133
N7330 G2 X-3.2669 Y-0.1459 I-0.1248 J-0.0833
N7335 G1 X-3.2594 Y-0.1602
N7340 G2 X-3.2537 Y-0.172 I-0.1325 J-0.0703
N7345 G1 X-3.2473 Y-0.1872
N7350 G2 X-3.2433 Y-0.1977 I-0.1381 J-0.0585
N7355 G1 X-3.2379 Y-0.2139
N7360 X-3.2351 Y-0.2228
N7365 X-3.2306 Y-0.2397
N7370 X-3.2288 Y-0.2473
N7375 X-3.225 Y-0.2649
N7380 X-3.2238 Y-0.2711
N7385 X-3.2207 Y-0.2893
N7390 X-3.22 Y-0.2942
N7395 X-3.2174 Y-0.3129
N7400 X-3.217 Y-0.3167
N7405 X-3.2149 Y-0.3358
N7410 X-3.2146 Y-0.3386
N7415 X-3.2128 Y-0.358
N7420 X-3.2127 Y-0.3598
N7425 X-3.2111 Y-0.3793
N7430 Y-0.3802
N7435 X-3.2097 Y-0.3999
N7440 G2 X-3.2093 Y-0.4136 I-0.1496 J-0.0108
N7445 G1 X-3.2097 Y-0.4355
N7450 Y-0.4363
N7455 X-3.2103 Y-0.4582
N7460 Y-0.4599
N7465 X-3.2111 Y-0.4815
N7470 X-3.2112 Y-0.4841
N7475 X-3.2124 Y-0.5055
N7480 X-3.2126 Y-0.509
N7485 X-3.2142 Y-0.53
N7490 X-3.2146 Y-0.5345
N7495 X-3.2168 Y-0.5551
N7500 X-3.2175 Y-0.5607
N7505 X-3.2204 Y-0.5807
N7510 X-3.2216 Y-0.5876
N7515 X-3.2254 Y-0.6069
N7520 X-3.2272 Y-0.6151
N7525 X-3.2319 Y-0.6337
N7530 G2 X-3.2346 Y-0.6432 I-0.1454 J0.0367
N7535 G1 X-3.2404 Y-0.661
N7540 G2 X-3.2444 Y-0.672 I-0.1427 J0.0462
N7545 G1 X-3.2513 Y-0.6888
N7550 G2 X-3.257 Y-0.701 I-0.1387 J0.0571
N7555 G1 X-3.2652 Y-0.7168
N7560 G2 X-3.2729 Y-0.7298 I-0.133 J0.0693
N7565 G1 X-3.2826 Y-0.7446
N7570 G2 X-3.2925 Y-0.758 I-0.1254 J0.0823
N7575 G1 X-3.3037 Y-0.7715
N7580 G2 X-3.3154 Y-0.784 I-0.1155 J0.0958
N7585 G1 X-3.3282 Y-0.7963
N7590 G2 X-3.3397 Y-0.8063 I-0.1038 J0.1083
N7595 G1 X-3.354 Y-0.8174
N7600 G2 X-3.3645 Y-0.8249 I-0.0922 J0.1183
N7605 G1 X-3.3801 Y-0.8351
N7610 G2 X-3.3893 Y-0.8406 I-0.0817 J0.1258
N7615 G1 X-3.4061 Y-0.8498
N7620 X-3.4138 Y-0.8538
N7625 X-3.4315 Y-0.8623
N7630 X-3.4378 Y-0.8651
N7635 X-3.4563 Y-0.8729
N7640 X-3.4612 Y-0.8749
N7645 X-3.4804 Y-0.8822
N7650 X-3.484 Y-0.8835
N7655 X-3.5036 Y-0.8905
N7660 X-3.506 Y-0.8913
N7665 X-3.526 Y-0.8979
N7670 X-3.5271 Y-0.8983
N7675 X-3.5472 Y-0.9049
N7680 G2 X-3.5936 Y-0.9122 I-0.0464 J0.1426
N7685 G1 X-3.6693
N7690 G2 X-3.8193 Y-0.7622 I0. J0.15
N7695 G1 Y-0.1177
N7700 G2 X-3.6693 Y0.0323 I0.15 J0.
N7705 G1 X-3.5961
N7710 G2 X-3.5623 Y0.0284 I0. J-0.15
N7715 G1 X-3.5435 Y0.0241
N7720 X-3.5424 Y0.0238
N7725 X-3.5237 Y0.0194
N7730 X-3.5215 Y0.0188
N7735 X-3.5031 Y0.0141
N7740 X-3.4998 Y0.0132
N7745 X-3.4817 Y0.0082
N7750 X-3.4771 Y0.0068
N7755 X-3.4596 Y0.0013
N7760 X-3.4536 Y-0.0007
N7765 X-3.4422 Y-0.0049
N7770 G2 X-3.4525 Y0.1358 I0.1269 J0.08
N7775 G1 X-3.4569 Y0.1339
N7780 X-3.4618 Y0.1319
N7785 X-3.4776 Y0.1257
N7790 X-3.4812 Y0.1244
N7795 X-3.4975 Y0.1185
N7800 X-3.4998 Y0.1177
N7805 X-3.5164 Y0.1121
N7810 X-3.5175 Y0.1117
N7815 X-3.5342 Y0.1062
N7820 G2 X-3.5814 Y0.0985 I-0.0473 J0.1424
N7825 G1 X-3.6693
N7830 G2 X-3.8193 Y0.2485 I0. J0.15
N7835 G1 Y0.8271
N7840 G2 X-3.6693 Y0.9771 I0.15 J0.
N7845 G1 X-3.5936
N7850 G2 X-3.5522 Y0.9713 I0. J-0.15
N7855 G1 X-3.5351 Y0.9664
N7860 X-3.534 Y0.9661
N7865 X-3.5171 Y0.961
N7870 X-3.5147 Y0.9603
N7875 X-3.498 Y0.9551
N7880 X-3.4945 Y0.954
N7885 X-3.4782 Y0.9484
N7890 X-3.4734 Y0.9467
N7895 X-3.4576 Y0.9407
N7900 X-3.4515 Y0.9382
N7905 X-3.4363 Y0.9317
N7910 X-3.4286 Y0.9281
N7915 X-3.4143 Y0.9209
N7920 G2 X-3.4051 Y0.916 I-0.0671 J-0.1342
N7925 G1 X-3.3928 Y0.9087
N7930 G2 X-3.3829 Y0.8875 I-0.0105 J-0.0178
N7935 G3 X-3.3749 Y0.8656 I0.0233 J-0.0039
N7940 G1 X-3.3735 Y0.8644
N7945 X-3.3623 Y0.8546
N7950 G2 X-3.3521 Y0.8447 I-0.082 J-0.0943
N7955 G1 X-3.3422 Y0.8339
N7960 G2 X-3.3331 Y0.8227 I-0.0922 J-0.0844
N7965 G1 X-3.3246 Y0.8109
N7970 G2 X-3.3174 Y0.7998 I-0.1013 J-0.0732
N7975 G1 X-3.31 Y0.7869
N7980 G2 X-3.3047 Y0.7765 I-0.1085 J-0.0621
N7985 G1 X-3.2984 Y0.7627
N7990 G2 X-3.2946 Y0.7533 I-0.1138 J-0.0517
N7995 G1 X-3.2894 Y0.7387
N8000 X-3.2867 Y0.7304
N8005 X-3.2824 Y0.7151
N8010 X-3.2806 Y0.708
N8015 X-3.2771 Y0.692
N8020 X-3.2759 Y0.686
N8025 X-3.2731 Y0.6695
N8030 X-3.2724 Y0.6646
N8035 X-3.2701 Y0.6475
N8040 X-3.2697 Y0.6436
N8045 X-3.268 Y0.6261
N8050 X-3.2677 Y0.6231
N8055 X-3.2664 Y0.6052
N8060 X-3.2663 Y0.6031
N8065 X-3.2653 Y0.585
N8070 X-3.2652 Y0.5835
N8075 X-3.2644 Y0.5653
N8080 Y0.5646
N8085 X-3.2637 Y0.5463
N8090 X-3.2636 Y0.5395
N8095 X-3.2639 Y0.5213
N8100 Y0.5206
N8105 X-3.2643 Y0.5024
N8110 Y0.501
N8115 X-3.2649 Y0.4831
N8120 X-3.265 Y0.4809
N8125 X-3.2659 Y0.4632
N8130 X-3.2661 Y0.4603
N8135 X-3.2673 Y0.4429
N8140 X-3.2677 Y0.4391
N8145 X-3.2694 Y0.422
N8150 X-3.27 Y0.4174
N8155 X-3.2724 Y0.4008
N8160 X-3.2733 Y0.3951
N8165 X-3.2763 Y0.379
N8170 X-3.2778 Y0.3722
N8175 X-3.2817 Y0.3568
N8180 X-3.2839 Y0.3489
N8185 X-3.2886 Y0.3341
N8190 X-3.2901 Y0.3295
N8195 X-3.2919 Y0.325
N8200 X-3.2975 Y0.311
N8205 G2 X-3.3022 Y0.3009 I-0.1158 J0.047
N8210 G1 X-3.3089 Y0.2877
N8215 G2 X-3.3152 Y0.2769 I-0.1112 J0.057
N8220 G1 X-3.3231 Y0.2646
N8225 G2 X-3.3312 Y0.2535 I-0.105 J0.0678
N8230 G1 X-3.3405 Y0.2422
N8235 G2 X-3.3501 Y0.2317 I-0.0969 J0.079
N8240 G1 X-3.3606 Y0.2214
N8245 G2 X-3.3702 Y0.213 I-0.0872 J0.0895
N8250 G1 X-3.382 Y0.2036
N8255 G2 X-3.3908 Y0.1973 I-0.0776 J0.098
N8260 G1 X-3.4036 Y0.1888
N8265 X-3.4074 Y0.1864
N8270 X-3.4113 Y0.1841
N8275 X-3.4251 Y0.1764
N8280 X-3.4316 Y0.173
N8285 X-3.4462 Y0.1659
N8290 X-3.4515 Y0.1635
N8295 X-3.4668 Y0.1569
N8300 X-3.4709 Y0.1552
N8305 X-3.4867 Y0.149
N8310 X-3.4897 Y0.1479
N8315 X-3.5059 Y0.1421
N8320 X-3.5079 Y0.1414
N8325 X-3.5244 Y0.1357
N8330 X-3.5254 Y0.1354
N8335 X-3.5421 Y0.1299
N8340 G2 X-3.5814 Y0.1235 I-0.0394 J0.1186
N8345 G1 X-3.6693
N8350 G2 X-3.7943 Y0.2485 I0. J0.125
N8355 G1 Y0.8271
N8360 G2 X-3.6693 Y0.9521 I0.125 J0.
N8365 G1 X-3.5936
N8370 G2 X-3.5591 Y0.9473 I0. J-0.125
N8375 G1 X-3.542 Y0.9424
N8380 X-3.5411 Y0.9421
N8385 X-3.5241 Y0.9371
N8390 X-3.5222 Y0.9365
N8395 X-3.5055 Y0.9313
N8400 X-3.5026 Y0.9303
N8405 X-3.4863 Y0.9247
N8410 X-3.4823 Y0.9233
N8415 X-3.4665 Y0.9173
N8420 X-3.4613 Y0.9152
N8425 X-3.4462 Y0.9087
N8430 X-3.4398 Y0.9057
N8435 X-3.4255 Y0.8986
N8440 X-3.4178 Y0.8944
N8445 X-3.4044 Y0.8865
N8450 G2 X-3.3956 Y0.8808 I-0.0635 J-0.1077
N8455 G1 X-3.3832 Y0.872
N8460 G2 X-3.3749 Y0.8656 I-0.0723 J-0.102
N8465 G3 X-3.3617 Y0.8714 I0.0052 J0.0061
N8470 G1 X-3.3382 Y1.5183
N8475 X-3.3384 Y1.5203
N8480 X-3.3391 Y1.5223
N8485 X-3.3403 Y1.524
N8490 X-3.3419 Y1.5253
N8495 X-3.3438 Y1.5262
N8500 X-3.3509 Y1.5284
N8505 X-3.3713 Y1.5338
N8510 X-3.3926 Y1.5385
N8515 X-3.4145 Y1.5424
N8520 X-3.4372 Y1.5457
N8525 X-3.4606 Y1.5484
N8530 X-3.4846 Y1.5504
N8535 X-3.5093 Y1.552
N8540 X-3.5346 Y1.5531
N8545 X-3.5604 Y1.5538
N8550 X-3.5868 Y1.5542
N8555 X-3.6137 Y1.5543
N8560 X-3.641
N8565 X-3.6687 Y1.5542
N8570 X-3.6693
N8575 X-4.1742
N8580 Y0.9521
N8585 X-4.1356
N8590 G2 X-4.0106 Y0.8271 I0. J-0.125
N8595 G1 Y-0.7622
N8600 G2 X-4.1356 Y-0.8872 I-0.125 J0.
N8605 G1 X-4.1742
N8610 Y-1.5283
N8615 X-3.6208
N8620 X-3.5937 Y-1.5282
N8625 X-3.5667 Y-1.528
N8630 X-3.5403 Y-1.5276
N8635 X-3.5144 Y-1.5269
N8640 X-3.4892 Y-1.5259
N8645 X-3.4646 Y-1.5245
N8650 X-3.4407 Y-1.5225
N8655 X-3.4175 Y-1.5201
N8660 X-3.3951 Y-1.517
N8665 X-3.3735 Y-1.5133
N8670 X-3.3527 Y-1.5089
N8675 X-3.3328 Y-1.5038
N8680 X-3.3138 Y-1.4979
N8685 X-3.2955 Y-1.4912
N8690 X-3.2775 Y-1.4835
N8695 X-3.2593 Y-1.4746
N8700 X-3.2406 Y-1.4644
N8705 X-3.2216 Y-1.4531
N8710 X-3.2022 Y-1.4407
N8715 X-3.1824 Y-1.4272
N8720 X-3.1622 Y-1.4129
N8725 X-3.1416 Y-1.3978
N8730 X-3.1242 Y-1.3847
N8735 X-3.1238 Y-1.3838
N8740 X-3.1106 Y-1.3545
N8745 X-3.0978 Y-1.3256
N8750 X-3.0856 Y-1.297
N8755 X-3.074 Y-1.2688
N8760 X-3.0632 Y-1.241
N8765 X-3.0532 Y-1.2134
N8770 X-3.0442 Y-1.1862
N8775 X-3.0363 Y-1.1593
N8780 X-3.0293 Y-1.1323
N8785 X-3.0233 Y-1.1051
N8790 X-3.0182 Y-1.0772
N8795 X-3.0138 Y-1.0489
N8800 X-3.0101 Y-1.0201
N8805 X-3.0071 Y-0.9907
N8810 X-3.0048 Y-0.9609
N8815 X-3.003 Y-0.9306
N8820 X-3.0017 Y-0.8998
N8825 X-3.0009 Y-0.8687
N8830 X-3.0004 Y-0.8371
N8835 X-3.0003 Y-0.8052
N8840 Y-0.7729
N8845 X-3.0006 Y-0.7402
N8850 X-3.0009 Y-0.7072
N8855 Y-0.7045
N8860 X-3.0006 Y-0.6804
N8865 X-3.0003 Y-0.6565
N8870 X-3.0001 Y-0.6329
N8875 Y-0.6095
N8880 X-3.0002 Y-0.5863
N8885 X-3.0005 Y-0.5634
N8890 X-3.001 Y-0.5408
N8895 X-3.0018 Y-0.5184
N8900 X-3.0029 Y-0.4963
N8905 X-3.0044 Y-0.4745
N8910 X-3.0062 Y-0.453
N8915 X-3.0084 Y-0.4318
N8920 X-3.011 Y-0.4109
N8925 X-3.0141 Y-0.3902
N8930 X-3.0177 Y-0.3699
N8935 X-3.0218 Y-0.3495
N8940 X-3.0264 Y-0.3289
N8945 X-3.0316 Y-0.308
N8950 X-3.0373 Y-0.2868
N8955 X-3.0434 Y-0.2653
N8960 X-3.0498 Y-0.2434
N8965 X-3.0566 Y-0.2213
N8970 X-3.0623 Y-0.2029
N8975 X-3.0671 Y-0.1978
N8980 X-3.0787 Y-0.1857
N8985 X-3.0899 Y-0.1742
N8990 X-3.1009 Y-0.1634
N8995 X-3.1117 Y-0.1533
N9000 X-3.1221 Y-0.144
N9005 X-3.1324 Y-0.1355
N9010 X-3.1424 Y-0.1278
N9015 X-3.1523 Y-0.1208
N9020 X-3.1624 Y-0.1143
N9025 X-3.1732 Y-0.1081
N9030 X-3.1846 Y-0.1021
N9035 X-3.1966 Y-0.0963
N9040 X-3.2093 Y-0.0906
N9045 X-3.2227 Y-0.0852
N9050 X-3.2367 Y-0.0798
N9055 X-3.2512 Y-0.0747
N9060 X-3.2664 Y-0.0696
N9065 X-3.282 Y-0.0647
N9070 X-3.2982 Y-0.0598
N9075 X-3.3148 Y-0.0549
N9080 X-3.3319 Y-0.05
N9085 X-3.3493 Y-0.0451
N9090 G2 X-3.3422 Y0.1972 I0.034 J0.1203
N9095 G1 X-3.326 Y0.2008
N9100 X-3.3104 Y0.2043
N9105 X-3.2952 Y0.2078
N9110 X-3.2805 Y0.2114
N9115 X-3.2665 Y0.215
N9120 X-3.2531 Y0.2188
N9125 X-3.2404 Y0.2226
N9130 X-3.2284 Y0.2267
N9135 X-3.2171 Y0.2308
N9140 X-3.2066 Y0.2351
N9145 X-3.1968 Y0.2396
N9150 X-3.1878 Y0.2442
N9155 X-3.1795 Y0.2489
N9160 X-3.1717 Y0.254
N9165 X-3.1638 Y0.2597
N9170 X-3.1556 Y0.2662
N9175 X-3.1471 Y0.2736
N9180 X-3.1382 Y0.2818
N9185 X-3.1291 Y0.2909
N9190 X-3.1197 Y0.3007
N9195 X-3.1099 Y0.3112
N9200 X-3.0998 Y0.3224
N9205 X-3.095 Y0.3279
N9210 X-3.0886 Y0.3471
N9215 X-3.0818 Y0.368
N9220 X-3.0752 Y0.3886
N9225 X-3.069 Y0.4088
N9230 X-3.0633 Y0.4288
N9235 X-3.058 Y0.4484
N9240 X-3.0532 Y0.4678
N9245 X-3.049 Y0.4868
N9250 X-3.0453 Y0.5058
N9255 X-3.0421 Y0.525
N9260 X-3.0393 Y0.5445
N9265 X-3.037 Y0.5643
N9270 X-3.0351 Y0.5844
N9275 X-3.0335 Y0.6049
N9280 X-3.0322 Y0.6257
N9285 X-3.0313 Y0.6467
N9290 X-3.0306 Y0.6681
N9295 X-3.0302 Y0.6897
N9300 X-3.0299 Y0.7116
N9305 X-3.0298 Y0.7338
N9310 X-3.0299 Y0.7562
N9315 X-3.03 Y0.7789
N9320 X-3.0302 Y0.8018
N9325 Y0.8041
N9330 X-3.0298 Y0.8351
N9335 X-3.0295 Y0.8657
N9340 X-3.0294 Y0.8959
N9345 X-3.0296 Y0.9258
N9350 X-3.03 Y0.9552
N9355 X-3.0308 Y0.9842
N9360 X-3.032 Y1.0128
N9365 X-3.0338 Y1.0409
N9370 X-3.036 Y1.0684
N9375 X-3.0389 Y1.0955
N9380 X-3.0425 Y1.122
N9385 X-3.0468 Y1.1479
N9390 X-3.0519 Y1.1733
N9395 X-3.0577 Y1.1982
N9400 X-3.0645 Y1.2226
N9405 X-3.0723 Y1.247
N9410 X-3.0811 Y1.2718
N9415 X-3.0909 Y1.2968
N9420 X-3.1016 Y1.3223
N9425 X-3.1131 Y1.3481
N9430 X-3.1252 Y1.3742
N9435 X-3.138 Y1.4008
N9440 X-3.1498 Y1.4248
N9445 X-3.1667 Y1.4358
N9450 X-3.1887 Y1.4498
N9455 X-3.2102 Y1.463
N9460 X-3.2313 Y1.4755
N9465 X-3.252 Y1.487
N9470 X-3.2723 Y1.4974
N9475 X-3.2922 Y1.5068
N9480 X-3.3117 Y1.5151
N9485 X-3.3311 Y1.5222
N9490 X-3.3438 Y1.5262
N9495 Z0.2 F10.
N9500 G0 X-3.5623 Y0.0284
N9505 G1 Z-0.085 F10.
N9510 Z-0.29 F5.
N9515 X-3.5627 Y0.0274
N9520 X-3.5632 Y0.0264
N9525 X-3.5717 Y0.0137
N9530 G3 X-3.5679 Y0.0041 I0.0052 J-0.0035
N9535 G1 X-3.5491 Y-0.0003
N9540 X-3.5482 Y-0.0005
N9545 X-3.5295 Y-0.0049
N9550 X-3.5277 Y-0.0054
N9555 X-3.5093 Y-0.0101
N9560 X-3.5065 Y-0.0108
N9565 X-3.4885 Y-0.0159
N9570 X-3.4846 Y-0.017
N9575 X-3.4671 Y-0.0225
N9580 X-3.4622 Y-0.0242
N9585 X-3.4453 Y-0.0303
N9590 X-3.4391 Y-0.0327
N9595 X-3.4231 Y-0.0395
N9600 X-3.4157 Y-0.043
N9605 X-3.4006 Y-0.0506
N9610 G2 X-3.3919 Y-0.0554 I-0.0562 J-0.1117
N9615 G1 X-3.3778 Y-0.0639
N9620 G2 X-3.368 Y-0.0705 I-0.0649 J-0.1068
N9625 G1 X-3.3552 Y-0.0801
N9630 G2 X-3.3447 Y-0.0889 I-0.0747 J-0.1002
N9635 G1 X-3.3331 Y-0.0996
N9640 G2 X-3.3228 Y-0.1104 I-0.0852 J-0.0915
N9645 G1 X-3.3127 Y-0.1224
N9650 G2 X-3.3042 Y-0.1337 I-0.0955 J-0.0807
N9655 G1 X-3.2955 Y-0.1468
N9660 G2 X-3.289 Y-0.1577 I-0.104 J-0.0694
N9665 G1 X-3.2814 Y-0.1719
N9670 G2 X-3.2767 Y-0.1818 I-0.1104 J-0.0586
N9675 G1 X-3.2703 Y-0.197
N9680 X-3.2686 Y-0.2013
N9685 X-3.267 Y-0.2057
N9690 X-3.2616 Y-0.2218
N9695 X-3.2593 Y-0.2293
N9700 X-3.2547 Y-0.2462
N9705 X-3.2532 Y-0.2525
N9710 X-3.2495 Y-0.2701
N9715 X-3.2485 Y-0.2753
N9720 X-3.2454 Y-0.2935
N9725 X-3.2447 Y-0.2976
N9730 X-3.2422 Y-0.3163
N9735 X-3.2418 Y-0.3195
N9740 X-3.2397 Y-0.3385
N9745 X-3.2395 Y-0.3409
N9750 X-3.2377 Y-0.3602
N9755 X-3.2376 Y-0.3617
N9760 X-3.2361 Y-0.3813
N9765 X-3.236 Y-0.382
N9770 X-3.2346 Y-0.4017
N9775 G2 X-3.2343 Y-0.4131 I-0.1247 J-0.009
N9780 G1 X-3.2347 Y-0.435
N9785 Y-0.4357
N9790 X-3.2353 Y-0.4576
N9795 Y-0.459
N9800 X-3.2361 Y-0.4806
N9805 X-3.2362 Y-0.4828
N9810 X-3.2373 Y-0.5041
N9815 X-3.2375 Y-0.5071
N9820 X-3.2391 Y-0.5281
N9825 X-3.2395 Y-0.5319
N9830 X-3.2417 Y-0.5524
N9835 X-3.2423 Y-0.5571
N9840 X-3.2452 Y-0.5771
N9845 X-3.2462 Y-0.5828
N9850 X-3.2499 Y-0.6022
N9855 X-3.2514 Y-0.609
N9860 X-3.2561 Y-0.6276
N9865 X-3.2584 Y-0.6355
N9870 X-3.2642 Y-0.6533
N9875 X-3.2657 Y-0.6579
N9880 X-3.2675 Y-0.6624
N9885 X-3.2744 Y-0.6793
N9890 G2 X-3.2792 Y-0.6894 I-0.1156 J0.0476
N9895 G1 X-3.2874 Y-0.7052
N9900 G2 X-3.2938 Y-0.7161 I-0.1109 J0.0578
N9905 G1 X-3.3035 Y-0.7308
N9910 G2 X-3.3117 Y-0.742 I-0.1045 J0.0686
N9915 G1 X-3.3229 Y-0.7555
N9920 G2 X-3.3327 Y-0.766 I-0.0962 J0.0798
N9925 G1 X-3.3455 Y-0.7783
N9930 G2 X-3.3551 Y-0.7866 I-0.0865 J0.0902
N9935 G1 X-3.3694 Y-0.7977
N9940 G2 X-3.3782 Y-0.804 I-0.0769 J0.0986
N9945 G1 X-3.3937 Y-0.8141
N9950 X-3.3975 Y-0.8165
N9955 X-3.4014 Y-0.8187
N9960 X-3.4181 Y-0.8279
N9965 X-3.4246 Y-0.8313
N9970 X-3.4423 Y-0.8397
N9975 X-3.4476 Y-0.8421
N9980 X-3.4661 Y-0.8499
N9985 X-3.4701 Y-0.8515
N9990 X-3.4893 Y-0.8588
N9995 X-3.4923 Y-0.8599
N10000 X-3.5119 Y-0.8669
N10005 X-3.5139 Y-0.8676
N10010 X-3.5339 Y-0.8742
N10015 X-3.5348 Y-0.8745
N10020 X-3.555 Y-0.8811
N10025 G2 X-3.5936 Y-0.8872 I-0.0387 J0.1189
N10030 G1 X-3.6693
N10035 G2 X-3.7943 Y-0.7622 I0. J0.125
N10040 G1 Y-0.1177
N10045 G2 X-3.6693 Y0.0073 I0.125 J0.
N10050 G1 X-3.5961
N10055 G2 X-3.5679 Y0.0041 I0. J-0.125
N10060 G1 Z0.2 F10.
N10065 G0 Z0.6
N10070 X-2.2427 Y-1.1528
N10075 Z0.2
N10080 G1 Z0.05 F10.
N10085 G3 X-2.4419 Y-1.2821 Z0.037 I-0.0996 J-0.0647 F5.
N10090 X-2.2427 Y-1.1528 Z0.0239 I0.0996 J0.0647
N10095 X-2.4419 Y-1.2821 Z0.0109 I-0.0996 J-0.0647
N10100 X-2.2427 Y-1.1528 Z-0.0021 I0.0996 J0.0647
N10105 X-2.4419 Y-1.2821 Z-0.0151 I-0.0996 J-0.0647
N10110 X-2.2427 Y-1.1528 Z-0.0282 I0.0996 J0.0647
N10115 X-2.4419 Y-1.2821 Z-0.0412 I-0.0996 J-0.0647
N10120 X-2.2427 Y-1.1528 Z-0.0542 I0.0996 J0.0647
N10125 X-2.4419 Y-1.2821 Z-0.0672 I-0.0996 J-0.0647
N10130 X-2.2427 Y-1.1528 Z-0.0803 I0.0996 J0.0647
N10135 X-2.4419 Y-1.2821 Z-0.0933 I-0.0996 J-0.0647
N10140 X-2.2427 Y-1.1528 Z-0.1063 I0.0996 J0.0647
N10145 X-2.4419 Y-1.2821 Z-0.1194 I-0.0996 J-0.0647
N10150 X-2.2235 Y-1.2174 Z-0.13 I0.0996 J0.0647
N10155 X-2.4386 I-0.1075 J0.
N10160 G1 Y-1.3815
N10165 G3 X-2.4258 Y-1.3943 I0.0128 J0.
N10170 G1 X-2.3445
N10175 G3 X-2.3317 Y-1.3815 I0. J0.0128
N10180 G1 Y-1.2019
N10185 G3 X-2.3452 Y-1.179 I-0.0262 J0.
N10190 G2 X-2.3856 Y-1.1512 I0.126 J0.2264
N10195 G3 X-2.4018 I-0.0081 J-0.0097
N10200 G2 X-2.4251 Y-1.1686 I-0.1665 J0.1985
N10205 G3 X-2.4386 Y-1.1937 I0.0167 J-0.0251
N10210 G1 Y-1.2174
N10215 G2 X-2.4931 Y-1.2992 I-0.0886 J0.
N10220 G3 X-2.5476 Y-1.381 I0.0341 J-0.0818
N10225 G1 Y-1.5033
N10230 X-2.2226
N10235 Y-1.1026
N10240 G2 X-2.3691 Y-0.9527 I0.0035 J0.15
N10245 G1 Y-0.1295
N10250 X-2.3699 Y-0.1211
N10255 X-2.37 Y-0.1206
N10260 X-2.3713 Y-0.1054
N10265 X-2.3714 Y-0.1043
N10270 X-2.3726 Y-0.0891
N10275 X-2.3727 Y-0.0875
N10280 X-2.3738 Y-0.0724
N10285 X-2.3739 Y-0.0702
N10290 X-2.3748 Y-0.0552
N10295 X-2.3749 Y-0.0524
N10300 X-2.3755 Y-0.0375
N10305 Y-0.0341
N10310 X-2.3758 Y-0.0194
N10315 Y-0.0153
N10320 X-2.3756 Y-0.0007
N10325 X-2.3754 Y0.004
N10330 X-2.3748 Y0.0184
N10335 X-2.3744 Y0.0239
N10340 X-2.3733 Y0.0381
N10345 X-2.3727 Y0.0443
N10350 X-2.3709 Y0.0583
N10355 X-2.3699 Y0.0653
N10360 X-2.3675 Y0.079
N10365 X-2.366 Y0.0866
N10370 X-2.363 Y0.1001
N10375 X-2.3608 Y0.1085
N10380 X-2.3571 Y0.1216
N10385 X-2.3542 Y0.1306
N10390 X-2.3496 Y0.1434
N10395 G2 X-2.3459 Y0.1529 I0.1413 J-0.0504
N10400 G1 X-2.3404 Y0.1653
N10405 G2 X-2.3358 Y0.1751 I0.1375 J-0.0598
N10410 G1 X-2.3295 Y0.1872
N10415 G2 X-2.3242 Y0.1964 I0.1329 J-0.0696
N10420 G1 X-2.3169 Y0.2082
N10425 X-2.3119 Y0.2158
N10430 X-2.3038 Y0.2272
N10435 X-2.2994 Y0.2332
N10440 X-2.2907 Y0.2443
N10445 X-2.287 Y0.2488
N10450 X-2.2778 Y0.2597
N10455 X-2.275 Y0.2629
N10460 X-2.2653 Y0.2737
N10465 X-2.2634 Y0.2758
N10470 X-2.2535 Y0.2864
N10475 X-2.2526 Y0.2874
N10480 X-2.2425 Y0.298
N10485 G2 X-2.0385 Y0.3108 I0.1088 J-0.1032
N10490 G1 X-2.0256 Y0.3001
N10495 X-2.0245 Y0.2992
N10500 X-2.0117 Y0.2885
N10505 X-2.0095 Y0.2867
N10510 X-1.997 Y0.2758
N10515 X-1.9937 Y0.2728
N10520 X-1.9817 Y0.2617
N10525 X-1.9773 Y0.2575
N10530 X-1.9659 Y0.2461
N10535 X-1.9605 Y0.2405
N10540 X-1.9499 Y0.2287
N10545 X-1.9437 Y0.2213
N10550 X-1.934 Y0.2091
N10555 G2 X-1.9271 Y0.1997 I-0.1177 J-0.093
N10560 G1 X-1.9186 Y0.1869
N10565 G2 X-1.912 Y0.1761 I-0.1246 J-0.0836
N10570 G1 X-1.9046 Y0.1627
N10575 G2 X-1.8991 Y0.1519 I-0.1312 J-0.0727
N10580 G1 X-1.8928 Y0.138
N10585 G2 X-1.8886 Y0.1276 I-0.1366 J-0.0619
N10590 G1 X-1.8833 Y0.1132
N10595 G2 X-1.8801 Y0.1034 I-0.1409 J-0.0515
N10600 G1 X-1.8778 Y0.0955
N10605 X-1.8777 Y0.1009
N10610 X-1.8773 Y0.1271
N10615 X-1.877 Y0.1534
N10620 X-1.8767 Y0.1798
N10625 X-1.8765 Y0.2062
N10630 X-1.8763 Y0.2327
N10635 X-1.8761 Y0.2593
N10640 X-1.876 Y0.286
N10645 X-1.8757 Y0.294
N10650 X-1.8739 Y0.3249
N10655 X-1.8722 Y0.3551
N10660 X-1.8709 Y0.3843
N10665 X-1.87 Y0.4126
N10670 X-1.8697 Y0.4398
N10675 X-1.87 Y0.4656
N10680 X-1.871 Y0.4901
N10685 X-1.8728 Y0.513
N10690 X-1.8754 Y0.5341
N10695 X-1.8787 Y0.5534
N10700 X-1.8828 Y0.5708
N10705 X-1.8875 Y0.5861
N10710 X-1.8927 Y0.5994
N10715 X-1.8984 Y0.611
N10720 X-1.9046 Y0.6211
N10725 X-1.9117 Y0.6305
N10730 X-1.9209 Y0.6406
N10735 X-1.9328 Y0.6517
N10740 X-1.9474 Y0.6637
N10745 X-1.9647 Y0.6764
N10750 X-1.9842 Y0.6896
N10755 X-1.986 Y0.6908
N10760 X-1.9866 Y0.6904
N10765 X-1.9961 Y0.6847
N10770 X-2.0037 Y0.6796
N10775 X-2.0095 Y0.6751
N10780 X-2.0137 Y0.6713
N10785 X-2.0171 Y0.6678
N10790 X-2.0205 Y0.6635
N10795 X-2.0242 Y0.6581
N10800 X-2.0282 Y0.6514
N10805 X-2.0323 Y0.6434
N10810 X-2.0365 Y0.634
N10815 X-2.0407 Y0.6232
N10820 X-2.0449 Y0.6111
N10825 X-2.049 Y0.5978
N10830 X-2.053 Y0.5833
N10835 X-2.0569 Y0.5678
N10840 X-2.0607 Y0.5513
N10845 X-2.0645 Y0.5339
N10850 X-2.0683 Y0.5157
N10855 X-2.0722 Y0.4969
N10860 G2 X-2.3691 Y0.5268 I-0.147 J0.03
N10865 G1 Y0.6771
N10870 X-2.5476
N10875 Y0.3092
N10880 G2 X-2.4183 Y0.1606 I-0.0206 J-0.1486
N10885 G1 Y-0.9527
N10890 G2 X-2.5476 Y-1.1012 I-0.15 J0.
N10895 G1 Y-1.381
N10900 X-2.5474 Y-1.3822
N10905 X-2.5467 Y-1.3832
N10910 X-2.5457 Y-1.3839
N10915 X-2.5445 Y-1.3841
N10920 X-2.5433 Y-1.3838
N10925 X-2.5299 Y-1.3776
N10930 X-2.2548 Y-1.2676
N10935 X-2.2538 Y-1.2674
N10940 X-2.2528
N10945 X-2.2389 Y-1.2702
N10950 X-2.2377 Y-1.2703
N10955 X-2.2366 Y-1.2699
N10960 X-2.2356 Y-1.2692
N10965 X-2.235 Y-1.2682
N10970 G3 X-2.4496 Y-1.1666 Z-0.143 I-0.1073 J0.0508
N10975 X-2.235 Y-1.2682 Z-0.1561 I0.1073 J-0.0508
N10980 X-2.4496 Y-1.1666 Z-0.1691 I-0.1073 J0.0508
N10985 X-2.235 Y-1.2682 Z-0.1821 I0.1073 J-0.0508
N10990 X-2.4496 Y-1.1666 Z-0.1951 I-0.1073 J0.0508
N10995 X-2.235 Y-1.2682 Z-0.2082 I0.1073 J-0.0508
N11000 X-2.2235 Y-1.2174 Z-0.21 I-0.1073 J0.0508
N11005 X-2.4386 I-0.1075 J0.
N11010 G1 Y-1.3815
N11015 G3 X-2.4258 Y-1.3943 I0.0128 J0.
N11020 G1 X-2.3445
N11025 G3 X-2.3317 Y-1.3815 I0. J0.0128
N11030 G1 Y-1.2019
N11035 G3 X-2.3452 Y-1.179 I-0.0262 J0.
N11040 G2 X-2.3856 Y-1.1512 I0.126 J0.2264
N11045 G3 X-2.4018 I-0.0081 J-0.0097
N11050 G2 X-2.4251 Y-1.1686 I-0.1665 J0.1985
N11055 G3 X-2.4386 Y-1.1937 I0.0167 J-0.0251
N11060 G1 Y-1.2174
N11065 G2 X-2.4931 Y-1.2992 I-0.0886 J0.
N11070 G3 X-2.5476 Y-1.381 I0.0341 J-0.0818
N11075 G1 Y-1.5033
N11080 X-2.2226
N11085 Y-1.1026
N11090 G2 X-2.3691 Y-0.9527 I0.0035 J0.15
N11095 G1 Y-0.1295
N11100 X-2.3699 Y-0.1211
N11105 X-2.37 Y-0.1206
N11110 X-2.3713 Y-0.1054
N11115 X-2.3714 Y-0.1043
N11120 X-2.3726 Y-0.0891
N11125 X-2.3727 Y-0.0875
N11130 X-2.3738 Y-0.0724
N11135 X-2.3739 Y-0.0702
N11140 X-2.3748 Y-0.0552
N11145 X-2.3749 Y-0.0524
N11150 X-2.3755 Y-0.0375
N11155 Y-0.0341
N11160 X-2.3758 Y-0.0194
N11165 Y-0.0153
N11170 X-2.3756 Y-0.0007
N11175 X-2.3754 Y0.004
N11180 X-2.3748 Y0.0184
N11185 X-2.3744 Y0.0239
N11190 X-2.3733 Y0.0381
N11195 X-2.3727 Y0.0443
N11200 X-2.3709 Y0.0583
N11205 X-2.3699 Y0.0653
N11210 X-2.3675 Y0.079
N11215 X-2.366 Y0.0866
N11220 X-2.363 Y0.1001
N11225 X-2.3608 Y0.1085
N11230 X-2.3571 Y0.1216
N11235 X-2.3542 Y0.1306
N11240 X-2.3496 Y0.1434
N11245 G2 X-2.3459 Y0.1529 I0.1413 J-0.0504
N11250 G1 X-2.3404 Y0.1653
N11255 G2 X-2.3358 Y0.1751 I0.1375 J-0.0598
N11260 G1 X-2.3295 Y0.1872
N11265 G2 X-2.3242 Y0.1964 I0.1329 J-0.0696
N11270 G1 X-2.3169 Y0.2082
N11275 X-2.3119 Y0.2158
N11280 X-2.3038 Y0.2272
N11285 X-2.2994 Y0.2332
N11290 X-2.2907 Y0.2443
N11295 X-2.287 Y0.2488
N11300 X-2.2778 Y0.2597
N11305 X-2.275 Y0.2629
N11310 X-2.2653 Y0.2737
N11315 X-2.2634 Y0.2758
N11320 X-2.2535 Y0.2864
N11325 X-2.2526 Y0.2874
N11330 X-2.2425 Y0.298
N11335 G2 X-2.0385 Y0.3108 I0.1088 J-0.1032
N11340 G1 X-2.0256 Y0.3001
N11345 X-2.0245 Y0.2992
N11350 X-2.0117 Y0.2885
N11355 X-2.0095 Y0.2867
N11360 X-1.997 Y0.2758
N11365 X-1.9937 Y0.2728
N11370 X-1.9817 Y0.2617
N11375 X-1.9773 Y0.2575
N11380 X-1.9659 Y0.2461
N11385 X-1.9605 Y0.2405
N11390 X-1.9499 Y0.2287
N11395 X-1.9437 Y0.2213
N11400 X-1.934 Y0.2091
N11405 G2 X-1.9271 Y0.1997 I-0.1177 J-0.093
N11410 G1 X-1.9186 Y0.1869
N11415 G2 X-1.912 Y0.1761 I-0.1246 J-0.0836
N11420 G1 X-1.9046 Y0.1627
N11425 G2 X-1.8991 Y0.1519 I-0.1312 J-0.0727
N11430 G1 X-1.8928 Y0.138
N11435 G2 X-1.8886 Y0.1276 I-0.1366 J-0.0619
N11440 G1 X-1.8833 Y0.1132
N11445 G2 X-1.8801 Y0.1034 I-0.1409 J-0.0515
N11450 G1 X-1.8778 Y0.0955
N11455 X-1.8777 Y0.1009
N11460 X-1.8773 Y0.1271
N11465 X-1.877 Y0.1534
N11470 X-1.8767 Y0.1798
N11475 X-1.8765 Y0.2062
N11480 X-1.8763 Y0.2327
N11485 X-1.8761 Y0.2593
N11490 X-1.876 Y0.286
N11495 X-1.8757 Y0.294
N11500 X-1.8739 Y0.3249
N11505 X-1.8722 Y0.3551
N11510 X-1.8709 Y0.3843
N11515 X-1.87 Y0.4126
N11520 X-1.8697 Y0.4398
N11525 X-1.87 Y0.4656
N11530 X-1.871 Y0.4901
N11535 X-1.8728 Y0.513
N11540 X-1.8754 Y0.5341
N11545 X-1.8787 Y0.5534
N11550 X-1.8828 Y0.5708
N11555 X-1.8875 Y0.5861
N11560 X-1.8927 Y0.5994
N11565 X-1.8984 Y0.611
N11570 X-1.9046 Y0.6211
N11575 X-1.9117 Y0.6305
N11580 X-1.9209 Y0.6406
N11585 X-1.9328 Y0.6517
N11590 X-1.9474 Y0.6637
N11595 X-1.9647 Y0.6764
N11600 X-1.9842 Y0.6896
N11605 X-1.986 Y0.6908
N11610 X-1.9866 Y0.6904
N11615 X-1.9961 Y0.6847
N11620 X-2.0037 Y0.6796
N11625 X-2.0095 Y0.6751
N11630 X-2.0137 Y0.6713
N11635 X-2.0171 Y0.6678
N11640 X-2.0205 Y0.6635
N11645 X-2.0242 Y0.6581
N11650 X-2.0282 Y0.6514
N11655 X-2.0323 Y0.6434
N11660 X-2.0365 Y0.634
N11665 X-2.0407 Y0.6232
N11670 X-2.0449 Y0.6111
N11675 X-2.049 Y0.5978
N11680 X-2.053 Y0.5833
N11685 X-2.0569 Y0.5678
N11690 X-2.0607 Y0.5513
N11695 X-2.0645 Y0.5339
N11700 X-2.0683 Y0.5157
N11705 X-2.0722 Y0.4969
N11710 G2 X-2.3691 Y0.5268 I-0.147 J0.03
N11715 G1 Y0.6771
N11720 X-2.5476
N11725 Y0.3092
N11730 G2 X-2.4183 Y0.1606 I-0.0206 J-0.1486
N11735 G1 Y-0.9527
N11740 G2 X-2.5476 Y-1.1012 I-0.15 J0.
N11745 G1 Y-1.381
N11750 G3 X-2.5322 Y-1.384 I0.008 J0.
N11755 G1 X-2.4418 Y-1.1602
N11760 G2 X-2.4312 Y-1.1558 I0.0074 J-0.003
N11765 X-2.4271 Y-1.1666 I-0.0032 J-0.0073
N11770 G3 X-2.2125 Y-1.2682 Z-0.223 I0.1073 J-0.0508
N11775 X-2.4271 Y-1.1666 Z-0.2361 I-0.1073 J0.0508
N11780 X-2.2125 Y-1.2682 Z-0.2491 I0.1073 J-0.0508
N11785 X-2.4271 Y-1.1666 Z-0.2621 I-0.1073 J0.0508
N11790 X-2.2125 Y-1.2682 Z-0.2751 I0.1073 J-0.0508
N11795 X-2.4271 Y-1.1666 Z-0.2882 I-0.1073 J0.0508
N11800 X-2.4386 Y-1.2174 Z-0.29 I0.1073 J-0.0508
N11805 G1 Y-1.3815
N11810 G3 X-2.4258 Y-1.3943 I0.0128 J0.
N11815 G1 X-2.3445
N11820 G3 X-2.3317 Y-1.3815 I0. J0.0128
N11825 G1 Y-1.2019
N11830 G3 X-2.3452 Y-1.179 I-0.0262 J0.
N11835 G2 X-2.3856 Y-1.1512 I0.126 J0.2264
N11840 G3 X-2.4018 I-0.0081 J-0.0097
N11845 G2 X-2.4251 Y-1.1686 I-0.1665 J0.1985
N11850 G3 X-2.4386 Y-1.1937 I0.0167 J-0.0251
N11855 G1 Y-1.2174
N11860 G2 X-2.4931 Y-1.2992 I-0.0886 J0.
N11865 G3 X-2.5476 Y-1.381 I0.0341 J-0.0818
N11870 G1 Y-1.5033
N11875 X-2.2226
N11880 Y-1.1026
N11885 G2 X-2.3691 Y-0.9527 I0.0035 J0.15
N11890 G1 Y-0.1295
N11895 X-2.3699 Y-0.1211
N11900 X-2.37 Y-0.1206
N11905 X-2.3713 Y-0.1054
N11910 X-2.3714 Y-0.1043
N11915 X-2.3726 Y-0.0891
N11920 X-2.3727 Y-0.0875
N11925 X-2.3738 Y-0.0724
N11930 X-2.3739 Y-0.0702
N11935 X-2.3748 Y-0.0552
N11940 X-2.3749 Y-0.0524
N11945 X-2.3755 Y-0.0375
N11950 Y-0.0341
N11955 X-2.3758 Y-0.0194
N11960 Y-0.0153
N11965 X-2.3756 Y-0.0007
N11970 X-2.3754 Y0.004
N11975 X-2.3748 Y0.0184
N11980 X-2.3744 Y0.0239
N11985 X-2.3733 Y0.0381
N11990 X-2.3727 Y0.0443
N11995 X-2.3709 Y0.0583
N12000 X-2.3699 Y0.0653
N12005 X-2.3675 Y0.079
N12010 X-2.366 Y0.0866
N12015 X-2.363 Y0.1001
N12020 X-2.3608 Y0.1085
N12025 X-2.3571 Y0.1216
N12030 X-2.3542 Y0.1306
N12035 X-2.3496 Y0.1434
N12040 G2 X-2.3459 Y0.1529 I0.1413 J-0.0504
N12045 G1 X-2.3404 Y0.1653
N12050 G2 X-2.3358 Y0.1751 I0.1375 J-0.0598
N12055 G1 X-2.3295 Y0.1872
N12060 G2 X-2.3242 Y0.1964 I0.1329 J-0.0696
N12065 G1 X-2.3169 Y0.2082
N12070 X-2.3119 Y0.2158
N12075 X-2.3038 Y0.2272
N12080 X-2.2994 Y0.2332
N12085 X-2.2907 Y0.2443
N12090 X-2.287 Y0.2488
N12095 X-2.2778 Y0.2597
N12100 X-2.275 Y0.2629
N12105 X-2.2653 Y0.2737
N12110 X-2.2634 Y0.2758
N12115 X-2.2535 Y0.2864
N12120 X-2.2526 Y0.2874
N12125 X-2.2425 Y0.298
N12130 G2 X-2.0385 Y0.3108 I0.1088 J-0.1032
N12135 G1 X-2.0256 Y0.3001
N12140 X-2.0245 Y0.2992
N12145 X-2.0117 Y0.2885
N12150 X-2.0095 Y0.2867
N12155 X-1.997 Y0.2758
N12160 X-1.9937 Y0.2728
N12165 X-1.9817 Y0.2617
N12170 X-1.9773 Y0.2575
N12175 X-1.9659 Y0.2461
N12180 X-1.9605 Y0.2405
N12185 X-1.9499 Y0.2287
N12190 X-1.9437 Y0.2213
N12195 X-1.934 Y0.2091
N12200 G2 X-1.9271 Y0.1997 I-0.1177 J-0.093
N12205 G1 X-1.9186 Y0.1869
N12210 G2 X-1.912 Y0.1761 I-0.1246 J-0.0836
N12215 G1 X-1.9046 Y0.1627
N12220 G2 X-1.8991 Y0.1519 I-0.1312 J-0.0727
N12225 G1 X-1.8928 Y0.138
N12230 G2 X-1.8886 Y0.1276 I-0.1366 J-0.0619
N12235 G1 X-1.8833 Y0.1132
N12240 G2 X-1.8801 Y0.1034 I-0.1409 J-0.0515
N12245 G1 X-1.8778 Y0.0955
N12250 X-1.8777 Y0.1009
N12255 X-1.8773 Y0.1271
N12260 X-1.877 Y0.1534
N12265 X-1.8767 Y0.1798
N12270 X-1.8765 Y0.2062
N12275 X-1.8763 Y0.2327
N12280 X-1.8761 Y0.2593
N12285 X-1.876 Y0.286
N12290 X-1.8757 Y0.294
N12295 X-1.8739 Y0.3249
N12300 X-1.8722 Y0.3551
N12305 X-1.8709 Y0.3843
N12310 X-1.87 Y0.4126
N12315 X-1.8697 Y0.4398
N12320 X-1.87 Y0.4656
N12325 X-1.871 Y0.4901
N12330 X-1.8728 Y0.513
N12335 X-1.8754 Y0.5341
N12340 X-1.8787 Y0.5534
N12345 X-1.8828 Y0.5708
N12350 X-1.8875 Y0.5861
N12355 X-1.8927 Y0.5994
N12360 X-1.8984 Y0.611
N12365 X-1.9046 Y0.6211
N12370 X-1.9117 Y0.6305
N12375 X-1.9209 Y0.6406
N12380 X-1.9328 Y0.6517
N12385 X-1.9474 Y0.6637
N12390 X-1.9647 Y0.6764
N12395 X-1.9842 Y0.6896
N12400 X-1.986 Y0.6908
N12405 X-1.9866 Y0.6904
N12410 X-1.9961 Y0.6847
N12415 X-2.0037 Y0.6796
N12420 X-2.0095 Y0.6751
N12425 X-2.0137 Y0.6713
N12430 X-2.0171 Y0.6678
N12435 X-2.0205 Y0.6635
N12440 X-2.0242 Y0.6581
N12445 X-2.0282 Y0.6514
N12450 X-2.0323 Y0.6434
N12455 X-2.0365 Y0.634
N12460 X-2.0407 Y0.6232
N12465 X-2.0449 Y0.6111
N12470 X-2.049 Y0.5978
N12475 X-2.053 Y0.5833
N12480 X-2.0569 Y0.5678
N12485 X-2.0607 Y0.5513
N12490 X-2.0645 Y0.5339
N12495 X-2.0683 Y0.5157
N12500 X-2.0722 Y0.4969
N12505 G2 X-2.3691 Y0.5268 I-0.147 J0.03
N12510 G1 Y0.6771
N12515 X-2.5476
N12520 Y0.3092
N12525 G2 X-2.4183 Y0.1606 I-0.0206 J-0.1486
N12530 G1 Y-0.9527
N12535 G2 X-2.5476 Y-1.1012 I-0.15 J0.
N12540 G1 Y-1.381
N12545 G2 X-2.5601 Y-1.3998 I-0.0203 J0.
N12550 G3 X-2.5726 Y-1.4185 I0.0078 J-0.0187
N12555 G1 Y-1.5283
N12560 X-2.1976
N12565 Y-1.0777
N12570 X-2.2191
N12575 G2 X-2.3441 Y-0.9527 I0. J0.125
N12580 G1 Y-0.1283
N12585 X-2.345 Y-0.1188
N12590 Y-0.1184
N12595 X-2.3464 Y-0.1032
N12600 X-2.3465 Y-0.1023
N12605 X-2.3477 Y-0.0871
N12610 X-2.3478 Y-0.0858
N12615 X-2.3489 Y-0.0707
N12620 X-2.349 Y-0.0688
N12625 X-2.3498 Y-0.0538
N12630 X-2.3499 Y-0.0515
N12635 X-2.3505 Y-0.0366
N12640 X-2.3506 Y-0.0338
N12645 X-2.3508 Y-0.019
N12650 Y-0.0156
N12655 X-2.3506 Y-0.001
N12660 X-2.3505 Y0.0029
N12665 X-2.3498 Y0.0173
N12670 X-2.3495 Y0.0219
N12675 X-2.3484 Y0.0361
N12680 X-2.3478 Y0.0413
N12685 X-2.3461 Y0.0552
N12690 X-2.3453 Y0.0611
N12695 X-2.3429 Y0.0748
N12700 X-2.3416 Y0.0811
N12705 X-2.3386 Y0.0946
N12710 X-2.3368 Y0.1016
N12715 X-2.333 Y0.1147
N12720 X-2.3306 Y0.1222
N12725 X-2.3261 Y0.135
N12730 X-2.3229 Y0.1429
N12735 X-2.3175 Y0.1554
N12740 X-2.3157 Y0.1594
N12745 X-2.3136 Y0.1635
N12750 X-2.3073 Y0.1756
N12755 X-2.3052 Y0.1795
N12760 X-2.3029 Y0.1833
N12765 X-2.2957 Y0.195
N12770 X-2.2914 Y0.2014
N12775 X-2.2834 Y0.2128
N12780 X-2.2797 Y0.2178
N12785 X-2.271 Y0.2289
N12790 X-2.2679 Y0.2327
N12795 X-2.2587 Y0.2436
N12800 X-2.2564 Y0.2462
N12805 X-2.2467 Y0.257
N12810 X-2.2451 Y0.2587
N12815 X-2.2352 Y0.2694
N12820 X-2.2344 Y0.2702
N12825 X-2.2244 Y0.2808
N12830 G2 X-2.0544 Y0.2914 I0.0907 J-0.086
N12835 G1 X-2.0414 Y0.2808
N12840 X-2.0405 Y0.28
N12845 X-2.0277 Y0.2693
N12850 X-2.0259 Y0.2678
N12855 X-2.0134 Y0.2569
N12860 X-2.0106 Y0.2544
N12865 X-1.9986 Y0.2434
N12870 X-1.995 Y0.2399
N12875 X-1.9836 Y0.2285
N12880 X-1.9791 Y0.2238
N12885 X-1.9685 Y0.212
N12890 X-1.9633 Y0.2058
N12895 X-1.9536 Y0.1936
N12900 X-1.9507 Y0.1897
N12905 X-1.9479 Y0.1857
N12910 X-1.9393 Y0.173
N12915 G2 X-1.9338 Y0.1639 I-0.1038 J-0.0697
N12920 G1 X-1.9264 Y0.1506
N12925 G2 X-1.9219 Y0.1416 I-0.1093 J-0.0606
N12930 G1 X-1.9156 Y0.1277
N12935 X-1.9137 Y0.1234
N12940 X-1.912 Y0.119
N12945 X-1.9068 Y0.1047
N12950 X-1.9041 Y0.0964
N12955 X-1.8998 Y0.0816
N12960 X-1.8979 Y0.0741
N12965 X-1.8945 Y0.0589
N12970 X-1.8932 Y0.052
N12975 X-1.8906 Y0.0364
N12980 X-1.8897 Y0.0303
N12985 X-1.8879 Y0.0143
N12990 X-1.8874 Y0.009
N12995 X-1.8862 Y-0.0073
N13000 X-1.886 Y-0.0119
N13005 X-1.8854 Y-0.0285
N13010 X-1.8853 Y-0.0324
N13015 X-1.8852 Y-0.0493
N13020 Y-0.0526
N13025 X-1.8856 Y-0.0696
N13030 X-1.8857 Y-0.0723
N13035 X-1.8864 Y-0.0895
N13040 X-1.8865 Y-0.0916
N13045 X-1.8876 Y-0.109
N13050 X-1.8877 Y-0.1105
N13055 X-1.8889 Y-0.1281
N13060 X-1.889 Y-0.129
N13065 X-1.8904 Y-0.1466
N13070 X-1.8905 Y-0.1472
N13075 X-1.8918 Y-0.1627
N13080 X-1.8921 Y-0.1689
N13085 X-1.8925 Y-0.1774
N13090 X-1.8929 Y-0.186
N13095 X-1.8934 Y-0.1946
N13100 Y-0.195
N13105 X-1.8939 Y-0.2034
N13110 X-1.894 Y-0.2039
N13115 X-1.8945 Y-0.2123
N13120 Y-0.2128
N13125 X-1.8951 Y-0.2212
N13130 Y-0.2219
N13135 X-1.8957 Y-0.2295
N13140 X-1.8684
N13145 X-1.8671 Y-0.2123
N13150 X-1.8652 Y-0.1861
N13155 X-1.8634 Y-0.1599
N13160 X-1.8617 Y-0.1338
N13165 X-1.8601 Y-0.1078
N13170 X-1.8587 Y-0.0819
N13175 X-1.8574 Y-0.0559
N13180 X-1.8563 Y-0.03
N13185 X-1.8554 Y-0.0041
N13190 X-1.8545 Y0.022
N13195 X-1.8538 Y0.0481
N13200 X-1.8532 Y0.0742
N13205 X-1.8527 Y0.1005
N13210 X-1.8523 Y0.1268
N13215 X-1.852 Y0.1531
N13220 X-1.8517 Y0.1796
N13225 X-1.8515 Y0.206
N13230 X-1.8513 Y0.2326
N13235 X-1.8511 Y0.2592
N13240 X-1.851 Y0.2858
N13245 X-1.8507 Y0.2925
N13250 X-1.8489 Y0.3235
N13255 X-1.8473 Y0.3538
N13260 X-1.8459 Y0.3834
N13265 X-1.845 Y0.4121
N13270 X-1.8447 Y0.4397
N13275 X-1.845 Y0.4663
N13280 X-1.846 Y0.4916
N13285 X-1.8479 Y0.5155
N13290 X-1.8506 Y0.5378
N13295 X-1.8542 Y0.5584
N13300 X-1.8586 Y0.5773
N13305 X-1.8639 Y0.5943
N13310 X-1.8698 Y0.6095
N13315 X-1.8765 Y0.6231
N13320 X-1.8839 Y0.6352
N13325 X-1.8925 Y0.6465
N13330 X-1.9031 Y0.6582
N13335 X-1.9163 Y0.6706
N13340 X-1.9321 Y0.6835
N13345 X-1.9502 Y0.6968
N13350 X-1.9705 Y0.7106
N13355 X-1.985 Y0.7197
N13360 X-1.9871 Y0.7187
N13365 X-1.9991 Y0.7121
N13370 X-2.0095 Y0.7058
N13375 X-2.0183 Y0.6998
N13380 X-2.0255 Y0.6943
N13385 X-2.0311 Y0.6893
N13390 X-2.0359 Y0.6842
N13395 X-2.0406 Y0.6784
N13400 X-2.0453 Y0.6716
N13405 X-2.0501 Y0.6635
N13410 X-2.0548 Y0.6542
N13415 X-2.0596 Y0.6437
N13420 X-2.0642 Y0.6319
N13425 X-2.0687 Y0.6189
N13430 X-2.073 Y0.6048
N13435 X-2.0772 Y0.5897
N13440 X-2.0812 Y0.5736
N13445 X-2.0851 Y0.5568
N13450 X-2.089 Y0.5391
N13455 X-2.0928 Y0.5208
N13460 X-2.0967 Y0.5019
N13465 G2 X-2.3441 Y0.5268 I-0.1225 J0.025
N13470 G1 Y0.7021
N13475 X-2.5726
N13480 Y0.2856
N13485 X-2.5683
N13490 G2 X-2.4433 Y0.1606 I0. J-0.125
N13495 G1 Y-0.9527
N13500 G2 X-2.5683 Y-1.0777 I-0.125 J0.
N13505 G1 X-2.5726
N13510 Y-1.4185
N13515 Z0.2 F10.
N13520 G0 Z0.6
N13525 X-0.875 Y-1.3233
N13530 Z0.2
N13535 G1 Z0.05 F10.
N13540 G3 X-0.8291 Y-1.0903 Z0.037 I0.023 J0.1165 F5.
N13545 X-0.875 Y-1.3233 Z0.0239 I-0.023 J-0.1165
N13550 X-0.8291 Y-1.0903 Z0.0109 I0.023 J0.1165
N13555 X-0.875 Y-1.3233 Z-0.0021 I-0.023 J-0.1165
N13560 X-0.8291 Y-1.0903 Z-0.0151 I0.023 J0.1165
N13565 X-0.875 Y-1.3233 Z-0.0282 I-0.023 J-0.1165
N13570 X-0.8291 Y-1.0903 Z-0.0412 I0.023 J0.1165
N13575 X-0.875 Y-1.3233 Z-0.0542 I-0.023 J-0.1165
N13580 X-0.8291 Y-1.0903 Z-0.0672 I0.023 J0.1165
N13585 X-0.875 Y-1.3233 Z-0.0803 I-0.023 J-0.1165
N13590 X-0.8291 Y-1.0903 Z-0.0933 I0.023 J0.1165
N13595 X-0.875 Y-1.3233 Z-0.1063 I-0.023 J-0.1165
N13600 X-0.8291 Y-1.0903 Z-0.1194 I0.023 J0.1165
N13605 X-0.9348 Y-1.2921 Z-0.13 I-0.023 J-0.1165
N13610 X-0.7853 Y-1.1382 I0.0747 J0.0769
N13615 G2 X-0.7946 Y-1.1289 I0.2676 J0.2758
N13620 G3 X-0.8123 Y-1.1283 I-0.0092 J-0.0088
N13625 G2 X-0.8278 Y-1.142 I-0.4455 J0.4936
N13630 X-0.8439 Y-1.155 I-0.29 J0.3421
N13635 G3 X-0.8424 Y-1.1676 I0.0045 J-0.0058
N13640 G2 X-0.7794 Y-1.2053 I-0.1267 J-0.2832
N13645 G3 X-0.7691 Y-1.2002 I0.0039 J0.0051
N13650 G1 Y-1.1633
N13655 G3 X-0.7759 Y-1.1473 I-0.0221 J0.
N13660 G2 X-0.7853 Y-1.1382 I1.5616 J1.6281
N13665 G1 X-0.7868 Y-1.1371
N13670 X-0.7886 Y-1.1363
N13675 X-0.7904 Y-1.136
N13680 X-0.7923 Y-1.1361
N13685 X-1.2281 Y-1.2149
N13690 X-1.2299 Y-1.215
N13695 X-1.2316 Y-1.2147
N13700 G2 X-1.3157 Y-1.1832 I0.1419 J0.5065
N13705 G3 X-1.3259 Y-1.1905 I-0.0031 J-0.0065
N13710 X-1.3137 Y-1.2573 I0.4951 J0.0559
N13715 X-1.2836 Y-1.3181 I0.1576 J0.04
N13720 X-1.2628 Y-1.3417 I0.2279 J0.1803
N13725 X-1.2393 Y-1.3625 I0.1659 J0.1633
N13730 X-1.2245 Y-1.3587 I0.0059 J0.0076
N13735 G1 X-1.2216 Y-1.3513
N13740 X-1.2187 Y-1.3439
N13745 G2 X-1.1857 Y-1.2874 I0.242 J-0.1036
N13750 X-1.1401 Y-1.2404 I0.2221 J-0.1702
N13755 G3 X-1.1433 Y-1.2302 I-0.0036 J0.0045
N13760 G2 X-1.2316 Y-1.2147 I0.034 J0.4525
N13765 X-1.3095 Y-1.1192 I0.0288 J0.103
N13770 G3 X-1.3538 Y-1.0043 I-0.209 J-0.0147
N13775 G1 X-1.3586 Y-0.9979
N13780 X-1.364 Y-0.9903
N13785 G2 X-1.3722 Y-0.9772 I0.1226 J0.0864
N13790 G1 X-1.3769 Y-0.9689
N13795 G2 X-1.3829 Y-0.9569 I0.1308 J0.0733
N13800 G1 X-1.3869 Y-0.9479
N13805 G2 X-1.3912 Y-0.9373 I0.1369 J0.0613
N13810 G1 X-1.3946 Y-0.9278
N13815 X-1.3976 Y-0.9186
N13820 X-1.4005 Y-0.9086
N13825 X-1.4025 Y-0.9009
N13830 X-1.4049 Y-0.8905
N13835 X-1.4062 Y-0.8842
N13840 X-1.4082 Y-0.8735
N13845 X-1.409 Y-0.8684
N13850 X-1.4107 Y-0.8573
N13855 X-1.4112 Y-0.8534
N13860 X-1.4126 Y-0.8422
N13865 X-1.4129 Y-0.8393
N13870 X-1.4141 Y-0.8278
N13875 X-1.4143 Y-0.826
N13880 X-1.4154 Y-0.8144
N13885 X-1.4155 Y-0.8135
N13890 X-1.4164 Y-0.8018
N13895 G2 X-1.4114 Y-0.7484 I0.1495 J0.0127
N13900 G1 X-1.4058 Y-0.7287
N13905 X-1.4056 Y-0.7278
N13910 X-1.3999 Y-0.7081
N13915 X-1.3993 Y-0.7063
N13920 X-1.3935 Y-0.6868
N13925 X-1.3926 Y-0.6841
N13930 X-1.3864 Y-0.6649
N13935 X-1.3852 Y-0.6613
N13940 X-1.3785 Y-0.6424
N13945 X-1.3768 Y-0.6378
N13950 X-1.3697 Y-0.6193
N13955 X-1.3674 Y-0.6137
N13960 X-1.3596 Y-0.5958
N13965 X-1.3565 Y-0.5893
N13970 X-1.348 Y-0.5719
N13975 X-1.344 Y-0.5645
N13980 X-1.3346 Y-0.5478
N13985 X-1.3296 Y-0.5396
N13990 X-1.3192 Y-0.5236
N13995 G2 X-1.3131 Y-0.515 I0.1256 J-0.082
N14000 G1 X-1.3016 Y-0.4999
N14005 G2 X-1.2952 Y-0.492 I0.1195 J-0.0907
N14010 G1 X-1.2827 Y-0.4777
N14015 X-1.2763 Y-0.4708
N14020 X-1.2629 Y-0.4572
N14025 X-1.2567 Y-0.4514
N14030 X-1.2425 Y-0.4385
N14035 X-1.2367 Y-0.4336
N14040 X-1.2216 Y-0.4213
N14045 X-1.2164 Y-0.4172
N14050 X-1.2006 Y-0.4055
N14055 X-1.1959 Y-0.4021
N14060 X-1.1795 Y-0.3909
N14065 X-1.1753 Y-0.3882
N14070 X-1.1584 Y-0.3774
N14075 X-1.1549 Y-0.3752
N14080 X-1.1375 Y-0.3648
N14085 X-1.1345 Y-0.3631
N14090 X-1.1167 Y-0.353
N14095 X-1.1144 Y-0.3517
N14100 X-1.0963 Y-0.3418
N14105 X-1.0945 Y-0.3409
N14110 X-1.0762 Y-0.3312
N14115 X-1.075 Y-0.3306
N14120 X-1.0565 Y-0.321
N14125 X-1.0559 Y-0.3207
N14130 X-1.0373 Y-0.3112
N14135 G2 X-0.8191 Y-0.4448 I0.0682 J-0.1336
N14140 G1 Y-0.657
N14145 X-0.8186 Y-0.6715
N14150 Y-0.6722
N14155 X-0.8181 Y-0.6893
N14160 X-0.818 Y-0.6908
N14165 X-0.8177 Y-0.7077
N14170 Y-0.71
N14175 X-0.8176 Y-0.7267
N14180 Y-0.7299
N14185 X-0.8178 Y-0.7464
N14190 X-0.8179 Y-0.7504
N14195 X-0.8186 Y-0.7667
N14200 X-0.8189 Y-0.7715
N14205 X-0.8201 Y-0.7875
N14210 X-0.8206 Y-0.7935
N14215 X-0.8224 Y-0.8091
N14220 X-0.8234 Y-0.8161
N14225 X-0.8259 Y-0.8312
N14230 X-0.8274 Y-0.8395
N14235 X-0.8307 Y-0.8541
N14240 X-0.8318 Y-0.8588
N14245 X-0.8331 Y-0.8635
N14250 X-0.8372 Y-0.8776
N14255 G2 X-0.8407 Y-0.8883 I-0.144 J0.0419
N14260 G1 X-0.8458 Y-0.9017
N14265 G2 X-0.8507 Y-0.9134 I-0.1405 J0.0526
N14270 G1 X-0.8567 Y-0.9261
N14275 G2 X-0.8634 Y-0.9386 I-0.1355 J0.0642
N14280 G1 X-0.8705 Y-0.9506
N14285 G2 X-0.879 Y-0.9634 I-0.1289 J0.0767
N14290 G1 X-0.8874 Y-0.9746
N14295 G2 X-0.8974 Y-0.9867 I-0.1204 J0.0894
N14300 G1 X-0.907 Y-0.9971
N14305 G2 X-0.9169 Y-1.0069 I-0.1104 J0.1015
N14310 G1 X-0.9276 Y-1.0166
N14315 G2 X-0.9365 Y-1.024 I-0.1005 J0.1113
N14320 G1 X-0.9482 Y-1.0331
N14325 X-0.9559 Y-1.0387
N14330 X-0.9685 Y-1.0471
N14335 X-0.9749 Y-1.0512
N14340 X-0.9881 Y-1.0592
N14345 X-0.9932 Y-1.0621
N14350 X-1.007 Y-1.0697
N14355 X-1.0107 Y-1.0717
N14360 X-1.025 Y-1.0791
N14365 X-1.0274 Y-1.0803
N14370 X-1.0419 Y-1.0874
N14375 X-1.0432 Y-1.0881
N14380 X-1.0579 Y-1.0951
N14385 G2 X-1.1541 Y-1.1067 I-0.0651 J0.1351
N14390 G1 X-1.1654 Y-1.1043
N14395 X-1.1665 Y-1.1041
N14400 X-1.1776 Y-1.1016
N14405 X-1.1798 Y-1.1011
N14410 X-1.1909 Y-1.0985
N14415 X-1.1941 Y-1.0977
N14420 X-1.2049 Y-1.0949
N14425 X-1.2095 Y-1.0936
N14430 X-1.22 Y-1.0905
N14435 X-1.2259 Y-1.0887
N14440 X-1.236 Y-1.0852
N14445 X-1.2433 Y-1.0825
N14450 X-1.2529 Y-1.0787
N14455 X-1.2618 Y-1.0748
N14460 X-1.2709 Y-1.0705
N14465 G2 X-1.2812 Y-1.0651 I0.0644 J0.1355
N14470 G1 X-1.2897 Y-1.0602
N14475 G2 X-1.3014 Y-1.0527 I0.0747 J0.1301
N14480 G1 X-1.3092 Y-1.0472
N14485 G2 X-1.3219 Y-1.0372 I0.0864 J0.1226
N14490 G1 X-1.3289 Y-1.031
N14495 G2 X-1.3416 Y-1.0184 I0.0991 J0.1126
N14500 G1 X-1.3478 Y-1.0115
N14505 X-1.3538 Y-1.0043
N14510 Z0.2 F10.
N14515 G0 X-1.1571 Y0.6857
N14520 G1 Z0.05 F10.
N14525 G3 X-1.0358 Y0.4815 Z0.037 I0.0607 J-0.1021 F5.
N14530 X-1.1571 Y0.6857 Z0.0239 I-0.0607 J0.1021
N14535 X-1.0358 Y0.4815 Z0.0109 I0.0607 J-0.1021
N14540 X-1.1571 Y0.6857 Z-0.0021 I-0.0607 J0.1021
N14545 X-1.0358 Y0.4815 Z-0.0151 I0.0607 J-0.1021
N14550 X-1.1571 Y0.6857 Z-0.0282 I-0.0607 J0.1021
N14555 X-1.0358 Y0.4815 Z-0.0412 I0.0607 J-0.1021
N14560 X-1.1571 Y0.6857 Z-0.0542 I-0.0607 J0.1021
N14565 X-1.0358 Y0.4815 Z-0.0672 I0.0607 J-0.1021
N14570 X-1.1571 Y0.6857 Z-0.0803 I-0.0607 J0.1021
N14575 X-1.0358 Y0.4815 Z-0.0933 I0.0607 J-0.1021
N14580 X-1.1571 Y0.6857 Z-0.1063 I-0.0607 J0.1021
N14585 X-1.0358 Y0.4815 Z-0.1194 I0.0607 J-0.1021
N14590 X-1.0918 Y0.7022 Z-0.13 I-0.0607 J0.1021
N14595 X-1.0991 Y0.5117 I-0.0037 J-0.0953
N14600 G2 X-1.0202 Y0.5 I-0.0145 J-0.3681
N14605 X-1.0035 Y0.495 I-0.0626 J-0.2388
N14610 G3 X-0.9869 Y0.4896 I0.1794 J0.529
N14615 G1 X-0.9855 Y0.4895
N14620 X-0.9841 Y0.4899
N14625 X-0.983 Y0.4907
N14630 X-0.9822 Y0.4919
N14635 X-0.982 Y0.4933
N14640 X-0.9823 Y0.4947
N14645 X-0.9831 Y0.4959
N14650 X-0.9842 Y0.4968
N14655 G3 X-1.0396 Y0.518 I-0.1941 J-0.4225
N14660 X-1.0965 Y0.535 I-0.6458 J-2.0659
N14665 G1 X-1.0988 Y0.5353
N14670 X-1.1011 Y0.5351
N14675 G3 X-1.156 Y0.5215 I0.4832 J-2.0762
N14680 X-1.21 Y0.5046 I0.151 J-0.5786
N14685 G2 X-1.2194 Y0.5014 I-0.0775 J0.2124
N14690 G3 X-1.2287 Y0.4978 I0.0223 J-0.0707
N14695 G1 X-1.2298 Y0.497
N14700 X-1.2306 Y0.4958
N14705 X-1.2309 Y0.4944
N14710 X-1.2306 Y0.493
N14715 X-1.2298 Y0.4918
N14720 X-1.2287 Y0.491
N14725 X-1.2273 Y0.4906
N14730 X-1.2259 Y0.4908
N14735 G3 X-1.2161 Y0.4943 I-0.0612 J0.1887
N14740 G2 X-1.2062 Y0.4978 I0.0555 J-0.1414
N14745 X-1.1134 Y0.512 I0.0927 J-0.294
N14750 X-1.0991 Y0.5117 I-0.0002 J-0.3683
N14755 X-0.9616 Y0.3969 I-0.0058 J-0.1467
N14760 G3 X-0.8896 Y0.2328 I0.4515 J0.1003
N14765 G1 X-0.8854 Y0.2266
N14770 X-0.881 Y0.2195
N14775 G2 X-0.8739 Y0.2068 I-0.1272 J-0.0795
N14780 G1 X-0.87 Y0.1991
N14785 G2 X-0.8648 Y0.1874 I-0.1343 J-0.0668
N14790 G1 X-0.8616 Y0.1792
N14795 G2 X-0.858 Y0.1689 I-0.1395 J-0.0551
N14800 G1 X-0.8553 Y0.1603
N14805 X-0.8528 Y0.1516
N14810 X-0.8506 Y0.1425
N14815 X-0.8489 Y0.1351
N14820 X-0.8471 Y0.1257
N14825 X-0.846 Y0.1197
N14830 X-0.8446 Y0.11
N14835 X-0.8439 Y0.1051
N14840 X-0.8427 Y0.0951
N14845 X-0.8423 Y0.0914
N14850 X-0.8414 Y0.0813
N14855 X-0.8411 Y0.0785
N14860 X-0.8403 Y0.0682
N14865 X-0.8402 Y0.0665
N14870 X-0.8396 Y0.0561
N14875 X-0.8395 Y0.0552
N14880 X-0.8389 Y0.0448
N14885 G2 X-0.845 Y-0.007 I-0.1498 J-0.0086
N14890 G1 X-0.849 Y-0.0203
N14895 X-0.8492 Y-0.0211
N14900 X-0.8533 Y-0.0344
N14905 X-0.8538 Y-0.0361
N14910 X-0.858 Y-0.0493
N14915 X-0.8589 Y-0.0519
N14920 X-0.8633 Y-0.0649
N14925 X-0.8646 Y-0.0684
N14930 X-0.8693 Y-0.0812
N14935 X-0.871 Y-0.0856
N14940 X-0.876 Y-0.0981
N14945 X-0.8784 Y-0.1036
N14950 X-0.8839 Y-0.1157
N14955 X-0.8868 Y-0.122
N14960 X-0.8928 Y-0.1337
N14965 X-0.8967 Y-0.1409
N14970 X-0.9033 Y-0.1522
N14975 X-0.9081 Y-0.1601
N14980 X-0.9153 Y-0.1709
N14985 G2 X-0.9211 Y-0.179 I-0.125 J0.083
N14990 G1 X-0.929 Y-0.1893
N14995 X-0.935 Y-0.1967
N15000 X-0.9435 Y-0.2065
N15005 X-0.9494 Y-0.2129
N15010 X-0.9585 Y-0.2222
N15015 X-0.9641 Y-0.2277
N15020 X-0.9738 Y-0.2366
N15025 X-0.979 Y-0.2412
N15030 X-0.9892 Y-0.2497
N15035 X-0.994 Y-0.2536
N15040 X-1.0046 Y-0.2618
N15045 X-1.009 Y-0.265
N15050 X-1.02 Y-0.2729
N15055 X-1.0238 Y-0.2756
N15060 X-1.0351 Y-0.2832
N15065 X-1.0384 Y-0.2853
N15070 X-1.05 Y-0.2927
N15075 X-1.0528 Y-0.2943
N15080 X-1.0647 Y-0.3015
N15085 X-1.0668 Y-0.3028
N15090 X-1.0789 Y-0.3098
N15095 X-1.0806 Y-0.3108
N15100 X-1.0928 Y-0.3177
N15105 X-1.0939 Y-0.3183
N15110 X-1.1062 Y-0.3251
N15115 X-1.1068 Y-0.3254
N15120 X-1.112 Y-0.3283
N15125 X-1.1336 Y-0.3434
N15130 X-1.1612 Y-0.363
N15135 X-1.1878 Y-0.3823
N15140 X-1.2134 Y-0.4014
N15145 X-1.2376 Y-0.4203
N15150 X-1.2604 Y-0.4391
N15155 X-1.2816 Y-0.4578
N15160 X-1.3011 Y-0.4763
N15165 X-1.3188 Y-0.4947
N15170 X-1.3346 Y-0.513
N15175 X-1.3485 Y-0.5312
N15180 X-1.3605 Y-0.5493
N15185 X-1.3712 Y-0.5681
N15190 X-1.3809 Y-0.5884
N15195 X-1.3899 Y-0.6104
N15200 X-1.3981 Y-0.6342
N15205 X-1.4056 Y-0.6597
N15210 X-1.4123 Y-0.6868
N15215 X-1.4185 Y-0.7155
N15220 X-1.4241 Y-0.7455
N15225 X-1.4292 Y-0.7768
N15230 X-1.4339 Y-0.8092
N15235 X-1.4385 Y-0.8426
N15240 X-1.4423 Y-0.872
N15245 X-1.4448 Y-0.9111
N15250 X-1.4474 Y-0.9543
N15255 X-1.4496 Y-0.9966
N15260 X-1.4511 Y-1.0379
N15265 X-1.4518 Y-1.0779
N15270 X-1.4516 Y-1.1165
N15275 X-1.4503 Y-1.1535
N15280 X-1.4479 Y-1.1888
N15285 X-1.4441 Y-1.2221
N15290 X-1.439 Y-1.2533
N15295 X-1.4326 Y-1.2823
N15300 X-1.4248 Y-1.3089
N15305 X-1.4157 Y-1.3333
N15310 X-1.4053 Y-1.3554
N15315 X-1.3936 Y-1.3755
N15320 X-1.38 Y-1.3944
N15325 X-1.3637 Y-1.4132
N15330 X-1.3439 Y-1.4326
N15335 X-1.3207 Y-1.4525
N15340 X-1.2944 Y-1.4729
N15345 X-1.2653 Y-1.4935
N15350 X-1.2338 Y-1.5146
N15355 X-1.2174 Y-1.5251
N15360 X-1.2066 Y-1.5221
N15365 X-1.1966 Y-1.5189
N15370 X-1.1881 Y-1.5158
N15375 X-1.1813 Y-1.513
N15380 X-1.176 Y-1.5104
N15385 X-1.1724 Y-1.5083
N15390 X-1.17 Y-1.5066
N15395 X-1.1679 Y-1.5049
N15400 X-1.1652 Y-1.5023
N15405 X-1.1618 Y-1.4985
N15410 X-1.1578 Y-1.4934
N15415 X-1.1533 Y-1.487
N15420 X-1.1484 Y-1.4792
N15425 X-1.1432 Y-1.47
N15430 X-1.1377 Y-1.4596
N15435 X-1.1319 Y-1.448
N15440 X-1.126 Y-1.4353
N15445 X-1.1199 Y-1.4216
N15450 X-1.1136 Y-1.407
N15455 X-1.107 Y-1.3917
N15460 G2 X-0.8349 Y-1.3838 I0.1379 J-0.059
N15465 G1 X-0.827 Y-1.3997
N15470 X-0.8194 Y-1.4147
N15475 X-0.812 Y-1.4289
N15480 X-0.8049 Y-1.442
N15485 X-0.7981 Y-1.4541
N15490 X-0.7915 Y-1.465
N15495 X-0.7852 Y-1.4746
N15500 X-0.7793 Y-1.4828
N15505 X-0.7738 Y-1.4897
N15510 X-0.769 Y-1.4952
N15515 X-0.7647 Y-1.4994
N15520 X-0.7611 Y-1.5024
N15525 X-0.7579 Y-1.5048
N15530 X-0.7539 Y-1.5072
N15535 X-0.7485 Y-1.5099
N15540 X-0.7416 Y-1.5129
N15545 X-0.7331 Y-1.5161
N15550 X-0.7231 Y-1.5192
N15555 X-0.7116 Y-1.5223
N15560 X-0.6987 Y-1.5254
N15565 X-0.6846 Y-1.5284
N15570 X-0.6694 Y-1.5313
N15575 X-0.6552 Y-1.5339
N15580 X-0.6497 Y-1.5334
N15585 X-0.6423 Y-1.5326
N15590 X-0.6353 Y-1.5318
N15595 X-0.6289 Y-1.5309
N15600 X-0.6229 Y-1.53
N15605 X-0.6174 Y-1.5291
N15610 X-0.6124 Y-1.5281
N15615 X-0.6089 Y-1.5273
N15620 Y-1.0789
N15625 X-0.6109 Y-1.0773
N15630 X-0.6222 Y-1.0684
N15635 X-0.6233 Y-1.0675
N15640 X-0.6344 Y-1.0584
N15645 X-0.6366 Y-1.0566
N15650 X-0.6475 Y-1.0474
N15655 X-0.6508 Y-1.0445
N15660 X-0.6613 Y-1.0352
N15665 X-0.6657 Y-1.031
N15670 X-0.6756 Y-1.0214
N15675 X-0.6811 Y-1.0158
N15680 X-0.6903 Y-1.0058
N15685 X-0.6936 Y-1.0022
N15690 X-0.6967 Y-0.9985
N15695 X-0.7051 Y-0.9881
N15700 G2 X-0.7122 Y-0.9787 I0.1164 J0.0946
N15705 G1 X-0.7196 Y-0.9679
N15710 G2 X-0.7265 Y-0.957 I0.1234 J0.0852
N15715 G1 X-0.7329 Y-0.9457
N15720 G2 X-0.7386 Y-0.9347 I0.1303 J0.0744
N15725 G1 X-0.7441 Y-0.9229
N15730 G2 X-0.7486 Y-0.9123 I0.136 J0.0634
N15735 G1 X-0.7532 Y-0.9001
N15740 G2 X-0.7566 Y-0.8901 I0.1404 J0.0528
N15745 G1 X-0.7603 Y-0.8774
N15750 X-0.7627 Y-0.8683
N15755 X-0.7657 Y-0.8552
N15760 X-0.7674 Y-0.8468
N15765 X-0.7697 Y-0.8335
N15770 X-0.7708 Y-0.8261
N15775 X-0.7724 Y-0.8124
N15780 X-0.7731 Y-0.8059
N15785 X-0.7741 Y-0.7919
N15790 X-0.7744 Y-0.7863
N15795 X-0.775 Y-0.7721
N15800 X-0.7751 Y-0.7674
N15805 X-0.7752 Y-0.7529
N15810 Y-0.7489
N15815 X-0.7749 Y-0.7343
N15820 X-0.7748 Y-0.731
N15825 X-0.7742 Y-0.7162
N15830 X-0.7741 Y-0.7137
N15835 X-0.7732 Y-0.6988
N15840 X-0.7731 Y-0.6969
N15845 X-0.7721 Y-0.6819
N15850 X-0.772 Y-0.6807
N15855 X-0.7708 Y-0.6656
N15860 Y-0.665
N15865 X-0.77 Y-0.656
N15870 Y0.2395
N15875 X-0.772 Y0.2754
N15880 X-0.7744 Y0.3144
N15885 X-0.7771 Y0.3521
N15890 X-0.7804 Y0.3882
N15895 X-0.7844 Y0.4225
N15900 X-0.7893 Y0.4547
N15905 X-0.795 Y0.4844
N15910 X-0.8016 Y0.5115
N15915 X-0.809 Y0.5355
N15920 X-0.8172 Y0.5564
N15925 X-0.8259 Y0.5741
N15930 X-0.8349 Y0.5887
N15935 X-0.8443 Y0.6007
N15940 X-0.855 Y0.6115
N15945 X-0.8684 Y0.6223
N15950 X-0.8854 Y0.6334
N15955 X-0.906 Y0.6446
N15960 X-0.9301 Y0.6557
N15965 X-0.9573 Y0.6664
N15970 X-0.9874 Y0.6768
N15975 X-1.0199 Y0.6869
N15980 X-1.0546 Y0.6967
N15985 X-1.0909 Y0.7063
N15990 X-1.0947 Y0.7073
N15995 X-1.0994 Y0.7063
N16000 X-1.137 Y0.6982
N16005 X-1.173 Y0.6898
N16010 X-1.207 Y0.6811
N16015 X-1.2386 Y0.6719
N16020 X-1.2675 Y0.6622
N16025 X-1.2933 Y0.652
N16030 X-1.3157 Y0.6414
N16035 X-1.3345 Y0.6307
N16040 X-1.3497 Y0.6201
N16045 X-1.3617 Y0.6097
N16050 X-1.3718 Y0.5985
N16055 X-1.3813 Y0.5851
N16060 X-1.3906 Y0.5686
N16065 X-1.3996 Y0.5488
N16070 X-1.408 Y0.5256
N16075 X-1.4157 Y0.4992
N16080 X-1.4225 Y0.4699
N16085 X-1.4286 Y0.438
N16090 X-1.4338 Y0.4037
N16095 X-1.4383 Y0.3676
N16100 X-1.4424 Y0.3297
N16105 X-1.4461 Y0.2905
N16110 X-1.4489 Y0.2578
N16115 X-1.4488 Y0.2499
N16120 X-1.4485 Y0.2343
N16125 X-1.4482 Y0.2189
N16130 X-1.4479 Y0.2037
N16135 X-1.4475 Y0.1887
N16140 X-1.447 Y0.1738
N16145 X-1.4464 Y0.1591
N16150 X-1.4457 Y0.1445
N16155 X-1.4449 Y0.1302
N16160 X-1.444 Y0.116
N16165 X-1.443 Y0.102
N16170 X-1.4417 Y0.0882
N16175 X-1.4404 Y0.0745
N16180 X-1.4388 Y0.0608
N16185 X-1.437 Y0.0469
N16190 X-1.4357 Y0.0372
N16195 X-1.3892
N16200 X-1.3889 Y0.0462
N16205 X-1.3887 Y0.0488
N16210 X-1.3881 Y0.0605
N16215 X-1.3878 Y0.064
N16220 X-1.3869 Y0.0754
N16225 X-1.3864 Y0.08
N16230 X-1.3852 Y0.0912
N16235 X-1.3844 Y0.0969
N16240 X-1.3828 Y0.1078
N16245 X-1.3815 Y0.1147
N16250 X-1.3794 Y0.1253
N16255 X-1.3775 Y0.1335
N16260 X-1.3749 Y0.1436
N16265 G2 X-1.3721 Y0.1533 I0.1452 J-0.0377
N16270 G1 X-1.3688 Y0.1629
N16275 G2 X-1.3647 Y0.1739 I0.1423 J-0.0474
N16280 G1 X-1.3608 Y0.1831
N16285 G2 X-1.355 Y0.1954 I0.1382 J-0.0584
N16290 G1 X-1.3504 Y0.2039
N16295 G2 X-1.3425 Y0.217 I0.1323 J-0.0706
N16300 G1 X-1.3372 Y0.225
N16305 G2 X-1.327 Y0.2384 I0.1244 J-0.0838
N16310 G1 X-1.3208 Y0.2457
N16315 G2 X-1.3089 Y0.2581 I0.1143 J-0.0972
N16320 G1 X-1.3019 Y0.2647
N16325 G2 X-1.2903 Y0.2745 I0.1024 J-0.1096
N16330 G1 X-1.2824 Y0.2805
N16335 G2 X-1.2719 Y0.2879 I0.0908 J-0.1194
N16340 G1 X-1.2633 Y0.2933
N16345 G2 X-1.2541 Y0.2987 I0.0803 J-0.1267
N16350 G1 X-1.2449 Y0.3036
N16355 X-1.2372 Y0.3075
N16360 X-1.2275 Y0.312
N16365 X-1.2212 Y0.3148
N16370 X-1.211 Y0.3189
N16375 X-1.2062 Y0.3208
N16380 X-1.1957 Y0.3247
N16385 X-1.1921 Y0.326
N16390 X-1.1813 Y0.3297
N16395 X-1.179 Y0.3305
N16400 X-1.168 Y0.334
N16405 X-1.1669 Y0.3344
N16410 X-1.1558 Y0.3379
N16415 G2 X-1.0738 Y0.3402 I0.0451 J-0.1431
N16420 G1 X-1.0639 Y0.3377
N16425 X-1.0628 Y0.3374
N16430 X-1.053 Y0.3348
N16435 X-1.0508 Y0.3342
N16440 X-1.0411 Y0.3315
N16445 X-1.0376 Y0.3305
N16450 X-1.0282 Y0.3276
N16455 X-1.0235 Y0.3261
N16460 X-1.0143 Y0.323
N16465 X-1.0082 Y0.3208
N16470 X-0.9994 Y0.3173
N16475 X-0.9919 Y0.3141
N16480 X-0.9835 Y0.3103
N16485 G2 X-0.9744 Y0.3059 I-0.062 J-0.1366
N16490 G1 X-0.9666 Y0.3016
N16495 G2 X-0.9561 Y0.2954 I-0.0711 J-0.1321
N16500 G1 X-0.9488 Y0.2907
N16505 G2 X-0.937 Y0.2822 I-0.0816 J-0.1259
N16510 G1 X-0.9304 Y0.277
N16515 G2 X-0.9179 Y0.2658 I-0.0933 J-0.1174
N16520 G1 X-0.9119 Y0.2599
N16525 G2 X-0.9002 Y0.2467 I-0.1059 J-0.1063
N16530 G1 X-0.895 Y0.2401
N16535 X-0.8896 Y0.2328
N16540 G3 X-0.8755 Y0.2402 I0.0066 J0.0046
N16545 G1 X-1.038 Y0.6846
N16550 X-1.0389 Y0.6863
N16555 X-1.0402 Y0.6878
N16560 X-1.0418 Y0.6889
N16565 G3 X-1.1516 Y0.4783 Z-0.143 I-0.0549 J-0.1053
N16570 X-1.0418 Y0.6889 Z-0.1561 I0.0549 J0.1053
N16575 X-1.1516 Y0.4783 Z-0.1691 I-0.0549 J-0.1053
N16580 X-1.0418 Y0.6889 Z-0.1821 I0.0549 J0.1053
N16585 X-1.1516 Y0.4783 Z-0.1951 I-0.0549 J-0.1053
N16590 X-1.0418 Y0.6889 Z-0.2082 I0.0549 J0.1053
N16595 X-1.0922 Y0.7023 Z-0.21 I-0.0549 J-0.1053
N16600 X-1.0995 Y0.5118 I-0.0036 J-0.0953
N16605 G2 X-1.0202 Y0.5 I-0.0141 J-0.3681
N16610 X-1.0035 Y0.495 I-0.0626 J-0.2388
N16615 G3 X-0.9869 Y0.4896 I0.1794 J0.529
N16620 G1 X-0.9855 Y0.4895
N16625 X-0.9841 Y0.4899
N16630 X-0.983 Y0.4907
N16635 X-0.9822 Y0.4919
N16640 X-0.982 Y0.4933
N16645 X-0.9823 Y0.4947
N16650 X-0.9831 Y0.4959
N16655 X-0.9842 Y0.4968
N16660 G3 X-1.0396 Y0.518 I-0.1941 J-0.4225
N16665 X-1.0965 Y0.535 I-0.6458 J-2.0659
N16670 G1 X-1.0988 Y0.5353
N16675 X-1.1011 Y0.5351
N16680 G3 X-1.156 Y0.5215 I0.4832 J-2.0762
N16685 X-1.21 Y0.5046 I0.151 J-0.5786
N16690 G2 X-1.2194 Y0.5014 I-0.0775 J0.2124
N16695 G3 X-1.2287 Y0.4978 I0.0223 J-0.0707
N16700 G1 X-1.2298 Y0.497
N16705 X-1.2306 Y0.4958
N16710 X-1.2309 Y0.4944
N16715 X-1.2306 Y0.493
N16720 X-1.2298 Y0.4918
N16725 X-1.2287 Y0.491
N16730 X-1.2273 Y0.4906
N16735 X-1.2259 Y0.4908
N16740 G3 X-1.2161 Y0.4943 I-0.0612 J0.1887
N16745 G2 X-1.2062 Y0.4978 I0.0555 J-0.1414
N16750 X-1.1134 Y0.512 I0.0927 J-0.294
N16755 X-1.0995 Y0.5118 I-0.0002 J-0.3683
N16760 G1 Z0.2 F10.
N16765 G0 X-0.9289 Y-1.2974
N16770 G1 Z-0.08 F10.
N16775 G3 X-0.7752 Y-1.1163 Z-0.093 I0.0768 J0.0905 F5.
N16780 X-0.9289 Y-1.2974 Z-0.1061 I-0.0768 J-0.0905
N16785 X-0.7752 Y-1.1163 Z-0.1191 I0.0768 J0.0905
N16790 X-0.9289 Y-1.2974 Z-0.1321 I-0.0768 J-0.0905
N16795 X-0.7752 Y-1.1163 Z-0.1451 I0.0768 J0.0905
N16800 X-0.9289 Y-1.2974 Z-0.1582 I-0.0768 J-0.0905
N16805 X-0.7752 Y-1.1163 Z-0.1712 I0.0768 J0.0905
N16810 X-0.9289 Y-1.2974 Z-0.1842 I-0.0768 J-0.0905
N16815 X-0.7752 Y-1.1163 Z-0.1972 I0.0768 J0.0905
N16820 X-0.9348 Y-1.2921 Z-0.21 I-0.0768 J-0.0905
N16825 X-0.7853 Y-1.1382 I0.0747 J0.0769
N16830 G2 X-0.7946 Y-1.1289 I0.2676 J0.2758
N16835 G3 X-0.8123 Y-1.1283 I-0.0092 J-0.0088
N16840 G2 X-0.8278 Y-1.142 I-0.4455 J0.4936
N16845 X-0.8439 Y-1.155 I-0.29 J0.3421
N16850 G3 X-0.8424 Y-1.1676 I0.0045 J-0.0058
N16855 G2 X-0.7794 Y-1.2053 I-0.1267 J-0.2832
N16860 G3 X-0.7691 Y-1.2002 I0.0039 J0.0051
N16865 G1 Y-1.1633
N16870 G3 X-0.7759 Y-1.1473 I-0.0221 J0.
N16875 G2 X-0.7853 Y-1.1382 I1.5616 J1.6281
N16880 G1 X-0.7868 Y-1.1371
N16885 X-0.7886 Y-1.1363
N16890 X-0.7904 Y-1.136
N16895 X-0.7923 Y-1.1361
N16900 X-1.2281 Y-1.2149
N16905 X-1.2299 Y-1.215
N16910 X-1.2316 Y-1.2147
N16915 G2 X-1.3157 Y-1.1832 I0.1419 J0.5065
N16920 G3 X-1.3259 Y-1.1905 I-0.0031 J-0.0065
N16925 X-1.3137 Y-1.2573 I0.4951 J0.0559
N16930 X-1.2836 Y-1.3181 I0.1576 J0.04
N16935 X-1.2628 Y-1.3417 I0.2279 J0.1803
N16940 X-1.2393 Y-1.3625 I0.1659 J0.1633
N16945 X-1.2245 Y-1.3587 I0.0059 J0.0076
N16950 G1 X-1.2216 Y-1.3513
N16955 X-1.2187 Y-1.3439
N16960 G2 X-1.1857 Y-1.2874 I0.242 J-0.1036
N16965 X-1.1401 Y-1.2404 I0.2221 J-0.1702
N16970 G3 X-1.1433 Y-1.2302 I-0.0036 J0.0045
N16975 G2 X-1.2316 Y-1.2147 I0.034 J0.4525
N16980 X-1.3095 Y-1.1192 I0.0288 J0.103
N16985 G3 X-1.3538 Y-1.0043 I-0.209 J-0.0147
N16990 G1 X-1.3586 Y-0.9979
N16995 X-1.364 Y-0.9903
N17000 G2 X-1.3722 Y-0.9772 I0.1226 J0.0864
N17005 G1 X-1.3769 Y-0.9689
N17010 G2 X-1.3829 Y-0.9569 I0.1308 J0.0733
N17015 G1 X-1.3869 Y-0.9479
N17020 G2 X-1.3912 Y-0.9373 I0.1369 J0.0613
N17025 G1 X-1.3946 Y-0.9278
N17030 X-1.3976 Y-0.9186
N17035 X-1.4005 Y-0.9086
N17040 X-1.4025 Y-0.9009
N17045 X-1.4049 Y-0.8905
N17050 X-1.4062 Y-0.8842
N17055 X-1.4082 Y-0.8735
N17060 X-1.409 Y-0.8684
N17065 X-1.4107 Y-0.8573
N17070 X-1.4112 Y-0.8534
N17075 X-1.4126 Y-0.8422
N17080 X-1.4129 Y-0.8393
N17085 X-1.4141 Y-0.8278
N17090 X-1.4143 Y-0.826
N17095 X-1.4154 Y-0.8144
N17100 X-1.4155 Y-0.8135
N17105 X-1.4164 Y-0.8018
N17110 G2 X-1.4114 Y-0.7484 I0.1495 J0.0127
N17115 G1 X-1.4058 Y-0.7287
N17120 X-1.4056 Y-0.7278
N17125 X-1.3999 Y-0.7081
N17130 X-1.3993 Y-0.7063
N17135 X-1.3935 Y-0.6868
N17140 X-1.3926 Y-0.6841
N17145 X-1.3864 Y-0.6649
N17150 X-1.3852 Y-0.6613
N17155 X-1.3785 Y-0.6424
N17160 X-1.3768 Y-0.6378
N17165 X-1.3697 Y-0.6193
N17170 X-1.3674 Y-0.6137
N17175 X-1.3596 Y-0.5958
N17180 X-1.3565 Y-0.5893
N17185 X-1.348 Y-0.5719
N17190 X-1.344 Y-0.5645
N17195 X-1.3346 Y-0.5478
N17200 X-1.3296 Y-0.5396
N17205 X-1.3192 Y-0.5236
N17210 G2 X-1.3131 Y-0.515 I0.1256 J-0.082
N17215 G1 X-1.3016 Y-0.4999
N17220 G2 X-1.2952 Y-0.492 I0.1195 J-0.0907
N17225 G1 X-1.2827 Y-0.4777
N17230 X-1.2763 Y-0.4708
N17235 X-1.2629 Y-0.4572
N17240 X-1.2567 Y-0.4514
N17245 X-1.2425 Y-0.4385
N17250 X-1.2367 Y-0.4336
N17255 X-1.2216 Y-0.4213
N17260 X-1.2164 Y-0.4172
N17265 X-1.2006 Y-0.4055
N17270 X-1.1959 Y-0.4021
N17275 X-1.1795 Y-0.3909
N17280 X-1.1753 Y-0.3882
N17285 X-1.1584 Y-0.3774
N17290 X-1.1549 Y-0.3752
N17295 X-1.1375 Y-0.3648
N17300 X-1.1345 Y-0.3631
N17305 X-1.1167 Y-0.353
N17310 X-1.1144 Y-0.3517
N17315 X-1.0963 Y-0.3418
N17320 X-1.0945 Y-0.3409
N17325 X-1.0762 Y-0.3312
N17330 X-1.075 Y-0.3306
N17335 X-1.0565 Y-0.321
N17340 X-1.0559 Y-0.3207
N17345 X-1.0373 Y-0.3112
N17350 G2 X-0.8191 Y-0.4448 I0.0682 J-0.1336
N17355 G1 Y-0.657
N17360 X-0.8186 Y-0.6715
N17365 Y-0.6722
N17370 X-0.8181 Y-0.6893
N17375 X-0.818 Y-0.6908
N17380 X-0.8177 Y-0.7077
N17385 Y-0.71
N17390 X-0.8176 Y-0.7267
N17395 Y-0.7299
N17400 X-0.8178 Y-0.7464
N17405 X-0.8179 Y-0.7504
N17410 X-0.8186 Y-0.7667
N17415 X-0.8189 Y-0.7715
N17420 X-0.8201 Y-0.7875
N17425 X-0.8206 Y-0.7935
N17430 X-0.8224 Y-0.8091
N17435 X-0.8234 Y-0.8161
N17440 X-0.8259 Y-0.8312
N17445 X-0.8274 Y-0.8395
N17450 X-0.8307 Y-0.8541
N17455 X-0.8318 Y-0.8588
N17460 X-0.8331 Y-0.8635
N17465 X-0.8372 Y-0.8776
N17470 G2 X-0.8407 Y-0.8883 I-0.144 J0.0419
N17475 G1 X-0.8458 Y-0.9017
N17480 G2 X-0.8507 Y-0.9134 I-0.1405 J0.0526
N17485 G1 X-0.8567 Y-0.9261
N17490 G2 X-0.8634 Y-0.9386 I-0.1355 J0.0642
N17495 G1 X-0.8705 Y-0.9506
N17500 G2 X-0.879 Y-0.9634 I-0.1289 J0.0767
N17505 G1 X-0.8874 Y-0.9746
N17510 G2 X-0.8974 Y-0.9867 I-0.1204 J0.0894
N17515 G1 X-0.907 Y-0.9971
N17520 G2 X-0.9169 Y-1.0069 I-0.1104 J0.1015
N17525 G1 X-0.9276 Y-1.0166
N17530 G2 X-0.9365 Y-1.024 I-0.1005 J0.1113
N17535 G1 X-0.9482 Y-1.0331
N17540 X-0.9559 Y-1.0387
N17545 X-0.9685 Y-1.0471
N17550 X-0.9749 Y-1.0512
N17555 X-0.9881 Y-1.0592
N17560 X-0.9932 Y-1.0621
N17565 X-1.007 Y-1.0697
N17570 X-1.0107 Y-1.0717
N17575 X-1.025 Y-1.0791
N17580 X-1.0274 Y-1.0803
N17585 X-1.0419 Y-1.0874
N17590 X-1.0432 Y-1.0881
N17595 X-1.0579 Y-1.0951
N17600 G2 X-1.1541 Y-1.1067 I-0.0651 J0.1351
N17605 G1 X-1.1654 Y-1.1043
N17610 X-1.1665 Y-1.1041
N17615 X-1.1776 Y-1.1016
N17620 X-1.1798 Y-1.1011
N17625 X-1.1909 Y-1.0985
N17630 X-1.1941 Y-1.0977
N17635 X-1.2049 Y-1.0949
N17640 X-1.2095 Y-1.0936
N17645 X-1.22 Y-1.0905
N17650 X-1.2259 Y-1.0887
N17655 X-1.236 Y-1.0852
N17660 X-1.2433 Y-1.0825
N17665 X-1.2529 Y-1.0787
N17670 X-1.2618 Y-1.0748
N17675 X-1.2709 Y-1.0705
N17680 G2 X-1.2812 Y-1.0651 I0.0644 J0.1355
N17685 G1 X-1.2897 Y-1.0602
N17690 G2 X-1.3014 Y-1.0527 I0.0747 J0.1301
N17695 G1 X-1.3092 Y-1.0472
N17700 G2 X-1.3219 Y-1.0372 I0.0864 J0.1226
N17705 G1 X-1.3289 Y-1.031
N17710 G2 X-1.3416 Y-1.0184 I0.0991 J0.1126
N17715 G1 X-1.3478 Y-1.0115
N17720 X-1.3538 Y-1.0043
N17725 G3 X-1.37 Y-0.9975 I-0.0143 J-0.0112
N17730 G1 X-1.3913 Y-0.9998
N17735 G2 X-1.411 Y-0.9855 I-0.0019 J0.018
N17740 X-1.4225 Y-0.803 I0.621 J0.1309
N17745 X-1.3833 Y-0.6245 I0.6765 J-0.0551
N17750 G1 X-1.3826 Y-0.6115
N17755 X-1.3829 Y-0.61
N17760 X-1.3836 Y-0.6088
N17765 X-1.3848 Y-0.608
N17770 X-1.3863 Y-0.6077
N17775 X-1.3877 Y-0.6079
N17780 X-1.3889 Y-0.6087
N17785 X-1.3897 Y-0.6099
N17790 X-1.3899 Y-0.6104
N17795 X-1.3981 Y-0.6342
N17800 X-1.4056 Y-0.6597
N17805 X-1.4123 Y-0.6868
N17810 X-1.4185 Y-0.7155
N17815 X-1.4241 Y-0.7455
N17820 X-1.4292 Y-0.7768
N17825 X-1.4339 Y-0.8092
N17830 X-1.4385 Y-0.8426
N17835 X-1.4423 Y-0.872
N17840 X-1.4448 Y-0.9111
N17845 X-1.4474 Y-0.9543
N17850 X-1.4496 Y-0.9966
N17855 X-1.4511 Y-1.0379
N17860 X-1.4518 Y-1.0779
N17865 X-1.4516 Y-1.1165
N17870 X-1.4503 Y-1.1535
N17875 X-1.4479 Y-1.1888
N17880 X-1.4441 Y-1.2221
N17885 X-1.439 Y-1.2533
N17890 X-1.4326 Y-1.2823
N17895 X-1.4248 Y-1.3089
N17900 X-1.4157 Y-1.3333
N17905 X-1.4053 Y-1.3554
N17910 X-1.3936 Y-1.3755
N17915 X-1.38 Y-1.3944
N17920 X-1.3637 Y-1.4132
N17925 X-1.3439 Y-1.4326
N17930 X-1.3207 Y-1.4525
N17935 X-1.2944 Y-1.4729
N17940 X-1.2653 Y-1.4935
N17945 X-1.2338 Y-1.5146
N17950 X-1.2174 Y-1.5251
N17955 X-1.2066 Y-1.5221
N17960 X-1.1966 Y-1.5189
N17965 X-1.1881 Y-1.5158
N17970 X-1.1813 Y-1.513
N17975 X-1.176 Y-1.5104
N17980 X-1.1724 Y-1.5083
N17985 X-1.17 Y-1.5066
N17990 X-1.1679 Y-1.5049
N17995 X-1.1652 Y-1.5023
N18000 X-1.1618 Y-1.4985
N18005 X-1.1578 Y-1.4934
N18010 X-1.1533 Y-1.487
N18015 X-1.1484 Y-1.4792
N18020 X-1.1432 Y-1.47
N18025 X-1.1377 Y-1.4596
N18030 X-1.1319 Y-1.448
N18035 X-1.126 Y-1.4353
N18040 X-1.1199 Y-1.4216
N18045 X-1.1136 Y-1.407
N18050 X-1.107 Y-1.3917
N18055 G2 X-0.8349 Y-1.3838 I0.1379 J-0.059
N18060 G1 X-0.827 Y-1.3997
N18065 X-0.8194 Y-1.4147
N18070 X-0.812 Y-1.4289
N18075 X-0.8049 Y-1.442
N18080 X-0.7981 Y-1.4541
N18085 X-0.7915 Y-1.465
N18090 X-0.7852 Y-1.4746
N18095 X-0.7793 Y-1.4828
N18100 X-0.7738 Y-1.4897
N18105 X-0.769 Y-1.4952
N18110 X-0.7647 Y-1.4994
N18115 X-0.7611 Y-1.5024
N18120 X-0.7579 Y-1.5048
N18125 X-0.7539 Y-1.5072
N18130 X-0.7485 Y-1.5099
N18135 X-0.7416 Y-1.5129
N18140 X-0.7331 Y-1.5161
N18145 X-0.7231 Y-1.5192
N18150 X-0.7116 Y-1.5223
N18155 X-0.6987 Y-1.5254
N18160 X-0.6846 Y-1.5284
N18165 X-0.6694 Y-1.5313
N18170 X-0.6552 Y-1.5339
N18175 X-0.6497 Y-1.5334
N18180 X-0.6423 Y-1.5326
