%
(BRANDON4)
(T1  D=0.25 CR=0. - ZMIN=-0.29 - FLAT END MILL)
N10 G90 G94 G17 G91.1
N15 G20
N20 G53 G0 Z0.
(2D POCKET4)
N25 M9
N30 T1 M6
N35 S2000 M3
N40 G54
N45 M8
N50 G0 X0.5347 Y0.5764
N55 G43 Z0.6 H1
N60 G0 Z0.2
N65 G1 Z0.125 F10.
N70 X0.5336 Y0.5766 Z0.1174 F5.
N75 X0.5302 Y0.5771 Z0.1106
N80 X0.5249 Y0.5777 Z0.1051
N85 X0.5182 Y0.5781 Z0.1014
N90 X0.5107 Z0.1
N95 G3 X0.5178 Y0.3407 Z0.087 I0.0036 J-0.1187
N100 X0.5107 Y0.5781 Z0.0739 I-0.0036 J0.1187
N105 X0.5178 Y0.3407 Z0.0609 I0.0036 J-0.1187
N110 X0.5107 Y0.5781 Z0.0479 I-0.0036 J0.1187
N115 X0.5178 Y0.3407 Z0.0349 I0.0036 J-0.1187
N120 X0.5107 Y0.5781 Z0.0218 I-0.0036 J0.1187
N125 X0.5178 Y0.3407 Z0.0088 I0.0036 J-0.1187
N130 X0.5107 Y0.5781 Z-0.0042 I-0.0036 J0.1187
N135 X0.5178 Y0.3407 Z-0.0172 I0.0036 J-0.1187
N140 X0.5107 Y0.5781 Z-0.0303 I-0.0036 J0.1187
N145 X0.5178 Y0.3407 Z-0.0433 I0.0036 J-0.1187
N150 X0.5107 Y0.5781 Z-0.0563 I-0.0036 J0.1187
N155 X0.5178 Y0.3407 Z-0.0694 I0.0036 J-0.1187
N160 X0.5107 Y0.5781 Z-0.0824 I-0.0036 J0.1187
N165 X0.5178 Y0.3407 Z-0.0954 I0.0036 J-0.1187
N170 X0.6219 Y0.4093 Z-0.1 I-0.0036 J0.1187
N175 X0.5653 Y0.5645 I-0.1059 J0.0492
N180 X0.4102 Y0.5078 I-0.0492 J-0.1059
N185 X0.4051 Y0.4968 I2.3654 J-1.0999
N190 G2 X0.3971 Y0.4804 I-0.4051 J0.1861
N195 G3 X0.3894 Y0.4639 I0.2509 J-0.1279
N200 X0.3964 Y0.4489 I0.0102 J-0.0044
N205 G2 X0.4542 Y0.4247 I-0.0861 J-0.2864
N210 X0.508 Y0.3924 I-0.4019 J-0.7318
N215 G3 X0.5189 Y0.3983 I0.0038 J0.0059
N220 X0.5181 Y0.4596 I-1.691 J0.01
N225 X0.5133 Y0.5206 I-0.6306 J-0.0191
N230 G2 X0.5121 Y0.5311 I0.3699 J0.0474
N235 G3 X0.5105 Y0.5414 I-0.1033 J-0.0103
N240 X0.4911 Y0.5684 I-0.0395 J-0.008
N245 G1 X0.4867 Y0.5708
N250 G3 X0.4378 Y0.5589 I-0.0175 J-0.0344
N255 X0.42 Y0.5286 I0.1603 J-0.115
N260 X0.4102 Y0.5078 I2.3556 J-1.1207
N265 G1 X0.4088 Y0.5042 Z-0.0994 F10.
N270 X0.408 Y0.5004 Z-0.0988
N275 X0.4078 Y0.497 Z-0.097
N280 X0.4081 Y0.4935 Z-0.0952
N285 X0.4086 Y0.4908 Z-0.0925
N290 X0.4095 Y0.4882 Z-0.0897
N295 X0.411 Y0.4849 Z-0.0827
N300 X0.4116 Y0.4839 Z-0.075
N305 Z0.2
N310 G0 X0.6234 Y-1.0887
N315 G1 Z0.125 F10.
N320 X0.6223 Y-1.089 Z0.1174 F5.
N325 X0.619 Y-1.0899 Z0.1106
N330 X0.614 Y-1.0916 Z0.1051
N335 X0.6077 Y-1.0941 Z0.1014
N340 X0.6009 Y-1.0972 Z0.1
N345 G3 X0.7074 Y-1.3095 Z0.087 I0.0533 J-0.1061
N350 X0.6009 Y-1.0972 Z0.0739 I-0.0533 J0.1061
N355 X0.7074 Y-1.3095 Z0.0609 I0.0533 J-0.1061
N360 X0.6009 Y-1.0972 Z0.0479 I-0.0533 J0.1061
N365 X0.7074 Y-1.3095 Z0.0349 I0.0533 J-0.1061
N370 X0.6009 Y-1.0972 Z0.0218 I-0.0533 J0.1061
N375 X0.7074 Y-1.3095 Z0.0088 I0.0533 J-0.1061
N380 X0.6009 Y-1.0972 Z-0.0042 I-0.0533 J0.1061
N385 X0.7074 Y-1.3095 Z-0.0172 I0.0533 J-0.1061
N390 X0.6009 Y-1.0972 Z-0.0303 I-0.0533 J0.1061
N395 X0.7074 Y-1.3095 Z-0.0433 I0.0533 J-0.1061
N400 X0.6009 Y-1.0972 Z-0.0563 I-0.0533 J0.1061
N405 X0.7074 Y-1.3095 Z-0.0694 I0.0533 J-0.1061
N410 X0.6009 Y-1.0972 Z-0.0824 I-0.0533 J0.1061
N415 X0.7074 Y-1.3095 Z-0.0954 I0.0533 J-0.1061
N420 X0.7729 Y-1.2034 Z-0.1 I-0.0533 J0.1061
N425 X0.5798 I-0.0966 J0.
N430 G1 Y-1.3929
N435 G3 X0.5925 Y-1.4057 I0.0128 J0.
N440 G1 X0.6626
N445 G3 X0.6753 Y-1.3929 I0. J0.0128
N450 G1 Y-1.1912
N455 G3 X0.6619 Y-1.1682 I-0.0264 J0.
N460 G2 X0.6186 Y-1.1371 I0.1219 J0.2156
N465 G3 X0.5999 I-0.0093 J-0.0104
N470 G2 X0.5883 Y-1.1468 I-0.1652 J0.1844
N475 G3 X0.5798 Y-1.1646 I0.014 J-0.0177
N480 G1 Y-1.2034
N485 X0.5801 Y-1.2072 Z-0.0994 F10.
N490 X0.5809 Y-1.211 Z-0.0988
N495 X0.5822 Y-1.2142 Z-0.097
N500 X0.584 Y-1.2172 Z-0.0952
N505 X0.5856 Y-1.2194 Z-0.0925
N510 X0.5875 Y-1.2215 Z-0.0897
N515 X0.5902 Y-1.2237 Z-0.0827
N520 X0.5913 Y-1.2244 Z-0.075
N525 Z0.2
N530 G0 X-0.048 Y-1.0839
N535 G1 Z0.125 F10.
N540 X-0.0491 Y-1.0843 Z0.1174 F5.
N545 X-0.0524 Y-1.0852 Z0.1106
N550 X-0.0574 Y-1.0869 Z0.1051
N555 X-0.0637 Y-1.0894 Z0.1014
N560 X-0.0705 Y-1.0925 Z0.1
N565 G3 X0.036 Y-1.3048 Z0.087 I0.0533 J-0.1061
N570 X-0.0705 Y-1.0925 Z0.0739 I-0.0533 J0.1061
N575 X0.036 Y-1.3048 Z0.0609 I0.0533 J-0.1061
N580 X-0.0705 Y-1.0925 Z0.0479 I-0.0533 J0.1061
N585 X0.036 Y-1.3048 Z0.0349 I0.0533 J-0.1061
N590 X-0.0705 Y-1.0925 Z0.0218 I-0.0533 J0.1061
N595 X0.036 Y-1.3048 Z0.0088 I0.0533 J-0.1061
N600 X-0.0705 Y-1.0925 Z-0.0042 I-0.0533 J0.1061
N605 X0.036 Y-1.3048 Z-0.0172 I0.0533 J-0.1061
N610 X-0.0705 Y-1.0925 Z-0.0303 I-0.0533 J0.1061
N615 X0.036 Y-1.3048 Z-0.0433 I0.0533 J-0.1061
N620 X-0.0705 Y-1.0925 Z-0.0563 I-0.0533 J0.1061
N625 X0.036 Y-1.3048 Z-0.0694 I0.0533 J-0.1061
N630 X-0.0705 Y-1.0925 Z-0.0824 I-0.0533 J0.1061
N635 X0.036 Y-1.3048 Z-0.0954 I0.0533 J-0.1061
N640 X0.1015 Y-1.1986 Z-0.1 I-0.0533 J0.1061
N645 X-0.0916 I-0.0966 J0.
N650 G1 Y-1.3929
N655 G3 X-0.0788 Y-1.4057 I0.0128 J0.
N660 G1 X-0.0088
N665 G3 X0.0039 Y-1.3929 I0. J0.0128
N670 G1 Y-1.1843
N675 G3 X-0.0095 Y-1.1592 I-0.03 J0.
N680 G2 X-0.0321 Y-1.1424 I0.1366 J0.2066
N685 G3 X-0.0483 I-0.0081 J-0.0097
N690 G2 X-0.0806 Y-1.1654 I-0.1591 J0.1897
N695 G3 X-0.0916 Y-1.1847 I0.0116 J-0.0194
N700 G1 Y-1.1985
N705 Y-1.1986
N710 G2 X-0.1404 Y-1.2719 I-0.0793 J0.
N715 G3 X-0.1892 Y-1.3451 I0.0305 J-0.0732
N720 G1 Y-1.5033
N725 X0.1016
N730 Y-1.1005
N735 G2 X-0.0229 Y-0.9527 I0.0255 J0.1478
N740 G1 Y-0.264
N745 X-0.0242 Y-0.2442
N750 Y-0.2436
N755 X-0.0256 Y-0.2192
N760 X-0.0257 Y-0.2178
N765 X-0.0269 Y-0.1936
N770 X-0.027 Y-0.1915
N775 X-0.0278 Y-0.1675
N780 X-0.0279 Y-0.1647
N785 X-0.0283 Y-0.1409
N790 Y-0.1373
N795 X-0.0281 Y-0.1139
N800 X-0.028 Y-0.1094
N805 X-0.0272 Y-0.0863
N810 X-0.0269 Y-0.081
N815 X-0.0252 Y-0.0584
N820 X-0.0246 Y-0.052
N825 X-0.0221 Y-0.0299
N830 X-0.021 Y-0.0226
N835 X-0.0175 Y-0.0011
N840 X-0.0158 Y0.0074
N845 X-0.0111 Y0.0282
N850 G2 X-0.0086 Y0.0378 I0.1463 J-0.0331
N855 G1 X-0.0026 Y0.0579
N860 G2 X0.001 Y0.0684 I0.1438 J-0.0427
N865 G1 X0.0083 Y0.0877
N870 G2 X0.0131 Y0.0991 I0.1402 J-0.0532
N875 G1 X0.0219 Y0.1176
N880 G2 X0.0283 Y0.1295 I0.1354 J-0.0646
N885 G1 X0.0387 Y0.147
N890 G2 X0.0466 Y0.159 I0.1291 J-0.0765
N895 G1 X0.0587 Y0.1756
N900 G2 X0.0675 Y0.1865 I0.1211 J-0.0885
N905 G1 X0.0812 Y0.2021
N910 G2 X0.0895 Y0.2107 I0.1124 J-0.0993
N915 G1 X0.1047 Y0.2254
N920 X0.1083 Y0.2288
N925 X0.112 Y0.232
N930 X0.1286 Y0.246
N935 X0.1347 Y0.2509
N940 X0.1523 Y0.2643
N945 X0.1572 Y0.2678
N950 X0.1756 Y0.2807
N955 X0.1792 Y0.2832
N960 X0.1984 Y0.2957
N965 X0.2008 Y0.2973
N970 X0.2203 Y0.3096
N975 X0.2215 Y0.3103
N980 X0.2412 Y0.3225
N985 G2 X0.3914 Y0.3267 I0.0787 J-0.1277
N990 G1 X0.4025 Y0.3207
N995 X0.4037 Y0.32
N1000 X0.4147 Y0.3139
N1005 X0.4171 Y0.3126
N1010 X0.4278 Y0.3064
N1015 X0.4315 Y0.3041
N1020 X0.4419 Y0.2977
N1025 X0.4469 Y0.2945
N1030 X0.4569 Y0.2878
N1035 X0.4632 Y0.2833
N1040 X0.4725 Y0.2763
N1045 X0.4801 Y0.2702
N1050 X0.4888 Y0.2628
N1055 G2 X0.4975 Y0.2547 I-0.0976 J-0.1139
N1060 G1 X0.5054 Y0.2468
N1065 G2 X0.5148 Y0.2364 I-0.1063 J-0.1059
N1070 G1 X0.5218 Y0.2279
N1075 G2 X0.5309 Y0.2156 I-0.1157 J-0.0955
N1080 G1 X0.537 Y0.2065
N1085 G2 X0.5444 Y0.1941 I-0.1248 J-0.0833
N1090 G1 X0.5496 Y0.1845
N1095 G2 X0.5554 Y0.1725 I-0.1322 J-0.0709
N1100 G1 X0.5597 Y0.1624
N1105 G2 X0.564 Y0.1512 I-0.1379 J-0.0589
N1110 G1 X0.5675 Y0.1405
N1115 G2 X0.5705 Y0.1304 I-0.1422 J-0.0477
N1120 G1 X0.5734 Y0.1193
N1125 X0.5754 Y0.1103
N1130 X0.5777 Y0.0988
N1135 X0.579 Y0.091
N1140 X0.5806 Y0.0791
N1145 X0.5814 Y0.0724
N1150 X0.5826 Y0.0602
N1155 X0.583 Y0.0546
N1160 X0.5837 Y0.0421
N1165 X0.5839 Y0.0374
N1170 X0.5842 Y0.0247
N1175 Y0.021
N1180 Y0.0081
N1185 Y0.0051
N1190 X0.5839 Y-0.0079
N1195 X0.5838 Y-0.0101
N1200 X0.5834 Y-0.0232
N1205 X0.5833 Y-0.0246
N1210 X0.5827 Y-0.0379
N1215 Y-0.0386
N1220 X0.5823 Y-0.0465
N1225 X0.5846 Y-0.151
N1230 X0.5847 Y-0.1543
N1235 Y-0.9527
N1240 G2 X0.4821 Y-1.095 I-0.15 J0.
N1245 G1 Y-1.5033
N1250 X0.773
N1255 Y-1.1023
N1260 G2 X0.6338 Y-0.9527 I0.0108 J0.1496
N1265 G1 Y0.3462
N1270 Y0.3478
N1275 X0.6341 Y0.3781
N1280 X0.6343 Y0.4075
N1285 X0.6342 Y0.4358
N1290 X0.6336 Y0.463
N1295 X0.6325 Y0.4887
N1300 X0.6308 Y0.513
N1305 X0.6284 Y0.5354
N1310 X0.6254 Y0.5559
N1315 X0.6216 Y0.5742
N1320 X0.6174 Y0.5901
N1325 X0.6127 Y0.6037
N1330 X0.6078 Y0.6148
N1335 X0.6028 Y0.6238
N1340 X0.5978 Y0.631
N1345 X0.592 Y0.6375
N1350 X0.5843 Y0.6447
N1355 X0.5736 Y0.6529
N1360 X0.56 Y0.6618
N1365 X0.5436 Y0.6713
N1370 X0.5245 Y0.681
N1375 X0.503 Y0.6909
N1380 X0.4796 Y0.701
N1385 X0.4755 Y0.7027
N1390 X0.4647 Y0.6994
N1395 X0.4471 Y0.6936
N1400 X0.431 Y0.6878
N1405 X0.4164 Y0.6819
N1410 X0.4036 Y0.6761
N1415 X0.3925 Y0.6704
N1420 X0.3831 Y0.6648
N1425 X0.3753 Y0.6594
N1430 X0.3685 Y0.6538
N1435 X0.3615 Y0.6472
N1440 X0.3544 Y0.6394
N1445 X0.3469 Y0.6301
N1450 X0.3392 Y0.6194
N1455 X0.3314 Y0.6073
N1460 X0.3234 Y0.5937
N1465 X0.3154 Y0.5789
N1470 X0.3073 Y0.5627
N1475 X0.2992 Y0.5455
N1480 X0.291 Y0.5272
N1485 X0.2827 Y0.5079
N1490 X0.2743 Y0.4878
N1495 X0.2656 Y0.467
N1500 G2 X-0.0229 Y0.5244 I-0.1386 J0.0574
N1505 G1 Y0.6771
N1510 X-0.1892
N1515 Y0.3095
N1520 G2 X-0.0574 Y0.1606 I-0.0182 J-0.1489
N1525 G1 Y-0.9527
N1530 G2 X-0.1892 Y-1.1016 I-0.15 J0.
N1535 G1 Y-1.3451
N1540 G3 X-0.1748 Y-1.3514 I0.0086 J0.
N1545 G1 X-0.1466 Y-1.3254
N1550 X0.0275 Y-1.1217
N1555 X0.0458 Y-1.1056
N1560 X0.0468 Y-1.1044
N1565 X0.0474 Y-1.103
N1570 X0.0475 Y-1.1014
N1575 X0.0471 Y-1.0999
N1580 X0.0463 Y-1.0986
N1585 X0.0451 Y-1.0976
N1590 G3 X-0.0796 Y-1.2997 Z-0.113 I-0.0624 J-0.1011
N1595 X0.0451 Y-1.0976 Z-0.1261 I0.0624 J0.1011
N1600 X-0.0796 Y-1.2997 Z-0.1391 I-0.0624 J-0.1011
N1605 X0.0451 Y-1.0976 Z-0.1521 I0.0624 J0.1011
N1610 X-0.0796 Y-1.2997 Z-0.1651 I-0.0624 J-0.1011
N1615 X0.0451 Y-1.0976 Z-0.1782 I0.0624 J0.1011
N1620 X-0.0796 Y-1.2997 Z-0.1912 I-0.0624 J-0.1011
N1625 X0.1015 Y-1.1986 Z-0.2 I0.0624 J0.1011
N1630 X-0.0916 I-0.0966 J0.
N1635 G1 Y-1.3929
N1640 G3 X-0.0788 Y-1.4057 I0.0128 J0.
N1645 G1 X-0.0088
N1650 G3 X0.0039 Y-1.3929 I0. J0.0128
N1655 G1 Y-1.1843
N1660 G3 X-0.0095 Y-1.1592 I-0.03 J0.
N1665 G2 X-0.0321 Y-1.1424 I0.1366 J0.2066
N1670 G3 X-0.0483 I-0.0081 J-0.0097
N1675 G2 X-0.0806 Y-1.1654 I-0.1591 J0.1897
N1680 G3 X-0.0916 Y-1.1847 I0.0116 J-0.0194
N1685 G1 Y-1.1986
N1690 X-0.0913 Y-1.2025 Z-0.1994 F10.
N1695 X-0.0904 Y-1.2062 Z-0.1988
N1700 X-0.0892 Y-1.2095 Z-0.197
N1705 X-0.0874 Y-1.2125 Z-0.1952
N1710 X-0.0858 Y-1.2147 Z-0.1925
N1715 X-0.0839 Y-1.2167 Z-0.1897
N1720 X-0.0811 Y-1.219 Z-0.1827
N1725 X-0.0801 Y-1.2197 Z-0.175
N1730 Z0.2
N1735 G0 X0.6234 Y-1.0887
N1740 G1 Z0.025 F10.
N1745 X0.6223 Y-1.089 Z0.0174 F5.
N1750 X0.619 Y-1.0899 Z0.0106
N1755 X0.614 Y-1.0916 Z0.0051
N1760 X0.6077 Y-1.0941 Z0.0014
N1765 X0.6009 Y-1.0972 Z0.
N1770 G3 X0.7074 Y-1.3095 Z-0.013 I0.0533 J-0.1061
N1775 X0.6009 Y-1.0972 Z-0.0261 I-0.0533 J0.1061
N1780 X0.7074 Y-1.3095 Z-0.0391 I0.0533 J-0.1061
N1785 X0.6009 Y-1.0972 Z-0.0521 I-0.0533 J0.1061
N1790 X0.7074 Y-1.3095 Z-0.0651 I0.0533 J-0.1061
N1795 X0.6009 Y-1.0972 Z-0.0782 I-0.0533 J0.1061
N1800 X0.7074 Y-1.3095 Z-0.0912 I0.0533 J-0.1061
N1805 X0.6009 Y-1.0972 Z-0.1042 I-0.0533 J0.1061
N1810 X0.7074 Y-1.3095 Z-0.1172 I0.0533 J-0.1061
N1815 X0.6009 Y-1.0972 Z-0.1303 I-0.0533 J0.1061
N1820 X0.7074 Y-1.3095 Z-0.1433 I0.0533 J-0.1061
N1825 X0.6009 Y-1.0972 Z-0.1563 I-0.0533 J0.1061
N1830 X0.7074 Y-1.3095 Z-0.1694 I0.0533 J-0.1061
N1835 X0.6009 Y-1.0972 Z-0.1824 I-0.0533 J0.1061
N1840 X0.7074 Y-1.3095 Z-0.1954 I0.0533 J-0.1061
N1845 X0.7729 Y-1.2034 Z-0.2 I-0.0533 J0.1061
N1850 X0.5798 I-0.0966 J0.
N1855 G1 Y-1.3929
N1860 G3 X0.5925 Y-1.4057 I0.0128 J0.
N1865 G1 X0.6626
N1870 G3 X0.6753 Y-1.3929 I0. J0.0128
N1875 G1 Y-1.1912
N1880 G3 X0.6619 Y-1.1682 I-0.0264 J0.
N1885 G2 X0.6186 Y-1.1371 I0.1219 J0.2156
N1890 G3 X0.5999 I-0.0093 J-0.0104
N1895 G2 X0.5883 Y-1.1468 I-0.1652 J0.1844
N1900 G3 X0.5798 Y-1.1646 I0.014 J-0.0177
N1905 G1 Y-1.2034
N1910 X0.5801 Y-1.2072 Z-0.1994 F10.
N1915 X0.5809 Y-1.211 Z-0.1988
N1920 X0.5822 Y-1.2142 Z-0.197
N1925 X0.584 Y-1.2172 Z-0.1952
N1930 X0.5856 Y-1.2194 Z-0.1925
N1935 X0.5875 Y-1.2215 Z-0.1897
N1940 X0.5902 Y-1.2237 Z-0.1827
N1945 X0.5913 Y-1.2244 Z-0.175
N1950 Z0.2
N1955 G0 X0.5347 Y0.5764
N1960 G1 Z0.025 F10.
N1965 X0.5336 Y0.5766 Z0.0174 F5.
N1970 X0.5302 Y0.5771 Z0.0106
N1975 X0.525 Y0.5777 Z0.0051
N1980 X0.5182 Y0.5781 Z0.0014
N1985 X0.5107 Z0.
N1990 G3 X0.5178 Y0.3408 Z-0.013 I0.0036 J-0.1187
N1995 X0.5107 Y0.5781 Z-0.0261 I-0.0036 J0.1187
N2000 X0.5178 Y0.3408 Z-0.0391 I0.0036 J-0.1187
N2005 X0.5107 Y0.5781 Z-0.0521 I-0.0036 J0.1187
N2010 X0.5178 Y0.3408 Z-0.0651 I0.0036 J-0.1187
N2015 X0.5107 Y0.5781 Z-0.0782 I-0.0036 J0.1187
N2020 X0.5178 Y0.3408 Z-0.0912 I0.0036 J-0.1187
N2025 X0.5107 Y0.5781 Z-0.1042 I-0.0036 J0.1187
N2030 X0.5178 Y0.3408 Z-0.1172 I0.0036 J-0.1187
N2035 X0.5107 Y0.5781 Z-0.1303 I-0.0036 J0.1187
N2040 X0.5178 Y0.3408 Z-0.1433 I0.0036 J-0.1187
N2045 X0.5107 Y0.5781 Z-0.1563 I-0.0036 J0.1187
N2050 X0.5178 Y0.3408 Z-0.1694 I0.0036 J-0.1187
N2055 X0.5107 Y0.5781 Z-0.1824 I-0.0036 J0.1187
N2060 X0.5178 Y0.3408 Z-0.1954 I0.0036 J-0.1187
N2065 X0.622 Y0.4094 Z-0.2 I-0.0036 J0.1187
N2070 X0.4102 Y0.5079 I-0.1059 J0.0492
N2075 X0.4051 Y0.4968 I2.3654 J-1.0999
N2080 G2 X0.3971 Y0.4804 I-0.4051 J0.1861
N2085 G3 X0.3894 Y0.4639 I0.2509 J-0.1279
N2090 X0.3964 Y0.4489 I0.0102 J-0.0044
N2095 G2 X0.4542 Y0.4247 I-0.0861 J-0.2864
N2100 X0.508 Y0.3924 I-0.4019 J-0.7318
N2105 G3 X0.5189 Y0.3983 I0.0038 J0.0059
N2110 X0.5181 Y0.4596 I-1.691 J0.01
N2115 X0.5133 Y0.5206 I-0.6306 J-0.0191
N2120 G2 X0.5121 Y0.5311 I0.3699 J0.0474
N2125 G3 X0.5105 Y0.5414 I-0.1033 J-0.0103
N2130 X0.4911 Y0.5684 I-0.0395 J-0.008
N2135 G1 X0.4867 Y0.5708
N2140 G3 X0.4378 Y0.5589 I-0.0175 J-0.0344
N2145 X0.42 Y0.5286 I0.1603 J-0.115
N2150 X0.4102 Y0.5079 I2.3556 J-1.1207
N2155 G2 X0.321 Y0.446 I-0.0974 J0.0453
N2160 G3 X0.2199 Y0.4066 I0.0143 J-0.1859
N2165 G2 X-0.0229 Y0.5244 I-0.0928 J0.1178
N2170 G1 Y0.6771
N2175 X-0.1892
N2180 Y0.3095
N2185 G2 X-0.0574 Y0.1606 I-0.0182 J-0.1489
N2190 G1 Y-0.9527
N2195 G2 X-0.1892 Y-1.1016 I-0.15 J0.
N2200 G1 Y-1.5033
N2205 X0.1016
N2210 Y-1.1005
N2215 G2 X-0.0229 Y-0.9527 I0.0255 J0.1478
N2220 G1 Y-0.264
N2225 X-0.0242 Y-0.2442
N2230 Y-0.2436
N2235 X-0.0256 Y-0.2192
N2240 X-0.0257 Y-0.2178
N2245 X-0.0269 Y-0.1936
N2250 X-0.027 Y-0.1915
N2255 X-0.0278 Y-0.1675
N2260 X-0.0279 Y-0.1647
N2265 X-0.0283 Y-0.1409
N2270 Y-0.1373
N2275 X-0.0281 Y-0.1139
N2280 X-0.028 Y-0.1094
N2285 X-0.0272 Y-0.0863
N2290 X-0.0269 Y-0.081
N2295 X-0.0252 Y-0.0584
N2300 X-0.0246 Y-0.052
N2305 X-0.0221 Y-0.0299
N2310 X-0.021 Y-0.0226
N2315 X-0.0175 Y-0.0011
N2320 X-0.0158 Y0.0074
N2325 X-0.0111 Y0.0282
N2330 G2 X-0.0086 Y0.0378 I0.1463 J-0.0331
N2335 G1 X-0.0026 Y0.0579
N2340 G2 X0.001 Y0.0684 I0.1438 J-0.0427
N2345 G1 X0.0083 Y0.0877
N2350 G2 X0.0131 Y0.0991 I0.1402 J-0.0532
N2355 G1 X0.0219 Y0.1176
N2360 G2 X0.0283 Y0.1295 I0.1354 J-0.0646
N2365 G1 X0.0387 Y0.147
N2370 G2 X0.0466 Y0.159 I0.1291 J-0.0765
N2375 G1 X0.0587 Y0.1756
N2380 G2 X0.0675 Y0.1865 I0.1211 J-0.0885
N2385 G1 X0.0812 Y0.2021
N2390 G2 X0.0895 Y0.2107 I0.1124 J-0.0993
N2395 G1 X0.1047 Y0.2254
N2400 X0.1083 Y0.2288
N2405 X0.112 Y0.232
N2410 X0.1286 Y0.246
N2415 X0.1347 Y0.2509
N2420 X0.1523 Y0.2643
N2425 X0.1572 Y0.2678
N2430 X0.1756 Y0.2807
N2435 X0.1792 Y0.2832
N2440 X0.1984 Y0.2957
N2445 X0.2008 Y0.2973
N2450 X0.2203 Y0.3096
N2455 X0.2215 Y0.3103
N2460 X0.2412 Y0.3225
N2465 G2 X0.3914 Y0.3267 I0.0787 J-0.1277
N2470 G1 X0.4025 Y0.3207
N2475 X0.4037 Y0.32
N2480 X0.4147 Y0.3139
N2485 X0.4171 Y0.3126
N2490 X0.4278 Y0.3064
N2495 X0.4315 Y0.3041
N2500 X0.4419 Y0.2977
N2505 X0.4469 Y0.2945
N2510 X0.4569 Y0.2878
N2515 X0.4632 Y0.2833
N2520 X0.4725 Y0.2763
N2525 X0.4801 Y0.2702
N2530 X0.4888 Y0.2628
N2535 G2 X0.4975 Y0.2547 I-0.0976 J-0.1139
N2540 G1 X0.5054 Y0.2468
N2545 G2 X0.5148 Y0.2364 I-0.1063 J-0.1059
N2550 G1 X0.5218 Y0.2279
N2555 G2 X0.5309 Y0.2156 I-0.1157 J-0.0955
N2560 G1 X0.537 Y0.2065
N2565 G2 X0.5444 Y0.1941 I-0.1248 J-0.0833
N2570 G1 X0.5496 Y0.1845
N2575 G2 X0.5554 Y0.1725 I-0.1322 J-0.0709
N2580 G1 X0.5597 Y0.1624
N2585 G2 X0.564 Y0.1512 I-0.1379 J-0.0589
N2590 G1 X0.5675 Y0.1405
N2595 G2 X0.5705 Y0.1304 I-0.1422 J-0.0477
N2600 G1 X0.5734 Y0.1193
N2605 X0.5754 Y0.1103
N2610 X0.5777 Y0.0988
N2615 X0.579 Y0.091
N2620 X0.5806 Y0.0791
N2625 X0.5814 Y0.0724
N2630 X0.5826 Y0.0602
N2635 X0.583 Y0.0546
N2640 X0.5837 Y0.0421
N2645 X0.5839 Y0.0374
N2650 X0.5842 Y0.0247
N2655 Y0.021
N2660 Y0.0081
N2665 Y0.0051
N2670 X0.5839 Y-0.0079
N2675 X0.5838 Y-0.0101
N2680 X0.5834 Y-0.0232
N2685 X0.5833 Y-0.0246
N2690 X0.5827 Y-0.0379
N2695 Y-0.0386
N2700 X0.5823 Y-0.0465
N2705 X0.5846 Y-0.151
N2710 X0.5847 Y-0.1543
N2715 Y-0.9527
N2720 G2 X0.4821 Y-1.095 I-0.15 J0.
N2725 G1 Y-1.5033
N2730 X0.773
N2735 Y-1.1023
N2740 G2 X0.6338 Y-0.9527 I0.0108 J0.1496
N2745 G1 Y0.3462
N2750 Y0.3478
N2755 X0.6341 Y0.3781
N2760 X0.6343 Y0.4075
N2765 X0.6342 Y0.4358
N2770 X0.6336 Y0.463
N2775 X0.6325 Y0.4887
N2780 X0.6308 Y0.513
N2785 X0.6284 Y0.5354
N2790 X0.6254 Y0.5559
N2795 X0.6216 Y0.5742
N2800 X0.6174 Y0.5901
N2805 X0.6127 Y0.6037
N2810 X0.6078 Y0.6148
N2815 X0.6028 Y0.6238
N2820 X0.5978 Y0.631
N2825 X0.592 Y0.6375
N2830 X0.5843 Y0.6447
N2835 X0.5736 Y0.6529
N2840 X0.56 Y0.6618
N2845 X0.5436 Y0.6713
N2850 X0.5245 Y0.681
N2855 X0.503 Y0.6909
N2860 X0.4796 Y0.701
N2865 X0.4755 Y0.7027
N2870 X0.4647 Y0.6994
N2875 X0.4471 Y0.6936
N2880 X0.431 Y0.6878
N2885 X0.4164 Y0.6819
N2890 X0.4036 Y0.6761
N2895 X0.3925 Y0.6704
N2900 X0.3831 Y0.6648
N2905 X0.3753 Y0.6594
N2910 X0.3685 Y0.6538
N2915 X0.3615 Y0.6472
N2920 X0.3544 Y0.6394
N2925 X0.3469 Y0.6301
N2930 X0.3392 Y0.6194
N2935 X0.3314 Y0.6073
N2940 X0.3234 Y0.5937
N2945 X0.3154 Y0.5789
N2950 X0.3073 Y0.5627
N2955 X0.2992 Y0.5455
N2960 X0.291 Y0.5272
N2965 X0.2827 Y0.5079
N2970 X0.2743 Y0.4878
N2975 X0.2656 Y0.467
N2980 G2 X0.2199 Y0.4066 I-0.1386 J0.0574
N2985 G3 X0.2151 Y0.3965 I0.0077 J-0.0098
N2990 G1 X0.2158 Y0.3629
N2995 G2 X0.2093 Y0.3517 I-0.0125 J-0.0002
N3000 G3 X0.0651 Y0.2515 I0.3886 J-0.7127
N3005 X-0.0235 Y0.0998 I0.1797 J-0.2066
N3010 X-0.0391 Y-0.0188 I0.8299 J-0.17
N3015 X-0.0429 Y-0.1384 I2.0319 J-0.1234
N3020 G1 X-0.0402 Y-1.1483
N3025 X-0.0404 Y-1.1507
N3030 X-0.0411 Y-1.1529
N3035 X-0.0422 Y-1.155
N3040 X-0.0436 Y-1.1569
N3045 X-0.1038 Y-1.2202
N3050 G3 X-0.1067 Y-1.2324 I0.0091 J-0.0086
N3055 X0.121 Y-1.1649 Z-0.213 I0.1139 J0.0337
N3060 X-0.1067 Y-1.2324 Z-0.2261 I-0.1139 J-0.0337
N3065 X0.121 Y-1.1649 Z-0.2391 I0.1139 J0.0337
N3070 X-0.1067 Y-1.2324 Z-0.2521 I-0.1139 J-0.0337
N3075 X0.121 Y-1.1649 Z-0.2651 I0.1139 J0.0337
N3080 X-0.1067 Y-1.2324 Z-0.2782 I-0.1139 J-0.0337
N3085 X0.1259 Y-1.1986 Z-0.29 I0.1139 J0.0337
N3090 X-0.0916 I-0.1088 J0.
N3095 G1 Y-1.3929
N3100 G3 X-0.0788 Y-1.4057 I0.0128 J0.
N3105 G1 X-0.0088
N3110 G3 X0.0039 Y-1.3929 I0. J0.0128
N3115 G1 Y-1.1843
N3120 G3 X-0.0095 Y-1.1592 I-0.03 J0.
N3125 G2 X-0.0321 Y-1.1424 I0.1366 J0.2066
N3130 G3 X-0.0483 I-0.0081 J-0.0097
N3135 G2 X-0.0806 Y-1.1654 I-0.1591 J0.1897
N3140 G3 X-0.0916 Y-1.1847 I0.0116 J-0.0194
N3145 G1 Y-1.1986
N3150 X-0.0913 Y-1.2025 Z-0.2894 F10.
N3155 X-0.0904 Y-1.2062 Z-0.2888
N3160 X-0.0892 Y-1.2095 Z-0.287
N3165 X-0.0874 Y-1.2125 Z-0.2852
N3170 X-0.0858 Y-1.2147 Z-0.2825
N3175 X-0.0839 Y-1.2167 Z-0.2797
N3180 X-0.0811 Y-1.219 Z-0.2727
N3185 X-0.0801 Y-1.2197 Z-0.265
N3190 Z0.2
N3195 G0 X0.625 Y-1.3093
N3200 G1 Z-0.075 F10.
N3205 X0.626 Y-1.3099 Z-0.0826 F5.
N3210 X0.6291 Y-1.3113 Z-0.0894
N3215 X0.634 Y-1.3134 Z-0.0949
N3220 X0.6403 Y-1.3158 Z-0.0986
N3225 X0.6475 Y-1.318 Z-0.1
N3230 G3 X0.7096 Y-1.0888 Z-0.113 I0.0311 J0.1146
N3235 X0.6475 Y-1.318 Z-0.1261 I-0.0311 J-0.1146
N3240 X0.7096 Y-1.0888 Z-0.1391 I0.0311 J0.1146
N3245 X0.6475 Y-1.318 Z-0.1521 I-0.0311 J-0.1146
N3250 X0.7096 Y-1.0888 Z-0.1651 I0.0311 J0.1146
N3255 X0.6475 Y-1.318 Z-0.1782 I-0.0311 J-0.1146
N3260 X0.7096 Y-1.0888 Z-0.1912 I0.0311 J0.1146
N3265 X0.6475 Y-1.318 Z-0.2042 I-0.0311 J-0.1146
N3270 X0.7096 Y-1.0888 Z-0.2172 I0.0311 J0.1146
N3275 X0.6475 Y-1.318 Z-0.2303 I-0.0311 J-0.1146
N3280 X0.7096 Y-1.0888 Z-0.2433 I0.0311 J0.1146
N3285 X0.6475 Y-1.318 Z-0.2563 I-0.0311 J-0.1146
N3290 X0.7096 Y-1.0888 Z-0.2694 I0.0311 J0.1146
N3295 X0.6475 Y-1.318 Z-0.2824 I-0.0311 J-0.1146
N3300 X0.7973 Y-1.2034 Z-0.29 I0.0311 J0.1146
N3305 X0.5798 I-0.1088 J0.
N3310 G1 Y-1.3929
N3315 G3 X0.5925 Y-1.4057 I0.0128 J0.
N3320 G1 X0.6626
N3325 G3 X0.6753 Y-1.3929 I0. J0.0128
N3330 G1 Y-1.1912
N3335 G3 X0.6619 Y-1.1682 I-0.0264 J0.
N3340 G2 X0.6186 Y-1.1371 I0.1219 J0.2156
N3345 G3 X0.5999 I-0.0093 J-0.0104
N3350 G2 X0.5883 Y-1.1468 I-0.1652 J0.1844
N3355 G3 X0.5798 Y-1.1646 I0.014 J-0.0177
N3360 G1 Y-1.2034
N3365 X0.5801 Y-1.2072 Z-0.2894 F10.
N3370 X0.5809 Y-1.211 Z-0.2888
N3375 X0.5822 Y-1.2142 Z-0.287
N3380 X0.584 Y-1.2172 Z-0.2852
N3385 X0.5856 Y-1.2194 Z-0.2825
N3390 X0.5875 Y-1.2215 Z-0.2797
N3395 X0.5902 Y-1.2237 Z-0.2727
N3400 X0.5913 Y-1.2244 Z-0.265
N3405 Z-0.075
N3410 X0.6111 Y0.5313 F5.
N3415 X0.6104 Y0.5322 Z-0.0826
N3420 X0.6082 Y0.5348 Z-0.0894
N3425 X0.6047 Y0.5388 Z-0.0949
N3430 X0.6 Y0.5436 Z-0.0986
N3435 X0.5944 Y0.5486 Z-0.1
N3440 G3 X0.4413 Y0.367 Z-0.113 I-0.0765 J-0.0908
N3445 X0.5944 Y0.5486 Z-0.1261 I0.0765 J0.0908
N3450 X0.4413 Y0.367 Z-0.1391 I-0.0765 J-0.0908
N3455 X0.5944 Y0.5486 Z-0.1521 I0.0765 J0.0908
N3460 X0.4413 Y0.367 Z-0.1651 I-0.0765 J-0.0908
N3465 X0.5944 Y0.5486 Z-0.1782 I0.0765 J0.0908
N3470 X0.4413 Y0.367 Z-0.1912 I-0.0765 J-0.0908
N3475 X0.5944 Y0.5486 Z-0.2042 I0.0765 J0.0908
N3480 X0.4413 Y0.367 Z-0.2172 I-0.0765 J-0.0908
N3485 X0.5944 Y0.5486 Z-0.2303 I0.0765 J0.0908
N3490 X0.4413 Y0.367 Z-0.2433 I-0.0765 J-0.0908
N3495 X0.5944 Y0.5486 Z-0.2563 I0.0765 J0.0908
N3500 X0.4413 Y0.367 Z-0.2694 I-0.0765 J-0.0908
N3505 X0.5944 Y0.5486 Z-0.2824 I0.0765 J0.0908
N3510 X0.4102 Y0.5079 Z-0.29 I-0.0765 J-0.0908
N3515 X0.4051 Y0.4968 I2.3654 J-1.0999
N3520 G2 X0.3971 Y0.4804 I-0.4051 J0.1861
N3525 G3 X0.3894 Y0.4639 I0.2509 J-0.1279
N3530 X0.3964 Y0.4489 I0.0102 J-0.0044
N3535 G2 X0.4542 Y0.4247 I-0.0861 J-0.2864
N3540 X0.508 Y0.3924 I-0.4019 J-0.7318
N3545 G3 X0.5189 Y0.3983 I0.0038 J0.0059
N3550 X0.5181 Y0.4596 I-1.691 J0.01
N3555 X0.5133 Y0.5206 I-0.6306 J-0.0191
N3560 G2 X0.5121 Y0.5311 I0.3699 J0.0474
N3565 G3 X0.5105 Y0.5414 I-0.1033 J-0.0103
N3570 X0.4911 Y0.5684 I-0.0395 J-0.008
N3575 G1 X0.4867 Y0.5708
N3580 G3 X0.4378 Y0.5589 I-0.0175 J-0.0344
N3585 X0.42 Y0.5286 I0.1603 J-0.115
N3590 X0.4102 Y0.5079 I2.3556 J-1.1207
N3595 G2 X0.321 Y0.446 I-0.0974 J0.0453
N3600 G3 X0.2199 Y0.4066 I0.0143 J-0.1859
N3605 G2 X-0.0229 Y0.5244 I-0.0928 J0.1178
N3610 G1 Y0.6771
N3615 X-0.1892
N3620 Y0.3095
N3625 G2 X-0.0574 Y0.1606 I-0.0182 J-0.1489
N3630 G1 Y-0.9527
N3635 G2 X-0.1892 Y-1.1016 I-0.15 J0.
N3640 G1 Y-1.5033
N3645 X0.1016
N3650 Y-1.1005
N3655 G2 X-0.0229 Y-0.9527 I0.0255 J0.1478
N3660 G1 Y-0.264
N3665 X-0.0242 Y-0.2442
N3670 Y-0.2436
N3675 X-0.0256 Y-0.2192
N3680 X-0.0257 Y-0.2178
N3685 X-0.0269 Y-0.1936
N3690 X-0.027 Y-0.1915
N3695 X-0.0278 Y-0.1675
N3700 X-0.0279 Y-0.1647
N3705 X-0.0283 Y-0.1409
N3710 Y-0.1373
N3715 X-0.0281 Y-0.1139
N3720 X-0.028 Y-0.1094
N3725 X-0.0272 Y-0.0863
N3730 X-0.0269 Y-0.081
N3735 X-0.0252 Y-0.0584
N3740 X-0.0246 Y-0.052
N3745 X-0.0221 Y-0.0299
N3750 X-0.021 Y-0.0226
N3755 X-0.0175 Y-0.0011
N3760 X-0.0158 Y0.0074
N3765 X-0.0111 Y0.0282
N3770 G2 X-0.0086 Y0.0378 I0.1463 J-0.0331
N3775 G1 X-0.0026 Y0.0579
N3780 G2 X0.001 Y0.0684 I0.1438 J-0.0427
N3785 G1 X0.0083 Y0.0877
N3790 G2 X0.0131 Y0.0991 I0.1402 J-0.0532
N3795 G1 X0.0219 Y0.1176
N3800 G2 X0.0283 Y0.1295 I0.1354 J-0.0646
N3805 G1 X0.0387 Y0.147
N3810 G2 X0.0466 Y0.159 I0.1291 J-0.0765
N3815 G1 X0.0587 Y0.1756
N3820 G2 X0.0675 Y0.1865 I0.1211 J-0.0885
N3825 G1 X0.0812 Y0.2021
N3830 G2 X0.0895 Y0.2107 I0.1124 J-0.0993
N3835 G1 X0.1047 Y0.2254
N3840 X0.1083 Y0.2288
N3845 X0.112 Y0.232
N3850 X0.1286 Y0.246
N3855 X0.1347 Y0.2509
N3860 X0.1523 Y0.2643
N3865 X0.1572 Y0.2678
N3870 X0.1756 Y0.2807
N3875 X0.1792 Y0.2832
N3880 X0.1984 Y0.2957
N3885 X0.2008 Y0.2973
N3890 X0.2203 Y0.3096
N3895 X0.2215 Y0.3103
N3900 X0.2412 Y0.3225
N3905 G2 X0.3914 Y0.3267 I0.0787 J-0.1277
N3910 G1 X0.4025 Y0.3207
N3915 X0.4037 Y0.32
N3920 X0.4147 Y0.3139
N3925 X0.4171 Y0.3126
N3930 X0.4278 Y0.3064
N3935 X0.4315 Y0.3041
N3940 X0.4419 Y0.2977
N3945 X0.4469 Y0.2945
N3950 X0.4569 Y0.2878
N3955 X0.4632 Y0.2833
N3960 X0.4725 Y0.2763
N3965 X0.4801 Y0.2702
N3970 X0.4888 Y0.2628
N3975 G2 X0.4975 Y0.2547 I-0.0976 J-0.1139
N3980 G1 X0.5054 Y0.2468
N3985 G2 X0.5148 Y0.2364 I-0.1063 J-0.1059
N3990 G1 X0.5218 Y0.2279
N3995 G2 X0.5309 Y0.2156 I-0.1157 J-0.0955
N4000 G1 X0.537 Y0.2065
N4005 G2 X0.5444 Y0.1941 I-0.1248 J-0.0833
N4010 G1 X0.5496 Y0.1845
N4015 G2 X0.5554 Y0.1725 I-0.1322 J-0.0709
N4020 G1 X0.5597 Y0.1624
N4025 G2 X0.564 Y0.1512 I-0.1379 J-0.0589
N4030 G1 X0.5675 Y0.1405
N4035 G2 X0.5705 Y0.1304 I-0.1422 J-0.0477
N4040 G1 X0.5734 Y0.1193
N4045 X0.5754 Y0.1103
N4050 X0.5777 Y0.0988
N4055 X0.579 Y0.091
N4060 X0.5806 Y0.0791
N4065 X0.5814 Y0.0724
N4070 X0.5826 Y0.0602
N4075 X0.583 Y0.0546
N4080 X0.5837 Y0.0421
N4085 X0.5839 Y0.0374
N4090 X0.5842 Y0.0247
N4095 Y0.021
N4100 Y0.0081
N4105 Y0.0051
N4110 X0.5839 Y-0.0079
N4115 X0.5838 Y-0.0101
N4120 X0.5834 Y-0.0232
N4125 X0.5833 Y-0.0246
N4130 X0.5827 Y-0.0379
N4135 Y-0.0386
N4140 X0.5823 Y-0.0465
N4145 X0.5846 Y-0.151
N4150 X0.5847 Y-0.1543
N4155 Y-0.9527
N4160 G2 X0.4821 Y-1.095 I-0.15 J0.
N4165 G1 Y-1.5033
N4170 X0.773
N4175 Y-1.1023
N4180 G2 X0.6338 Y-0.9527 I0.0108 J0.1496
N4185 G1 Y0.3462
N4190 Y0.3478
N4195 X0.6341 Y0.3781
N4200 X0.6343 Y0.4075
N4205 X0.6342 Y0.4358
N4210 X0.6336 Y0.463
N4215 X0.6325 Y0.4887
N4220 X0.6308 Y0.513
N4225 X0.6284 Y0.5354
N4230 X0.6254 Y0.5559
N4235 X0.6216 Y0.5742
N4240 X0.6174 Y0.5901
N4245 X0.6127 Y0.6037
N4250 X0.6078 Y0.6148
N4255 X0.6028 Y0.6238
N4260 X0.5978 Y0.631
N4265 X0.592 Y0.6375
N4270 X0.5843 Y0.6447
N4275 X0.5736 Y0.6529
N4280 X0.56 Y0.6618
N4285 X0.5436 Y0.6713
N4290 X0.5245 Y0.681
N4295 X0.503 Y0.6909
N4300 X0.4796 Y0.701
N4305 X0.4755 Y0.7027
N4310 X0.4647 Y0.6994
N4315 X0.4471 Y0.6936
N4320 X0.431 Y0.6878
N4325 X0.4164 Y0.6819
N4330 X0.4036 Y0.6761
N4335 X0.3925 Y0.6704
N4340 X0.3831 Y0.6648
N4345 X0.3753 Y0.6594
N4350 X0.3685 Y0.6538
N4355 X0.3615 Y0.6472
N4360 X0.3544 Y0.6394
N4365 X0.3469 Y0.6301
N4370 X0.3392 Y0.6194
N4375 X0.3314 Y0.6073
N4380 X0.3234 Y0.5937
N4385 X0.3154 Y0.5789
N4390 X0.3073 Y0.5627
N4395 X0.2992 Y0.5455
N4400 X0.291 Y0.5272
N4405 X0.2827 Y0.5079
N4410 X0.2743 Y0.4878
N4415 X0.2656 Y0.467
N4420 G2 X0.2199 Y0.4066 I-0.1386 J0.0574
N4425 X0.1959 Y0.4054 I-0.0129 J0.0163
N4430 G3 X0.172 Y0.4077 I-0.0143 J-0.0226
N4435 G2 X0.0021 Y0.5244 I-0.0449 J0.1167
N4440 G1 Y0.7021
N4445 X-0.2142
N4450 Y0.2856
N4455 X-0.2074
N4460 G2 X-0.0824 Y0.1606 I0. J-0.125
N4465 G1 Y-0.9527
N4470 G2 X-0.2074 Y-1.0777 I-0.125 J0.
N4475 G1 X-0.2142
N4480 Y-1.5283
N4485 X0.1266
N4490 Y-1.0777
N4495 G2 X0.0021 Y-0.9527 I0.0005 J0.125
N4500 G1 Y-0.2632
N4505 X0.0008 Y-0.2427
N4510 X0.0007 Y-0.2421
N4515 X-0.0007 Y-0.2177
N4520 Y-0.2166
N4525 X-0.0019 Y-0.1924
N4530 X-0.002 Y-0.1907
N4535 X-0.0028 Y-0.1666
N4540 X-0.0029 Y-0.1643
N4545 X-0.0033 Y-0.1405
N4550 Y-0.1375
N4555 X-0.0031 Y-0.114
N4560 Y-0.1103
N4565 X-0.0022 Y-0.0873
N4570 X-0.002 Y-0.0828
N4575 X-0.0003 Y-0.0602
N4580 X0.0002 Y-0.0549
N4585 X0.0028 Y-0.0328
N4590 X0.0036 Y-0.0267
N4595 X0.0072 Y-0.0052
N4600 X0.0086 Y0.0019
N4605 X0.0133 Y0.0227
N4610 X0.0154 Y0.0307
N4615 X0.0214 Y0.0508
N4620 X0.0228 Y0.0552
N4625 X0.0243 Y0.0596
N4630 X0.0317 Y0.0789
N4635 G2 X0.0357 Y0.0883 I0.1169 J-0.0443
N4640 G1 X0.0445 Y0.1068
N4645 G2 X0.0498 Y0.1167 I0.1128 J-0.0538
N4650 G1 X0.0602 Y0.1343
N4655 G2 X0.0668 Y0.1443 I0.1075 J-0.0637
N4660 G1 X0.0789 Y0.1609
N4665 G2 X0.0862 Y0.1699 I0.1009 J-0.0737
N4670 G1 X0.1 Y0.1855
N4675 G2 X0.1068 Y0.1927 I0.0937 J-0.0828
N4680 G1 X0.1221 Y0.2074
N4685 X0.1282 Y0.2129
N4690 X0.1447 Y0.2269
N4695 X0.1498 Y0.231
N4700 X0.1674 Y0.2444
N4705 X0.1715 Y0.2474
N4710 X0.1899 Y0.2603
N4715 X0.193 Y0.2623
N4720 X0.2121 Y0.2748
N4725 X0.2141 Y0.2761
N4730 X0.2336 Y0.2884
N4735 X0.2346 Y0.289
N4740 X0.2543 Y0.3012
N4745 G2 X0.3795 Y0.3047 I0.0656 J-0.1064
N4750 G1 X0.3906 Y0.2987
N4755 X0.3916 Y0.2982
N4760 X0.4025 Y0.2921
N4765 X0.4046 Y0.2909
N4770 X0.4153 Y0.2847
N4775 X0.4184 Y0.2829
N4780 X0.4288 Y0.2765
N4785 X0.4329 Y0.2738
N4790 X0.4429 Y0.2671
N4795 X0.4481 Y0.2633
N4800 X0.4575 Y0.2563
N4805 X0.4638 Y0.2512
N4810 X0.4725 Y0.2438
N4815 G2 X0.4798 Y0.2371 I-0.0813 J-0.0949
N4820 G1 X0.4877 Y0.2291
N4825 G2 X0.4955 Y0.2205 I-0.0886 J-0.0882
N4830 G1 X0.5026 Y0.2119
N4835 G2 X0.5101 Y0.2018 I-0.0964 J-0.0796
N4840 G1 X0.5162 Y0.1927
N4845 G2 X0.5224 Y0.1823 I-0.104 J-0.0694
N4850 G1 X0.5276 Y0.1727
N4855 G2 X0.5324 Y0.1627 I-0.1102 J-0.059
N4860 G1 X0.5367 Y0.1525
N4865 G2 X0.5403 Y0.1432 I-0.115 J-0.0491
N4870 G1 X0.5438 Y0.1326
N4875 X0.5463 Y0.1241
N4880 X0.5492 Y0.113
N4885 X0.5509 Y0.1056
N4890 X0.5531 Y0.0941
N4895 X0.5542 Y0.0875
N4900 X0.5559 Y0.0757
N4905 X0.5565 Y0.07
N4910 X0.5577 Y0.0579
N4915 X0.558 Y0.0532
N4920 X0.5587 Y0.0407
N4925 X0.5589 Y0.0368
N4930 X0.5592 Y0.0241
N4935 Y0.021
N4940 Y0.0081
N4945 Y0.0056
N4950 X0.5589 Y-0.0074
N4955 Y-0.0092
N4960 X0.5584 Y-0.0223
N4965 Y-0.0235
N4970 X0.5578 Y-0.0368
N4975 X0.5577 Y-0.0373
N4980 X0.5573 Y-0.0461
N4985 X0.5596 Y-0.1515
N4990 X0.5597 Y-0.1543
N4995 Y-0.9527
N5000 G2 X0.4571 Y-1.0756 I-0.125 J0.
N5005 G1 Y-1.5283
N5010 X0.798
N5015 Y-1.0777
N5020 X0.7838
N5025 G2 X0.6588 Y-0.9527 I0. J0.125
N5030 G1 Y0.3462
N5035 Y0.3475
N5040 X0.6591 Y0.3779
N5045 X0.6593 Y0.4075
N5050 X0.6592 Y0.4361
N5055 X0.6586 Y0.4638
N5060 X0.6575 Y0.4902
N5065 X0.6557 Y0.5152
N5070 X0.6532 Y0.5386
N5075 X0.65 Y0.5602
N5080 X0.646 Y0.5799
N5085 X0.6413 Y0.5974
N5090 X0.636 Y0.6128
N5095 X0.6302 Y0.626
N5100 X0.624 Y0.6371
N5105 X0.6175 Y0.6464
N5110 X0.61 Y0.655
N5115 X0.6004 Y0.6639
N5120 X0.5881 Y0.6733
N5125 X0.5731 Y0.6832
N5130 X0.5555 Y0.6933
N5135 X0.5354 Y0.7035
N5140 X0.5132 Y0.7138
N5145 X0.4893 Y0.7241
N5150 X0.4768 Y0.7292
N5155 X0.4571 Y0.7232
N5160 X0.439 Y0.7172
N5165 X0.4221 Y0.7111
N5170 X0.4067 Y0.7049
N5175 X0.3927 Y0.6986
N5180 X0.3803 Y0.6922
N5185 X0.3695 Y0.6858
N5190 X0.3603 Y0.6794
N5195 X0.3519 Y0.6726
N5200 X0.3437 Y0.6647
N5205 X0.3354 Y0.6557
N5210 X0.327 Y0.6453
N5215 X0.3186 Y0.6335
N5220 X0.3101 Y0.6204
N5225 X0.3017 Y0.606
N5230 X0.2932 Y0.5904
N5235 X0.2848 Y0.5737
N5240 X0.2765 Y0.5559
N5245 X0.2681 Y0.5372
N5250 X0.2597 Y0.5177
N5255 X0.2512 Y0.4974
N5260 X0.2425 Y0.4766
N5265 G2 X0.172 Y0.4077 I-0.1155 J0.0478
N5270 G1 X0.1685 Y0.4061 Z-0.2894 F10.
N5275 X0.1653 Y0.4039 Z-0.2888
N5280 X0.1627 Y0.4015 Z-0.287
N5285 X0.1605 Y0.3988 Z-0.2852
N5290 X0.1591 Y0.3965 Z-0.2825
N5295 X0.1579 Y0.394 Z-0.2797
N5300 X0.1567 Y0.3906 Z-0.2727
N5305 X0.1565 Y0.3895 Z-0.265
N5310 Z0.2
N5315 G0 X1.3335 Y0.4403
N5320 G1 Z0.125 F10.
N5325 X1.3343 Y0.4394 Z0.1174 F5.
N5330 X1.3365 Y0.4369 Z0.1106
N5335 X1.3402 Y0.4331 Z0.1051
N5340 X1.3451 Y0.4285 Z0.1014
N5345 X1.3509 Y0.4237 Z0.1
N5350 G3 X1.4967 Y0.6111 Z0.087 I0.0729 J0.0937
N5355 X1.3509 Y0.4237 Z0.0739 I-0.0729 J-0.0937
N5360 X1.4967 Y0.6111 Z0.0609 I0.0729 J0.0937
N5365 X1.3509 Y0.4237 Z0.0479 I-0.0729 J-0.0937
N5370 X1.4967 Y0.6111 Z0.0349 I0.0729 J0.0937
N5375 X1.3509 Y0.4237 Z0.0218 I-0.0729 J-0.0937
N5380 X1.4967 Y0.6111 Z0.0088 I0.0729 J0.0937
N5385 X1.3509 Y0.4237 Z-0.0042 I-0.0729 J-0.0937
N5390 X1.4967 Y0.6111 Z-0.0172 I0.0729 J0.0937
N5395 X1.3509 Y0.4237 Z-0.0303 I-0.0729 J-0.0937
N5400 X1.4967 Y0.6111 Z-0.0433 I0.0729 J0.0937
N5405 X1.3509 Y0.4237 Z-0.0563 I-0.0729 J-0.0937
N5410 X1.4967 Y0.6111 Z-0.0694 I0.0729 J0.0937
N5415 X1.3509 Y0.4237 Z-0.0824 I-0.0729 J-0.0937
N5420 X1.4967 Y0.6111 Z-0.0954 I0.0729 J0.0937
N5425 X1.3727 Y0.6246 Z-0.1 I-0.0729 J-0.0937
N5430 X1.4469 Y0.469 I0.0371 J-0.0778
N5435 G1 X1.4488 Y0.4699
N5440 G3 X1.452 Y0.4793 I-0.0029 J0.0062
N5445 G1 X1.4508 Y0.4817
N5450 G3 X1.4368 Y0.4838 I-0.0078 J-0.004
N5455 X1.4277 Y0.474 I0.1959 J-0.1921
N5460 X1.4189 Y0.4639 I0.6156 J-0.5474
N5465 G1 X1.4181 Y0.4626
N5470 X1.4178 Y0.4612
N5475 X1.4181 Y0.4597
N5480 X1.4188 Y0.4584
N5485 X1.4199 Y0.4574
N5490 X1.4213 Y0.4568
N5495 X1.4228
N5500 X1.4243 Y0.4573
N5505 G2 X1.4365 Y0.4638 I0.8571 J-1.5902
N5510 X1.4469 Y0.469 I0.1294 J-0.2445
N5515 X1.4572 Y0.4692 I0.0054 J-0.0113
N5520 G1 X1.7609 Y0.3365
N5525 X1.7627 Y0.3355
N5530 X1.7644 Y0.3342
N5535 X1.7658 Y0.3327
N5540 G2 X1.7825 Y0.3081 I-0.2028 J-0.1559
N5545 X1.8285 Y0.2286 I-2.8284 J-1.6914
N5550 G1 X1.8295 Y0.2274
N5555 X1.8308 Y0.2265
N5560 X1.8324 Y0.2262
N5565 X1.834 Y0.2263
N5570 X1.8354 Y0.227
N5575 X1.8366 Y0.228
N5580 X1.8374 Y0.2294
N5585 X1.8376 Y0.231
N5590 Y0.4051
N5595 G3 X1.8265 Y0.4119 I-0.0077 J0.
N5600 G2 X1.7253 Y0.3868 I-0.1052 J0.2077
N5605 G3 X1.722 Y0.3771 I0.0001 J-0.0054
N5610 G2 X1.7658 Y0.3327 I-0.159 J-0.2003
N5615 G1 X1.7683 Y0.3297 Z-0.0994 F10.
N5620 X1.7712 Y0.3272 Z-0.0988
N5625 X1.7742 Y0.3254 Z-0.097
N5630 X1.7773 Y0.324 Z-0.0952
N5635 X1.78 Y0.3232 Z-0.0925
N5640 X1.7827 Y0.3226 Z-0.0897
N5645 X1.7862 Y0.3224 Z-0.0827
N5650 X1.7875 Y0.3225 Z-0.075
N5655 Z0.2
N5660 G0 X1.9485 Y-1.0736
N5665 G1 Z0.125 F10.
N5670 X1.9474 Y-1.0731 Z0.1174 F5.
N5675 X1.9443 Y-1.0718 Z0.1106
N5680 X1.9393 Y-1.0699 Z0.1051
N5685 X1.9329 Y-1.0679 Z0.1014
N5690 X1.9256 Y-1.066 Z0.1
N5695 G3 X1.8746 Y-1.298 Z0.087 I-0.0255 J-0.116
N5700 X1.9256 Y-1.066 Z0.0739 I0.0255 J0.116
N5705 X1.8746 Y-1.298 Z0.0609 I-0.0255 J-0.116
N5710 X1.9256 Y-1.066 Z0.0479 I0.0255 J0.116
N5715 X1.8746 Y-1.298 Z0.0349 I-0.0255 J-0.116
N5720 X1.9256 Y-1.066 Z0.0218 I0.0255 J0.116
N5725 X1.8746 Y-1.298 Z0.0088 I-0.0255 J-0.116
N5730 X1.9256 Y-1.066 Z-0.0042 I0.0255 J0.116
N5735 X1.8746 Y-1.298 Z-0.0172 I-0.0255 J-0.116
N5740 X1.9256 Y-1.066 Z-0.0303 I0.0255 J0.116
N5745 X1.8746 Y-1.298 Z-0.0433 I-0.0255 J-0.116
N5750 X1.9256 Y-1.066 Z-0.0563 I0.0255 J0.116
N5755 X1.8746 Y-1.298 Z-0.0694 I-0.0255 J-0.116
N5760 X1.9256 Y-1.066 Z-0.0824 I0.0255 J0.116
N5765 X1.8746 Y-1.298 Z-0.0954 I-0.0255 J-0.116
N5770 X1.9923 Y-1.2569 Z-0.1 I0.0255 J0.116
N5775 X1.9757 Y-1.0978 I-0.0878 J0.0712
N5780 X1.8167 Y-1.1144 I-0.0712 J-0.0878
N5785 G1 X1.8122 Y-1.12
N5790 G2 X1.7754 Y-1.1631 I-1.2795 J1.0551
N5795 G1 X1.7718 Y-1.1668
N5800 X1.7683 Y-1.1705
N5805 G3 X1.773 Y-1.1804 I0.0044 J-0.004
N5810 G2 X1.9459 Y-1.2434 I0.0094 J-0.2434
N5815 G3 X1.9562 Y-1.2388 I0.0041 J0.0045
N5820 G1 Y-1.1842
N5825 G3 X1.9428 Y-1.1601 I-0.0282 J0.
N5830 G2 X1.8602 Y-1.0758 I0.1277 J0.2075
N5835 G3 X1.8469 Y-1.0752 I-0.0069 J-0.004
N5840 G2 X1.8167 Y-1.1144 I-0.7532 J0.5477
N5845 G1 X1.8149 Y-1.1162
N5850 X1.8128 Y-1.1176
N5855 X1.4631 Y-1.3007
N5860 G2 X1.4523 Y-1.301 I-0.0058 J0.0111
N5865 X1.4335 Y-1.2918 I0.1115 J0.2512
N5870 X1.413 Y-1.2805 I0.4471 J0.8306
N5875 G1 X1.4116 Y-1.2799
N5880 X1.41
N5885 X1.4085 Y-1.2805
N5890 X1.4073 Y-1.2815
N5895 X1.4065 Y-1.2829
N5900 X1.4063 Y-1.2844
N5905 X1.4065 Y-1.286
N5910 X1.4073 Y-1.2873
N5915 G3 X1.4234 Y-1.3046 I0.1942 J0.1647
N5920 X1.4406 Y-1.3206 I0.3154 J0.322
N5925 X1.457 Y-1.3187 I0.0073 J0.0083
N5930 G1 X1.4586 Y-1.3165
N5935 G3 X1.4545 Y-1.302 I-0.0079 J0.0056
N5940 G1 X1.4523 Y-1.301
N5945 G2 X1.3415 Y-1.2396 I0.2887 J0.6507
N5950 G3 X1.2449 Y-1.3214 I-0.0369 J-0.0544
N5955 G1 X1.254 Y-1.3414
N5960 X1.2665 Y-1.3633
N5965 X1.2809 Y-1.3838
N5970 X1.2981 Y-1.4042
N5975 X1.3189 Y-1.4251
N5980 X1.3431 Y-1.4464
N5985 X1.3706 Y-1.4682
N5990 X1.4008 Y-1.4903
N5995 X1.4336 Y-1.5127
N6000 X1.4565 Y-1.5278
N6005 X1.462 Y-1.5267
N6010 X1.4712 Y-1.5246
N6015 X1.4792 Y-1.5225
N6020 X1.486 Y-1.5204
N6025 X1.4917 Y-1.5183
N6030 X1.4961 Y-1.5164
N6035 X1.4995 Y-1.5148
N6040 X1.5023 Y-1.5132
N6045 X1.5052 Y-1.5112
N6050 X1.5089 Y-1.5084
N6055 X1.5131 Y-1.5047
N6060 X1.518 Y-1.5001
N6065 X1.5234 Y-1.4945
N6070 X1.5293 Y-1.488
N6075 X1.5356 Y-1.4805
N6080 X1.5424 Y-1.4721
N6085 X1.5495 Y-1.4629
N6090 X1.557 Y-1.4529
N6095 X1.5649 Y-1.4422
N6100 X1.5711 Y-1.4337
N6105 X1.5722 Y-1.432
N6110 X1.5753 Y-1.4273
N6115 X1.5757 Y-1.4267
N6120 X1.5787 Y-1.4221
N6125 X1.5792 Y-1.4214
N6130 X1.5823 Y-1.4169
N6135 X1.5831 Y-1.4157
N6140 X1.5862 Y-1.4112
N6145 X1.5871 Y-1.4099
N6150 X1.5902 Y-1.4054
N6155 X1.5914 Y-1.4038
N6160 X1.5946 Y-1.3994
N6165 X1.596 Y-1.3975
N6170 X1.5993 Y-1.3931
N6175 X1.6008 Y-1.3911
N6180 X1.6042 Y-1.3868
N6185 X1.6061 Y-1.3844
N6190 X1.6095 Y-1.3802
N6195 X1.6116 Y-1.3776
N6200 X1.6151 Y-1.3735
N6205 X1.6175 Y-1.3707
N6210 X1.6211 Y-1.3667
N6215 X1.6239 Y-1.3637
N6220 X1.6276 Y-1.3597
N6225 X1.6303 Y-1.357
N6230 X1.6341 Y-1.3531
N6235 X1.6367 Y-1.3505
N6240 X1.6406 Y-1.3468
N6245 X1.643 Y-1.3446
N6250 X1.647 Y-1.3409
N6255 X1.6492 Y-1.3389
N6260 X1.6533 Y-1.3353
N6265 X1.6551 Y-1.3337
N6270 X1.6592 Y-1.3302
N6275 X1.6609 Y-1.3288
N6280 X1.6651 Y-1.3253
N6285 X1.6664 Y-1.3242
N6290 X1.6707 Y-1.3208
N6295 X1.6718 Y-1.3199
N6300 X1.6761 Y-1.3165
N6305 X1.6769 Y-1.3158
N6310 X1.6812 Y-1.3124
N6315 X1.6818 Y-1.312
N6320 X1.6861 Y-1.3086
N6325 X1.6907 Y-1.3051
N6330 G2 X1.9323 Y-1.4239 I0.0916 J-0.1188
N6335 G1 Y-1.5033
N6340 X2.0498
N6345 Y-1.1012
N6350 G2 X1.9204 Y-0.9527 I0.0206 J0.1486
N6355 G1 Y1.5292
N6360 X1.7297
N6365 Y1.2699
N6370 G2 X1.8713 Y1.1201 I-0.0084 J-0.1498
N6375 G1 Y0.6196
N6380 G2 X1.5873 Y0.5522 I-0.15 J0.
N6385 G1 X1.5794 Y0.5679
N6390 X1.5717 Y0.583
N6395 X1.5643 Y0.5972
N6400 X1.5571 Y0.6104
N6405 X1.5502 Y0.6227
N6410 X1.5434 Y0.6339
N6415 X1.537 Y0.6438
N6420 X1.5308 Y0.6526
N6425 X1.525 Y0.6601
N6430 X1.5197 Y0.6663
N6435 X1.5149 Y0.6713
N6440 X1.5107 Y0.6751
N6445 X1.5069 Y0.678
N6450 X1.5029 Y0.6807
N6455 X1.4977 Y0.6836
N6460 X1.491 Y0.6868
N6465 X1.4828 Y0.6902
N6470 X1.473 Y0.6936
N6475 X1.4618 Y0.6971
N6480 X1.4532 Y0.6995
N6485 X1.4353 Y0.6858
N6490 X1.4015 Y0.6589
N6495 X1.3702 Y0.6324
N6500 X1.3418 Y0.6063
N6505 X1.3166 Y0.5806
N6510 X1.295 Y0.5555
N6515 X1.2768 Y0.5307
N6520 X1.2615 Y0.5052
N6525 X1.2481 Y0.478
N6530 X1.2364 Y0.4488
N6535 X1.2265 Y0.4174
N6540 X1.2183 Y0.3838
N6545 X1.2118 Y0.3481
N6550 X1.2069 Y0.3103
N6555 X1.2035 Y0.2705
N6560 X1.2016 Y0.2289
N6565 X1.201 Y0.1858
N6570 X1.2017 Y0.1411
N6575 X1.2033 Y0.0952
N6580 X1.2058 Y0.0481
N6585 X1.209 Y0.
N6590 X1.2126 Y-0.0489
N6595 X1.2165 Y-0.0986
N6600 G2 X1.217 Y-0.1104 I-0.1495 J-0.0118
N6605 G1 Y-0.8159
N6610 G2 X1.2167 Y-0.8259 I-0.15 J0.
N6615 G1 X1.2136 Y-0.8719
N6620 X1.2108 Y-0.9171
N6625 X1.2084 Y-0.9613
N6630 X1.2067 Y-1.0045
N6635 X1.2058 Y-1.0465
N6640 X1.2059 Y-1.087
N6645 X1.2071 Y-1.126
N6650 X1.2096 Y-1.1632
N6655 X1.2134 Y-1.1985
N6660 X1.2187 Y-1.2317
N6665 X1.2253 Y-1.2626
N6670 X1.2335 Y-1.2911
N6675 X1.243 Y-1.3174
N6680 X1.2449 Y-1.3214
N6685 G3 X1.2625 Y-1.327 I0.0114 J0.0052
N6690 G1 X1.518 Y-1.1781
N6695 G3 X1.5168 Y-1.1558 I-0.0063 J0.0108
N6700 G2 X1.5029 Y-1.1489 I0.0605 J0.1373
N6705 G1 X1.488 Y-1.1403
N6710 X1.4867 Y-1.1396
N6715 X1.472 Y-1.131
N6720 X1.4695 Y-1.1295
N6725 X1.455 Y-1.1207
N6730 X1.4512 Y-1.1183
N6735 X1.4373 Y-1.1092
N6740 X1.432 Y-1.1056
N6745 X1.4188 Y-1.0961
N6750 X1.4123 Y-1.0912
N6755 X1.3998 Y-1.0812
N6760 G2 X1.392 Y-1.0745 I0.0937 J0.1171
N6765 G1 X1.3805 Y-1.064
N6770 G2 X1.3717 Y-1.0551 I0.1015 J0.1104
N6775 G1 X1.3613 Y-1.0438
N6780 G2 X1.3519 Y-1.0326 I0.1104 J0.1015
N6785 G1 X1.3429 Y-1.0206
N6790 G2 X1.3345 Y-1.0082 I0.1198 J0.0902
N6795 G1 X1.3267 Y-0.9954
N6800 G2 X1.32 Y-0.9831 I0.1282 J0.0779
N6805 G1 X1.3135 Y-0.9696
N6810 G2 X1.3084 Y-0.9579 I0.1349 J0.0656
N6815 G1 X1.3029 Y-0.9437
N6820 G2 X1.2992 Y-0.9328 I0.14 J0.0539
N6825 G1 X1.2948 Y-0.9181
N6830 G2 X1.2922 Y-0.9082 I0.1437 J0.043
N6835 G1 X1.2887 Y-0.8929
N6840 X1.287 Y-0.8842
N6845 X1.2844 Y-0.8684
N6850 X1.2834 Y-0.8608
N6855 X1.2815 Y-0.8445
N6860 X1.2809 Y-0.838
N6865 X1.2797 Y-0.8213
N6870 X1.2795 Y-0.8158
N6875 X1.2789 Y-0.7987
N6880 X1.2788 Y-0.7942
N6885 Y-0.7768
N6890 Y-0.7731
N6895 X1.2792 Y-0.7555
N6900 X1.2793 Y-0.7526
N6905 X1.28 Y-0.7348
N6910 X1.2801 Y-0.7327
N6915 X1.281 Y-0.7147
N6920 X1.2811 Y-0.7133
N6925 X1.2823 Y-0.6952
N6930 Y-0.6946
N6935 X1.2832 Y-0.6815
N6940 Y-0.4155
N6945 Y-0.4143
N6950 X1.2856 Y-0.127
N6955 X1.2848 Y-0.115
N6960 Y-0.1144
N6965 X1.2837 Y-0.0968
N6970 X1.2836 Y-0.0954
N6975 X1.2827 Y-0.078
N6980 X1.2826 Y-0.0759
N6985 X1.2819 Y-0.0586
N6990 X1.2818 Y-0.0558
N6995 X1.2815 Y-0.0387
N7000 X1.2814 Y-0.035
N7005 X1.2815 Y-0.0182
N7010 X1.2816 Y-0.0136
N7015 X1.2822 Y0.0029
N7020 X1.2825 Y0.0085
N7025 X1.2836 Y0.0246
N7030 X1.2843 Y0.0312
N7035 X1.2861 Y0.0469
N7040 X1.2872 Y0.0547
N7045 X1.2898 Y0.0699
N7050 X1.2916 Y0.0788
N7055 X1.295 Y0.0935
N7060 G2 X1.2977 Y0.1036 I0.1461 J-0.034
N7065 G1 X1.3021 Y0.1178
N7070 G2 X1.306 Y0.1289 I0.1434 J-0.0441
N7075 G1 X1.3114 Y0.1424
N7080 G2 X1.3168 Y0.1545 I0.1395 J-0.0552
N7085 G1 X1.3232 Y0.1673
N7090 G2 X1.3303 Y0.1798 I0.1341 J-0.0672
N7095 G1 X1.3379 Y0.192
N7100 G2 X1.3467 Y0.2046 I0.1271 J-0.0797
N7105 G1 X1.3556 Y0.216
N7110 G2 X1.3654 Y0.2273 I0.1182 J-0.0924
N7115 G1 X1.3756 Y0.2379
N7120 G2 X1.3848 Y0.2468 I0.1084 J-0.1037
N7125 G1 X1.3961 Y0.2567
N7130 G2 X1.4041 Y0.2633 I0.0992 J-0.1125
N7135 G1 X1.4164 Y0.2727
N7140 X1.4231 Y0.2775
N7145 X1.4361 Y0.2864
N7150 X1.4414 Y0.2899
N7155 X1.4551 Y0.2983
N7160 X1.459 Y0.3007
N7165 X1.4731 Y0.3088
N7170 X1.4758 Y0.3103
N7175 X1.4902 Y0.3183
N7180 X1.4915 Y0.319
N7185 X1.5061 Y0.3268
N7190 G2 X1.705 Y0.2735 I0.0712 J-0.132
N7195 G1 X1.7213 Y0.2469
N7200 X1.7219 Y0.2459
N7205 X1.7381 Y0.2193
N7210 X1.7392 Y0.2173
N7215 X1.7549 Y0.1905
N7220 X1.7566 Y0.1875
N7225 X1.7716 Y0.1605
N7230 X1.7738 Y0.1564
N7235 X1.7878 Y0.1291
N7240 X1.7904 Y0.1238
N7245 X1.8033 Y0.0962
N7250 X1.8062 Y0.0896
N7255 X1.8176 Y0.0616
N7260 X1.8204 Y0.0542
N7265 X1.8303 Y0.0258
N7270 X1.8326 Y0.0185
N7275 X1.8411 Y-0.0104
N7280 X1.8429 Y-0.0173
N7285 X1.8499 Y-0.0466
N7290 X1.8514 Y-0.0531
N7295 X1.8571 Y-0.0827
N7300 X1.8582 Y-0.0888
N7305 X1.8627 Y-0.1187
N7310 X1.8634 Y-0.1243
N7315 X1.8669 Y-0.1546
N7320 X1.8674 Y-0.1597
N7325 X1.8698 Y-0.1903
N7330 X1.8701 Y-0.1948
N7335 X1.8716 Y-0.2256
N7340 X1.8718 Y-0.2297
N7345 X1.8724 Y-0.2608
N7350 X1.8725 Y-0.2643
N7355 X1.8724 Y-0.2956
N7360 Y-0.2987
N7365 X1.8717 Y-0.3302
N7370 X1.8716 Y-0.3328
N7375 X1.8703 Y-0.3644
N7380 X1.8702 Y-0.3666
N7385 X1.8685 Y-0.3983
N7390 X1.8684 Y-0.4
N7395 X1.8663 Y-0.4319
N7400 X1.8662 Y-0.4332
N7405 X1.8639 Y-0.4651
N7410 X1.8638 Y-0.466
N7415 X1.8613 Y-0.498
N7420 X1.8612 Y-0.4984
N7425 X1.8596 Y-0.5178
N7430 X1.8606 Y-0.5289
N7435 Y-0.5295
N7440 X1.8626 Y-0.5532
N7445 X1.8627 Y-0.5543
N7450 X1.8645 Y-0.578
N7455 X1.8646 Y-0.5796
N7460 X1.8662 Y-0.6032
N7465 X1.8663 Y-0.6053
N7470 X1.8675 Y-0.6288
N7475 X1.8676 Y-0.6315
N7480 X1.8683 Y-0.6548
N7485 X1.8684 Y-0.6581
N7490 X1.8687 Y-0.6812
N7495 X1.8686 Y-0.6852
N7500 X1.8683 Y-0.7081
N7505 X1.8681 Y-0.7127
N7510 X1.8671 Y-0.7353
N7515 X1.8667 Y-0.7406
N7520 X1.8649 Y-0.7629
N7525 X1.8643 Y-0.7689
N7530 X1.8615 Y-0.7908
N7535 X1.8605 Y-0.7976
N7540 X1.8569 Y-0.8191
N7545 X1.8554 Y-0.8266
N7550 X1.8507 Y-0.8477
N7555 X1.8487 Y-0.8559
N7560 X1.8428 Y-0.8766
N7565 X1.8401 Y-0.8852
N7570 X1.833 Y-0.9055
N7575 X1.8314 Y-0.9101
N7580 X1.8295 Y-0.9146
N7585 X1.8212 Y-0.9343
N7590 G2 X1.8168 Y-0.9437 I-0.1381 J0.0585
N7595 G1 X1.8071 Y-0.9629
N7600 G2 X1.8021 Y-0.9719 I-0.1338 J0.0679
N7605 G1 X1.791 Y-0.9905
N7610 X1.7864 Y-0.9978
N7615 X1.774 Y-1.016
N7620 X1.77 Y-1.0217
N7625 X1.7566 Y-1.0396
N7630 X1.7532 Y-1.0439
N7635 X1.7391 Y-1.0614
N7640 X1.7365 Y-1.0645
N7645 X1.7218 Y-1.0818
N7650 X1.7201 Y-1.0838
N7655 X1.705 Y-1.1009
N7660 X1.7041 Y-1.1019
N7665 X1.6888 Y-1.1189
N7670 G2 X1.5168 Y-1.1558 I-0.1115 J0.1003
N7675 G3 X1.4994 Y-1.1651 I-0.005 J-0.0114
N7680 G1 X1.4933 Y-1.2004
N7685 G2 X1.4695 Y-1.2032 I-0.0123 J0.0021
N7690 G3 X1.251 Y-1.2965 Z-0.113 I-0.1092 J-0.0466
N7695 X1.4695 Y-1.2032 Z-0.1261 I0.1092 J0.0466
N7700 X1.251 Y-1.2965 Z-0.1391 I-0.1092 J-0.0466
N7705 X1.4695 Y-1.2032 Z-0.1521 I0.1092 J0.0466
N7710 X1.251 Y-1.2965 Z-0.1651 I-0.1092 J-0.0466
N7715 X1.4695 Y-1.2032 Z-0.1782 I0.1092 J0.0466
N7720 X1.251 Y-1.2965 Z-0.1912 I-0.1092 J-0.0466
N7725 X1.4573 Y-1.3183 Z-0.2 I0.1092 J0.0466
N7730 G1 X1.4586 Y-1.3165
N7735 G3 X1.4545 Y-1.302 I-0.0079 J0.0056
N7740 G2 X1.4335 Y-1.2918 I0.1092 J0.2522
N7745 X1.413 Y-1.2805 I0.4471 J0.8306
N7750 G1 X1.4116 Y-1.2799
N7755 X1.41
N7760 X1.4085 Y-1.2805
N7765 X1.4073 Y-1.2815
N7770 X1.4065 Y-1.2829
N7775 X1.4063 Y-1.2844
N7780 X1.4065 Y-1.286
N7785 X1.4073 Y-1.2873
N7790 G3 X1.4234 Y-1.3046 I0.1942 J0.1647
N7795 X1.4406 Y-1.3206 I0.3154 J0.322
N7800 X1.457 Y-1.3187 I0.0073 J0.0083
N7805 G1 X1.4573 Y-1.3183
N7810 X1.459 Y-1.3163
N7815 X1.4611 Y-1.3148
N7820 X1.4635 Y-1.3137
N7825 X1.8345 Y-1.1878
N7830 X1.8368 Y-1.1873
N7835 X1.8392 Y-1.1872
N7840 X1.8415 Y-1.1875
N7845 G2 X1.9459 Y-1.2434 I-0.0592 J-0.2363
N7850 G3 X1.9562 Y-1.2388 I0.0041 J0.0045
N7855 G1 Y-1.1842
N7860 G3 X1.9428 Y-1.1601 I-0.0282 J0.
N7865 G2 X1.8602 Y-1.0758 I0.1277 J0.2075
N7870 G3 X1.8469 Y-1.0752 I-0.0069 J-0.004
N7875 G2 X1.8122 Y-1.12 I-0.7532 J0.5477
N7880 X1.7754 Y-1.1631 I-1.2795 J1.0551
N7885 G1 X1.7718 Y-1.1668
N7890 X1.7683 Y-1.1705
N7895 G3 X1.773 Y-1.1804 I0.0044 J-0.004
N7900 G2 X1.8415 Y-1.1875 I0.0094 J-0.2434
N7905 G1 X1.8453 Y-1.1882 Z-0.1994 F10.
N7910 X1.8492 Z-0.1988
N7915 X1.8526 Y-1.1878 Z-0.197
N7920 X1.856 Y-1.1868 Z-0.1952
N7925 X1.8585 Y-1.1858 Z-0.1925
N7930 X1.861 Y-1.1844 Z-0.1897
N7935 X1.8638 Y-1.1823 Z-0.1827
N7940 X1.8647 Y-1.1815 Z-0.175
N7945 Z0.2
N7950 G0 X1.7068 Y0.4323
N7955 G1 Z0.025 F10.
N7960 X1.7061 Y0.4313 Z0.0174 F5.
N7965 X1.7041 Y0.4286 Z0.0106
N7970 X1.7011 Y0.4242 Z0.0051
N7975 X1.6976 Y0.4184 Z0.0014
N7980 X1.6942 Y0.4118 Z0.
N7985 G3 X1.908 Y0.3084 Z-0.013 I0.1069 J-0.0517
N7990 X1.6942 Y0.4118 Z-0.0261 I-0.1069 J0.0517
N7995 X1.908 Y0.3084 Z-0.0391 I0.1069 J-0.0517
N8000 X1.6942 Y0.4118 Z-0.0521 I-0.1069 J0.0517
N8005 X1.908 Y0.3084 Z-0.0651 I0.1069 J-0.0517
N8010 X1.6942 Y0.4118 Z-0.0782 I-0.1069 J0.0517
N8015 X1.908 Y0.3084 Z-0.0912 I0.1069 J-0.0517
N8020 X1.6942 Y0.4118 Z-0.1042 I-0.1069 J0.0517
N8025 X1.908 Y0.3084 Z-0.1172 I0.1069 J-0.0517
N8030 X1.6942 Y0.4118 Z-0.1303 I-0.1069 J0.0517
N8035 X1.908 Y0.3084 Z-0.1433 I0.1069 J-0.0517
N8040 X1.6942 Y0.4118 Z-0.1563 I-0.1069 J0.0517
N8045 X1.908 Y0.3084 Z-0.1694 I0.1069 J-0.0517
N8050 X1.6942 Y0.4118 Z-0.1824 I-0.1069 J0.0517
N8055 X1.908 Y0.3084 Z-0.1954 I0.1069 J-0.0517
N8060 X1.8952 Y0.4324 Z-0.2 I-0.1069 J0.0517
N8065 X1.7806 Y0.4473 I-0.0647 J-0.0499
N8070 X1.7658 Y0.3327 I0.0499 J-0.0647
N8075 G2 X1.7825 Y0.3081 I-0.2028 J-0.1558
N8080 X1.8285 Y0.2286 I-2.8284 J-1.6914
N8085 G1 X1.8295 Y0.2274
N8090 X1.8308 Y0.2265
N8095 X1.8324 Y0.2262
N8100 X1.834 Y0.2263
N8105 X1.8354 Y0.227
N8110 X1.8366 Y0.228
N8115 X1.8374 Y0.2294
N8120 X1.8376 Y0.231
N8125 Y0.4051
N8130 G3 X1.8265 Y0.4119 I-0.0077 J0.
N8135 G2 X1.7253 Y0.3868 I-0.1052 J0.2077
N8140 G3 X1.722 Y0.3771 I0.0001 J-0.0054
N8145 G2 X1.7658 Y0.3327 I-0.159 J-0.2003
N8150 X1.7498 Y0.3141 I-0.0099 J-0.0076
N8155 G1 X1.456 Y0.4763
N8160 X1.4539 Y0.4777
N8165 X1.4522 Y0.4795
N8170 X1.4509 Y0.4815
N8175 X1.4508 Y0.4817
N8180 G3 X1.4368 Y0.4838 I-0.0078 J-0.004
N8185 X1.4277 Y0.474 I0.1959 J-0.1921
N8190 X1.4189 Y0.4639 I0.6156 J-0.5474
N8195 G1 X1.4181 Y0.4626
N8200 X1.4178 Y0.4612
N8205 X1.4181 Y0.4597
N8210 X1.4188 Y0.4584
N8215 X1.4199 Y0.4574
N8220 X1.4213 Y0.4568
N8225 X1.4228
N8230 X1.4243 Y0.4573
N8235 G2 X1.4365 Y0.4638 I0.8571 J-1.5902
N8240 X1.4488 Y0.4699 I0.1294 J-0.2445
N8245 G3 X1.452 Y0.4793 I-0.0029 J0.0062
N8250 G1 X1.4511 Y0.4812
N8255 X1.4509 Y0.4815
N8260 G2 X1.4514 Y0.5775 I0.0923 J0.0476
N8265 G3 X1.3765 Y0.6377 I-0.0432 J0.0228
N8270 G1 X1.3702 Y0.6324
N8275 X1.3418 Y0.6063
N8280 X1.3166 Y0.5806
N8285 X1.295 Y0.5555
N8290 X1.2768 Y0.5307
N8295 X1.2615 Y0.5052
N8300 X1.2481 Y0.478
N8305 X1.2364 Y0.4488
N8310 X1.2265 Y0.4174
N8315 X1.2183 Y0.3838
N8320 X1.2118 Y0.3481
N8325 X1.2069 Y0.3103
N8330 X1.2035 Y0.2705
N8335 X1.2016 Y0.2289
N8340 X1.201 Y0.1858
N8345 X1.2017 Y0.1411
N8350 X1.2033 Y0.0952
N8355 X1.2058 Y0.0481
N8360 X1.209 Y0.
N8365 X1.2126 Y-0.0489
N8370 X1.2165 Y-0.0986
N8375 G2 X1.217 Y-0.1104 I-0.1495 J-0.0118
N8380 G1 Y-0.8159
N8385 G2 X1.2167 Y-0.8259 I-0.15 J0.
N8390 G1 X1.2136 Y-0.8719
N8395 X1.2108 Y-0.9171
N8400 X1.2084 Y-0.9613
N8405 X1.2067 Y-1.0045
N8410 X1.2058 Y-1.0465
N8415 X1.2059 Y-1.087
N8420 X1.2071 Y-1.126
N8425 X1.2096 Y-1.1632
N8430 X1.2134 Y-1.1985
N8435 X1.2187 Y-1.2317
N8440 X1.2253 Y-1.2626
N8445 X1.2335 Y-1.2911
N8450 X1.243 Y-1.3174
N8455 X1.254 Y-1.3414
N8460 X1.2665 Y-1.3633
N8465 X1.2809 Y-1.3838
N8470 X1.2981 Y-1.4042
N8475 X1.3189 Y-1.4251
N8480 X1.3431 Y-1.4464
N8485 X1.3706 Y-1.4682
N8490 X1.4008 Y-1.4903
N8495 X1.4336 Y-1.5127
N8500 X1.4565 Y-1.5278
N8505 X1.462 Y-1.5267
N8510 X1.4712 Y-1.5246
N8515 X1.4792 Y-1.5225
N8520 X1.486 Y-1.5204
N8525 X1.4917 Y-1.5183
N8530 X1.4961 Y-1.5164
N8535 X1.4995 Y-1.5148
N8540 X1.5023 Y-1.5132
N8545 X1.5052 Y-1.5112
N8550 X1.5089 Y-1.5084
N8555 X1.5131 Y-1.5047
N8560 X1.518 Y-1.5001
N8565 X1.5234 Y-1.4945
N8570 X1.5293 Y-1.488
N8575 X1.5356 Y-1.4805
N8580 X1.5424 Y-1.4721
N8585 X1.5495 Y-1.4629
N8590 X1.557 Y-1.4529
N8595 X1.5649 Y-1.4422
N8600 X1.5711 Y-1.4337
N8605 X1.5722 Y-1.432
N8610 X1.5753 Y-1.4273
N8615 X1.5757 Y-1.4267
N8620 X1.5787 Y-1.4221
N8625 X1.5792 Y-1.4214
N8630 X1.5823 Y-1.4169
N8635 X1.5831 Y-1.4157
N8640 X1.5862 Y-1.4112
N8645 X1.5871 Y-1.4099
N8650 X1.5902 Y-1.4054
N8655 X1.5914 Y-1.4038
N8660 X1.5946 Y-1.3994
N8665 X1.596 Y-1.3975
N8670 X1.5993 Y-1.3931
N8675 X1.6008 Y-1.3911
N8680 X1.6042 Y-1.3868
N8685 X1.6061 Y-1.3844
N8690 X1.6095 Y-1.3802
N8695 X1.6116 Y-1.3776
N8700 X1.6151 Y-1.3735
N8705 X1.6175 Y-1.3707
N8710 X1.6211 Y-1.3667
N8715 X1.6239 Y-1.3637
N8720 X1.6276 Y-1.3597
N8725 X1.6303 Y-1.357
N8730 X1.6341 Y-1.3531
N8735 X1.6367 Y-1.3505
N8740 X1.6406 Y-1.3468
N8745 X1.643 Y-1.3446
N8750 X1.647 Y-1.3409
N8755 X1.6492 Y-1.3389
N8760 X1.6533 Y-1.3353
N8765 X1.6551 Y-1.3337
N8770 X1.6592 Y-1.3302
N8775 X1.6609 Y-1.3288
N8780 X1.6651 Y-1.3253
N8785 X1.6664 Y-1.3242
N8790 X1.6707 Y-1.3208
N8795 X1.6718 Y-1.3199
N8800 X1.6761 Y-1.3165
N8805 X1.6769 Y-1.3158
N8810 X1.6812 Y-1.3124
N8815 X1.6818 Y-1.312
N8820 X1.6861 Y-1.3086
N8825 X1.6907 Y-1.3051
N8830 G2 X1.9323 Y-1.4239 I0.0916 J-0.1188
N8835 G1 Y-1.5033
N8840 X2.0498
N8845 Y-1.1012
N8850 G2 X1.9204 Y-0.9527 I0.0206 J0.1486
N8855 G1 Y1.5292
N8860 X1.7297
N8865 Y1.2699
N8870 G2 X1.8713 Y1.1201 I-0.0084 J-0.1498
N8875 G1 Y0.6196
N8880 G2 X1.5873 Y0.5522 I-0.15 J0.
N8885 G1 X1.5794 Y0.5679
N8890 X1.5717 Y0.583
N8895 X1.5643 Y0.5972
N8900 X1.5571 Y0.6104
N8905 X1.5502 Y0.6227
N8910 X1.5434 Y0.6339
N8915 X1.537 Y0.6438
N8920 X1.5308 Y0.6526
N8925 X1.525 Y0.6601
N8930 X1.5197 Y0.6663
N8935 X1.5149 Y0.6713
N8940 X1.5107 Y0.6751
N8945 X1.5069 Y0.678
N8950 X1.5029 Y0.6807
N8955 X1.4977 Y0.6836
N8960 X1.491 Y0.6868
N8965 X1.4828 Y0.6902
N8970 X1.473 Y0.6936
N8975 X1.4618 Y0.6971
N8980 X1.4532 Y0.6995
N8985 X1.4353 Y0.6858
N8990 X1.4015 Y0.6589
N8995 X1.3765 Y0.6377
N9000 G3 X1.3731 Y0.6233 I0.0081 J-0.0095
N9005 G1 X1.4958 Y0.3365
N9010 G3 X1.5127 Y0.3302 I0.0115 J0.0049
N9015 G2 X1.705 Y0.2735 I0.0646 J-0.1354
N9020 G1 X1.7213 Y0.2469
N9025 X1.7219 Y0.2459
N9030 X1.7381 Y0.2193
N9035 X1.7392 Y0.2173
N9040 X1.7549 Y0.1905
N9045 X1.7566 Y0.1875
N9050 X1.7716 Y0.1605
N9055 X1.7738 Y0.1564
N9060 X1.7878 Y0.1291
N9065 X1.7904 Y0.1238
N9070 X1.8033 Y0.0962
N9075 X1.8062 Y0.0896
N9080 X1.8176 Y0.0616
N9085 X1.8204 Y0.0542
N9090 X1.8303 Y0.0258
N9095 X1.8326 Y0.0185
N9100 X1.8411 Y-0.0104
N9105 X1.8429 Y-0.0173
N9110 X1.8499 Y-0.0466
N9115 X1.8514 Y-0.0531
N9120 X1.8571 Y-0.0827
N9125 X1.8582 Y-0.0888
N9130 X1.8627 Y-0.1187
N9135 X1.8634 Y-0.1243
N9140 X1.8669 Y-0.1546
N9145 X1.8674 Y-0.1597
N9150 X1.8698 Y-0.1903
N9155 X1.8701 Y-0.1948
N9160 X1.8716 Y-0.2256
N9165 X1.8718 Y-0.2297
N9170 X1.8724 Y-0.2608
N9175 X1.8725 Y-0.2643
N9180 X1.8724 Y-0.2956
N9185 Y-0.2987
N9190 X1.8717 Y-0.3302
N9195 X1.8716 Y-0.3328
N9200 X1.8703 Y-0.3644
N9205 X1.8702 Y-0.3666
N9210 X1.8685 Y-0.3983
N9215 X1.8684 Y-0.4
N9220 X1.8663 Y-0.4319
N9225 X1.8662 Y-0.4332
N9230 X1.8639 Y-0.4651
N9235 X1.8638 Y-0.466
N9240 X1.8613 Y-0.498
N9245 X1.8612 Y-0.4984
N9250 X1.8596 Y-0.5178
N9255 X1.8606 Y-0.5289
N9260 Y-0.5295
N9265 X1.8626 Y-0.5532
N9270 X1.8627 Y-0.5543
N9275 X1.8645 Y-0.578
N9280 X1.8646 Y-0.5796
N9285 X1.8662 Y-0.6032
N9290 X1.8663 Y-0.6053
N9295 X1.8675 Y-0.6288
N9300 X1.8676 Y-0.6315
N9305 X1.8683 Y-0.6548
N9310 X1.8684 Y-0.6581
N9315 X1.8687 Y-0.6812
N9320 X1.8686 Y-0.6852
N9325 X1.8683 Y-0.7081
N9330 X1.8681 Y-0.7127
N9335 X1.8671 Y-0.7353
N9340 X1.8667 Y-0.7406
N9345 X1.8649 Y-0.7629
N9350 X1.8643 Y-0.7689
N9355 X1.8615 Y-0.7908
N9360 X1.8605 Y-0.7976
N9365 X1.8569 Y-0.8191
N9370 X1.8554 Y-0.8266
N9375 X1.8507 Y-0.8477
N9380 X1.8487 Y-0.8559
N9385 X1.8428 Y-0.8766
N9390 X1.8401 Y-0.8852
N9395 X1.833 Y-0.9055
N9400 X1.8314 Y-0.9101
N9405 X1.8295 Y-0.9146
N9410 X1.8212 Y-0.9343
N9415 G2 X1.8168 Y-0.9437 I-0.1381 J0.0585
N9420 G1 X1.8071 Y-0.9629
N9425 G2 X1.8021 Y-0.9719 I-0.1338 J0.0679
N9430 G1 X1.791 Y-0.9905
N9435 X1.7864 Y-0.9978
N9440 X1.774 Y-1.016
N9445 X1.77 Y-1.0217
N9450 X1.7566 Y-1.0396
N9455 X1.7532 Y-1.0439
N9460 X1.7391 Y-1.0614
N9465 X1.7365 Y-1.0645
N9470 X1.7218 Y-1.0818
N9475 X1.7201 Y-1.0838
N9480 X1.705 Y-1.1009
N9485 X1.7041 Y-1.1019
N9490 X1.6888 Y-1.1189
N9495 G2 X1.5029 Y-1.1489 I-0.1115 J0.1003
N9500 G1 X1.488 Y-1.1403
N9505 X1.4867 Y-1.1396
N9510 X1.472 Y-1.131
N9515 X1.4695 Y-1.1295
N9520 X1.455 Y-1.1207
N9525 X1.4512 Y-1.1183
N9530 X1.4373 Y-1.1092
N9535 X1.432 Y-1.1056
N9540 X1.4188 Y-1.0961
N9545 X1.4123 Y-1.0912
N9550 X1.3998 Y-1.0812
N9555 G2 X1.392 Y-1.0745 I0.0937 J0.1171
N9560 G1 X1.3805 Y-1.064
N9565 G2 X1.3717 Y-1.0551 I0.1015 J0.1104
N9570 G1 X1.3613 Y-1.0438
N9575 G2 X1.3519 Y-1.0326 I0.1104 J0.1015
N9580 G1 X1.3429 Y-1.0206
N9585 G2 X1.3345 Y-1.0082 I0.1198 J0.0902
N9590 G1 X1.3267 Y-0.9954
N9595 G2 X1.32 Y-0.9831 I0.1282 J0.0779
N9600 G1 X1.3135 Y-0.9696
N9605 G2 X1.3084 Y-0.9579 I0.1349 J0.0656
N9610 G1 X1.3029 Y-0.9437
N9615 G2 X1.2992 Y-0.9328 I0.14 J0.0539
N9620 G1 X1.2948 Y-0.9181
N9625 G2 X1.2922 Y-0.9082 I0.1437 J0.043
N9630 G1 X1.2887 Y-0.8929
N9635 X1.287 Y-0.8842
N9640 X1.2844 Y-0.8684
N9645 X1.2834 Y-0.8608
N9650 X1.2815 Y-0.8445
N9655 X1.2809 Y-0.838
N9660 X1.2797 Y-0.8213
N9665 X1.2795 Y-0.8158
N9670 X1.2789 Y-0.7987
N9675 X1.2788 Y-0.7942
N9680 Y-0.7768
N9685 Y-0.7731
N9690 X1.2792 Y-0.7555
N9695 X1.2793 Y-0.7526
N9700 X1.28 Y-0.7348
N9705 X1.2801 Y-0.7327
N9710 X1.281 Y-0.7147
N9715 X1.2811 Y-0.7133
N9720 X1.2823 Y-0.6952
N9725 Y-0.6946
N9730 X1.2832 Y-0.6815
N9735 Y-0.4155
N9740 Y-0.4143
N9745 X1.2856 Y-0.127
N9750 X1.2848 Y-0.115
N9755 Y-0.1144
N9760 X1.2837 Y-0.0968
N9765 X1.2836 Y-0.0954
N9770 X1.2827 Y-0.078
N9775 X1.2826 Y-0.0759
N9780 X1.2819 Y-0.0586
N9785 X1.2818 Y-0.0558
N9790 X1.2815 Y-0.0387
N9795 X1.2814 Y-0.035
N9800 X1.2815 Y-0.0182
N9805 X1.2816 Y-0.0136
N9810 X1.2822 Y0.0029
N9815 X1.2825 Y0.0085
N9820 X1.2836 Y0.0246
N9825 X1.2843 Y0.0312
N9830 X1.2861 Y0.0469
N9835 X1.2872 Y0.0547
N9840 X1.2898 Y0.0699
N9845 X1.2916 Y0.0788
N9850 X1.295 Y0.0935
N9855 G2 X1.2977 Y0.1036 I0.1461 J-0.034
N9860 G1 X1.3021 Y0.1178
N9865 G2 X1.306 Y0.1289 I0.1434 J-0.0441
N9870 G1 X1.3114 Y0.1424
N9875 G2 X1.3168 Y0.1545 I0.1395 J-0.0552
N9880 G1 X1.3232 Y0.1673
N9885 G2 X1.3303 Y0.1798 I0.1341 J-0.0672
N9890 G1 X1.3379 Y0.192
N9895 G2 X1.3467 Y0.2046 I0.1271 J-0.0797
N9900 G1 X1.3556 Y0.216
N9905 G2 X1.3654 Y0.2273 I0.1182 J-0.0924
N9910 G1 X1.3756 Y0.2379
N9915 G2 X1.3848 Y0.2468 I0.1084 J-0.1037
N9920 G1 X1.3961 Y0.2567
N9925 G2 X1.4041 Y0.2633 I0.0992 J-0.1125
N9930 G1 X1.4164 Y0.2727
N9935 X1.4231 Y0.2775
N9940 X1.4361 Y0.2864
N9945 X1.4414 Y0.2899
N9950 X1.4551 Y0.2983
N9955 X1.459 Y0.3007
N9960 X1.4731 Y0.3088
N9965 X1.4758 Y0.3103
N9970 X1.4902 Y0.3183
N9975 X1.4915 Y0.319
N9980 X1.5061 Y0.3268
N9985 X1.5127 Y0.3302
N9990 G3 X1.5192 Y0.3454 I-0.0054 J0.0113
N9995 G1 X1.4879 Y0.4407
N10000 G2 X1.4914 Y0.4539 I0.0119 J0.0039
N10005 G3 X1.3326 Y0.6305 Z-0.213 I-0.0794 J0.0883
N10010 X1.4914 Y0.4539 Z-0.2261 I0.0794 J-0.0883
N10015 X1.3326 Y0.6305 Z-0.2391 I-0.0794 J0.0883
N10020 X1.4914 Y0.4539 Z-0.2521 I0.0794 J-0.0883
N10025 X1.3326 Y0.6305 Z-0.2651 I-0.0794 J0.0883
N10030 X1.4914 Y0.4539 Z-0.2782 I0.0794 J-0.0883
N10035 X1.3609 Y0.6494 Z-0.29 I-0.0794 J0.0883
N10040 X1.4469 Y0.469 I0.043 J-0.0902
N10045 G1 X1.4488 Y0.4699
N10050 G3 X1.452 Y0.4793 I-0.0029 J0.0062
N10055 G1 X1.4508 Y0.4817
N10060 G3 X1.4368 Y0.4838 I-0.0078 J-0.004
N10065 X1.4277 Y0.474 I0.1959 J-0.1921
N10070 X1.4189 Y0.4639 I0.6156 J-0.5474
N10075 G1 X1.4181 Y0.4626
N10080 X1.4178 Y0.4612
N10085 X1.4181 Y0.4597
N10090 X1.4188 Y0.4584
N10095 X1.4199 Y0.4574
N10100 X1.4213 Y0.4568
N10105 X1.4228
N10110 X1.4243 Y0.4573
N10115 G2 X1.4365 Y0.4638 I0.8571 J-1.5902
N10120 X1.4469 Y0.469 I0.1294 J-0.2445
N10125 X1.4572 Y0.4692 I0.0054 J-0.0113
N10130 G1 X1.7609 Y0.3365
N10135 X1.7627 Y0.3355
N10140 X1.7644 Y0.3342
N10145 X1.7658 Y0.3327
N10150 G2 X1.7825 Y0.3081 I-0.2028 J-0.1559
N10155 X1.8285 Y0.2286 I-2.8284 J-1.6914
N10160 G1 X1.8295 Y0.2274
N10165 X1.8308 Y0.2265
N10170 X1.8324 Y0.2262
N10175 X1.834 Y0.2263
N10180 X1.8354 Y0.227
N10185 X1.8366 Y0.228
N10190 X1.8374 Y0.2294
N10195 X1.8376 Y0.231
N10200 Y0.4051
N10205 G3 X1.8265 Y0.4119 I-0.0077 J0.
N10210 G2 X1.7253 Y0.3868 I-0.1052 J0.2077
N10215 G3 X1.722 Y0.3771 I0.0001 J-0.0054
N10220 G2 X1.7658 Y0.3327 I-0.159 J-0.2003
N10225 G1 X1.7683 Y0.3297 Z-0.2894 F10.
N10230 X1.7712 Y0.3272 Z-0.2888
N10235 X1.7742 Y0.3254 Z-0.287
N10240 X1.7773 Y0.324 Z-0.2852
N10245 X1.78 Y0.3232 Z-0.2825
N10250 X1.7827 Y0.3226 Z-0.2797
N10255 X1.7862 Y0.3224 Z-0.2727
N10260 X1.7875 Y0.3225 Z-0.265
N10265 Z0.2
N10270 G0 X2.0173 Y-1.1407
N10275 G1 Z-0.075 F10.
N10280 X2.0168 Y-1.1397 Z-0.0826 F5.
N10285 X2.0154 Y-1.1366 Z-0.0894
N10290 X2.0129 Y-1.1319 Z-0.0949
N10295 X2.0095 Y-1.1261 Z-0.0986
N10300 X2.0053 Y-1.1199 Z-0.1
N10305 G3 X1.8126 Y-1.2586 Z-0.113 I-0.0964 J-0.0694
N10310 X2.0053 Y-1.1199 Z-0.1261 I0.0964 J0.0694
N10315 X1.8126 Y-1.2586 Z-0.1391 I-0.0964 J-0.0694
N10320 X2.0053 Y-1.1199 Z-0.1521 I0.0964 J0.0694
N10325 X1.8126 Y-1.2586 Z-0.1651 I-0.0964 J-0.0694
N10330 X2.0053 Y-1.1199 Z-0.1782 I0.0964 J0.0694
N10335 X1.8126 Y-1.2586 Z-0.1912 I-0.0964 J-0.0694
N10340 X2.0053 Y-1.1199 Z-0.2042 I0.0964 J0.0694
N10345 X1.8126 Y-1.2586 Z-0.2172 I-0.0964 J-0.0694
N10350 X2.0053 Y-1.1199 Z-0.2303 I0.0964 J0.0694
N10355 X1.8126 Y-1.2586 Z-0.2433 I-0.0964 J-0.0694
N10360 X2.0053 Y-1.1199 Z-0.2563 I0.0964 J0.0694
N10365 X1.8126 Y-1.2586 Z-0.2694 I-0.0964 J-0.0694
N10370 X2.0053 Y-1.1199 Z-0.2824 I0.0964 J0.0694
N10375 X1.8167 Y-1.1144 Z-0.29 I-0.0964 J-0.0694
N10380 G1 X1.8122 Y-1.12
N10385 G2 X1.7754 Y-1.1631 I-1.2795 J1.0551
N10390 G1 X1.7718 Y-1.1668
N10395 X1.7683 Y-1.1705
N10400 G3 X1.773 Y-1.1804 I0.0044 J-0.004
N10405 G2 X1.9459 Y-1.2434 I0.0094 J-0.2434
N10410 G3 X1.9562 Y-1.2388 I0.0041 J0.0045
N10415 G1 Y-1.1842
N10420 G3 X1.9428 Y-1.1601 I-0.0282 J0.
N10425 G2 X1.8602 Y-1.0758 I0.1277 J0.2075
N10430 G3 X1.8469 Y-1.0752 I-0.0069 J-0.004
N10435 G2 X1.8167 Y-1.1144 I-0.7532 J0.5477
N10440 G1 X1.8149 Y-1.1162
N10445 X1.8128 Y-1.1176
N10450 X1.4631 Y-1.3007
N10455 G2 X1.4523 Y-1.301 I-0.0058 J0.0111
N10460 X1.4335 Y-1.2918 I0.1115 J0.2512
N10465 X1.413 Y-1.2805 I0.4471 J0.8306
N10470 G1 X1.4116 Y-1.2799
N10475 X1.41
N10480 X1.4085 Y-1.2805
N10485 X1.4073 Y-1.2815
N10490 X1.4065 Y-1.2829
N10495 X1.4063 Y-1.2844
N10500 X1.4065 Y-1.286
N10505 X1.4073 Y-1.2873
N10510 G3 X1.4234 Y-1.3046 I0.1942 J0.1647
N10515 X1.4406 Y-1.3206 I0.3154 J0.322
N10520 X1.457 Y-1.3187 I0.0073 J0.0083
N10525 G1 X1.4586 Y-1.3165
N10530 G3 X1.4545 Y-1.302 I-0.0079 J0.0056
N10535 G1 X1.4523 Y-1.301
N10540 G2 X1.3415 Y-1.2396 I0.2887 J0.6507
N10545 G3 X1.2449 Y-1.3214 I-0.0369 J-0.0544
N10550 G1 X1.254 Y-1.3414
N10555 X1.2665 Y-1.3633
N10560 X1.2809 Y-1.3838
N10565 X1.2981 Y-1.4042
N10570 X1.3189 Y-1.4251
N10575 X1.3431 Y-1.4464
N10580 X1.3706 Y-1.4682
N10585 X1.4008 Y-1.4903
N10590 X1.4336 Y-1.5127
N10595 X1.4565 Y-1.5278
N10600 X1.462 Y-1.5267
N10605 X1.4712 Y-1.5246
N10610 X1.4792 Y-1.5225
N10615 X1.486 Y-1.5204
N10620 X1.4917 Y-1.5183
N10625 X1.4961 Y-1.5164
N10630 X1.4995 Y-1.5148
N10635 X1.5023 Y-1.5132
N10640 X1.5052 Y-1.5112
N10645 X1.5089 Y-1.5084
N10650 X1.5131 Y-1.5047
N10655 X1.518 Y-1.5001
N10660 X1.5234 Y-1.4945
N10665 X1.5293 Y-1.488
N10670 X1.5356 Y-1.4805
N10675 X1.5424 Y-1.4721
N10680 X1.5495 Y-1.4629
N10685 X1.557 Y-1.4529
N10690 X1.5649 Y-1.4422
N10695 X1.5711 Y-1.4337
N10700 X1.5722 Y-1.432
N10705 X1.5753 Y-1.4273
N10710 X1.5757 Y-1.4267
N10715 X1.5787 Y-1.4221
N10720 X1.5792 Y-1.4214
N10725 X1.5823 Y-1.4169
N10730 X1.5831 Y-1.4157
N10735 X1.5862 Y-1.4112
N10740 X1.5871 Y-1.4099
N10745 X1.5902 Y-1.4054
N10750 X1.5914 Y-1.4038
N10755 X1.5946 Y-1.3994
N10760 X1.596 Y-1.3975
N10765 X1.5993 Y-1.3931
N10770 X1.6008 Y-1.3911
N10775 X1.6042 Y-1.3868
N10780 X1.6061 Y-1.3844
N10785 X1.6095 Y-1.3802
N10790 X1.6116 Y-1.3776
N10795 X1.6151 Y-1.3735
N10800 X1.6175 Y-1.3707
N10805 X1.6211 Y-1.3667
N10810 X1.6239 Y-1.3637
N10815 X1.6276 Y-1.3597
N10820 X1.6303 Y-1.357
N10825 X1.6341 Y-1.3531
N10830 X1.6367 Y-1.3505
N10835 X1.6406 Y-1.3468
N10840 X1.643 Y-1.3446
N10845 X1.647 Y-1.3409
N10850 X1.6492 Y-1.3389
N10855 X1.6533 Y-1.3353
N10860 X1.6551 Y-1.3337
N10865 X1.6592 Y-1.3302
N10870 X1.6609 Y-1.3288
N10875 X1.6651 Y-1.3253
N10880 X1.6664 Y-1.3242
N10885 X1.6707 Y-1.3208
N10890 X1.6718 Y-1.3199
N10895 X1.6761 Y-1.3165
N10900 X1.6769 Y-1.3158
N10905 X1.6812 Y-1.3124
N10910 X1.6818 Y-1.312
N10915 X1.6861 Y-1.3086
N10920 X1.6907 Y-1.3051
N10925 G2 X1.9323 Y-1.4239 I0.0916 J-0.1188
N10930 G1 Y-1.5033
N10935 X2.0498
N10940 Y-1.1012
N10945 G2 X1.9204 Y-0.9527 I0.0206 J0.1486
N10950 G1 Y1.5292
N10955 X1.7297
N10960 Y1.2699
N10965 G2 X1.8713 Y1.1201 I-0.0084 J-0.1498
N10970 G1 Y0.6196
N10975 G2 X1.5873 Y0.5522 I-0.15 J0.
N10980 G1 X1.5794 Y0.5679
N10985 X1.5717 Y0.583
N10990 X1.5643 Y0.5972
N10995 X1.5571 Y0.6104
N11000 X1.5502 Y0.6227
N11005 X1.5434 Y0.6339
N11010 X1.537 Y0.6438
N11015 X1.5308 Y0.6526
N11020 X1.525 Y0.6601
N11025 X1.5197 Y0.6663
N11030 X1.5149 Y0.6713
N11035 X1.5107 Y0.6751
N11040 X1.5069 Y0.678
N11045 X1.5029 Y0.6807
N11050 X1.4977 Y0.6836
N11055 X1.491 Y0.6868
N11060 X1.4828 Y0.6902
N11065 X1.473 Y0.6936
N11070 X1.4618 Y0.6971
N11075 X1.4532 Y0.6995
N11080 X1.4353 Y0.6858
N11085 X1.4015 Y0.6589
N11090 X1.3702 Y0.6324
N11095 X1.3418 Y0.6063
N11100 X1.3166 Y0.5806
N11105 X1.295 Y0.5555
N11110 X1.2768 Y0.5307
N11115 X1.2615 Y0.5052
N11120 X1.2481 Y0.478
N11125 X1.2364 Y0.4488
N11130 X1.2265 Y0.4174
N11135 X1.2183 Y0.3838
N11140 X1.2118 Y0.3481
N11145 X1.2069 Y0.3103
N11150 X1.2035 Y0.2705
N11155 X1.2016 Y0.2289
N11160 X1.201 Y0.1858
N11165 X1.2017 Y0.1411
N11170 X1.2033 Y0.0952
N11175 X1.2058 Y0.0481
N11180 X1.209 Y0.
N11185 X1.2126 Y-0.0489
N11190 X1.2165 Y-0.0986
N11195 G2 X1.217 Y-0.1104 I-0.1495 J-0.0118
N11200 G1 Y-0.8159
N11205 G2 X1.2167 Y-0.8259 I-0.15 J0.
N11210 G1 X1.2136 Y-0.8719
N11215 X1.2108 Y-0.9171
N11220 X1.2084 Y-0.9613
N11225 X1.2067 Y-1.0045
N11230 X1.2058 Y-1.0465
N11235 X1.2059 Y-1.087
N11240 X1.2071 Y-1.126
N11245 X1.2096 Y-1.1632
N11250 X1.2134 Y-1.1985
N11255 X1.2187 Y-1.2317
N11260 X1.2253 Y-1.2626
N11265 X1.2335 Y-1.2911
N11270 X1.243 Y-1.3174
N11275 X1.2449 Y-1.3214
N11280 G2 X1.2414 Y-1.3433 I-0.0182 J-0.0083
N11285 G3 X1.2389 Y-1.3653 I0.0138 J-0.0127
N11290 G1 X1.2453 Y-1.3767
N11295 X1.2611 Y-1.3991
N11300 X1.2797 Y-1.4211
N11305 X1.3017 Y-1.4433
N11310 X1.3271 Y-1.4656
N11315 X1.3554 Y-1.4881
N11320 X1.3864 Y-1.5107
N11325 X1.4196 Y-1.5335
N11330 X1.4512 Y-1.5542
N11335 X1.4565 Y-1.5533
N11340 X1.4673 Y-1.5511
N11345 X1.4772 Y-1.5489
N11350 X1.4861 Y-1.5465
N11355 X1.4939 Y-1.5441
N11360 X1.5007 Y-1.5416
N11365 X1.5065 Y-1.5392
N11370 X1.5113 Y-1.5368
N11375 X1.5155 Y-1.5344
N11380 X1.5198 Y-1.5315
N11385 X1.5246 Y-1.5278
N11390 X1.5299 Y-1.5233
N11395 X1.5356 Y-1.5179
N11400 X1.5417 Y-1.5116
N11405 X1.5481 Y-1.5044
N11410 X1.5549 Y-1.4964
N11415 X1.562 Y-1.4876
N11420 X1.5694 Y-1.478
N11425 X1.5771 Y-1.4678
N11430 X1.5851 Y-1.4569
N11435 X1.5916 Y-1.4479
N11440 X1.593 Y-1.4458
N11445 X1.5962 Y-1.441
N11450 X1.5965 Y-1.4406
N11455 X1.5995 Y-1.436
N11460 X1.5999 Y-1.4354
N11465 X1.603 Y-1.4309
N11470 X1.6037 Y-1.4299
N11475 X1.6068 Y-1.4254
N11480 X1.6075 Y-1.4243
N11485 X1.6107 Y-1.4198
N11490 X1.6116 Y-1.4185
N11495 X1.6148 Y-1.4141
N11500 X1.616 Y-1.4125
N11505 X1.6193 Y-1.4081
N11510 X1.6206 Y-1.4064
N11515 X1.6239 Y-1.4022
N11520 X1.6255 Y-1.4002
N11525 X1.6289 Y-1.396
N11530 X1.6307 Y-1.3938
N11535 X1.6342 Y-1.3896
N11540 X1.6362 Y-1.3874
N11545 X1.6398 Y-1.3833
N11550 X1.6421 Y-1.3808
N11555 X1.6458 Y-1.3769
N11560 X1.648 Y-1.3746
N11565 X1.6518 Y-1.3707
N11570 X1.654 Y-1.3686
N11575 X1.6579 Y-1.3648
N11580 X1.6599 Y-1.363
N11585 X1.6639 Y-1.3593
N11590 X1.6657 Y-1.3576
N11595 X1.6698 Y-1.354
N11600 X1.6713 Y-1.3527
N11605 X1.6754 Y-1.3492
N11610 X1.6768 Y-1.348
N11615 X1.681 Y-1.3446
N11620 X1.6822 Y-1.3436
N11625 X1.6864 Y-1.3402
N11630 X1.6873 Y-1.3394
N11635 X1.6916 Y-1.3361
N11640 X1.6923 Y-1.3355
N11645 X1.6966 Y-1.3321
N11650 X1.6971 Y-1.3317
N11655 X1.7014 Y-1.3284
N11660 X1.706 Y-1.3249
N11665 G2 X1.9073 Y-1.4239 I0.0763 J-0.099
N11670 G1 Y-1.5283
N11675 X2.0748
N11680 Y-1.0777
N11685 X2.0704
N11690 G2 X1.9454 Y-0.9527 I0. J0.125
N11695 G1 Y1.5542
N11700 X1.7047
N11705 Y1.2451
N11710 X1.7213
N11715 G2 X1.8463 Y1.1201 I0. J-0.125
N11720 G1 Y0.6196
N11725 G2 X1.6096 Y0.5634 I-0.125 J0.
N11730 G1 X1.6017 Y0.5792
N11735 X1.5939 Y0.5944
N11740 X1.5864 Y0.6089
N11745 X1.579 Y0.6225
N11750 X1.5718 Y0.6353
N11755 X1.5646 Y0.6471
N11760 X1.5577 Y0.6578
N11765 X1.5509 Y0.6674
N11770 X1.5444 Y0.6759
N11775 X1.5382 Y0.6831
N11780 X1.5323 Y0.6892
N11785 X1.5267 Y0.6942
N11790 X1.5215 Y0.6983
N11795 X1.5159 Y0.702
N11800 X1.5092 Y0.7058
N11805 X1.5011 Y0.7096
N11810 X1.4917 Y0.7135
N11815 X1.4809 Y0.7173
N11820 X1.4689 Y0.7211
N11825 X1.4557 Y0.7248
N11830 X1.4477 Y0.7268
N11835 X1.4199 Y0.7055
N11840 X1.3857 Y0.6782
N11845 X1.3537 Y0.6511
N11850 X1.3244 Y0.6242
N11855 X1.2982 Y0.5975
N11860 X1.2754 Y0.571
N11865 X1.256 Y0.5446
N11870 X1.2395 Y0.5172
N11875 X1.2252 Y0.4882
N11880 X1.2129 Y0.4572
N11885 X1.2025 Y0.4241
N11890 X1.1939 Y0.389
N11895 X1.1871 Y0.3519
N11900 X1.182 Y0.3129
N11905 X1.1786 Y0.2721
N11910 X1.1766 Y0.2297
N11915 X1.176 Y0.1858
N11920 X1.1767 Y0.1405
N11925 X1.1783 Y0.0941
N11930 X1.1809 Y0.0466
N11935 X1.1841 Y-0.0017
N11940 X1.1877 Y-0.0508
N11945 X1.1916 Y-0.1006
N11950 X1.1919 Y-0.1055
N11955 X1.192 Y-0.1104
N11960 Y-0.8159
N11965 X1.1917 Y-0.8243
N11970 X1.1887 Y-0.8703
N11975 X1.1858 Y-0.9156
N11980 X1.1835 Y-0.9602
N11985 X1.1817 Y-1.0038
N11990 X1.1808 Y-1.0462
N11995 X1.1809 Y-1.0875
N12000 X1.1821 Y-1.1272
N12005 X1.1847 Y-1.1654
N12010 X1.1886 Y-1.2018
N12015 X1.1941 Y-1.2362
N12020 X1.2011 Y-1.2686
N12025 X1.2097 Y-1.2988
N12030 X1.2199 Y-1.3269
N12035 X1.2317 Y-1.3528
N12040 X1.2389 Y-1.3653
N12045 G3 X1.2571 Y-1.3692 I0.0109 J0.0062
N12050 G1 X1.5191 Y-1.1774
N12055 G3 X1.5168 Y-1.1558 I-0.0074 J0.0101
N12060 G2 X1.5029 Y-1.1489 I0.0605 J0.1373
N12065 G1 X1.488 Y-1.1403
N12070 X1.4867 Y-1.1396
N12075 X1.472 Y-1.131
N12080 X1.4695 Y-1.1295
N12085 X1.455 Y-1.1207
N12090 X1.4512 Y-1.1183
N12095 X1.4373 Y-1.1092
N12100 X1.432 Y-1.1056
N12105 X1.4188 Y-1.0961
N12110 X1.4123 Y-1.0912
N12115 X1.3998 Y-1.0812
N12120 G2 X1.392 Y-1.0745 I0.0937 J0.1171
N12125 G1 X1.3805 Y-1.064
N12130 G2 X1.3717 Y-1.0551 I0.1015 J0.1104
N12135 G1 X1.3613 Y-1.0438
N12140 G2 X1.3519 Y-1.0326 I0.1104 J0.1015
N12145 G1 X1.3429 Y-1.0206
N12150 G2 X1.3345 Y-1.0082 I0.1198 J0.0902
N12155 G1 X1.3267 Y-0.9954
N12160 G2 X1.32 Y-0.9831 I0.1282 J0.0779
N12165 G1 X1.3135 Y-0.9696
N12170 G2 X1.3084 Y-0.9579 I0.1349 J0.0656
N12175 G1 X1.3029 Y-0.9437
N12180 G2 X1.2992 Y-0.9328 I0.14 J0.0539
N12185 G1 X1.2948 Y-0.9181
N12190 G2 X1.2922 Y-0.9082 I0.1437 J0.043
N12195 G1 X1.2887 Y-0.8929
N12200 X1.287 Y-0.8842
N12205 X1.2844 Y-0.8684
N12210 X1.2834 Y-0.8608
N12215 X1.2815 Y-0.8445
N12220 X1.2809 Y-0.838
N12225 X1.2797 Y-0.8213
N12230 X1.2795 Y-0.8158
N12235 X1.2789 Y-0.7987
N12240 X1.2788 Y-0.7942
N12245 Y-0.7768
N12250 Y-0.7731
N12255 X1.2792 Y-0.7555
N12260 X1.2793 Y-0.7526
N12265 X1.28 Y-0.7348
N12270 X1.2801 Y-0.7327
N12275 X1.281 Y-0.7147
N12280 X1.2811 Y-0.7133
N12285 X1.2823 Y-0.6952
N12290 Y-0.6946
N12295 X1.2832 Y-0.6815
N12300 Y-0.4155
N12305 Y-0.4143
N12310 X1.2856 Y-0.127
N12315 X1.2848 Y-0.115
N12320 Y-0.1144
N12325 X1.2837 Y-0.0968
N12330 X1.2836 Y-0.0954
N12335 X1.2827 Y-0.078
N12340 X1.2826 Y-0.0759
N12345 X1.2819 Y-0.0586
N12350 X1.2818 Y-0.0558
N12355 X1.2815 Y-0.0387
N12360 X1.2814 Y-0.035
N12365 X1.2815 Y-0.0182
N12370 X1.2816 Y-0.0136
N12375 X1.2822 Y0.0029
N12380 X1.2825 Y0.0085
N12385 X1.2836 Y0.0246
N12390 X1.2843 Y0.0312
N12395 X1.2861 Y0.0469
N12400 X1.2872 Y0.0547
N12405 X1.2898 Y0.0699
N12410 X1.2916 Y0.0788
N12415 X1.295 Y0.0935
N12420 G2 X1.2977 Y0.1036 I0.1461 J-0.034
N12425 G1 X1.3021 Y0.1178
N12430 G2 X1.306 Y0.1289 I0.1434 J-0.0441
N12435 G1 X1.3114 Y0.1424
N12440 G2 X1.3168 Y0.1545 I0.1395 J-0.0552
N12445 G1 X1.3232 Y0.1673
N12450 G2 X1.3303 Y0.1798 I0.1341 J-0.0672
N12455 G1 X1.3379 Y0.192
N12460 G2 X1.3467 Y0.2046 I0.1271 J-0.0797
N12465 G1 X1.3556 Y0.216
N12470 G2 X1.3654 Y0.2273 I0.1182 J-0.0924
N12475 G1 X1.3756 Y0.2379
N12480 G2 X1.3848 Y0.2468 I0.1084 J-0.1037
N12485 G1 X1.3961 Y0.2567
N12490 G2 X1.4041 Y0.2633 I0.0992 J-0.1125
N12495 G1 X1.4164 Y0.2727
N12500 X1.4231 Y0.2775
N12505 X1.4361 Y0.2864
N12510 X1.4414 Y0.2899
N12515 X1.4551 Y0.2983
N12520 X1.459 Y0.3007
N12525 X1.4731 Y0.3088
N12530 X1.4758 Y0.3103
N12535 X1.4902 Y0.3183
N12540 X1.4915 Y0.319
N12545 X1.5061 Y0.3268
N12550 G2 X1.705 Y0.2735 I0.0712 J-0.132
N12555 G1 X1.7213 Y0.2469
N12560 X1.7219 Y0.2459
N12565 X1.7381 Y0.2193
N12570 X1.7392 Y0.2173
N12575 X1.7549 Y0.1905
N12580 X1.7566 Y0.1875
N12585 X1.7716 Y0.1605
N12590 X1.7738 Y0.1564
N12595 X1.7878 Y0.1291
N12600 X1.7904 Y0.1238
N12605 X1.8033 Y0.0962
N12610 X1.8062 Y0.0896
N12615 X1.8176 Y0.0616
N12620 X1.8204 Y0.0542
N12625 X1.8303 Y0.0258
N12630 X1.8326 Y0.0185
N12635 X1.8411 Y-0.0104
N12640 X1.8429 Y-0.0173
N12645 X1.8499 Y-0.0466
N12650 X1.8514 Y-0.0531
N12655 X1.8571 Y-0.0827
N12660 X1.8582 Y-0.0888
N12665 X1.8627 Y-0.1187
N12670 X1.8634 Y-0.1243
N12675 X1.8669 Y-0.1546
N12680 X1.8674 Y-0.1597
N12685 X1.8698 Y-0.1903
N12690 X1.8701 Y-0.1948
N12695 X1.8716 Y-0.2256
N12700 X1.8718 Y-0.2297
N12705 X1.8724 Y-0.2608
N12710 X1.8725 Y-0.2643
N12715 X1.8724 Y-0.2956
N12720 Y-0.2987
N12725 X1.8717 Y-0.3302
N12730 X1.8716 Y-0.3328
N12735 X1.8703 Y-0.3644
N12740 X1.8702 Y-0.3666
N12745 X1.8685 Y-0.3983
N12750 X1.8684 Y-0.4
N12755 X1.8663 Y-0.4319
N12760 X1.8662 Y-0.4332
N12765 X1.8639 Y-0.4651
N12770 X1.8638 Y-0.466
N12775 X1.8613 Y-0.498
N12780 X1.8612 Y-0.4984
N12785 X1.8596 Y-0.5178
N12790 X1.8606 Y-0.5289
N12795 Y-0.5295
N12800 X1.8626 Y-0.5532
N12805 X1.8627 Y-0.5543
N12810 X1.8645 Y-0.578
N12815 X1.8646 Y-0.5796
N12820 X1.8662 Y-0.6032
N12825 X1.8663 Y-0.6053
N12830 X1.8675 Y-0.6288
N12835 X1.8676 Y-0.6315
N12840 X1.8683 Y-0.6548
N12845 X1.8684 Y-0.6581
N12850 X1.8687 Y-0.6812
N12855 X1.8686 Y-0.6852
N12860 X1.8683 Y-0.7081
N12865 X1.8681 Y-0.7127
N12870 X1.8671 Y-0.7353
N12875 X1.8667 Y-0.7406
N12880 X1.8649 Y-0.7629
N12885 X1.8643 Y-0.7689
N12890 X1.8615 Y-0.7908
N12895 X1.8605 Y-0.7976
N12900 X1.8569 Y-0.8191
N12905 X1.8554 Y-0.8266
N12910 X1.8507 Y-0.8477
N12915 X1.8487 Y-0.8559
N12920 X1.8428 Y-0.8766
N12925 X1.8401 Y-0.8852
N12930 X1.833 Y-0.9055
N12935 X1.8314 Y-0.9101
N12940 X1.8295 Y-0.9146
N12945 X1.8212 Y-0.9343
N12950 G2 X1.8168 Y-0.9437 I-0.1381 J0.0585
N12955 G1 X1.8071 Y-0.9629
N12960 G2 X1.8021 Y-0.9719 I-0.1338 J0.0679
N12965 G1 X1.791 Y-0.9905
N12970 X1.7864 Y-0.9978
N12975 X1.774 Y-1.016
N12980 X1.77 Y-1.0217
N12985 X1.7566 Y-1.0396
N12990 X1.7532 Y-1.0439
N12995 X1.7391 Y-1.0614
N13000 X1.7365 Y-1.0645
N13005 X1.7218 Y-1.0818
N13010 X1.7201 Y-1.0838
N13015 X1.705 Y-1.1009
N13020 X1.7041 Y-1.1019
N13025 X1.6888 Y-1.1189
N13030 G2 X1.5168 Y-1.1558 I-0.1115 J0.1003
N13035 X1.5048 Y-1.1357 I0.0081 J0.0185
N13040 G3 X1.494 Y-1.1149 I-0.0219 J0.0018
N13045 G1 X1.4846 Y-1.1094
N13050 X1.4825 Y-1.1082
N13055 X1.4681 Y-1.0994
N13060 X1.4649 Y-1.0973
N13065 X1.4509 Y-1.0882
N13070 X1.4466 Y-1.0853
N13075 X1.4333 Y-1.0758
N13080 X1.4279 Y-1.0717
N13085 X1.4154 Y-1.0617
N13090 X1.4089 Y-1.0561
N13095 X1.3975 Y-1.0456
N13100 G2 X1.3901 Y-1.0382 I0.0846 J0.092
N13105 G1 X1.3797 Y-1.0269
N13110 G2 X1.3719 Y-1.0175 I0.092 J0.0846
N13115 G1 X1.3628 Y-1.0055
N13120 G2 X1.3559 Y-0.9952 I0.0998 J0.0752
N13125 G1 X1.3481 Y-0.9824
N13130 G2 X1.3425 Y-0.9722 I0.1068 J0.0649
N13135 G1 X1.3359 Y-0.9587
N13140 G2 X1.3317 Y-0.9489 I0.1124 J0.0547
N13145 G1 X1.3263 Y-0.9347
N13150 X1.3246 Y-0.9302
N13155 X1.3232 Y-0.9257
N13160 X1.3187 Y-0.9109
N13165 X1.3166 Y-0.9027
N13170 X1.3131 Y-0.8874
N13175 X1.3117 Y-0.8801
N13180 X1.3091 Y-0.8643
N13185 X1.3082 Y-0.858
N13190 X1.3063 Y-0.8416
N13195 X1.3059 Y-0.8363
N13200 X1.3047 Y-0.8195
N13205 X1.3044 Y-0.8149
N13210 X1.3039 Y-0.7979
N13215 X1.3038 Y-0.7941
N13220 Y-0.7767
N13225 Y-0.7737
N13230 X1.3042 Y-0.756
N13235 Y-0.7537
N13240 X1.305 Y-0.7358
N13245 Y-0.7341
N13250 X1.306 Y-0.7161
N13255 X1.3061 Y-0.7149
N13260 X1.3072 Y-0.6968
N13265 X1.3073 Y-0.6962
N13270 X1.3082 Y-0.6823
N13275 Y-0.4155
N13280 Y-0.4145
N13285 X1.3106 Y-0.1263
N13290 X1.3098 Y-0.1134
N13295 X1.3097 Y-0.1128
N13300 X1.3086 Y-0.0953
N13305 Y-0.0941
N13310 X1.3076 Y-0.0767
N13315 X1.3075 Y-0.0749
N13320 X1.3069 Y-0.0576
N13325 X1.3068 Y-0.0553
N13330 X1.3065 Y-0.0382
N13335 X1.3064 Y-0.0351
N13340 X1.3065 Y-0.0183
N13345 X1.3066 Y-0.0145
N13350 X1.3072 Y0.002
N13355 X1.3074 Y0.0067
N13360 X1.3086 Y0.0228
N13365 X1.3091 Y0.0283
N13370 X1.3109 Y0.044
N13375 X1.3119 Y0.0505
N13380 X1.3145 Y0.0657
N13385 X1.3159 Y0.0731
N13390 X1.3194 Y0.0878
N13395 X1.3216 Y0.0962
N13400 X1.326 Y0.1104
N13405 X1.3275 Y0.1151
N13410 X1.3293 Y0.1197
N13415 X1.3346 Y0.1332
N13420 G2 X1.3391 Y0.1433 I0.1162 J-0.046
N13425 G1 X1.3456 Y0.1561
N13430 G2 X1.3514 Y0.1665 I0.1117 J-0.056
N13435 G1 X1.3591 Y0.1787
N13440 G2 X1.3664 Y0.1892 I0.1059 J-0.0664
N13445 G1 X1.3753 Y0.2006
N13450 G2 X1.3835 Y0.21 I0.0985 J-0.077
N13455 G1 X1.3936 Y0.2206
N13460 G2 X1.4013 Y0.228 I0.0903 J-0.0864
N13465 G1 X1.4126 Y0.2379
N13470 X1.4193 Y0.2435
N13475 X1.4315 Y0.2528
N13480 X1.4371 Y0.2569
N13485 X1.4502 Y0.2657
N13490 X1.4546 Y0.2686
N13495 X1.4683 Y0.2771
N13500 X1.4715 Y0.279
N13505 X1.4857 Y0.2872
N13510 X1.4878 Y0.2884
N13515 X1.5023 Y0.2964
N13520 X1.5033 Y0.297
N13525 X1.5179 Y0.3048
N13530 G2 X1.6837 Y0.2604 I0.0593 J-0.11
N13535 G1 X1.7001 Y0.2338
N13540 X1.7006 Y0.233
N13545 X1.7167 Y0.2063
N13550 X1.7177 Y0.2047
N13555 X1.7333 Y0.1779
N13560 X1.7348 Y0.1754
N13565 X1.7497 Y0.1484
N13570 X1.7516 Y0.145
N13575 X1.7656 Y0.1177
N13580 X1.7678 Y0.1133
N13585 X1.7806 Y0.0857
N13590 X1.783 Y0.0802
N13595 X1.7945 Y0.0522
N13600 X1.7968 Y0.046
N13605 X1.8067 Y0.0175
N13610 X1.8086 Y0.0115
N13615 X1.8171 Y-0.0174
N13620 X1.8186 Y-0.0232
N13625 X1.8256 Y-0.0524
N13630 X1.8268 Y-0.0579
N13635 X1.8326 Y-0.0875
N13640 X1.8334 Y-0.0925
N13645 X1.838 Y-0.1225
N13650 X1.8386 Y-0.1271
N13655 X1.8421 Y-0.1574
N13660 X1.8425 Y-0.1617
N13665 X1.8449 Y-0.1922
N13670 X1.8451 Y-0.196
N13675 X1.8466 Y-0.2269
N13680 X1.8468 Y-0.2303
N13685 X1.8474 Y-0.2613
N13690 X1.8475 Y-0.2643
N13695 X1.8474 Y-0.2956
N13700 Y-0.2981
N13705 X1.8467 Y-0.3296
N13710 X1.8466 Y-0.3318
N13715 X1.8453 Y-0.3634
N13720 Y-0.3652
N13725 X1.8436 Y-0.397
N13730 X1.8435 Y-0.3984
N13735 X1.8414 Y-0.4303
N13740 X1.8413 Y-0.4313
N13745 X1.8389 Y-0.4633
N13750 Y-0.464
N13755 X1.8363 Y-0.496
N13760 X1.8345 Y-0.5178
N13765 X1.8357 Y-0.5311
N13770 Y-0.5315
N13775 X1.8377 Y-0.5553
N13780 X1.8378 Y-0.5562
N13785 X1.8396 Y-0.5799
N13790 X1.8397 Y-0.5812
N13795 X1.8412 Y-0.6048
N13800 X1.8413 Y-0.6066
N13805 X1.8425 Y-0.6301
N13810 X1.8426 Y-0.6323
N13815 X1.8434 Y-0.6556
N13820 Y-0.6584
N13825 X1.8437 Y-0.6815
N13830 X1.8436 Y-0.6848
N13835 X1.8433 Y-0.7077
N13840 X1.8432 Y-0.7115
N13845 X1.8421 Y-0.7341
N13850 X1.8418 Y-0.7385
N13855 X1.84 Y-0.7608
N13860 X1.8394 Y-0.7658
N13865 X1.8367 Y-0.7878
N13870 X1.8359 Y-0.7934
N13875 X1.8322 Y-0.815
N13880 X1.831 Y-0.8211
N13885 X1.8263 Y-0.8423
N13890 X1.8246 Y-0.8491
N13895 X1.8188 Y-0.8698
N13900 X1.8165 Y-0.877
N13905 X1.8094 Y-0.8972
N13910 X1.8065 Y-0.9049
N13915 X1.7981 Y-0.9246
N13920 X1.7945 Y-0.9324
N13925 X1.7848 Y-0.9516
N13930 X1.7807 Y-0.9591
N13935 X1.7695 Y-0.9777
N13940 X1.7657 Y-0.9838
N13945 X1.7533 Y-1.002
N13950 X1.7499 Y-1.0068
N13955 X1.7366 Y-1.0246
N13960 X1.7338 Y-1.0282
N13965 X1.7197 Y-1.0457
N13970 X1.7175 Y-1.0483
N13975 X1.7028 Y-1.0656
N13980 X1.7014 Y-1.0672
N13985 X1.6862 Y-1.0843
N13990 X1.6855 Y-1.0852
N13995 X1.6702 Y-1.1022
N14000 G2 X1.5153 Y-1.1271 I-0.0929 J0.0836
N14005 G1 X1.5004 Y-1.1186
N14010 X1.4993 Y-1.118
N14015 X1.494 Y-1.1149
N14020 X1.4905 Y-1.1132 Z-0.2894 F10.
N14025 X1.4869 Y-1.1121 Z-0.2888
N14030 X1.4834 Y-1.1116 Z-0.287
N14035 X1.4799 Z-0.2852
N14040 X1.4772 Y-1.1119 Z-0.2825
N14045 X1.4745 Y-1.1125 Z-0.2797
N14050 X1.4712 Y-1.1137 Z-0.2727
N14055 X1.4701 Y-1.1142 Z-0.265
N14060 Z0.2
N14065 G0 X2.675 Y0.3999
N14070 G1 Z0.125 F10.
N14075 X2.6756 Y0.3989 Z0.1174 F5.
N14080 X2.6775 Y0.3961 Z0.1106
N14085 X2.6806 Y0.3918 Z0.1051
N14090 X2.6848 Y0.3865 Z0.1014
N14095 X2.6898 Y0.3809 Z0.1
N14100 G3 X2.8614 Y0.5451 Z0.087 I0.0858 J0.0821
N14105 X2.6898 Y0.3809 Z0.0739 I-0.0858 J-0.0821
N14110 X2.8614 Y0.5451 Z0.0609 I0.0858 J0.0821
N14115 X2.6898 Y0.3809 Z0.0479 I-0.0858 J-0.0821
N14120 X2.8614 Y0.5451 Z0.0349 I0.0858 J0.0821
N14125 X2.6898 Y0.3809 Z0.0218 I-0.0858 J-0.0821
N14130 X2.8614 Y0.5451 Z0.0088 I0.0858 J0.0821
N14135 X2.6898 Y0.3809 Z-0.0042 I-0.0858 J-0.0821
N14140 X2.8614 Y0.5451 Z-0.0172 I0.0858 J0.0821
N14145 X2.6898 Y0.3809 Z-0.0303 I-0.0858 J-0.0821
N14150 X2.8614 Y0.5451 Z-0.0433 I0.0858 J0.0821
N14155 X2.6898 Y0.3809 Z-0.0563 I-0.0858 J-0.0821
N14160 X2.8614 Y0.5451 Z-0.0694 I0.0858 J0.0821
N14165 X2.6898 Y0.3809 Z-0.0824 I-0.0858 J-0.0821
N14170 X2.8614 Y0.5451 Z-0.0954 I0.0858 J0.0821
N14175 X2.7407 Y0.5765 Z-0.1 I-0.0858 J-0.0821
N14180 X2.7243 Y0.569 I0.0203 J-0.0661
N14185 X2.704 Y0.5529 I0.0629 J-0.1001
N14190 X2.6905 Y0.5306 I0.0378 J-0.0382
N14195 X2.6705 Y0.463 I2.5108 J-0.7787
N14200 X2.6529 Y0.3946 I1.4908 J-0.4189
N14205 X2.6617 Y0.389 I0.0054 J-0.0012
N14210 X2.6755 Y0.4004 I-0.2185 J0.278
N14215 G2 X2.6893 Y0.4118 I0.1709 J-0.1925
N14220 X2.933 Y0.4586 I0.1683 J-0.2184
N14225 X2.9846 Y0.4416 I-0.2047 J-0.7065
N14230 X3.035 Y0.4213 I-0.3531 J-0.9497
N14235 G3 X3.0439 Y0.4289 I0.0026 J0.006
N14240 X3.0303 Y0.479 I-1.1661 J-0.2918
N14245 X3.0153 Y0.5286 I-5.9931 J-1.7776
N14250 X3.0023 Y0.5506 I-0.0515 J-0.0157
N14255 X2.9894 Y0.5634 I-0.546 J-0.5359
N14260 X2.9747 Y0.5739 I-0.0422 J-0.0434
N14265 X2.957 Y0.5788 I-0.0212 J-0.0416
N14270 G2 X2.9387 Y0.5807 I0.0271 J0.3636
N14275 G3 X2.8434 Y0.5869 I-0.1004 J-0.8001
N14280 X2.7483 Y0.5784 I-0.0032 J-0.4991
N14285 G1 X2.7445 Y0.5776
N14290 X2.7407 Y0.5765
N14295 X2.7376 Y0.5755 Z-0.0995 F10.
N14300 X2.7344 Y0.5743 Z-0.0991
N14305 X2.7288 Y0.5716 Z-0.0964
N14310 X2.7243 Y0.569 Z-0.0922
N14315 X2.7212 Y0.567 Z-0.0871
N14320 X2.7192 Y0.5657 Z-0.0812
N14325 X2.7186 Y0.5652 Z-0.075
N14330 Z0.2
N14335 G0 X2.7586 Y-1.4243
N14340 G1 Z0.125 F10.
N14345 X2.759 Y-1.4254 Z0.1174 F5.
N14350 X2.7601 Y-1.4286 Z0.1106
N14355 X2.762 Y-1.4335 Z0.1051
N14360 X2.7648 Y-1.4397 Z0.1014
N14365 X2.7682 Y-1.4463 Z0.1
N14370 G3 X2.9753 Y-1.33 Z0.087 I0.1035 J0.0582
N14375 X2.7682 Y-1.4463 Z0.0739 I-0.1035 J-0.0582
N14380 X2.9753 Y-1.33 Z0.0609 I0.1035 J0.0582
N14385 X2.7682 Y-1.4463 Z0.0479 I-0.1035 J-0.0582
N14390 X2.9753 Y-1.33 Z0.0349 I0.1035 J0.0582
N14395 X2.7682 Y-1.4463 Z0.0218 I-0.1035 J-0.0582
N14400 X2.9753 Y-1.33 Z0.0088 I0.1035 J0.0582
N14405 X2.7682 Y-1.4463 Z-0.0042 I-0.1035 J-0.0582
N14410 X2.9753 Y-1.33 Z-0.0172 I0.1035 J0.0582
N14415 X2.7682 Y-1.4463 Z-0.0303 I-0.1035 J-0.0582
N14420 X2.9753 Y-1.33 Z-0.0433 I0.1035 J0.0582
N14425 X2.7682 Y-1.4463 Z-0.0563 I-0.1035 J-0.0582
N14430 X2.9753 Y-1.33 Z-0.0694 I0.1035 J0.0582
N14435 X2.7682 Y-1.4463 Z-0.0824 I-0.1035 J-0.0582
N14440 X2.9753 Y-1.33 Z-0.0954 I0.1035 J0.0582
N14445 X2.8662 Y-1.2696 Z-0.1 I-0.1035 J-0.0582
N14450 G2 X2.7053 Y-1.2335 I-0.0146 J0.312
N14455 G1 X2.7038 Y-1.233
N14460 X2.7022 Y-1.2329
N14465 X2.7006 Y-1.2334
N14470 X2.6993 Y-1.2343
N14475 X2.6983 Y-1.2355
N14480 X2.6978 Y-1.237
N14485 X2.6977 Y-1.2386
N14490 X2.6981 Y-1.2402
N14495 G3 X2.7333 Y-1.2824 I0.0913 J0.0402
N14500 X2.7803 Y-1.311 I0.3015 J0.4434
N14505 X2.8158 Y-1.3299 I1.6113 J2.9885
N14510 X2.8522 Y-1.3472 I0.2448 J0.4673
N14515 X2.8805 Y-1.3485 I0.0159 J0.037
N14520 X2.9289 Y-1.332 I-0.4752 J1.4705
N14525 X2.9758 Y-1.3115 I-0.1294 J0.3593
N14530 G1 X2.9834 Y-1.3076
N14535 X2.9872 Y-1.3056
N14540 X2.9908 Y-1.3033
N14545 G3 X3.0011 Y-1.2913 I-0.017 J0.025
N14550 X3.0073 Y-1.2747 I-0.0935 J0.0443
N14555 X3.012 Y-1.2577 I-1.3213 J0.3685
N14560 G2 X3.0153 Y-1.2459 I0.3401 J-0.0901
N14565 G3 X3.0182 Y-1.2341 I-0.1026 J0.031
N14570 X3.0088 Y-1.2275 I-0.0062 J0.0011
N14575 G2 X2.8662 Y-1.2696 I-0.1571 J0.27
N14580 X2.7296 Y-1.152 I-0.0061 J0.131
N14585 G3 X2.654 Y-0.9883 I-0.2764 J-0.0285
N14590 G1 X2.6502 Y-0.9843
N14595 X2.6382 Y-0.9707
N14600 G2 X2.6307 Y-0.9615 I0.1121 J0.0996
N14605 G1 X2.6199 Y-0.9472
N14610 G2 X2.6122 Y-0.9362 I0.1197 J0.0905
N14615 G1 X2.6029 Y-0.9211
N14620 G2 X2.5964 Y-0.9097 I0.1273 J0.0794
N14625 G1 X2.5884 Y-0.894
N14630 G2 X2.5833 Y-0.8829 I0.1337 J0.068
N14635 G1 X2.5766 Y-0.8665
N14640 G2 X2.5728 Y-0.856 I0.1388 J0.0569
N14645 G1 X2.5672 Y-0.8389
N14650 G2 X2.5644 Y-0.8292 I0.1426 J0.0464
N14655 G1 X2.56 Y-0.8116
N14660 X2.558 Y-0.8029
N14665 X2.5546 Y-0.7848
N14670 X2.5533 Y-0.777
N14675 X2.5508 Y-0.7584
N14680 X2.55 Y-0.7516
N14685 X2.5483 Y-0.7325
N14690 X2.5479 Y-0.7267
N14695 X2.547 Y-0.7073
N14700 X2.5468 Y-0.7023
N14705 X2.5465 Y-0.6825
N14710 X2.5464 Y-0.6784
N14715 X2.5467 Y-0.6584
N14720 Y-0.655
N14725 X2.5474 Y-0.6347
N14730 X2.5475 Y-0.6321
N14735 X2.5485 Y-0.6116
N14740 X2.5487 Y-0.6097
N14745 X2.55 Y-0.5891
N14750 X2.5501 Y-0.5878
N14755 X2.5515 Y-0.5671
N14760 X2.5516 Y-0.5665
N14765 X2.5527 Y-0.5514
N14770 Y-0.2458
N14775 X2.5514 Y-0.2295
N14780 Y-0.2289
N14785 X2.5497 Y-0.2067
N14790 X2.5496 Y-0.2055
N14795 X2.5481 Y-0.1834
N14800 X2.548 Y-0.1815
N14805 X2.5468 Y-0.1596
N14810 X2.5467 Y-0.157
N14815 X2.5458 Y-0.1353
N14820 Y-0.132
N14825 X2.5454 Y-0.1105
N14830 Y-0.1065
N14835 X2.5456 Y-0.0853
N14840 X2.5457 Y-0.0804
N14845 X2.5466 Y-0.0595
N14850 X2.547 Y-0.0539
N14855 X2.5486 Y-0.0334
N14860 X2.5493 Y-0.0268
N14865 X2.5519 Y-0.0067
N14870 X2.553 Y0.0008
N14875 X2.5565 Y0.0204
N14880 X2.5582 Y0.0289
N14885 X2.5627 Y0.0479
N14890 X2.5639 Y0.0526
N14895 X2.5653 Y0.0573
N14900 X2.571 Y0.0758
N14905 G2 X2.5745 Y0.0859 I0.1434 J-0.0441
N14910 G1 X2.5814 Y0.1038
N14915 G2 X2.5861 Y0.1146 I0.1399 J-0.0542
N14920 G1 X2.5944 Y0.1318
N14925 G2 X2.6003 Y0.1429 I0.1352 J-0.065
N14930 G1 X2.61 Y0.1593
N14935 G2 X2.6171 Y0.1703 I0.1292 J-0.0761
N14940 G1 X2.6283 Y0.186
N14945 G2 X2.6355 Y0.1953 I0.1221 J-0.0871
N14950 G1 X2.6481 Y0.2103
N14955 X2.6513 Y0.214
N14960 X2.6546 Y0.2176
N14965 X2.6684 Y0.232
N14970 X2.674 Y0.2375
N14975 X2.6887 Y0.2514
N14980 X2.6932 Y0.2555
N14985 X2.7088 Y0.269
N14990 X2.7122 Y0.2718
N14995 X2.7283 Y0.285
N15000 X2.7306 Y0.2868
N15005 X2.7471 Y0.2998
N15010 X2.7482 Y0.3007
N15015 X2.765 Y0.3136
N15020 G2 X2.8983 Y0.3389 I0.0916 J-0.1188
N15025 G1 X2.9105 Y0.3353
N15030 X2.9117 Y0.335
N15035 X2.9238 Y0.3314
N15040 X2.9261 Y0.3307
N15045 X2.9381 Y0.3269
N15050 X2.9416 Y0.3257
N15055 X2.9533 Y0.3217
N15060 X2.9581 Y0.32
N15065 X2.9694 Y0.3157
N15070 X2.9756 Y0.3131
N15075 X2.9864 Y0.3084
N15080 X2.9941 Y0.3048
N15085 X3.0043 Y0.2997
N15090 G2 X3.0135 Y0.2947 I-0.0674 J-0.134
N15095 G1 X3.0231 Y0.289
N15100 G2 X3.0336 Y0.2821 I-0.0766 J-0.129
N15105 G1 X3.0425 Y0.2758
N15110 G2 X3.0542 Y0.2665 I-0.0871 J-0.1221
N15115 G1 X3.0622 Y0.2595
N15120 G2 X3.0744 Y0.2475 I-0.0988 J-0.1128
N15125 G1 X3.0814 Y0.2398
N15130 G2 X3.0923 Y0.2264 I-0.111 J-0.1009
N15135 G1 X3.0984 Y0.2178
N15140 G2 X3.1069 Y0.2046 I-0.1219 J-0.0875
N15145 G1 X3.1122 Y0.1953
N15150 G2 X3.1185 Y0.1828 I-0.1304 J-0.0742
N15155 G1 X3.123 Y0.173
N15160 G2 X3.1275 Y0.1616 I-0.1367 J-0.0617
N15165 G1 X3.1313 Y0.1512
N15170 G2 X3.1344 Y0.1413 I-0.1413 J-0.0504
N15175 G1 X3.1375 Y0.1303
N15180 X3.1396 Y0.1218
N15185 X3.1421 Y0.1103
N15190 X3.1435 Y0.1032
N15195 X3.1455 Y0.0913
N15200 X3.1464 Y0.0855
N15205 X3.1479 Y0.0733
N15210 X3.1485 Y0.0686
N15215 X3.1497 Y0.056
N15220 X3.15 Y0.0524
N15225 X3.1509 Y0.0397
N15230 X3.1511 Y0.037
N15235 X3.1518 Y0.024
N15240 X3.1519 Y0.0223
N15245 X3.1524 Y0.0093
N15250 Y0.0084
N15255 X3.1529 Y-0.0047
N15260 X3.153 Y-0.0103
N15265 Y-0.1087
N15270 X3.1554 Y-0.2169
N15275 X3.1555 Y-0.2202
N15280 Y-0.5169
N15285 X3.1568 Y-0.5332
N15290 Y-0.5338
N15295 X3.1585 Y-0.556
N15300 X3.1586 Y-0.5572
N15305 X3.1601 Y-0.5793
N15310 X3.1602 Y-0.5812
N15315 X3.1614 Y-0.6032
N15320 X3.1615 Y-0.6057
N15325 X3.1624 Y-0.6274
N15330 X3.1625 Y-0.6307
N15335 X3.1628 Y-0.6522
N15340 Y-0.6563
N15345 X3.1626 Y-0.6775
N15350 X3.1625 Y-0.6823
N15355 X3.1616 Y-0.7032
N15360 X3.1612 Y-0.7089
N15365 X3.1596 Y-0.7294
N15370 X3.1589 Y-0.736
N15375 X3.1564 Y-0.756
N15380 X3.1552 Y-0.7636
N15385 X3.1518 Y-0.7831
N15390 X3.15 Y-0.7916
N15395 X3.1455 Y-0.8107
N15400 X3.1443 Y-0.8154
N15405 X3.1429 Y-0.82
N15410 X3.1372 Y-0.8385
N15415 G2 X3.1337 Y-0.8487 I-0.1434 J0.0441
N15420 G1 X3.1268 Y-0.8665
N15425 G2 X3.1221 Y-0.8773 I-0.1399 J0.0542
N15430 G1 X3.1139 Y-0.8945
N15435 G2 X3.1079 Y-0.9056 I-0.1352 J0.065
N15440 G1 X3.0982 Y-0.9221
N15445 G2 X3.0911 Y-0.933 I-0.1292 J0.0762
N15450 G1 X3.0799 Y-0.9487
N15455 G2 X3.0727 Y-0.958 I-0.1221 J0.0871
N15460 G1 X3.0601 Y-0.973
N15465 X3.0569 Y-0.9767
N15470 X3.0536 Y-0.9803
N15475 X3.0398 Y-0.9947
N15480 X3.0343 Y-1.0002
N15485 X3.0195 Y-1.0141
N15490 X3.015 Y-1.0182
N15495 X2.9994 Y-1.0317
N15500 X2.9961 Y-1.0346
N15505 X2.9799 Y-1.0478
N15510 X2.9776 Y-1.0496
N15515 X2.9611 Y-1.0626
N15520 X2.96 Y-1.0635
N15525 X2.9432 Y-1.0764
N15530 G2 X2.7635 Y-1.0789 I-0.0916 J0.1188
N15535 G1 X2.7476 Y-1.0673
N15540 X2.7464 Y-1.0665
N15545 X2.7307 Y-1.0548
N15550 X2.7284 Y-1.0531
N15555 X2.713 Y-1.0412
N15560 X2.7095 Y-1.0384
N15565 X2.6946 Y-1.0263
N15570 X2.69 Y-1.0223
N15575 X2.6759 Y-1.0098
N15580 X2.6702 Y-1.0044
N15585 X2.657 Y-0.9914
N15590 X2.654 Y-0.9883
N15595 G3 X2.6434 Y-0.9847 I-0.0088 J-0.0084
N15600 G1 X2.6202 Y-0.9882
N15605 G2 X2.6081 Y-0.9827 I-0.0018 J0.012
N15610 G1 X2.5237 Y-0.8487
N15615 X2.5112 Y-0.8348
N15620 X2.51 Y-0.8338
N15625 X2.5086 Y-0.8334
N15630 X2.5071
N15635 X2.5057 Y-0.8339
N15640 X2.5046 Y-0.8349
N15645 X2.5039 Y-0.8362
N15650 X2.5036 Y-0.8377
N15655 Y-0.8379
N15660 Y-0.8395
N15665 X2.5031 Y-0.8894
N15670 X2.5028 Y-0.9384
N15675 X2.503 Y-0.9862
N15680 X2.504 Y-1.0325
N15685 X2.5059 Y-1.0772
N15690 X2.509 Y-1.12
N15695 X2.5133 Y-1.1605
N15700 X2.519 Y-1.1986
N15705 X2.5262 Y-1.2339
N15710 X2.5349 Y-1.2662
N15715 X2.545 Y-1.2953
N15720 X2.5564 Y-1.3213
N15725 X2.5691 Y-1.3442
N15730 X2.5832 Y-1.3643
N15735 X2.5995 Y-1.3828
N15740 X2.6191 Y-1.401
N15745 X2.6429 Y-1.4192
N15750 X2.6707 Y-1.4375
N15755 X2.7024 Y-1.4555
N15760 X2.7374 Y-1.4733
N15765 X2.7754 Y-1.4909
N15770 X2.8158 Y-1.5083
N15775 X2.8559 Y-1.5247
N15780 X2.8881 Y-1.5157
N15785 X2.9258 Y-1.5045
N15790 X2.9614 Y-1.493
N15795 X2.9944 Y-1.4811
N15800 X3.0244 Y-1.4688
N15805 X3.051 Y-1.4561
N15810 X3.074 Y-1.4431
N15815 X3.0931 Y-1.4301
N15820 X3.1085 Y-1.4173
N15825 X3.121 Y-1.4042
N15830 X3.1321 Y-1.3895
N15835 X3.1426 Y-1.3719
N15840 X3.1525 Y-1.3511
N15845 X3.1615 Y-1.3269
N15850 X3.1697 Y-1.2995
N15855 X3.1768 Y-1.269
N15860 X3.1829 Y-1.2357
N15865 X3.1879 Y-1.1999
N15870 X3.192 Y-1.162
N15875 X3.1953 Y-1.1222
N15880 X3.198 Y-1.0809
N15885 X3.2003 Y-1.0382
N15890 X3.2022 Y-0.997
N15895 X3.2046 Y-0.8052
N15900 Y-0.0591
N15905 Y-0.0576
N15910 X3.2049 Y-0.0263
N15915 X3.2052 Y0.0047
N15920 X3.2053 Y0.0355
N15925 Y0.066
N15930 X3.2051 Y0.0961
N15935 X3.2046 Y0.126
N15940 X3.2038 Y0.1556
N15945 X3.2026 Y0.1848
N15950 X3.2011 Y0.2136
N15955 X3.1991 Y0.2422
N15960 X3.1967 Y0.2703
N15965 X3.1937 Y0.2981
N15970 X3.1901 Y0.3256
N15975 X3.186 Y0.3526
N15980 X3.1812 Y0.3794
N15985 X3.1757 Y0.4062
N15990 X3.1695 Y0.4333
N15995 X3.1627 Y0.4608
N16000 X3.1552 Y0.4886
N16005 X3.1472 Y0.5168
N16010 X3.1387 Y0.5453
N16015 X3.1299 Y0.5742
N16020 X3.1209 Y0.6031
N16025 X3.1165 Y0.6081
N16030 X3.1047 Y0.6211
N16035 X3.0935 Y0.6331
N16040 X3.0827 Y0.6441
N16045 X3.0725 Y0.6538
N16050 X3.0629 Y0.6624
N16055 X3.0539 Y0.6697
N16060 X3.0456 Y0.6758
N16065 X3.0381 Y0.6806
N16070 X3.031 Y0.6845
N16075 X3.0235 Y0.688
N16080 X3.0149 Y0.6914
N16085 X3.0052 Y0.6945
N16090 X2.9942 Y0.6974
N16095 X2.982 Y0.7001
N16100 X2.9687 Y0.7024
N16105 X2.9543 Y0.7044
N16110 X2.9388 Y0.7061
N16115 X2.9223 Y0.7076
N16120 X2.9049 Y0.7088
N16125 X2.8867 Y0.7098
N16130 X2.8677 Y0.7106
N16135 X2.8537 Y0.7112
N16140 X2.8398 Y0.7107
N16145 X2.8208 Y0.7099
N16150 X2.8026 Y0.7091
N16155 X2.7853 Y0.708
N16160 X2.7688 Y0.7066
N16165 X2.7533 Y0.705
N16170 X2.7388 Y0.7031
N16175 X2.7254 Y0.7009
N16180 X2.7131 Y0.6983
N16185 X2.702 Y0.6955
N16190 X2.6921 Y0.6924
N16195 X2.6833 Y0.6891
N16200 X2.6756 Y0.6857
N16205 X2.6684 Y0.6818
N16210 X2.6608 Y0.6771
N16215 X2.6525 Y0.6712
N16220 X2.6434 Y0.6641
N16225 X2.6337 Y0.6557
N16230 X2.6235 Y0.6461
N16235 X2.6126 Y0.6354
N16240 X2.6013 Y0.6236
N16245 X2.5894 Y0.6108
N16250 X2.5855 Y0.6066
N16255 X2.5771 Y0.5801
N16260 X2.5684 Y0.552
N16265 X2.5601 Y0.5243
N16270 X2.5522 Y0.497
N16275 X2.5449 Y0.47
N16280 X2.5381 Y0.4434
N16285 X2.532 Y0.4172
N16290 X2.5266 Y0.3912
N16295 X2.5219 Y0.3653
N16300 X2.5179 Y0.3391
N16305 X2.5144 Y0.3125
N16310 X2.5115 Y0.2856
N16315 X2.509 Y0.2583
N16320 X2.5071 Y0.2306
N16325 X2.5056 Y0.2026
N16330 X2.5044 Y0.1742
N16335 X2.5037 Y0.1455
N16340 X2.5032 Y0.1165
N16345 X2.503 Y0.0871
N16350 X2.5029 Y0.0575
N16355 X2.5031 Y0.0275
N16360 X2.5033 Y-0.0027
N16365 X2.5036 Y-0.0332
N16370 Y-0.0347
N16375 Y-0.8377
N16380 G3 X2.51 Y-0.8472 I0.0103 J0.
N16385 G1 X2.5425 Y-0.8605
N16390 X2.5447 Y-0.8618
N16395 X2.5465 Y-0.8635
N16400 X2.5479 Y-0.8656
N16405 X2.7686 Y-1.3299
N16410 X2.7679 Y-1.3306
N16415 G3 X2.9756 Y-1.4458 Z-0.113 I0.1039 J-0.0576
N16420 X2.7679 Y-1.3306 Z-0.1261 I-0.1039 J0.0576
N16425 X2.9756 Y-1.4458 Z-0.1391 I0.1039 J-0.0576
N16430 X2.7679 Y-1.3306 Z-0.1521 I-0.1039 J0.0576
N16435 X2.9756 Y-1.4458 Z-0.1651 I0.1039 J-0.0576
N16440 X2.7679 Y-1.3306 Z-0.1782 I-0.1039 J0.0576
N16445 X2.9756 Y-1.4458 Z-0.1912 I0.1039 J-0.0576
N16450 X2.8662 Y-1.2696 Z-0.2 I-0.1039 J0.0576
N16455 G2 X2.7053 Y-1.2335 I-0.0146 J0.312
N16460 G1 X2.7038 Y-1.233
N16465 X2.7022 Y-1.2329
N16470 X2.7006 Y-1.2334
N16475 X2.6993 Y-1.2343
N16480 X2.6983 Y-1.2355
N16485 X2.6978 Y-1.237
N16490 X2.6977 Y-1.2386
N16495 X2.6981 Y-1.2402
N16500 G3 X2.7333 Y-1.2824 I0.0913 J0.0402
N16505 X2.7803 Y-1.311 I0.3015 J0.4434
N16510 X2.8158 Y-1.3299 I1.6113 J2.9885
N16515 X2.8522 Y-1.3472 I0.2448 J0.4673
N16520 X2.8805 Y-1.3485 I0.0159 J0.037
N16525 X2.9289 Y-1.332 I-0.4752 J1.4705
N16530 X2.9758 Y-1.3115 I-0.1294 J0.3593
N16535 G1 X2.9834 Y-1.3076
N16540 X2.9872 Y-1.3056
N16545 X2.9908 Y-1.3033
N16550 G3 X3.0011 Y-1.2913 I-0.017 J0.025
N16555 X3.0073 Y-1.2747 I-0.0935 J0.0443
N16560 X3.012 Y-1.2577 I-1.3213 J0.3685
N16565 G2 X3.0153 Y-1.2459 I0.3401 J-0.0901
N16570 G3 X3.0182 Y-1.2341 I-0.1026 J0.031
N16575 X3.0088 Y-1.2275 I-0.0062 J0.0011
N16580 G2 X2.8662 Y-1.2696 I-0.1571 J0.27
N16585 G1 X2.8624 Y-1.27 Z-0.1994 F10.
N16590 X2.8587 Y-1.2711 Z-0.1988
N16595 X2.8555 Y-1.2725 Z-0.197
N16600 X2.8526 Y-1.2744 Z-0.1952
N16605 X2.8504 Y-1.2762 Z-0.1925
N16610 X2.8485 Y-1.2781 Z-0.1897
N16615 X2.8464 Y-1.281 Z-0.1827
N16620 X2.8458 Y-1.282 Z-0.175
N16625 Z0.2
N16630 G0 X2.675 Y0.3999
N16635 G1 Z0.025 F10.
N16640 X2.6756 Y0.3989 Z0.0174 F5.
N16645 X2.6775 Y0.3961 Z0.0106
N16650 X2.6806 Y0.3918 Z0.0051
N16655 X2.6848 Y0.3865 Z0.0014
N16660 X2.6898 Y0.3809 Z0.
N16665 G3 X2.8614 Y0.5451 Z-0.013 I0.0858 J0.0821
N16670 X2.6898 Y0.3809 Z-0.0261 I-0.0858 J-0.0821
N16675 X2.8614 Y0.5451 Z-0.0391 I0.0858 J0.0821
N16680 X2.6898 Y0.3809 Z-0.0521 I-0.0858 J-0.0821
N16685 X2.8614 Y0.5451 Z-0.0651 I0.0858 J0.0821
N16690 X2.6898 Y0.3809 Z-0.0782 I-0.0858 J-0.0821
N16695 X2.8614 Y0.5451 Z-0.0912 I0.0858 J0.0821
N16700 X2.6898 Y0.3809 Z-0.1042 I-0.0858 J-0.0821
N16705 X2.8614 Y0.5451 Z-0.1172 I0.0858 J0.0821
N16710 X2.6898 Y0.3809 Z-0.1303 I-0.0858 J-0.0821
N16715 X2.8614 Y0.5451 Z-0.1433 I0.0858 J0.0821
N16720 X2.6898 Y0.3809 Z-0.1563 I-0.0858 J-0.0821
N16725 X2.8614 Y0.5451 Z-0.1694 I0.0858 J0.0821
N16730 X2.6898 Y0.3809 Z-0.1824 I-0.0858 J-0.0821
N16735 X2.8614 Y0.5451 Z-0.1954 I0.0858 J0.0821
N16740 X2.7407 Y0.5765 Z-0.2 I-0.0858 J-0.0821
N16745 X2.7243 Y0.569 I0.0203 J-0.0661
N16750 X2.704 Y0.5529 I0.0629 J-0.1001
N16755 X2.6905 Y0.5306 I0.0378 J-0.0382
N16760 X2.6705 Y0.463 I2.5108 J-0.7787
N16765 X2.6529 Y0.3946 I1.4908 J-0.4189
N16770 X2.6617 Y0.389 I0.0054 J-0.0012
N16775 X2.6755 Y0.4004 I-0.2185 J0.278
N16780 G2 X2.6893 Y0.4118 I0.1709 J-0.1925
N16785 X2.933 Y0.4586 I0.1683 J-0.2184
N16790 X2.9846 Y0.4416 I-0.2047 J-0.7065
N16795 X3.035 Y0.4213 I-0.3531 J-0.9497
N16800 G3 X3.0439 Y0.4289 I0.0026 J0.006
N16805 X3.0303 Y0.479 I-1.1661 J-0.2918
N16810 X3.0153 Y0.5286 I-5.9931 J-1.7776
N16815 X3.0023 Y0.5506 I-0.0515 J-0.0157
N16820 X2.9894 Y0.5634 I-0.546 J-0.5359
N16825 X2.9747 Y0.5739 I-0.0422 J-0.0434
N16830 X2.957 Y0.5788 I-0.0212 J-0.0416
N16835 G2 X2.9387 Y0.5807 I0.0271 J0.3636
N16840 G3 X2.8434 Y0.5869 I-0.1004 J-0.8001
N16845 X2.7483 Y0.5784 I-0.0032 J-0.4991
N16850 G1 X2.7445 Y0.5776
N16855 X2.7407 Y0.5765
N16860 G2 X2.657 Y0.5947 I-0.0257 J0.0837
N16865 G3 X2.5745 Y0.5716 I-0.0338 J-0.0382
N16870 G1 X2.5684 Y0.552
N16875 X2.5601 Y0.5243
N16880 X2.5522 Y0.497
N16885 X2.5449 Y0.47
N16890 X2.5381 Y0.4434
N16895 X2.532 Y0.4172
N16900 X2.5266 Y0.3912
N16905 X2.5219 Y0.3653
N16910 X2.5179 Y0.3391
N16915 X2.5144 Y0.3125
N16920 X2.5115 Y0.2856
N16925 X2.509 Y0.2583
N16930 X2.5071 Y0.2306
N16935 X2.5056 Y0.2026
N16940 X2.5044 Y0.1742
N16945 X2.5037 Y0.1455
N16950 X2.5032 Y0.1165
N16955 X2.503 Y0.0871
N16960 X2.5029 Y0.0575
N16965 X2.5031 Y0.0275
N16970 X2.5033 Y-0.0027
N16975 X2.5036 Y-0.0332
N16980 Y-0.0347
N16985 Y-0.8379
N16990 Y-0.8395
N16995 X2.5031 Y-0.8894
N17000 X2.5028 Y-0.9384
N17005 X2.503 Y-0.9862
N17010 X2.504 Y-1.0325
N17015 X2.5059 Y-1.0772
N17020 X2.509 Y-1.12
N17025 X2.5133 Y-1.1605
N17030 X2.519 Y-1.1986
N17035 X2.5262 Y-1.2339
N17040 X2.5349 Y-1.2662
N17045 X2.545 Y-1.2953
N17050 X2.5564 Y-1.3213
N17055 X2.5691 Y-1.3442
N17060 X2.5832 Y-1.3643
N17065 X2.5995 Y-1.3828
N17070 X2.6191 Y-1.401
N17075 X2.6429 Y-1.4192
N17080 X2.6707 Y-1.4375
N17085 X2.7024 Y-1.4555
N17090 X2.7374 Y-1.4733
N17095 X2.7754 Y-1.4909
N17100 X2.8158 Y-1.5083
N17105 X2.8559 Y-1.5247
N17110 X2.8881 Y-1.5157
N17115 X2.9258 Y-1.5045
N17120 X2.9614 Y-1.493
N17125 X2.9944 Y-1.4811
N17130 X3.0244 Y-1.4688
N17135 X3.051 Y-1.4561
N17140 X3.074 Y-1.4431
N17145 X3.0931 Y-1.4301
N17150 X3.1085 Y-1.4173
N17155 X3.121 Y-1.4042
N17160 X3.1321 Y-1.3895
N17165 X3.1426 Y-1.3719
N17170 X3.1525 Y-1.3511
N17175 X3.1615 Y-1.3269
N17180 X3.1697 Y-1.2995
N17185 X3.1768 Y-1.269
N17190 X3.1829 Y-1.2357
N17195 X3.1879 Y-1.1999
N17200 X3.192 Y-1.162
N17205 X3.1953 Y-1.1222
N17210 X3.198 Y-1.0809
N17215 X3.2003 Y-1.0382
N17220 X3.2022 Y-0.997
N17225 X3.2046 Y-0.8052
N17230 Y-0.0591
N17235 Y-0.0576
N17240 X3.2049 Y-0.0263
N17245 X3.2052 Y0.0047
N17250 X3.2053 Y0.0355
N17255 Y0.066
N17260 X3.2051 Y0.0961
N17265 X3.2046 Y0.126
N17270 X3.2038 Y0.1556
N17275 X3.2026 Y0.1848
N17280 X3.2011 Y0.2136
N17285 X3.1991 Y0.2422
N17290 X3.1967 Y0.2703
N17295 X3.1937 Y0.2981
N17300 X3.1901 Y0.3256
N17305 X3.186 Y0.3526
N17310 X3.1812 Y0.3794
N17315 X3.1757 Y0.4062
N17320 X3.1695 Y0.4333
N17325 X3.1627 Y0.4608
N17330 X3.1552 Y0.4886
N17335 X3.1472 Y0.5168
N17340 X3.1387 Y0.5453
N17345 X3.1299 Y0.5742
N17350 X3.1209 Y0.6031
N17355 X3.1165 Y0.6081
N17360 X3.1047 Y0.6211
N17365 X3.0935 Y0.6331
N17370 X3.0827 Y0.6441
N17375 X3.0725 Y0.6538
N17380 X3.0629 Y0.6624
N17385 X3.0539 Y0.6697
N17390 X3.0456 Y0.6758
N17395 X3.0381 Y0.6806
N17400 X3.031 Y0.6845
N17405 X3.0235 Y0.688
N17410 X3.0149 Y0.6914
N17415 X3.0052 Y0.6945
N17420 X2.9942 Y0.6974
N17425 X2.982 Y0.7001
N17430 X2.9687 Y0.7024
N17435 X2.9543 Y0.7044
N17440 X2.9388 Y0.7061
N17445 X2.9223 Y0.7076
N17450 X2.9049 Y0.7088
N17455 X2.8867 Y0.7098
N17460 X2.8677 Y0.7106
N17465 X2.8537 Y0.7112
N17470 X2.8398 Y0.7107
N17475 X2.8208 Y0.7099
N17480 X2.8026 Y0.7091
N17485 X2.7853 Y0.708
N17490 X2.7688 Y0.7066
N17495 X2.7533 Y0.705
N17500 X2.7388 Y0.7031
N17505 X2.7254 Y0.7009
N17510 X2.7131 Y0.6983
N17515 X2.702 Y0.6955
N17520 X2.6921 Y0.6924
N17525 X2.6833 Y0.6891
N17530 X2.6756 Y0.6857
N17535 X2.6684 Y0.6818
N17540 X2.6608 Y0.6771
N17545 X2.6525 Y0.6712
N17550 X2.6434 Y0.6641
N17555 X2.6337 Y0.6557
N17560 X2.6235 Y0.6461
N17565 X2.6126 Y0.6354
N17570 X2.6013 Y0.6236
N17575 X2.5894 Y0.6108
N17580 X2.5855 Y0.6066
N17585 X2.5771 Y0.5801
N17590 X2.5745 Y0.5716
N17595 G3 X2.5777 Y0.559 I0.0119 J-0.0037
N17600 G1 X2.8006 Y0.3414
N17605 G3 X2.813 Y0.3383 I0.0087 J0.0089
N17610 G2 X2.8983 Y0.3389 I0.0435 J-0.1435
N17615 G1 X2.9105 Y0.3353
N17620 X2.9117 Y0.335
N17625 X2.9238 Y0.3314
N17630 X2.9261 Y0.3307
N17635 X2.9381 Y0.3269
N17640 X2.9416 Y0.3257
N17645 X2.9533 Y0.3217
N17650 X2.9581 Y0.32
N17655 X2.9694 Y0.3157
N17660 X2.9756 Y0.3131
N17665 X2.9864 Y0.3084
N17670 X2.9941 Y0.3048
N17675 X3.0043 Y0.2997
N17680 G2 X3.0135 Y0.2947 I-0.0674 J-0.134
N17685 G1 X3.0231 Y0.289
N17690 G2 X3.0336 Y0.2821 I-0.0766 J-0.129
N17695 G1 X3.0425 Y0.2758
N17700 G2 X3.0542 Y0.2665 I-0.0871 J-0.1221
N17705 G1 X3.0622 Y0.2595
N17710 G2 X3.0744 Y0.2475 I-0.0988 J-0.1128
N17715 G1 X3.0814 Y0.2398
N17720 G2 X3.0923 Y0.2264 I-0.111 J-0.1009
N17725 G1 X3.0984 Y0.2178
N17730 G2 X3.1069 Y0.2046 I-0.1219 J-0.0875
N17735 G1 X3.1122 Y0.1953
N17740 G2 X3.1185 Y0.1828 I-0.1304 J-0.0742
N17745 G1 X3.123 Y0.173
N17750 G2 X3.1275 Y0.1616 I-0.1367 J-0.0617
N17755 G1 X3.1313 Y0.1512
N17760 G2 X3.1344 Y0.1413 I-0.1413 J-0.0504
N17765 G1 X3.1375 Y0.1303
N17770 X3.1396 Y0.1218
N17775 X3.1421 Y0.1103
N17780 X3.1435 Y0.1032
N17785 X3.1455 Y0.0913
N17790 X3.1464 Y0.0855
N17795 X3.1479 Y0.0733
N17800 X3.1485 Y0.0686
N17805 X3.1497 Y0.056
N17810 X3.15 Y0.0524
N17815 X3.1509 Y0.0397
N17820 X3.1511 Y0.037
N17825 X3.1518 Y0.024
N17830 X3.1519 Y0.0223
N17835 X3.1524 Y0.0093
N17840 Y0.0084
N17845 X3.1529 Y-0.0047
N17850 X3.153 Y-0.0103
N17855 Y-0.1087
N17860 X3.1554 Y-0.2169
N17865 X3.1555 Y-0.2202
N17870 Y-0.5169
N17875 X3.1568 Y-0.5332
N17880 Y-0.5338
N17885 X3.1585 Y-0.556
N17890 X3.1586 Y-0.5572
N17895 X3.1601 Y-0.5793
N17900 X3.1602 Y-0.5812
N17905 X3.1614 Y-0.6032
N17910 X3.1615 Y-0.6057
N17915 X3.1624 Y-0.6274
N17920 X3.1625 Y-0.6307
N17925 X3.1628 Y-0.6522
N17930 Y-0.6563
N17935 X3.1626 Y-0.6775
N17940 X3.1625 Y-0.6823
N17945 X3.1616 Y-0.7032
N17950 X3.1612 Y-0.7089
N17955 X3.1596 Y-0.7294
N17960 X3.1589 Y-0.736
N17965 X3.1564 Y-0.756
N17970 X3.1552 Y-0.7636
N17975 X3.1518 Y-0.7831
N17980 X3.15 Y-0.7916
N17985 X3.1455 Y-0.8107
N17990 X3.1443 Y-0.8154
N17995 X3.1429 Y-0.82
N18000 X3.1372 Y-0.8385
N18005 G2 X3.1337 Y-0.8487 I-0.1434 J0.0441
N18010 G1 X3.1268 Y-0.8665
N18015 G2 X3.1221 Y-0.8773 I-0.1399 J0.0542
N18020 G1 X3.1139 Y-0.8945
N18025 G2 X3.1079 Y-0.9056 I-0.1352 J0.065
N18030 G1 X3.0982 Y-0.9221
N18035 G2 X3.0911 Y-0.933 I-0.1292 J0.0762
N18040 G1 X3.0799 Y-0.9487
N18045 G2 X3.0727 Y-0.958 I-0.1221 J0.0871
N18050 G1 X3.0601 Y-0.973
N18055 X3.0569 Y-0.9767
N18060 X3.0536 Y-0.9803
N18065 X3.0398 Y-0.9947
N18070 X3.0343 Y-1.0002
N18075 X3.0195 Y-1.0141
N18080 X3.015 Y-1.0182
N18085 X2.9994 Y-1.0317
N18090 X2.9961 Y-1.0346
N18095 X2.9799 Y-1.0478
N18100 X2.9776 Y-1.0496
N18105 X2.9611 Y-1.0626
N18110 X2.96 Y-1.0635
N18115 X2.9432 Y-1.0764
N18120 G2 X2.7635 Y-1.0789 I-0.0916 J0.1188
N18125 G1 X2.7476 Y-1.0673
N18130 X2.7464 Y-1.0665
N18135 X2.7307 Y-1.0548
N18140 X2.7284 Y-1.0531
N18145 X2.713 Y-1.0412
N18150 X2.7095 Y-1.0384
N18155 X2.6946 Y-1.0263
N18160 X2.69 Y-1.0223
N18165 X2.6759 Y-1.0098
N18170 X2.6702 Y-1.0044
N18175 X2.657 Y-0.9914
N18180 X2.6535 Y-0.9879
N18185 X2.6502 Y-0.9843
N18190 X2.6382 Y-0.9707
N18195 G2 X2.6307 Y-0.9615 I0.1121 J0.0996
N18200 G1 X2.6199 Y-0.9472
N18205 G2 X2.6122 Y-0.9362 I0.1197 J0.0905
N18210 G1 X2.6029 Y-0.9211
N18215 G2 X2.5964 Y-0.9097 I0.1273 J0.0794
N18220 G1 X2.5884 Y-0.894
N18225 G2 X2.5833 Y-0.8829 I0.1337 J0.068
N18230 G1 X2.5766 Y-0.8665
