%
(BRANDON HALF DEPTH)
(T1  D=0.25 CR=0. - ZMIN=-0.125 - FLAT END MILL)
N10 G90 G94 G17 G91.1
N15 G20
N20 G53 G0 Z0.
(2D POCKET4)
N25 M9
N30 T1 M6
N35 S2000 M3
N40 G54
N45 M8
N50 G0 X0.5706 Y0.3529
N55 G43 Z0.6 H1
N60 G0 Z0.2
N65 G1 Z0.1249 F10.
N70 X0.5716 Y0.3534 Z0.1176 F5.
N75 X0.5743 Y0.355 Z0.1109
N80 X0.5786 Y0.3577 Z0.1055
N85 X0.5838 Y0.3613 Z0.1017
N90 X0.5895 Y0.3657 Z0.1
N95 G3 X0.4376 Y0.5484 Z0.0674 I-0.0759 J0.0913
N100 X0.5895 Y0.3657 Z0.0347 I0.0759 J-0.0913
N105 X0.4376 Y0.5484 Z0.0021 I-0.0759 J0.0913
N110 X0.5895 Y0.3657 Z-0.0306 I0.0759 J-0.0913
N115 X0.4376 Y0.5484 Z-0.0632 I-0.0759 J0.0913
N120 X0.5895 Y0.3657 Z-0.0958 I0.0759 J-0.0913
N125 X0.6191 Y0.4026 Z-0.1 I-0.0759 J0.0913
N130 X0.4116 Y0.5097 I-0.1038 J0.0535
N135 X0.4038 Y0.4946 I4.1455 J-2.1383
N140 X0.3894 Y0.4639 I0.4588 J-0.2346
N145 X0.3964 Y0.4489 I0.0102 J-0.0044
N150 G2 X0.4542 Y0.4247 I-0.0861 J-0.2864
N155 X0.508 Y0.3924 I-0.4019 J-0.7318
N160 G3 X0.5189 Y0.3983 I0.0038 J0.0059
N165 X0.5181 Y0.4596 I-1.691 J0.01
N170 X0.5133 Y0.5206 I-0.6306 J-0.0191
N175 G2 X0.5121 Y0.5311 I0.3699 J0.0474
N180 G3 X0.5105 Y0.5414 I-0.1033 J-0.0103
N185 X0.4911 Y0.5684 I-0.0395 J-0.008
N190 G1 X0.4863 Y0.5709
N195 X0.4826 Y0.5728
N200 G3 X0.4565 Y0.5734 I-0.0137 J-0.0269
N205 X0.4339 Y0.5522 I0.0198 J-0.0439
N210 X0.4194 Y0.5248 I2.5065 J-1.3395
N215 X0.4116 Y0.5097 I4.1377 J-2.1534
N220 G1 X0.4102 Y0.5061 Z-0.0994 F10.
N225 X0.4094 Y0.5023 Z-0.0988
N230 X0.4092 Y0.4988 Z-0.097
N235 X0.4094 Y0.4953 Z-0.0952
N240 X0.41 Y0.4926 Z-0.0925
N245 X0.4109 Y0.49 Z-0.0897
N250 X0.4124 Y0.4868 Z-0.0827
N255 X0.413 Y0.4857 Z-0.075
N260 Z0.2
N265 G0 X0.7526 Y-1.2697
N270 G1 Z0.1249 F10.
N275 X0.7532 Y-1.2688 Z0.1176 F5.
N280 X0.7549 Y-1.2662 Z0.1109
N285 X0.7575 Y-1.2619 Z0.1055
N290 X0.7605 Y-1.2562 Z0.1017
N295 X0.7635 Y-1.2497 Z0.1
N300 G3 X0.5448 Y-1.157 Z0.0674 I-0.1093 J0.0464
N305 X0.7635 Y-1.2497 Z0.0347 I0.1093 J-0.0464
N310 X0.5448 Y-1.157 Z0.0021 I-0.1093 J0.0464
N315 X0.7635 Y-1.2497 Z-0.0306 I0.1093 J-0.0464
N320 X0.5448 Y-1.157 Z-0.0632 I-0.1093 J0.0464
N325 X0.7635 Y-1.2497 Z-0.0958 I0.1093 J-0.0464
N330 X0.7729 Y-1.2034 Z-0.1 I-0.1093 J0.0464
N335 X0.5798 I-0.0966 J0.
N340 G1 Y-1.3929
N345 G3 X0.5925 Y-1.4057 I0.0128 J0.
N350 G1 X0.6626
N355 G3 X0.6753 Y-1.3929 I0. J0.0128
N360 G1 Y-1.1912
N365 G3 X0.6619 Y-1.1682 I-0.0264 J0.
N370 G2 X0.6177 Y-1.1363 I0.1219 J0.2156
N375 G3 X0.6008 I-0.0085 J-0.0094
N380 G2 X0.5883 Y-1.1468 I-0.1661 J0.1837
N385 G3 X0.5798 Y-1.1646 I0.014 J-0.0177
N390 G1 Y-1.2034
N395 X0.5801 Y-1.2072 Z-0.0994 F10.
N400 X0.5809 Y-1.211 Z-0.0988
N405 X0.5822 Y-1.2142 Z-0.097
N410 X0.584 Y-1.2172 Z-0.0952
N415 X0.5856 Y-1.2194 Z-0.0925
N420 X0.5875 Y-1.2215 Z-0.0897
N425 X0.5902 Y-1.2237 Z-0.0827
N430 X0.5913 Y-1.2244 Z-0.075
N435 Z0.2
N440 G0 X0.0812 Y-1.265
N445 G1 Z0.1249 F10.
N450 X0.0818 Y-1.2641 Z0.1176 F5.
N455 X0.0836 Y-1.2614 Z0.1109
N460 X0.0861 Y-1.2572 Z0.1055
N465 X0.0891 Y-1.2515 Z0.1017
N470 X0.0921 Y-1.245 Z0.1
N475 G3 X-0.1266 Y-1.1523 Z0.0674 I-0.1093 J0.0464
N480 X0.0921 Y-1.245 Z0.0347 I0.1093 J-0.0464
N485 X-0.1266 Y-1.1523 Z0.0021 I-0.1093 J0.0464
N490 X0.0921 Y-1.245 Z-0.0306 I0.1093 J-0.0464
N495 X-0.1266 Y-1.1523 Z-0.0632 I-0.1093 J0.0464
N500 X0.0921 Y-1.245 Z-0.0958 I0.1093 J-0.0464
N505 X0.1015 Y-1.1986 Z-0.1 I-0.1093 J0.0464
N510 X-0.0916 I-0.0966 J0.
N515 G1 Y-1.3929
N520 G3 X-0.0788 Y-1.4057 I0.0128 J0.
N525 G1 X-0.0088
N530 G3 X0.0039 Y-1.3929 I0. J0.0128
N535 G1 Y-1.1843
N540 G3 X-0.0095 Y-1.1592 I-0.03 J0.
N545 G2 X-0.0321 Y-1.1424 I0.1366 J0.2066
N550 G3 X-0.0483 I-0.0081 J-0.0097
N555 G2 X-0.0806 Y-1.1654 I-0.1591 J0.1897
N560 G3 X-0.0916 Y-1.1847 I0.0116 J-0.0194
N565 G1 Y-1.1985
N570 Y-1.1986
N575 G2 X-0.1404 Y-1.2719 I-0.0793 J0.
N580 G3 X-0.1892 Y-1.3451 I0.0305 J-0.0732
N585 G1 Y-1.5033
N590 X0.1016
N595 Y-1.1005
N600 G2 X-0.0229 Y-0.9527 I0.0255 J0.1478
N605 G1 Y-0.264
N610 X-0.0242 Y-0.2442
N615 Y-0.2436
N620 X-0.0256 Y-0.2192
N625 X-0.0257 Y-0.2178
N630 X-0.0269 Y-0.1936
N635 X-0.027 Y-0.1915
N640 X-0.0278 Y-0.1675
N645 X-0.0279 Y-0.1647
N650 X-0.0283 Y-0.1409
N655 Y-0.1373
N660 X-0.0281 Y-0.1139
N665 X-0.028 Y-0.1094
N670 X-0.0272 Y-0.0863
N675 X-0.0269 Y-0.081
N680 X-0.0252 Y-0.0584
N685 X-0.0246 Y-0.052
N690 X-0.0221 Y-0.0299
N695 X-0.021 Y-0.0226
N700 X-0.0175 Y-0.0011
N705 X-0.0158 Y0.0074
N710 X-0.0111 Y0.0282
N715 G2 X-0.0086 Y0.0378 I0.1463 J-0.0331
N720 G1 X-0.0026 Y0.0579
N725 G2 X0.001 Y0.0684 I0.1438 J-0.0427
N730 G1 X0.0083 Y0.0877
N735 G2 X0.0131 Y0.0991 I0.1402 J-0.0532
N740 G1 X0.0219 Y0.1176
N745 G2 X0.0283 Y0.1295 I0.1354 J-0.0646
N750 G1 X0.0387 Y0.147
N755 G2 X0.0466 Y0.159 I0.1291 J-0.0765
N760 G1 X0.0587 Y0.1756
N765 G2 X0.0675 Y0.1865 I0.1211 J-0.0885
N770 G1 X0.0812 Y0.2021
N775 G2 X0.0895 Y0.2107 I0.1124 J-0.0993
N780 G1 X0.1047 Y0.2254
N785 X0.1083 Y0.2288
N790 X0.112 Y0.232
N795 X0.1286 Y0.246
N800 X0.1347 Y0.2509
N805 X0.1523 Y0.2643
N810 X0.1572 Y0.2678
N815 X0.1756 Y0.2807
N820 X0.1792 Y0.2832
N825 X0.1984 Y0.2957
N830 X0.2008 Y0.2973
N835 X0.2203 Y0.3096
N840 X0.2215 Y0.3103
N845 X0.2412 Y0.3225
N850 G2 X0.3914 Y0.3267 I0.0787 J-0.1277
N855 G1 X0.4025 Y0.3207
N860 X0.4037 Y0.32
N865 X0.4147 Y0.3139
N870 X0.4171 Y0.3126
N875 X0.4278 Y0.3064
N880 X0.4315 Y0.3041
N885 X0.4419 Y0.2977
N890 X0.4469 Y0.2945
N895 X0.4569 Y0.2878
N900 X0.4632 Y0.2833
N905 X0.4725 Y0.2763
N910 X0.4801 Y0.2702
N915 X0.4888 Y0.2628
N920 G2 X0.4975 Y0.2547 I-0.0976 J-0.1139
N925 G1 X0.5054 Y0.2468
N930 G2 X0.5148 Y0.2364 I-0.1063 J-0.1059
N935 G1 X0.5218 Y0.2279
N940 G2 X0.5309 Y0.2156 I-0.1157 J-0.0955
N945 G1 X0.537 Y0.2065
N950 G2 X0.5444 Y0.1941 I-0.1248 J-0.0833
N955 G1 X0.5496 Y0.1845
N960 G2 X0.5554 Y0.1725 I-0.1322 J-0.0709
N965 G1 X0.5597 Y0.1624
N970 G2 X0.564 Y0.1512 I-0.1379 J-0.0589
N975 G1 X0.5675 Y0.1405
N980 G2 X0.5705 Y0.1304 I-0.1422 J-0.0477
N985 G1 X0.5734 Y0.1193
N990 X0.5754 Y0.1103
N995 X0.5777 Y0.0988
N1000 X0.579 Y0.091
N1005 X0.5806 Y0.0791
N1010 X0.5814 Y0.0724
N1015 X0.5826 Y0.0602
N1020 X0.583 Y0.0546
N1025 X0.5837 Y0.0421
N1030 X0.5839 Y0.0374
N1035 X0.5842 Y0.0247
N1040 Y0.021
N1045 Y0.0081
N1050 Y0.0051
N1055 X0.5839 Y-0.0079
N1060 X0.5838 Y-0.0101
N1065 X0.5834 Y-0.0232
N1070 X0.5833 Y-0.0246
N1075 X0.5827 Y-0.0379
N1080 Y-0.0386
N1085 X0.5823 Y-0.0465
N1090 X0.5846 Y-0.151
N1095 X0.5847 Y-0.1543
N1100 Y-0.9527
N1105 G2 X0.4821 Y-1.095 I-0.15 J0.
N1110 G1 Y-1.5033
N1115 X0.773
N1120 Y-1.1023
N1125 G2 X0.6338 Y-0.9527 I0.0108 J0.1496
N1130 G1 Y0.3462
N1135 Y0.3478
N1140 X0.6341 Y0.3781
N1145 X0.6343 Y0.4075
N1150 X0.6342 Y0.4358
N1155 X0.6336 Y0.463
N1160 X0.6325 Y0.4887
N1165 X0.6308 Y0.513
N1170 X0.6284 Y0.5354
N1175 X0.6254 Y0.5559
N1180 X0.6216 Y0.5742
N1185 X0.6174 Y0.5901
N1190 X0.6127 Y0.6037
N1195 X0.6078 Y0.6148
N1200 X0.6028 Y0.6238
N1205 X0.5978 Y0.631
N1210 X0.592 Y0.6375
N1215 X0.5843 Y0.6447
N1220 X0.5736 Y0.6529
N1225 X0.56 Y0.6618
N1230 X0.5436 Y0.6713
N1235 X0.5245 Y0.681
N1240 X0.503 Y0.6909
N1245 X0.4796 Y0.701
N1250 X0.4755 Y0.7027
N1255 X0.4647 Y0.6994
N1260 X0.4471 Y0.6936
N1265 X0.431 Y0.6878
N1270 X0.4164 Y0.6819
N1275 X0.4036 Y0.6761
N1280 X0.3925 Y0.6704
N1285 X0.3831 Y0.6648
N1290 X0.3753 Y0.6594
N1295 X0.3685 Y0.6538
N1300 X0.3615 Y0.6472
N1305 X0.3544 Y0.6394
N1310 X0.3469 Y0.6301
N1315 X0.3392 Y0.6194
N1320 X0.3314 Y0.6073
N1325 X0.3234 Y0.5937
N1330 X0.3154 Y0.5789
N1335 X0.3073 Y0.5627
N1340 X0.2992 Y0.5455
N1345 X0.291 Y0.5272
N1350 X0.2827 Y0.5079
N1355 X0.2743 Y0.4878
N1360 X0.2656 Y0.467
N1365 G2 X-0.0229 Y0.5244 I-0.1386 J0.0574
N1370 G1 Y0.6771
N1375 X-0.1892
N1380 Y0.3095
N1385 G2 X-0.0574 Y0.1606 I-0.0182 J-0.1489
N1390 G1 Y-0.9527
N1395 G2 X-0.1892 Y-1.1016 I-0.15 J0.
N1400 G1 Y-1.3451
N1405 G3 X-0.0123 Y-1.3987 Z-0.1079 I0.0966 J0.
N1410 G1 X0.0853 Y-1.2522 Z-0.1135
N1415 G3 X-0.0754 Y-1.1451 Z-0.1232 I-0.0804 J0.0536
N1420 X-0.0916 Y-1.1986 Z-0.125 I0.0804 J-0.0536
N1425 G1 Y-1.3929
N1430 G3 X-0.0788 Y-1.4057 I0.0128 J0.
N1435 G1 X-0.0088
N1440 G3 X0.0039 Y-1.3929 I0. J0.0128
N1445 G1 Y-1.1843
N1450 G3 X-0.0095 Y-1.1592 I-0.03 J0.
N1455 G2 X-0.0321 Y-1.1424 I0.1366 J0.2066
N1460 G3 X-0.0483 I-0.0081 J-0.0097
N1465 G2 X-0.0806 Y-1.1654 I-0.1591 J0.1897
N1470 G3 X-0.0916 Y-1.1847 I0.0116 J-0.0194
N1475 G1 Y-1.1986
N1480 X-0.0913 Y-1.2025 Z-0.1244 F10.
N1485 X-0.0904 Y-1.2062 Z-0.1238
N1490 X-0.0892 Y-1.2095 Z-0.122
N1495 X-0.0874 Y-1.2125 Z-0.1202
N1500 X-0.0858 Y-1.2147 Z-0.1175
N1505 X-0.0839 Y-1.2167 Z-0.1147
N1510 X-0.0811 Y-1.219 Z-0.1077
N1515 X-0.0801 Y-1.2197 Z-0.1
N1520 Z0.2
N1525 G0 X0.7904 Y-1.1635
N1530 G1 Z0.0249 F10.
N1535 X0.79 Y-1.1624 Z0.0176 F5.
N1540 X0.7889 Y-1.1595 Z0.0109
N1545 X0.787 Y-1.1549 Z0.0055
N1550 X0.7842 Y-1.1491 Z0.0017
N1555 X0.7807 Y-1.1428 Z0.
N1560 G3 X0.5764 Y-1.2639 Z-0.0326 I-0.1022 J-0.0605
N1565 X0.7807 Y-1.1428 Z-0.0653 I0.1022 J0.0605
N1570 X0.5764 Y-1.2639 Z-0.0979 I-0.1022 J-0.0605
N1575 X0.7973 Y-1.2034 Z-0.125 I0.1022 J0.0605
N1580 X0.5798 I-0.1088 J0.
N1585 G1 Y-1.3929
N1590 G3 X0.5925 Y-1.4057 I0.0128 J0.
N1595 G1 X0.6626
N1600 G3 X0.6753 Y-1.3929 I0. J0.0128
N1605 G1 Y-1.1912
N1610 G3 X0.6619 Y-1.1682 I-0.0264 J0.
N1615 G2 X0.6177 Y-1.1363 I0.1219 J0.2156
N1620 G3 X0.6008 I-0.0085 J-0.0094
N1625 G2 X0.5883 Y-1.1468 I-0.1661 J0.1837
N1630 G3 X0.5798 Y-1.1646 I0.014 J-0.0177
N1635 G1 Y-1.2034
N1640 X0.5801 Y-1.2072 Z-0.1244 F10.
N1645 X0.5809 Y-1.211 Z-0.1238
N1650 X0.5822 Y-1.2142 Z-0.122
N1655 X0.584 Y-1.2172 Z-0.1202
N1660 X0.5856 Y-1.2194 Z-0.1175
N1665 X0.5875 Y-1.2215 Z-0.1147
N1670 X0.5902 Y-1.2237 Z-0.1077
N1675 X0.5913 Y-1.2244 Z-0.1
N1680 Z0.2
N1685 G0 X0.3994 Y0.471
N1690 G1 Z0.0249 F10.
N1695 X0.3993 Y0.47 Z0.0176 F5.
N1700 X0.3989 Y0.4668 Z0.0109
N1705 X0.3985 Y0.4618 Z0.0055
N1710 X0.3983 Y0.4555 Z0.0017
N1715 X0.3985 Y0.4483 Z0.
N1720 G3 X0.6356 Y0.4622 Z-0.0326 I0.1185 J0.0069
N1725 X0.3985 Y0.4483 Z-0.0653 I-0.1185 J-0.0069
N1730 X0.6356 Y0.4622 Z-0.0979 I0.1185 J0.0069
N1735 X0.4116 Y0.5097 Z-0.125 I-0.1185 J-0.0069
N1740 X0.4038 Y0.4946 I4.1455 J-2.1383
N1745 X0.3894 Y0.4639 I0.4588 J-0.2346
N1750 X0.3964 Y0.4489 I0.0102 J-0.0044
N1755 G2 X0.4542 Y0.4247 I-0.0861 J-0.2864
N1760 X0.508 Y0.3924 I-0.4019 J-0.7318
N1765 G3 X0.5189 Y0.3983 I0.0038 J0.0059
N1770 X0.5181 Y0.4596 I-1.691 J0.01
N1775 X0.5133 Y0.5206 I-0.6306 J-0.0191
N1780 G2 X0.5121 Y0.5311 I0.3699 J0.0474
N1785 G3 X0.5105 Y0.5414 I-0.1033 J-0.0103
N1790 X0.4911 Y0.5684 I-0.0395 J-0.008
N1795 G1 X0.4863 Y0.5709
N1800 X0.4826 Y0.5728
N1805 G3 X0.4565 Y0.5734 I-0.0137 J-0.0269
N1810 X0.4339 Y0.5522 I0.0198 J-0.0439
N1815 X0.4194 Y0.5248 I2.5065 J-1.3395
N1820 X0.4117 Y0.5098 I4.1377 J-2.1534
N1825 G1 X0.4116 Y0.5097
N1830 G2 X0.3229 Y0.451 I-0.0967 J0.0499
N1835 G3 X0.2247 Y0.4105 I0.0126 J-0.1698
N1840 G2 X-0.0229 Y0.5244 I-0.0976 J0.1139
N1845 G1 Y0.6771
N1850 X-0.1892
N1855 Y0.3095
N1860 G2 X-0.0574 Y0.1606 I-0.0182 J-0.1489
N1865 G1 Y-0.9527
N1870 G2 X-0.1892 Y-1.1016 I-0.15 J0.
N1875 G1 Y-1.5033
N1880 X0.1016
N1885 Y-1.1005
N1890 G2 X-0.0229 Y-0.9527 I0.0255 J0.1478
N1895 G1 Y-0.264
N1900 X-0.0242 Y-0.2442
N1905 Y-0.2436
N1910 X-0.0256 Y-0.2192
N1915 X-0.0257 Y-0.2178
N1920 X-0.0269 Y-0.1936
N1925 X-0.027 Y-0.1915
N1930 X-0.0278 Y-0.1675
N1935 X-0.0279 Y-0.1647
N1940 X-0.0283 Y-0.1409
N1945 Y-0.1373
N1950 X-0.0281 Y-0.1139
N1955 X-0.028 Y-0.1094
N1960 X-0.0272 Y-0.0863
N1965 X-0.0269 Y-0.081
N1970 X-0.0252 Y-0.0584
N1975 X-0.0246 Y-0.052
N1980 X-0.0221 Y-0.0299
N1985 X-0.021 Y-0.0226
N1990 X-0.0175 Y-0.0011
N1995 X-0.0158 Y0.0074
N2000 X-0.0111 Y0.0282
N2005 G2 X-0.0086 Y0.0378 I0.1463 J-0.0331
N2010 G1 X-0.0026 Y0.0579
N2015 G2 X0.001 Y0.0684 I0.1438 J-0.0427
N2020 G1 X0.0083 Y0.0877
N2025 G2 X0.0131 Y0.0991 I0.1402 J-0.0532
N2030 G1 X0.0219 Y0.1176
N2035 G2 X0.0283 Y0.1295 I0.1354 J-0.0646
N2040 G1 X0.0387 Y0.147
N2045 G2 X0.0466 Y0.159 I0.1291 J-0.0765
N2050 G1 X0.0587 Y0.1756
N2055 G2 X0.0675 Y0.1865 I0.1211 J-0.0885
N2060 G1 X0.0812 Y0.2021
N2065 G2 X0.0895 Y0.2107 I0.1124 J-0.0993
N2070 G1 X0.1047 Y0.2254
N2075 X0.1083 Y0.2288
N2080 X0.112 Y0.232
N2085 X0.1286 Y0.246
N2090 X0.1347 Y0.2509
N2095 X0.1523 Y0.2643
N2100 X0.1572 Y0.2678
N2105 X0.1756 Y0.2807
N2110 X0.1792 Y0.2832
N2115 X0.1984 Y0.2957
N2120 X0.2008 Y0.2973
N2125 X0.2203 Y0.3096
N2130 X0.2215 Y0.3103
N2135 X0.2412 Y0.3225
N2140 G2 X0.3914 Y0.3267 I0.0787 J-0.1277
N2145 G1 X0.4025 Y0.3207
N2150 X0.4037 Y0.32
N2155 X0.4147 Y0.3139
N2160 X0.4171 Y0.3126
N2165 X0.4278 Y0.3064
N2170 X0.4315 Y0.3041
N2175 X0.4419 Y0.2977
N2180 X0.4469 Y0.2945
N2185 X0.4569 Y0.2878
N2190 X0.4632 Y0.2833
N2195 X0.4725 Y0.2763
N2200 X0.4801 Y0.2702
N2205 X0.4888 Y0.2628
N2210 G2 X0.4975 Y0.2547 I-0.0976 J-0.1139
N2215 G1 X0.5054 Y0.2468
N2220 G2 X0.5148 Y0.2364 I-0.1063 J-0.1059
N2225 G1 X0.5218 Y0.2279
N2230 G2 X0.5309 Y0.2156 I-0.1157 J-0.0955
N2235 G1 X0.537 Y0.2065
N2240 G2 X0.5444 Y0.1941 I-0.1248 J-0.0833
N2245 G1 X0.5496 Y0.1845
N2250 G2 X0.5554 Y0.1725 I-0.1322 J-0.0709
N2255 G1 X0.5597 Y0.1624
N2260 G2 X0.564 Y0.1512 I-0.1379 J-0.0589
N2265 G1 X0.5675 Y0.1405
N2270 G2 X0.5705 Y0.1304 I-0.1422 J-0.0477
N2275 G1 X0.5734 Y0.1193
N2280 X0.5754 Y0.1103
N2285 X0.5777 Y0.0988
N2290 X0.579 Y0.091
N2295 X0.5806 Y0.0791
N2300 X0.5814 Y0.0724
N2305 X0.5826 Y0.0602
N2310 X0.583 Y0.0546
N2315 X0.5837 Y0.0421
N2320 X0.5839 Y0.0374
N2325 X0.5842 Y0.0247
N2330 Y0.021
N2335 Y0.0081
N2340 Y0.0051
N2345 X0.5839 Y-0.0079
N2350 X0.5838 Y-0.0101
N2355 X0.5834 Y-0.0232
N2360 X0.5833 Y-0.0246
N2365 X0.5827 Y-0.0379
N2370 Y-0.0386
N2375 X0.5823 Y-0.0465
N2380 X0.5846 Y-0.151
N2385 X0.5847 Y-0.1543
N2390 Y-0.9527
N2395 G2 X0.4821 Y-1.095 I-0.15 J0.
N2400 G1 Y-1.5033
N2405 X0.773
N2410 Y-1.1023
N2415 G2 X0.6338 Y-0.9527 I0.0108 J0.1496
N2420 G1 Y0.3462
N2425 Y0.3478
N2430 X0.6341 Y0.3781
N2435 X0.6343 Y0.4075
N2440 X0.6342 Y0.4358
N2445 X0.6336 Y0.463
N2450 X0.6325 Y0.4887
N2455 X0.6308 Y0.513
N2460 X0.6284 Y0.5354
N2465 X0.6254 Y0.5559
N2470 X0.6216 Y0.5742
N2475 X0.6174 Y0.5901
N2480 X0.6127 Y0.6037
N2485 X0.6078 Y0.6148
N2490 X0.6028 Y0.6238
N2495 X0.5978 Y0.631
N2500 X0.592 Y0.6375
N2505 X0.5843 Y0.6447
N2510 X0.5736 Y0.6529
N2515 X0.56 Y0.6618
N2520 X0.5436 Y0.6713
N2525 X0.5245 Y0.681
N2530 X0.503 Y0.6909
N2535 X0.4796 Y0.701
N2540 X0.4755 Y0.7027
N2545 X0.4647 Y0.6994
N2550 X0.4471 Y0.6936
N2555 X0.431 Y0.6878
N2560 X0.4164 Y0.6819
N2565 X0.4036 Y0.6761
N2570 X0.3925 Y0.6704
N2575 X0.3831 Y0.6648
N2580 X0.3753 Y0.6594
N2585 X0.3685 Y0.6538
N2590 X0.3615 Y0.6472
N2595 X0.3544 Y0.6394
N2600 X0.3469 Y0.6301
N2605 X0.3392 Y0.6194
N2610 X0.3314 Y0.6073
N2615 X0.3234 Y0.5937
N2620 X0.3154 Y0.5789
N2625 X0.3073 Y0.5627
N2630 X0.2992 Y0.5455
N2635 X0.291 Y0.5272
N2640 X0.2827 Y0.5079
N2645 X0.2743 Y0.4878
N2650 X0.2656 Y0.467
N2655 G2 X0.2247 Y0.4105 I-0.1386 J0.0574
N2660 X0.2007 Y0.4083 I-0.0135 J0.0158
N2665 G3 X0.1767 Y0.4097 I-0.0134 J-0.0231
N2670 G2 X0.0021 Y0.5244 I-0.0497 J0.1147
N2675 G1 Y0.7021
N2680 X-0.2142
N2685 Y0.2856
N2690 X-0.2074
N2695 G2 X-0.0824 Y0.1606 I0. J-0.125
N2700 G1 Y-0.9527
N2705 G2 X-0.2074 Y-1.0777 I-0.125 J0.
N2710 G1 X-0.2142
N2715 Y-1.5283
N2720 X0.1266
N2725 Y-1.0777
N2730 G2 X0.0021 Y-0.9527 I0.0005 J0.125
N2735 G1 Y-0.2632
N2740 X0.0008 Y-0.2427
N2745 X0.0007 Y-0.2421
N2750 X-0.0007 Y-0.2177
N2755 Y-0.2166
N2760 X-0.0019 Y-0.1924
N2765 X-0.002 Y-0.1907
N2770 X-0.0028 Y-0.1666
N2775 X-0.0029 Y-0.1643
N2780 X-0.0033 Y-0.1405
N2785 Y-0.1375
N2790 X-0.0031 Y-0.114
N2795 Y-0.1103
N2800 X-0.0022 Y-0.0873
N2805 X-0.002 Y-0.0828
N2810 X-0.0003 Y-0.0602
N2815 X0.0002 Y-0.0549
N2820 X0.0028 Y-0.0328
N2825 X0.0036 Y-0.0267
N2830 X0.0072 Y-0.0052
N2835 X0.0086 Y0.0019
N2840 X0.0133 Y0.0227
N2845 X0.0154 Y0.0307
N2850 X0.0214 Y0.0508
N2855 X0.0228 Y0.0552
N2860 X0.0243 Y0.0596
N2865 X0.0317 Y0.0789
N2870 G2 X0.0357 Y0.0883 I0.1169 J-0.0443
N2875 G1 X0.0445 Y0.1068
N2880 G2 X0.0498 Y0.1167 I0.1128 J-0.0538
N2885 G1 X0.0602 Y0.1343
N2890 G2 X0.0668 Y0.1443 I0.1075 J-0.0637
N2895 G1 X0.0789 Y0.1609
N2900 G2 X0.0862 Y0.1699 I0.1009 J-0.0737
N2905 G1 X0.1 Y0.1855
N2910 G2 X0.1068 Y0.1927 I0.0937 J-0.0828
N2915 G1 X0.1221 Y0.2074
N2920 X0.1282 Y0.2129
N2925 X0.1447 Y0.2269
N2930 X0.1498 Y0.231
N2935 X0.1674 Y0.2444
N2940 X0.1715 Y0.2474
N2945 X0.1899 Y0.2603
N2950 X0.193 Y0.2623
N2955 X0.2121 Y0.2748
N2960 X0.2141 Y0.2761
N2965 X0.2336 Y0.2884
N2970 X0.2346 Y0.289
N2975 X0.2543 Y0.3012
N2980 G2 X0.3795 Y0.3047 I0.0656 J-0.1064
N2985 G1 X0.3906 Y0.2987
N2990 X0.3916 Y0.2982
N2995 X0.4025 Y0.2921
N3000 X0.4046 Y0.2909
N3005 X0.4153 Y0.2847
N3010 X0.4184 Y0.2829
N3015 X0.4288 Y0.2765
N3020 X0.4329 Y0.2738
N3025 X0.4429 Y0.2671
N3030 X0.4481 Y0.2633
N3035 X0.4575 Y0.2563
N3040 X0.4638 Y0.2512
N3045 X0.4725 Y0.2438
N3050 G2 X0.4798 Y0.2371 I-0.0813 J-0.0949
N3055 G1 X0.4877 Y0.2291
N3060 G2 X0.4955 Y0.2205 I-0.0886 J-0.0882
N3065 G1 X0.5026 Y0.2119
N3070 G2 X0.5101 Y0.2018 I-0.0964 J-0.0796
N3075 G1 X0.5162 Y0.1927
N3080 G2 X0.5224 Y0.1823 I-0.104 J-0.0694
N3085 G1 X0.5276 Y0.1727
N3090 G2 X0.5324 Y0.1627 I-0.1102 J-0.059
N3095 G1 X0.5367 Y0.1525
N3100 G2 X0.5403 Y0.1432 I-0.115 J-0.0491
N3105 G1 X0.5438 Y0.1326
N3110 X0.5463 Y0.1241
N3115 X0.5492 Y0.113
N3120 X0.5509 Y0.1056
N3125 X0.5531 Y0.0941
N3130 X0.5542 Y0.0875
N3135 X0.5559 Y0.0757
N3140 X0.5565 Y0.07
N3145 X0.5577 Y0.0579
N3150 X0.558 Y0.0532
N3155 X0.5587 Y0.0407
N3160 X0.5589 Y0.0368
N3165 X0.5592 Y0.0241
N3170 Y0.021
N3175 Y0.0081
N3180 Y0.0056
N3185 X0.5589 Y-0.0074
N3190 Y-0.0092
N3195 X0.5584 Y-0.0223
N3200 Y-0.0235
N3205 X0.5578 Y-0.0368
N3210 X0.5577 Y-0.0373
N3215 X0.5573 Y-0.0461
N3220 X0.5596 Y-0.1515
N3225 X0.5597 Y-0.1543
N3230 Y-0.9527
N3235 G2 X0.4571 Y-1.0756 I-0.125 J0.
N3240 G1 Y-1.5283
N3245 X0.798
N3250 Y-1.0777
N3255 X0.7838
N3260 G2 X0.6588 Y-0.9527 I0. J0.125
N3265 G1 Y0.3462
N3270 Y0.3475
N3275 X0.6591 Y0.3779
N3280 X0.6593 Y0.4075
N3285 X0.6592 Y0.4361
N3290 X0.6586 Y0.4638
N3295 X0.6575 Y0.4902
N3300 X0.6557 Y0.5152
N3305 X0.6532 Y0.5386
N3310 X0.65 Y0.5602
N3315 X0.646 Y0.5799
N3320 X0.6413 Y0.5974
N3325 X0.636 Y0.6128
N3330 X0.6302 Y0.626
N3335 X0.624 Y0.6371
N3340 X0.6175 Y0.6464
N3345 X0.61 Y0.655
N3350 X0.6004 Y0.6639
N3355 X0.5881 Y0.6733
N3360 X0.5731 Y0.6832
N3365 X0.5555 Y0.6933
N3370 X0.5354 Y0.7035
N3375 X0.5132 Y0.7138
N3380 X0.4893 Y0.7241
N3385 X0.4768 Y0.7292
N3390 X0.4571 Y0.7232
N3395 X0.439 Y0.7172
N3400 X0.4221 Y0.7111
N3405 X0.4067 Y0.7049
N3410 X0.3927 Y0.6986
N3415 X0.3803 Y0.6922
N3420 X0.3695 Y0.6858
N3425 X0.3603 Y0.6794
N3430 X0.3519 Y0.6726
N3435 X0.3437 Y0.6647
N3440 X0.3354 Y0.6557
N3445 X0.327 Y0.6453
N3450 X0.3186 Y0.6335
N3455 X0.3101 Y0.6204
N3460 X0.3017 Y0.606
N3465 X0.2932 Y0.5904
N3470 X0.2848 Y0.5737
N3475 X0.2765 Y0.5559
N3480 X0.2681 Y0.5372
N3485 X0.2597 Y0.5177
N3490 X0.2512 Y0.4974
N3495 X0.2425 Y0.4766
N3500 G2 X0.1767 Y0.4097 I-0.1155 J0.0478
N3505 G1 X0.1733 Y0.4079 Z-0.1244 F10.
N3510 X0.1702 Y0.4056 Z-0.1238
N3515 X0.1678 Y0.4031 Z-0.122
N3520 X0.1657 Y0.4003 Z-0.1202
N3525 X0.1643 Y0.3979 Z-0.1175
N3530 X0.1632 Y0.3954 Z-0.1147
N3535 X0.1622 Y0.392 Z-0.1077
N3540 X0.162 Y0.3908 Z-0.1
N3545 Z0.2
N3550 G0 X-1.0266 Y0.6794
N3555 G1 Z0.1249 F10.
N3560 X-1.0275 Y0.6801 Z0.1176 F5.
N3565 X-1.0301 Y0.6819 Z0.1109
N3570 X-1.0343 Y0.6846 Z0.1055
N3575 X-1.0398 Y0.6878 Z0.1017
N3580 X-1.0462 Y0.6911 Z0.1
N3585 G3 X-1.1472 Y0.4761 Z0.0674 I-0.0505 J-0.1075
N3590 X-1.0462 Y0.6911 Z0.0347 I0.0505 J0.1075
N3595 X-1.1472 Y0.4761 Z0.0021 I-0.0505 J-0.1075
N3600 X-1.0462 Y0.6911 Z-0.0306 I0.0505 J0.1075
N3605 X-1.1472 Y0.4761 Z-0.0632 I-0.0505 J-0.1075
N3610 X-1.0462 Y0.6911 Z-0.0958 I0.0505 J0.1075
N3615 X-1.0922 Y0.7023 Z-0.1 I-0.0505 J-0.1075
N3620 X-1.0995 Y0.5118 I-0.0036 J-0.0953
N3625 G2 X-1.0202 Y0.5 I-0.0141 J-0.3681
N3630 X-1.0035 Y0.495 I-0.0626 J-0.2388
N3635 G3 X-0.9869 Y0.4896 I0.1794 J0.529
N3640 G1 X-0.9855 Y0.4895
N3645 X-0.9841 Y0.4899
N3650 X-0.983 Y0.4907
N3655 X-0.9822 Y0.4919
N3660 X-0.982 Y0.4933
N3665 X-0.9823 Y0.4947
N3670 X-0.9831 Y0.4959
N3675 X-0.9842 Y0.4968
N3680 G3 X-1.0396 Y0.518 I-0.1941 J-0.4225
N3685 X-1.0965 Y0.535 I-0.6458 J-2.0659
N3690 G1 X-1.0988 Y0.5353
N3695 X-1.1011 Y0.5351
N3700 G3 X-1.156 Y0.5215 I0.4832 J-2.0762
N3705 X-1.21 Y0.5046 I0.151 J-0.5786
N3710 G2 X-1.2194 Y0.5014 I-0.0775 J0.2124
N3715 G3 X-1.2287 Y0.4978 I0.0223 J-0.0707
N3720 G1 X-1.2298 Y0.497
N3725 X-1.2306 Y0.4958
N3730 X-1.2309 Y0.4944
N3735 X-1.2306 Y0.493
N3740 X-1.2298 Y0.4918
N3745 X-1.2287 Y0.491
N3750 X-1.2273 Y0.4906
N3755 X-1.2259 Y0.4908
N3760 G3 X-1.2161 Y0.4943 I-0.0612 J0.1887
N3765 G2 X-1.2062 Y0.4978 I0.0555 J-0.1414
N3770 X-1.1134 Y0.512 I0.0927 J-0.294
N3775 X-1.0995 Y0.5118 I-0.0002 J-0.3683
N3780 G1 X-1.0918 Y0.5114 Z-0.0988 F10.
N3785 X-1.0848 Y0.5109 Z-0.0952
N3790 X-1.0793 Y0.5104 Z-0.0897
N3795 X-1.0758 Y0.5101 Z-0.0827
N3800 X-1.0745 Y0.5099 Z-0.075
N3805 Z0.2
N3810 G0 X-0.9683 Y-1.2313
N3815 G1 Z0.1249 F10.
N3820 X-0.968 Y-1.2323 Z0.1176 F5.
N3825 X-0.9673 Y-1.2354 Z0.1109
N3830 X-0.966 Y-1.2402 Z0.1055
N3835 X-0.9641 Y-1.2463 Z0.1017
N3840 X-0.9615 Y-1.253 Z0.1
N3845 G3 X-0.7427 Y-1.1607 Z0.0674 I0.1094 J0.0462
N3850 X-0.9615 Y-1.253 Z0.0347 I-0.1094 J-0.0462
N3855 X-0.7427 Y-1.1607 Z0.0021 I0.1094 J0.0462
N3860 X-0.9615 Y-1.253 Z-0.0306 I-0.1094 J-0.0462
N3865 X-0.7427 Y-1.1607 Z-0.0632 I0.1094 J0.0462
N3870 X-0.9615 Y-1.253 Z-0.0958 I-0.1094 J-0.0462
N3875 X-0.9348 Y-1.2921 Z-0.1 I0.1094 J0.0462
N3880 X-0.7853 Y-1.1382 I0.0747 J0.0769
N3885 G2 X-0.7946 Y-1.1289 I0.2676 J0.2758
N3890 G3 X-0.8123 Y-1.1283 I-0.0092 J-0.0088
N3895 G2 X-0.8278 Y-1.142 I-0.4455 J0.4936
N3900 X-0.8439 Y-1.155 I-0.29 J0.3421
N3905 G3 X-0.8424 Y-1.1676 I0.0045 J-0.0058
N3910 G2 X-0.7794 Y-1.2053 I-0.1267 J-0.2832
N3915 G3 X-0.7691 Y-1.2002 I0.0039 J0.0051
N3920 G1 Y-1.1633
N3925 G3 X-0.7759 Y-1.1473 I-0.0221 J0.
N3930 G2 X-0.7853 Y-1.1382 I1.5616 J1.6281
N3935 G3 X-0.7963 Y-1.1349 I-0.0087 J-0.009
N3940 G1 X-1.2261 Y-1.2149
N3945 X-1.228 Y-1.2151
N3950 X-1.2299 Y-1.215
N3955 X-1.2318 Y-1.2146
N3960 G2 X-1.316 Y-1.1831 I0.143 J0.5092
N3965 G3 X-1.3259 Y-1.1902 I-0.003 J-0.0063
N3970 X-1.3137 Y-1.2571 I0.4999 J0.0565
N3975 X-1.2836 Y-1.3181 I0.1577 J0.0399
N3980 X-1.2628 Y-1.3417 I0.2279 J0.1803
N3985 X-1.2393 Y-1.3625 I0.1659 J0.1633
N3990 X-1.2245 Y-1.3587 I0.0059 J0.0076
N3995 G1 X-1.2216 Y-1.3513
N4000 X-1.2187 Y-1.3439
N4005 G2 X-1.1857 Y-1.2874 I0.242 J-0.1036
N4010 X-1.1401 Y-1.2404 I0.2221 J-0.1702
N4015 G3 X-1.1433 Y-1.2302 I-0.0036 J0.0045
N4020 G2 X-1.2318 Y-1.2146 I0.034 J0.4519
N4025 X-1.3095 Y-1.1192 I0.0289 J0.1029
N4030 G3 X-1.3539 Y-1.0043 I-0.209 J-0.0146
N4035 G1 X-1.3586 Y-0.9979
N4040 X-1.364 Y-0.9903
N4045 G2 X-1.3722 Y-0.9772 I0.1226 J0.0864
N4050 G1 X-1.3769 Y-0.9689
N4055 G2 X-1.3829 Y-0.9569 I0.1308 J0.0733
N4060 G1 X-1.3869 Y-0.9479
N4065 G2 X-1.3912 Y-0.9373 I0.1369 J0.0613
N4070 G1 X-1.3946 Y-0.9278
N4075 X-1.3976 Y-0.9186
N4080 X-1.4005 Y-0.9086
N4085 X-1.4025 Y-0.9009
N4090 X-1.4049 Y-0.8905
N4095 X-1.4062 Y-0.8842
N4100 X-1.4082 Y-0.8735
N4105 X-1.409 Y-0.8684
N4110 X-1.4107 Y-0.8573
N4115 X-1.4112 Y-0.8534
N4120 X-1.4126 Y-0.8422
N4125 X-1.4129 Y-0.8393
N4130 X-1.4141 Y-0.8278
N4135 X-1.4143 Y-0.826
N4140 X-1.4154 Y-0.8144
N4145 X-1.4155 Y-0.8135
N4150 X-1.4164 Y-0.8018
N4155 G2 X-1.4114 Y-0.7484 I0.1495 J0.0127
N4160 G1 X-1.4058 Y-0.7287
N4165 X-1.4056 Y-0.7278
N4170 X-1.3999 Y-0.7081
N4175 X-1.3993 Y-0.7063
N4180 X-1.3935 Y-0.6868
N4185 X-1.3926 Y-0.6841
N4190 X-1.3864 Y-0.6649
N4195 X-1.3852 Y-0.6613
N4200 X-1.3785 Y-0.6424
N4205 X-1.3768 Y-0.6378
N4210 X-1.3697 Y-0.6193
N4215 X-1.3674 Y-0.6137
N4220 X-1.3596 Y-0.5958
N4225 X-1.3565 Y-0.5893
N4230 X-1.348 Y-0.5719
N4235 X-1.344 Y-0.5645
N4240 X-1.3346 Y-0.5478
N4245 X-1.3296 Y-0.5396
N4250 X-1.3192 Y-0.5236
N4255 G2 X-1.3131 Y-0.515 I0.1256 J-0.082
N4260 G1 X-1.3016 Y-0.4999
N4265 G2 X-1.2952 Y-0.492 I0.1195 J-0.0907
N4270 G1 X-1.2827 Y-0.4777
N4275 X-1.2763 Y-0.4708
N4280 X-1.2629 Y-0.4572
N4285 X-1.2567 Y-0.4514
N4290 X-1.2425 Y-0.4385
N4295 X-1.2367 Y-0.4336
N4300 X-1.2216 Y-0.4213
N4305 X-1.2164 Y-0.4172
N4310 X-1.2006 Y-0.4055
N4315 X-1.1959 Y-0.4021
N4320 X-1.1795 Y-0.3909
N4325 X-1.1753 Y-0.3882
N4330 X-1.1584 Y-0.3774
N4335 X-1.1549 Y-0.3752
N4340 X-1.1375 Y-0.3648
N4345 X-1.1345 Y-0.3631
N4350 X-1.1167 Y-0.353
N4355 X-1.1144 Y-0.3517
N4360 X-1.0963 Y-0.3418
N4365 X-1.0945 Y-0.3409
N4370 X-1.0762 Y-0.3312
N4375 X-1.075 Y-0.3306
N4380 X-1.0565 Y-0.321
N4385 X-1.0559 Y-0.3207
N4390 X-1.0373 Y-0.3112
N4395 G2 X-0.8191 Y-0.4448 I0.0682 J-0.1336
N4400 G1 Y-0.657
N4405 X-0.8186 Y-0.6715
N4410 Y-0.6722
N4415 X-0.8181 Y-0.6893
N4420 X-0.818 Y-0.6908
N4425 X-0.8177 Y-0.7077
N4430 Y-0.71
N4435 X-0.8176 Y-0.7267
N4440 Y-0.7299
N4445 X-0.8178 Y-0.7464
N4450 X-0.8179 Y-0.7504
N4455 X-0.8186 Y-0.7667
N4460 X-0.8189 Y-0.7715
N4465 X-0.8201 Y-0.7875
N4470 X-0.8206 Y-0.7935
N4475 X-0.8224 Y-0.8091
N4480 X-0.8234 Y-0.8161
N4485 X-0.8259 Y-0.8312
N4490 X-0.8274 Y-0.8395
N4495 X-0.8307 Y-0.8541
N4500 X-0.8318 Y-0.8588
N4505 X-0.8331 Y-0.8635
N4510 X-0.8372 Y-0.8776
N4515 G2 X-0.8407 Y-0.8883 I-0.144 J0.0419
N4520 G1 X-0.8458 Y-0.9017
N4525 G2 X-0.8507 Y-0.9134 I-0.1405 J0.0526
N4530 G1 X-0.8567 Y-0.9261
N4535 G2 X-0.8634 Y-0.9386 I-0.1355 J0.0642
N4540 G1 X-0.8705 Y-0.9506
N4545 G2 X-0.879 Y-0.9634 I-0.1289 J0.0767
N4550 G1 X-0.8874 Y-0.9746
N4555 G2 X-0.8974 Y-0.9867 I-0.1204 J0.0894
N4560 G1 X-0.907 Y-0.9971
N4565 G2 X-0.9169 Y-1.0069 I-0.1104 J0.1015
N4570 G1 X-0.9276 Y-1.0166
N4575 G2 X-0.9365 Y-1.024 I-0.1005 J0.1113
N4580 G1 X-0.9482 Y-1.0331
N4585 X-0.9559 Y-1.0387
N4590 X-0.9685 Y-1.0471
N4595 X-0.9749 Y-1.0512
N4600 X-0.9881 Y-1.0592
N4605 X-0.9932 Y-1.0621
N4610 X-1.007 Y-1.0697
N4615 X-1.0107 Y-1.0717
N4620 X-1.025 Y-1.0791
N4625 X-1.0274 Y-1.0803
N4630 X-1.0419 Y-1.0874
N4635 X-1.0432 Y-1.0881
N4640 X-1.0579 Y-1.0951
N4645 G2 X-1.1541 Y-1.1067 I-0.0651 J0.1351
N4650 G1 X-1.1654 Y-1.1043
N4655 X-1.1665 Y-1.1041
N4660 X-1.1776 Y-1.1016
N4665 X-1.1798 Y-1.1011
N4670 X-1.1909 Y-1.0985
N4675 X-1.1941 Y-1.0977
N4680 X-1.2049 Y-1.0949
N4685 X-1.2095 Y-1.0936
N4690 X-1.22 Y-1.0905
N4695 X-1.2259 Y-1.0887
N4700 X-1.236 Y-1.0852
N4705 X-1.2433 Y-1.0825
N4710 X-1.2529 Y-1.0787
N4715 X-1.2618 Y-1.0748
N4720 X-1.2709 Y-1.0705
N4725 G2 X-1.2812 Y-1.0651 I0.0644 J0.1355
N4730 G1 X-1.2897 Y-1.0602
N4735 G2 X-1.3014 Y-1.0527 I0.0747 J0.1301
N4740 G1 X-1.3092 Y-1.0472
N4745 G2 X-1.3219 Y-1.0372 I0.0864 J0.1226
N4750 G1 X-1.3289 Y-1.031
N4755 G2 X-1.3416 Y-1.0184 I0.0991 J0.1126
N4760 G1 X-1.3478 Y-1.0115
N4765 X-1.3539 Y-1.0043
N4770 X-1.3556 Y-1.0025
N4775 X-1.3576 Y-1.0011
N4780 X-1.3599 Y-1.0001
N4785 X-1.3623 Y-0.9996
N4790 X-1.4002 Y-0.9953
N4795 G2 X-1.411 Y-0.9854 I0.0014 J0.0124
N4800 X-1.4225 Y-0.803 I0.6207 J0.1309
N4805 X-1.3833 Y-0.6245 I0.6766 J-0.0552
N4810 G1 X-1.3826 Y-0.6115
N4815 X-1.3829 Y-0.61
N4820 X-1.3836 Y-0.6088
N4825 X-1.3848 Y-0.608
N4830 X-1.3863 Y-0.6077
N4835 X-1.3877 Y-0.6079
N4840 X-1.3889 Y-0.6087
N4845 X-1.3897 Y-0.6099
N4850 X-1.3899 Y-0.6104
N4855 X-1.3981 Y-0.6342
N4860 X-1.4056 Y-0.6597
N4865 X-1.4123 Y-0.6868
N4870 X-1.4185 Y-0.7155
N4875 X-1.4241 Y-0.7455
N4880 X-1.4292 Y-0.7768
N4885 X-1.4339 Y-0.8092
N4890 X-1.4385 Y-0.8426
N4895 X-1.4423 Y-0.872
N4900 X-1.4448 Y-0.9111
N4905 X-1.4474 Y-0.9543
N4910 X-1.4496 Y-0.9966
N4915 X-1.4511 Y-1.0379
N4920 X-1.4518 Y-1.0779
N4925 X-1.4516 Y-1.1165
N4930 X-1.4503 Y-1.1535
N4935 X-1.4479 Y-1.1888
N4940 X-1.4441 Y-1.2221
N4945 X-1.439 Y-1.2533
N4950 X-1.4326 Y-1.2823
N4955 X-1.4248 Y-1.3089
N4960 X-1.4157 Y-1.3333
N4965 X-1.4053 Y-1.3554
N4970 X-1.3936 Y-1.3755
N4975 X-1.38 Y-1.3944
N4980 X-1.3637 Y-1.4132
N4985 X-1.3439 Y-1.4326
N4990 X-1.3207 Y-1.4525
N4995 X-1.2944 Y-1.4729
N5000 X-1.2653 Y-1.4935
N5005 X-1.2338 Y-1.5146
N5010 X-1.2174 Y-1.5251
N5015 X-1.2066 Y-1.5221
N5020 X-1.1966 Y-1.5189
N5025 X-1.1881 Y-1.5158
N5030 X-1.1813 Y-1.513
N5035 X-1.176 Y-1.5104
N5040 X-1.1724 Y-1.5083
N5045 X-1.17 Y-1.5066
N5050 X-1.1679 Y-1.5049
N5055 X-1.1652 Y-1.5023
N5060 X-1.1618 Y-1.4985
N5065 X-1.1578 Y-1.4934
N5070 X-1.1533 Y-1.487
N5075 X-1.1484 Y-1.4792
N5080 X-1.1432 Y-1.47
N5085 X-1.1377 Y-1.4596
N5090 X-1.1319 Y-1.448
N5095 X-1.126 Y-1.4353
N5100 X-1.1199 Y-1.4216
N5105 X-1.1136 Y-1.407
N5110 X-1.107 Y-1.3917
N5115 G2 X-0.8349 Y-1.3838 I0.1379 J-0.059
N5120 G1 X-0.827 Y-1.3997
N5125 X-0.8194 Y-1.4147
N5130 X-0.812 Y-1.4289
N5135 X-0.8049 Y-1.442
N5140 X-0.7981 Y-1.4541
N5145 X-0.7915 Y-1.465
N5150 X-0.7852 Y-1.4746
N5155 X-0.7793 Y-1.4828
N5160 X-0.7738 Y-1.4897
N5165 X-0.769 Y-1.4952
N5170 X-0.7647 Y-1.4994
N5175 X-0.7611 Y-1.5024
N5180 X-0.7579 Y-1.5048
N5185 X-0.7539 Y-1.5072
N5190 X-0.7485 Y-1.5099
N5195 X-0.7416 Y-1.5129
N5200 X-0.7331 Y-1.5161
N5205 X-0.7231 Y-1.5192
N5210 X-0.7116 Y-1.5223
N5215 X-0.6987 Y-1.5254
N5220 X-0.6846 Y-1.5284
N5225 X-0.6694 Y-1.5313
N5230 X-0.6552 Y-1.5339
N5235 X-0.6497 Y-1.5334
N5240 X-0.6423 Y-1.5326
N5245 X-0.6353 Y-1.5318
N5250 X-0.6289 Y-1.5309
N5255 X-0.6229 Y-1.53
N5260 X-0.6174 Y-1.5291
N5265 X-0.6124 Y-1.5281
N5270 X-0.6089 Y-1.5273
N5275 Y-1.0789
N5280 X-0.6109 Y-1.0773
N5285 X-0.6222 Y-1.0684
N5290 X-0.6233 Y-1.0675
N5295 X-0.6344 Y-1.0584
N5300 X-0.6366 Y-1.0566
N5305 X-0.6475 Y-1.0474
N5310 X-0.6508 Y-1.0445
N5315 X-0.6613 Y-1.0352
N5320 X-0.6657 Y-1.031
N5325 X-0.6756 Y-1.0214
N5330 X-0.6811 Y-1.0158
N5335 X-0.6903 Y-1.0058
N5340 X-0.6936 Y-1.0022
N5345 X-0.6967 Y-0.9985
N5350 X-0.7051 Y-0.9881
N5355 G2 X-0.7122 Y-0.9787 I0.1164 J0.0946
N5360 G1 X-0.7196 Y-0.9679
N5365 G2 X-0.7265 Y-0.957 I0.1234 J0.0852
N5370 G1 X-0.7329 Y-0.9457
N5375 G2 X-0.7386 Y-0.9347 I0.1303 J0.0744
N5380 G1 X-0.7441 Y-0.9229
N5385 G2 X-0.7486 Y-0.9123 I0.136 J0.0634
N5390 G1 X-0.7532 Y-0.9001
N5395 G2 X-0.7566 Y-0.8901 I0.1404 J0.0528
N5400 G1 X-0.7603 Y-0.8774
N5405 X-0.7627 Y-0.8683
N5410 X-0.7657 Y-0.8552
N5415 X-0.7674 Y-0.8468
N5420 X-0.7697 Y-0.8335
N5425 X-0.7708 Y-0.8261
N5430 X-0.7724 Y-0.8124
N5435 X-0.7731 Y-0.8059
N5440 X-0.7741 Y-0.7919
N5445 X-0.7744 Y-0.7863
N5450 X-0.775 Y-0.7721
N5455 X-0.7751 Y-0.7674
N5460 X-0.7752 Y-0.7529
N5465 Y-0.7489
N5470 X-0.7749 Y-0.7343
N5475 X-0.7748 Y-0.731
N5480 X-0.7742 Y-0.7162
N5485 X-0.7741 Y-0.7137
N5490 X-0.7732 Y-0.6988
N5495 X-0.7731 Y-0.6969
N5500 X-0.7721 Y-0.6819
N5505 X-0.772 Y-0.6807
N5510 X-0.7708 Y-0.6656
N5515 Y-0.665
N5520 X-0.77 Y-0.656
N5525 Y0.2395
N5530 X-0.772 Y0.2754
N5535 X-0.7744 Y0.3144
N5540 X-0.7771 Y0.3521
N5545 X-0.7804 Y0.3882
N5550 X-0.7844 Y0.4225
N5555 X-0.7893 Y0.4547
N5560 X-0.795 Y0.4844
N5565 X-0.8016 Y0.5115
N5570 X-0.809 Y0.5355
N5575 X-0.8172 Y0.5564
N5580 X-0.8259 Y0.5741
N5585 X-0.8349 Y0.5887
N5590 X-0.8443 Y0.6007
N5595 X-0.855 Y0.6115
N5600 X-0.8684 Y0.6223
N5605 X-0.8854 Y0.6334
N5610 X-0.906 Y0.6446
N5615 X-0.9301 Y0.6557
N5620 X-0.9573 Y0.6664
N5625 X-0.9874 Y0.6768
N5630 X-1.0199 Y0.6869
N5635 X-1.0546 Y0.6967
N5640 X-1.0909 Y0.7063
N5645 X-1.0947 Y0.7073
N5650 X-1.0994 Y0.7063
N5655 X-1.137 Y0.6982
N5660 X-1.173 Y0.6898
N5665 X-1.207 Y0.6811
N5670 X-1.2386 Y0.6719
N5675 X-1.2675 Y0.6622
N5680 X-1.2933 Y0.652
N5685 X-1.3157 Y0.6414
N5690 X-1.3345 Y0.6307
N5695 X-1.3497 Y0.6201
N5700 X-1.3617 Y0.6097
N5705 X-1.3718 Y0.5985
N5710 X-1.3813 Y0.5851
N5715 X-1.3906 Y0.5686
N5720 X-1.3996 Y0.5488
N5725 X-1.408 Y0.5256
N5730 X-1.4157 Y0.4992
N5735 X-1.4225 Y0.4699
N5740 X-1.4286 Y0.438
N5745 X-1.4338 Y0.4037
N5750 X-1.4383 Y0.3676
N5755 X-1.4424 Y0.3297
N5760 X-1.4461 Y0.2905
N5765 X-1.4489 Y0.2578
N5770 X-1.4488 Y0.2499
N5775 X-1.4485 Y0.2343
N5780 X-1.4482 Y0.2189
N5785 X-1.4479 Y0.2037
N5790 X-1.4475 Y0.1887
N5795 X-1.447 Y0.1738
N5800 X-1.4464 Y0.1591
N5805 X-1.4457 Y0.1445
N5810 X-1.4449 Y0.1302
N5815 X-1.444 Y0.116
N5820 X-1.443 Y0.102
N5825 X-1.4417 Y0.0882
N5830 X-1.4404 Y0.0745
N5835 X-1.4388 Y0.0608
N5840 X-1.437 Y0.0469
N5845 X-1.4357 Y0.0372
N5850 X-1.3892
N5855 X-1.3889 Y0.0462
N5860 X-1.3887 Y0.0488
N5865 X-1.3881 Y0.0605
N5870 X-1.3878 Y0.064
N5875 X-1.3869 Y0.0754
N5880 X-1.3864 Y0.08
N5885 X-1.3852 Y0.0912
N5890 X-1.3844 Y0.0969
N5895 X-1.3828 Y0.1078
N5900 X-1.3815 Y0.1147
N5905 X-1.3794 Y0.1253
N5910 X-1.3775 Y0.1335
N5915 X-1.3749 Y0.1436
N5920 G2 X-1.3721 Y0.1533 I0.1452 J-0.0377
N5925 G1 X-1.3688 Y0.1629
N5930 G2 X-1.3647 Y0.1739 I0.1423 J-0.0474
N5935 G1 X-1.3608 Y0.1831
N5940 G2 X-1.355 Y0.1954 I0.1382 J-0.0584
N5945 G1 X-1.3504 Y0.2039
N5950 G2 X-1.3425 Y0.217 I0.1323 J-0.0706
N5955 G1 X-1.3372 Y0.225
N5960 G2 X-1.327 Y0.2384 I0.1244 J-0.0838
N5965 G1 X-1.3208 Y0.2457
N5970 G2 X-1.3089 Y0.2581 I0.1143 J-0.0972
N5975 G1 X-1.3019 Y0.2647
N5980 G2 X-1.2903 Y0.2745 I0.1024 J-0.1096
N5985 G1 X-1.2824 Y0.2805
N5990 G2 X-1.2719 Y0.2879 I0.0908 J-0.1194
N5995 G1 X-1.2633 Y0.2933
N6000 G2 X-1.2541 Y0.2987 I0.0803 J-0.1267
N6005 G1 X-1.2449 Y0.3036
N6010 X-1.2372 Y0.3075
N6015 X-1.2275 Y0.312
N6020 X-1.2212 Y0.3148
N6025 X-1.211 Y0.3189
N6030 X-1.2062 Y0.3208
N6035 X-1.1957 Y0.3247
N6040 X-1.1921 Y0.326
N6045 X-1.1813 Y0.3297
N6050 X-1.179 Y0.3305
N6055 X-1.168 Y0.334
N6060 X-1.1669 Y0.3344
N6065 X-1.1558 Y0.3379
N6070 G2 X-1.0738 Y0.3402 I0.0451 J-0.1431
N6075 G1 X-1.0639 Y0.3377
N6080 X-1.0628 Y0.3374
N6085 X-1.053 Y0.3348
N6090 X-1.0508 Y0.3342
N6095 X-1.0411 Y0.3315
N6100 X-1.0376 Y0.3305
N6105 X-1.0282 Y0.3276
N6110 X-1.0235 Y0.3261
N6115 X-1.0143 Y0.323
N6120 X-1.0082 Y0.3208
N6125 X-0.9994 Y0.3173
N6130 X-0.9919 Y0.3141
N6135 X-0.9835 Y0.3103
N6140 G2 X-0.9744 Y0.3059 I-0.062 J-0.1366
N6145 G1 X-0.9666 Y0.3016
N6150 G2 X-0.9561 Y0.2954 I-0.0711 J-0.1321
N6155 G1 X-0.9488 Y0.2907
N6160 G2 X-0.937 Y0.2822 I-0.0816 J-0.1259
N6165 G1 X-0.9304 Y0.277
N6170 G2 X-0.9179 Y0.2658 I-0.0933 J-0.1174
N6175 G1 X-0.9119 Y0.2599
N6180 G2 X-0.9002 Y0.2467 I-0.1059 J-0.1063
N6185 G1 X-0.895 Y0.2401
N6190 G2 X-0.8854 Y0.2266 I-0.1176 J-0.0931
N6195 G1 X-0.881 Y0.2195
N6200 G2 X-0.8739 Y0.2068 I-0.1272 J-0.0795
N6205 G1 X-0.87 Y0.1991
N6210 G2 X-0.8648 Y0.1874 I-0.1343 J-0.0668
N6215 G1 X-0.8616 Y0.1792
N6220 G2 X-0.858 Y0.1689 I-0.1395 J-0.0551
N6225 G1 X-0.8553 Y0.1603
N6230 X-0.8528 Y0.1516
N6235 X-0.8506 Y0.1425
N6240 X-0.8489 Y0.1351
N6245 X-0.8471 Y0.1257
N6250 X-0.846 Y0.1197
N6255 X-0.8446 Y0.11
N6260 X-0.8439 Y0.1051
N6265 X-0.8427 Y0.0951
N6270 X-0.8423 Y0.0914
N6275 X-0.8414 Y0.0813
N6280 X-0.8411 Y0.0785
N6285 X-0.8403 Y0.0682
N6290 X-0.8402 Y0.0665
N6295 X-0.8396 Y0.0561
N6300 X-0.8395 Y0.0552
N6305 X-0.8389 Y0.0448
N6310 G2 X-0.845 Y-0.007 I-0.1498 J-0.0086
N6315 G1 X-0.849 Y-0.0203
N6320 X-0.8492 Y-0.0211
N6325 X-0.8533 Y-0.0344
N6330 X-0.8538 Y-0.0361
N6335 X-0.858 Y-0.0493
N6340 X-0.8589 Y-0.0519
N6345 X-0.8633 Y-0.0649
N6350 X-0.8646 Y-0.0684
N6355 X-0.8693 Y-0.0812
N6360 X-0.871 Y-0.0856
N6365 X-0.876 Y-0.0981
N6370 X-0.8784 Y-0.1036
N6375 X-0.8839 Y-0.1157
N6380 X-0.8868 Y-0.122
N6385 X-0.8928 Y-0.1337
N6390 X-0.8967 Y-0.1409
N6395 X-0.9033 Y-0.1522
N6400 X-0.9081 Y-0.1601
N6405 X-0.9153 Y-0.1709
N6410 G2 X-0.9211 Y-0.179 I-0.125 J0.083
N6415 G1 X-0.929 Y-0.1893
N6420 X-0.935 Y-0.1967
N6425 X-0.9435 Y-0.2065
N6430 X-0.9494 Y-0.2129
N6435 X-0.9585 Y-0.2222
N6440 X-0.9641 Y-0.2277
N6445 X-0.9738 Y-0.2366
N6450 X-0.979 Y-0.2412
N6455 X-0.9892 Y-0.2497
N6460 X-0.994 Y-0.2536
N6465 X-1.0046 Y-0.2618
N6470 X-1.009 Y-0.265
N6475 X-1.02 Y-0.2729
N6480 X-1.0238 Y-0.2756
N6485 X-1.0351 Y-0.2832
N6490 X-1.0384 Y-0.2853
N6495 X-1.05 Y-0.2927
N6500 X-1.0528 Y-0.2943
N6505 X-1.0647 Y-0.3015
N6510 X-1.0668 Y-0.3028
N6515 X-1.0789 Y-0.3098
N6520 X-1.0806 Y-0.3108
N6525 X-1.0928 Y-0.3177
N6530 X-1.0939 Y-0.3183
N6535 X-1.1062 Y-0.3251
N6540 X-1.1068 Y-0.3254
N6545 X-1.112 Y-0.3283
N6550 X-1.1336 Y-0.3434
N6555 X-1.1612 Y-0.363
N6560 X-1.1878 Y-0.3823
N6565 X-1.2134 Y-0.4014
N6570 X-1.2376 Y-0.4203
N6575 X-1.2604 Y-0.4391
N6580 X-1.2816 Y-0.4578
N6585 X-1.3011 Y-0.4763
N6590 X-1.3188 Y-0.4947
N6595 X-1.3346 Y-0.513
N6600 X-1.3485 Y-0.5312
N6605 X-1.3605 Y-0.5493
N6610 X-1.3712 Y-0.5681
N6615 X-1.3809 Y-0.5884
N6620 X-1.3897 Y-0.6099
N6625 X-1.39 Y-0.6112
N6630 X-1.3898 Y-0.6124
N6635 X-1.3893 Y-0.6135
N6640 X-1.3838 Y-0.621
N6645 X-1.3832 Y-0.6221
N6650 X-1.3831 Y-0.6233
N6655 X-1.3833 Y-0.6245
N6660 G3 X-1.4207 Y-0.9077 I0.6137 J-0.225
N6665 X-1.3273 Y-1.1777 I0.5893 J0.0527
N6670 G2 X-1.2606 Y-1.2983 I-0.8068 J-0.525
N6675 X-1.2145 Y-1.4281 I-0.6755 J-0.3127
N6680 G1 X-1.2129 Y-1.4344
N6685 X-1.2125 Y-1.4351
N6690 X-1.2118 Y-1.4354
N6695 X-1.211 Y-1.4353
N6700 G3 X-1.2318 Y-1.2146 Z-0.125 I-0.0529 J0.1063
N6705 G2 X-1.316 Y-1.1831 I0.143 J0.5092
N6710 G3 X-1.3259 Y-1.1902 I-0.003 J-0.0063
N6715 X-1.3137 Y-1.2571 I0.4999 J0.0565
N6720 X-1.2836 Y-1.3181 I0.1577 J0.0399
N6725 X-1.2628 Y-1.3417 I0.2279 J0.1803
N6730 X-1.2393 Y-1.3625 I0.1659 J0.1633
N6735 X-1.2245 Y-1.3587 I0.0059 J0.0076
N6740 G1 X-1.2216 Y-1.3513
N6745 X-1.2187 Y-1.3439
N6750 G2 X-1.1857 Y-1.2874 I0.242 J-0.1036
N6755 X-1.1401 Y-1.2404 I0.2221 J-0.1702
N6760 G3 X-1.1433 Y-1.2302 I-0.0036 J0.0045
N6765 G2 X-1.2318 Y-1.2146 I0.034 J0.4519
N6770 X-1.2288 Y-1.1901 I0.0034 J0.012
N6775 G1 X-0.8236 Y-1.1787
N6780 X-0.8213 Y-1.1789
N6785 X-0.8191 Y-1.1794
N6790 X-0.8171 Y-1.1803
N6795 G2 X-0.7794 Y-1.2053 I-0.152 J-0.2704
N6800 G3 X-0.7691 Y-1.2002 I0.0039 J0.0051
N6805 G1 Y-1.1633
N6810 G3 X-0.7759 Y-1.1473 I-0.0221 J0.
N6815 G2 X-0.7853 Y-1.1382 I1.5616 J1.6281
N6820 X-0.7946 Y-1.1289 I0.2676 J0.2758
N6825 G3 X-0.8123 Y-1.1283 I-0.0092 J-0.0088
N6830 G2 X-0.8278 Y-1.142 I-0.4455 J0.4936
N6835 X-0.8439 Y-1.155 I-0.29 J0.3421
N6840 G3 X-0.8424 Y-1.1676 I0.0045 J-0.0058
N6845 G2 X-0.8171 Y-1.1803 I-0.1267 J-0.2832
N6850 G3 X-0.801 Y-1.1618 I0.0061 J0.0109
N6855 G1 X-0.9101 Y-1.019
N6860 G3 X-0.9284 Y-1.0173 I-0.0099 J-0.0076
N6865 G2 X-0.9365 Y-1.024 I-0.0997 J0.112
N6870 G1 X-0.9482 Y-1.0331
N6875 X-0.9559 Y-1.0387
N6880 X-0.9685 Y-1.0471
N6885 X-0.9749 Y-1.0512
N6890 X-0.9881 Y-1.0592
N6895 X-0.9932 Y-1.0621
N6900 X-1.007 Y-1.0697
N6905 X-1.0107 Y-1.0717
N6910 X-1.025 Y-1.0791
N6915 X-1.0274 Y-1.0803
N6920 X-1.0419 Y-1.0874
N6925 X-1.0432 Y-1.0881
N6930 X-1.0579 Y-1.0951
N6935 G2 X-1.1541 Y-1.1067 I-0.0651 J0.1351
N6940 G1 X-1.1654 Y-1.1043
N6945 X-1.1665 Y-1.1041
N6950 X-1.1776 Y-1.1016
N6955 X-1.1798 Y-1.1011
N6960 X-1.1909 Y-1.0985
N6965 X-1.1941 Y-1.0977
N6970 X-1.2049 Y-1.0949
N6975 X-1.2095 Y-1.0936
N6980 X-1.22 Y-1.0905
N6985 X-1.2259 Y-1.0887
N6990 X-1.236 Y-1.0852
N6995 X-1.2433 Y-1.0825
N7000 X-1.2529 Y-1.0787
N7005 X-1.2618 Y-1.0748
N7010 X-1.2709 Y-1.0705
N7015 G2 X-1.2812 Y-1.0651 I0.0644 J0.1355
N7020 G1 X-1.2897 Y-1.0602
N7025 G2 X-1.3014 Y-1.0527 I0.0747 J0.1301
N7030 G1 X-1.3092 Y-1.0472
N7035 G2 X-1.3219 Y-1.0372 I0.0864 J0.1226
N7040 G1 X-1.3289 Y-1.031
N7045 G2 X-1.3416 Y-1.0184 I0.0991 J0.1126
N7050 G1 X-1.3478 Y-1.0115
N7055 G2 X-1.3586 Y-0.9979 I0.1118 J0.1
N7060 G1 X-1.364 Y-0.9903
N7065 G2 X-1.3722 Y-0.9772 I0.1226 J0.0864
N7070 G1 X-1.3769 Y-0.9689
N7075 G2 X-1.3829 Y-0.9569 I0.1308 J0.0733
N7080 G1 X-1.3869 Y-0.9479
N7085 G2 X-1.3912 Y-0.9373 I0.1369 J0.0613
N7090 G1 X-1.3946 Y-0.9278
N7095 X-1.3976 Y-0.9186
N7100 X-1.4005 Y-0.9086
N7105 X-1.4025 Y-0.9009
N7110 X-1.4049 Y-0.8905
N7115 X-1.4062 Y-0.8842
N7120 X-1.4082 Y-0.8735
N7125 X-1.409 Y-0.8684
N7130 X-1.4107 Y-0.8573
N7135 X-1.4112 Y-0.8534
N7140 X-1.4126 Y-0.8422
N7145 X-1.4129 Y-0.8393
N7150 X-1.4141 Y-0.8278
N7155 X-1.4143 Y-0.826
N7160 X-1.4154 Y-0.8144
N7165 X-1.4155 Y-0.8135
N7170 X-1.4164 Y-0.8018
N7175 G2 X-1.4114 Y-0.7484 I0.1495 J0.0127
N7180 G1 X-1.4058 Y-0.7287
N7185 X-1.4056 Y-0.7278
N7190 X-1.3999 Y-0.7081
N7195 X-1.3993 Y-0.7063
N7200 X-1.3935 Y-0.6868
N7205 X-1.3926 Y-0.6841
N7210 X-1.3864 Y-0.6649
N7215 X-1.3852 Y-0.6613
N7220 X-1.3785 Y-0.6424
N7225 X-1.3768 Y-0.6378
N7230 X-1.3697 Y-0.6193
N7235 X-1.3674 Y-0.6137
N7240 X-1.3596 Y-0.5958
N7245 X-1.3565 Y-0.5893
N7250 X-1.348 Y-0.5719
N7255 X-1.344 Y-0.5645
N7260 X-1.3346 Y-0.5478
N7265 X-1.3296 Y-0.5396
N7270 X-1.3192 Y-0.5236
N7275 G2 X-1.3131 Y-0.515 I0.1256 J-0.082
N7280 G1 X-1.3016 Y-0.4999
N7285 G2 X-1.2952 Y-0.492 I0.1195 J-0.0907
N7290 G1 X-1.2827 Y-0.4777
N7295 X-1.2763 Y-0.4708
N7300 X-1.2629 Y-0.4572
N7305 X-1.2567 Y-0.4514
N7310 X-1.2425 Y-0.4385
N7315 X-1.2367 Y-0.4336
N7320 X-1.2216 Y-0.4213
N7325 X-1.2164 Y-0.4172
N7330 X-1.2006 Y-0.4055
N7335 X-1.1959 Y-0.4021
N7340 X-1.1795 Y-0.3909
N7345 X-1.1753 Y-0.3882
N7350 X-1.1584 Y-0.3774
N7355 X-1.1549 Y-0.3752
N7360 X-1.1375 Y-0.3648
N7365 X-1.1345 Y-0.3631
N7370 X-1.1167 Y-0.353
N7375 X-1.1144 Y-0.3517
N7380 X-1.0963 Y-0.3418
N7385 X-1.0945 Y-0.3409
N7390 X-1.0762 Y-0.3312
N7395 X-1.075 Y-0.3306
N7400 X-1.0565 Y-0.321
N7405 X-1.0559 Y-0.3207
N7410 X-1.0373 Y-0.3112
N7415 G2 X-0.8191 Y-0.4448 I0.0682 J-0.1336
N7420 G1 Y-0.657
N7425 X-0.8186 Y-0.6715
N7430 Y-0.6722
N7435 X-0.8181 Y-0.6893
N7440 X-0.818 Y-0.6908
N7445 X-0.8177 Y-0.7077
N7450 Y-0.71
N7455 X-0.8176 Y-0.7267
N7460 Y-0.7299
N7465 X-0.8178 Y-0.7464
N7470 X-0.8179 Y-0.7504
N7475 X-0.8186 Y-0.7667
N7480 X-0.8189 Y-0.7715
N7485 X-0.8201 Y-0.7875
N7490 X-0.8206 Y-0.7935
N7495 X-0.8224 Y-0.8091
N7500 X-0.8234 Y-0.8161
N7505 X-0.8259 Y-0.8312
N7510 X-0.8274 Y-0.8395
N7515 X-0.8307 Y-0.8541
N7520 X-0.8318 Y-0.8588
N7525 X-0.8331 Y-0.8635
N7530 X-0.8372 Y-0.8776
N7535 G2 X-0.8407 Y-0.8883 I-0.144 J0.0419
N7540 G1 X-0.8458 Y-0.9017
N7545 G2 X-0.8507 Y-0.9134 I-0.1405 J0.0526
N7550 G1 X-0.8567 Y-0.9261
N7555 G2 X-0.8634 Y-0.9386 I-0.1355 J0.0642
N7560 G1 X-0.8705 Y-0.9506
N7565 G2 X-0.879 Y-0.9634 I-0.1289 J0.0767
N7570 G1 X-0.8874 Y-0.9746
N7575 G2 X-0.8974 Y-0.9867 I-0.1204 J0.0894
N7580 G1 X-0.907 Y-0.9971
N7585 G2 X-0.9169 Y-1.0069 I-0.1104 J0.1015
N7590 G1 X-0.9276 Y-1.0166
N7595 X-0.9284 Y-1.0173
N7600 G2 X-0.9515 Y-1.0201 I-0.0136 J0.0152
N7605 G3 X-0.9749 Y-1.0213 I-0.0107 J-0.02
N7610 G1 X-0.9825 Y-1.0264
N7615 X-0.9878 Y-1.0298
N7620 X-1.0011 Y-1.0378
N7625 X-1.0052 Y-1.0402
N7630 X-1.0191 Y-1.0478
N7635 X-1.0222 Y-1.0495
N7640 X-1.0364 Y-1.0568
N7645 X-1.0384 Y-1.0579
N7650 X-1.053 Y-1.065
N7655 X-1.054 Y-1.0655
N7660 X-1.0687 Y-1.0726
N7665 G2 X-1.1489 Y-1.0822 I-0.0542 J0.1126
N7670 G1 X-1.1602 Y-1.0799
N7675 X-1.1611 Y-1.0797
N7680 X-1.1723 Y-1.0772
N7685 X-1.1741 Y-1.0768
N7690 X-1.1851 Y-1.0742
N7695 X-1.1878 Y-1.0735
N7700 X-1.1986 Y-1.0707
N7705 X-1.2024 Y-1.0696
N7710 X-1.2129 Y-1.0666
N7715 X-1.2178 Y-1.065
N7720 X-1.2279 Y-1.0616
N7725 X-1.234 Y-1.0593
N7730 X-1.2437 Y-1.0555
N7735 X-1.251 Y-1.0523
N7740 X-1.2601 Y-1.0479
N7745 X-1.2645 Y-1.0458
N7750 X-1.2687 Y-1.0434
N7755 X-1.2772 Y-1.0385
N7760 G2 X-1.287 Y-1.0323 I0.0623 J0.1084
N7765 G1 X-1.2948 Y-1.0268
N7770 G2 X-1.3054 Y-1.0185 I0.072 J0.1022
N7775 G1 X-1.3124 Y-1.0123
N7780 G2 X-1.323 Y-1.0018 I0.0826 J0.0938
N7785 G1 X-1.3292 Y-0.9948
N7790 G2 X-1.3382 Y-0.9835 I0.0932 J0.0833
N7795 G1 X-1.3436 Y-0.9759
N7800 G2 X-1.3504 Y-0.965 I0.1022 J0.072
N7805 G1 X-1.3551 Y-0.9567
N7810 G2 X-1.3601 Y-0.9467 I0.109 J0.0611
N7815 G1 X-1.3641 Y-0.9377
N7820 X-1.366 Y-0.9333
N7825 X-1.3677 Y-0.9288
N7830 X-1.3711 Y-0.9193
N7835 X-1.3736 Y-0.9117
N7840 X-1.3764 Y-0.9017
N7845 X-1.3781 Y-0.8953
N7850 X-1.3805 Y-0.8849
N7855 X-1.3816 Y-0.8797
N7860 X-1.3836 Y-0.8689
N7865 X-1.3843 Y-0.8646
N7870 X-1.386 Y-0.8536
N7875 X-1.3864 Y-0.8504
N7880 X-1.3878 Y-0.8391
N7885 X-1.3881 Y-0.8367
N7890 X-1.3893 Y-0.8252
N7895 X-1.3894 Y-0.8237
N7900 X-1.3905 Y-0.8121
N7905 Y-0.8113
N7910 X-1.3915 Y-0.7997
N7915 G2 X-1.3873 Y-0.7552 I0.1245 J0.0106
N7920 G1 X-1.3817 Y-0.7354
N7925 X-1.3815 Y-0.7347
N7930 X-1.3759 Y-0.7151
N7935 X-1.3754 Y-0.7135
N7940 X-1.3695 Y-0.6941
N7945 X-1.3688 Y-0.6918
N7950 X-1.3626 Y-0.6726
N7955 X-1.3616 Y-0.6695
N7960 X-1.355 Y-0.6507
N7965 X-1.3535 Y-0.6468
N7970 X-1.3464 Y-0.6284
N7975 X-1.3445 Y-0.6237
N7980 X-1.3366 Y-0.6058
N7985 X-1.3341 Y-0.6003
N7990 X-1.3255 Y-0.583
N7995 X-1.3223 Y-0.5768
N8000 X-1.3128 Y-0.5601
N8005 X-1.3087 Y-0.5532
N8010 X-1.2983 Y-0.5373
N8015 X-1.2932 Y-0.5301
N8020 X-1.2817 Y-0.515
N8025 X-1.2763 Y-0.5084
N8030 X-1.2639 Y-0.4941
N8035 X-1.2585 Y-0.4884
N8040 X-1.2451 Y-0.4748
N8045 X-1.24 Y-0.4699
N8050 X-1.2257 Y-0.4571
N8055 X-1.2209 Y-0.4529
N8060 X-1.2059 Y-0.4407
N8065 X-1.2015 Y-0.4373
N8070 X-1.1857 Y-0.4256
N8075 X-1.1818 Y-0.4228
N8080 X-1.1654 Y-0.4115
N8085 X-1.1619 Y-0.4093
N8090 X-1.145 Y-0.3985
N8095 X-1.142 Y-0.3967
N8100 X-1.1246 Y-0.3863
N8105 X-1.1222 Y-0.3848
N8110 X-1.1044 Y-0.3747
N8115 X-1.1024 Y-0.3736
N8120 X-1.0843 Y-0.3638
N8125 X-1.0828 Y-0.363
N8130 X-1.0645 Y-0.3533
N8135 X-1.0636 Y-0.3528
N8140 X-1.0451 Y-0.3433
N8145 X-1.0445 Y-0.343
N8150 X-1.026 Y-0.3335
N8155 G2 X-0.8441 Y-0.4448 I0.0568 J-0.1113
N8160 G1 Y-0.6575
N8165 X-0.8436 Y-0.6724
N8170 Y-0.673
N8175 X-0.8431 Y-0.6901
N8180 X-0.843 Y-0.6913
N8185 X-0.8427 Y-0.7083
N8190 Y-0.7101
N8195 X-0.8426 Y-0.7269
N8200 Y-0.7295
N8205 X-0.8428 Y-0.7461
N8210 X-0.8429 Y-0.7493
N8215 X-0.8436 Y-0.7656
N8220 X-0.8438 Y-0.7697
N8225 X-0.845 Y-0.7856
N8230 X-0.8455 Y-0.7907
N8235 X-0.8473 Y-0.8062
N8240 X-0.8481 Y-0.8121
N8245 X-0.8505 Y-0.8272
N8250 X-0.8519 Y-0.8341
N8255 X-0.8551 Y-0.8487
N8260 X-0.8571 Y-0.8566
N8265 X-0.8612 Y-0.8706
N8270 X-0.8626 Y-0.8751
N8275 X-0.8641 Y-0.8795
N8280 X-0.8692 Y-0.893
N8285 G2 X-0.8733 Y-0.9027 I-0.1171 J0.0438
N8290 G1 X-0.8793 Y-0.9154
N8295 G2 X-0.8849 Y-0.9258 I-0.113 J0.0535
N8300 G1 X-0.892 Y-0.9378
N8305 G2 X-0.8991 Y-0.9485 I-0.1074 J0.0639
N8310 G1 X-0.9074 Y-0.9597
N8315 G2 X-0.9158 Y-0.9698 I-0.1003 J0.0745
N8320 G1 X-0.9254 Y-0.9802
N8325 G2 X-0.9336 Y-0.9884 I-0.092 J0.0846
N8330 G1 X-0.9443 Y-0.998
N8335 X-0.948 Y-1.0012
N8340 X-0.9517 Y-1.0042
N8345 X-0.9635 Y-1.0133
N8350 X-0.9699 Y-1.0179
N8355 X-0.9749 Y-1.0213
N8360 X-0.9779 Y-1.0237 Z-0.1244 F10.
N8365 X-0.9805 Y-1.0265 Z-0.1238
N8370 X-0.9825 Y-1.0294 Z-0.122
N8375 X-0.984 Y-1.0325 Z-0.1202
N8380 X-0.9849 Y-1.0351 Z-0.1175
N8385 X-0.9855 Y-1.0378 Z-0.1147
N8390 X-0.9859 Y-1.0413 Z-0.1077
N8395 Y-1.0425 Z-0.1
N8400 Z0.2
N8405 G0 X-1.1308 Y0.7237
N8410 G1 Z0.0249 F10.
N8415 X-1.1318 Y0.7233 Z0.0176 F5.
N8420 X-1.1348 Y0.7223 Z0.0109
N8425 X-1.1395 Y0.7206 Z0.0055
N8430 X-1.1453 Y0.718 Z0.0017
N8435 X-1.1517 Y0.7148 Z0.
N8440 G3 X-1.0388 Y0.5059 Z-0.0326 I0.0565 J-0.1045
N8445 X-1.1517 Y0.7148 Z-0.0653 I-0.0565 J0.1045
N8450 X-1.0388 Y0.5059 Z-0.0979 I0.0565 J-0.1045
N8455 X-1.0906 Y0.729 Z-0.125 I-0.0565 J0.1045
N8460 X-1.0991 Y0.5117 I-0.0042 J-0.1086
N8465 G2 X-1.0202 Y0.5 I-0.0145 J-0.3681
N8470 X-1.0035 Y0.495 I-0.0626 J-0.2388
N8475 G3 X-0.9869 Y0.4896 I0.1794 J0.529
N8480 G1 X-0.9855 Y0.4895
N8485 X-0.9841 Y0.4899
N8490 X-0.983 Y0.4907
N8495 X-0.9822 Y0.4919
N8500 X-0.982 Y0.4933
N8505 X-0.9823 Y0.4947
N8510 X-0.9831 Y0.4959
N8515 X-0.9842 Y0.4968
N8520 G3 X-1.0396 Y0.518 I-0.1941 J-0.4225
N8525 X-1.0965 Y0.535 I-0.6458 J-2.0659
N8530 G1 X-1.0988 Y0.5353
N8535 X-1.1011 Y0.5351
N8540 G3 X-1.156 Y0.5215 I0.4832 J-2.0762
N8545 X-1.21 Y0.5046 I0.151 J-0.5786
N8550 G2 X-1.2194 Y0.5014 I-0.0775 J0.2124
N8555 G3 X-1.2287 Y0.4978 I0.0223 J-0.0707
N8560 G1 X-1.2298 Y0.497
N8565 X-1.2306 Y0.4958
N8570 X-1.2309 Y0.4944
N8575 X-1.2306 Y0.493
N8580 X-1.2298 Y0.4918
N8585 X-1.2287 Y0.491
N8590 X-1.2273 Y0.4906
N8595 X-1.2259 Y0.4908
N8600 G3 X-1.2161 Y0.4943 I-0.0612 J0.1887
N8605 G2 X-1.2062 Y0.4978 I0.0555 J-0.1414
N8610 X-1.1134 Y0.512 I0.0927 J-0.294
N8615 X-1.0991 Y0.5117 I-0.0002 J-0.3683
N8620 X-0.9616 Y0.3969 I-0.0058 J-0.1467
N8625 G3 X-0.8896 Y0.2328 I0.4515 J0.1003
N8630 G1 X-0.8854 Y0.2266
N8635 X-0.881 Y0.2195
N8640 G2 X-0.8739 Y0.2068 I-0.1272 J-0.0795
N8645 G1 X-0.87 Y0.1991
N8650 G2 X-0.8648 Y0.1874 I-0.1343 J-0.0668
N8655 G1 X-0.8616 Y0.1792
N8660 G2 X-0.858 Y0.1689 I-0.1395 J-0.0551
N8665 G1 X-0.8553 Y0.1603
N8670 X-0.8528 Y0.1516
N8675 X-0.8506 Y0.1425
N8680 X-0.8489 Y0.1351
N8685 X-0.8471 Y0.1257
N8690 X-0.846 Y0.1197
N8695 X-0.8446 Y0.11
N8700 X-0.8439 Y0.1051
N8705 X-0.8427 Y0.0951
N8710 X-0.8423 Y0.0914
N8715 X-0.8414 Y0.0813
N8720 X-0.8411 Y0.0785
N8725 X-0.8403 Y0.0682
N8730 X-0.8402 Y0.0665
N8735 X-0.8396 Y0.0561
N8740 X-0.8395 Y0.0552
N8745 X-0.8389 Y0.0448
N8750 G2 X-0.845 Y-0.007 I-0.1498 J-0.0086
N8755 G1 X-0.849 Y-0.0203
N8760 X-0.8492 Y-0.0211
N8765 X-0.8533 Y-0.0344
N8770 X-0.8538 Y-0.0361
N8775 X-0.858 Y-0.0493
N8780 X-0.8589 Y-0.0519
N8785 X-0.8633 Y-0.0649
N8790 X-0.8646 Y-0.0684
N8795 X-0.8693 Y-0.0812
N8800 X-0.871 Y-0.0856
N8805 X-0.876 Y-0.0981
N8810 X-0.8784 Y-0.1036
N8815 X-0.8839 Y-0.1157
N8820 X-0.8868 Y-0.122
N8825 X-0.8928 Y-0.1337
N8830 X-0.8967 Y-0.1409
N8835 X-0.9033 Y-0.1522
N8840 X-0.9081 Y-0.1601
N8845 X-0.9153 Y-0.1709
N8850 G2 X-0.9211 Y-0.179 I-0.125 J0.083
N8855 G1 X-0.929 Y-0.1893
N8860 X-0.935 Y-0.1967
N8865 X-0.9435 Y-0.2065
N8870 X-0.9494 Y-0.2129
N8875 X-0.9585 Y-0.2222
N8880 X-0.9641 Y-0.2277
N8885 X-0.9738 Y-0.2366
N8890 X-0.979 Y-0.2412
N8895 X-0.9892 Y-0.2497
N8900 X-0.994 Y-0.2536
N8905 X-1.0046 Y-0.2618
N8910 X-1.009 Y-0.265
N8915 X-1.02 Y-0.2729
N8920 X-1.0238 Y-0.2756
N8925 X-1.0351 Y-0.2832
N8930 X-1.0384 Y-0.2853
N8935 X-1.05 Y-0.2927
N8940 X-1.0528 Y-0.2943
N8945 X-1.0647 Y-0.3015
N8950 X-1.0668 Y-0.3028
N8955 X-1.0789 Y-0.3098
N8960 X-1.0806 Y-0.3108
N8965 X-1.0928 Y-0.3177
N8970 X-1.0939 Y-0.3183
N8975 X-1.1062 Y-0.3251
N8980 X-1.1068 Y-0.3254
N8985 X-1.112 Y-0.3283
N8990 X-1.1336 Y-0.3434
N8995 X-1.1612 Y-0.363
N9000 X-1.1878 Y-0.3823
N9005 X-1.2134 Y-0.4014
N9010 X-1.2376 Y-0.4203
N9015 X-1.2604 Y-0.4391
N9020 X-1.2816 Y-0.4578
N9025 X-1.3011 Y-0.4763
N9030 X-1.3188 Y-0.4947
N9035 X-1.3346 Y-0.513
N9040 X-1.3485 Y-0.5312
N9045 X-1.3605 Y-0.5493
N9050 X-1.3712 Y-0.5681
N9055 X-1.3809 Y-0.5884
N9060 X-1.3899 Y-0.6104
N9065 X-1.3981 Y-0.6342
N9070 X-1.4056 Y-0.6597
N9075 X-1.4123 Y-0.6868
N9080 X-1.4185 Y-0.7155
N9085 X-1.4241 Y-0.7455
N9090 X-1.4292 Y-0.7768
N9095 X-1.4339 Y-0.8092
N9100 X-1.4385 Y-0.8426
N9105 X-1.4423 Y-0.872
N9110 X-1.4448 Y-0.9111
N9115 X-1.4474 Y-0.9543
N9120 X-1.4496 Y-0.9966
N9125 X-1.4511 Y-1.0379
N9130 X-1.4518 Y-1.0779
N9135 X-1.4516 Y-1.1165
N9140 X-1.4503 Y-1.1535
N9145 X-1.4479 Y-1.1888
N9150 X-1.4441 Y-1.2221
N9155 X-1.439 Y-1.2533
N9160 X-1.4326 Y-1.2823
N9165 X-1.4248 Y-1.3089
N9170 X-1.4157 Y-1.3333
N9175 X-1.4053 Y-1.3554
N9180 X-1.3936 Y-1.3755
N9185 X-1.38 Y-1.3944
N9190 X-1.3637 Y-1.4132
N9195 X-1.3439 Y-1.4326
N9200 X-1.3207 Y-1.4525
N9205 X-1.2944 Y-1.4729
N9210 X-1.2653 Y-1.4935
N9215 X-1.2338 Y-1.5146
N9220 X-1.2174 Y-1.5251
N9225 X-1.2066 Y-1.5221
N9230 X-1.1966 Y-1.5189
N9235 X-1.1881 Y-1.5158
N9240 X-1.1813 Y-1.513
N9245 X-1.176 Y-1.5104
N9250 X-1.1724 Y-1.5083
N9255 X-1.17 Y-1.5066
N9260 X-1.1679 Y-1.5049
N9265 X-1.1652 Y-1.5023
N9270 X-1.1618 Y-1.4985
N9275 X-1.1578 Y-1.4934
N9280 X-1.1533 Y-1.487
N9285 X-1.1484 Y-1.4792
N9290 X-1.1432 Y-1.47
N9295 X-1.1377 Y-1.4596
N9300 X-1.1319 Y-1.448
N9305 X-1.126 Y-1.4353
N9310 X-1.1199 Y-1.4216
N9315 X-1.1136 Y-1.407
N9320 X-1.107 Y-1.3917
N9325 G2 X-0.8349 Y-1.3838 I0.1379 J-0.059
N9330 G1 X-0.827 Y-1.3997
N9335 X-0.8194 Y-1.4147
N9340 X-0.812 Y-1.4289
N9345 X-0.8049 Y-1.442
N9350 X-0.7981 Y-1.4541
N9355 X-0.7915 Y-1.465
N9360 X-0.7852 Y-1.4746
N9365 X-0.7793 Y-1.4828
N9370 X-0.7738 Y-1.4897
N9375 X-0.769 Y-1.4952
N9380 X-0.7647 Y-1.4994
N9385 X-0.7611 Y-1.5024
N9390 X-0.7579 Y-1.5048
N9395 X-0.7539 Y-1.5072
N9400 X-0.7485 Y-1.5099
N9405 X-0.7416 Y-1.5129
N9410 X-0.7331 Y-1.5161
N9415 X-0.7231 Y-1.5192
N9420 X-0.7116 Y-1.5223
N9425 X-0.6987 Y-1.5254
N9430 X-0.6846 Y-1.5284
N9435 X-0.6694 Y-1.5313
N9440 X-0.6552 Y-1.5339
N9445 X-0.6497 Y-1.5334
N9450 X-0.6423 Y-1.5326
N9455 X-0.6353 Y-1.5318
N9460 X-0.6289 Y-1.5309
N9465 X-0.6229 Y-1.53
N9470 X-0.6174 Y-1.5291
N9475 X-0.6124 Y-1.5281
N9480 X-0.6089 Y-1.5273
N9485 Y-1.0789
N9490 X-0.6109 Y-1.0773
N9495 X-0.6222 Y-1.0684
N9500 X-0.6233 Y-1.0675
N9505 X-0.6344 Y-1.0584
N9510 X-0.6366 Y-1.0566
N9515 X-0.6475 Y-1.0474
N9520 X-0.6508 Y-1.0445
N9525 X-0.6613 Y-1.0352
N9530 X-0.6657 Y-1.031
N9535 X-0.6756 Y-1.0214
N9540 X-0.6811 Y-1.0158
N9545 X-0.6903 Y-1.0058
N9550 X-0.6936 Y-1.0022
N9555 X-0.6967 Y-0.9985
N9560 X-0.7051 Y-0.9881
N9565 G2 X-0.7122 Y-0.9787 I0.1164 J0.0946
N9570 G1 X-0.7196 Y-0.9679
N9575 G2 X-0.7265 Y-0.957 I0.1234 J0.0852
N9580 G1 X-0.7329 Y-0.9457
N9585 G2 X-0.7386 Y-0.9347 I0.1303 J0.0744
N9590 G1 X-0.7441 Y-0.9229
N9595 G2 X-0.7486 Y-0.9123 I0.136 J0.0634
N9600 G1 X-0.7532 Y-0.9001
N9605 G2 X-0.7566 Y-0.8901 I0.1404 J0.0528
N9610 G1 X-0.7603 Y-0.8774
N9615 X-0.7627 Y-0.8683
N9620 X-0.7657 Y-0.8552
N9625 X-0.7674 Y-0.8468
N9630 X-0.7697 Y-0.8335
N9635 X-0.7708 Y-0.8261
N9640 X-0.7724 Y-0.8124
N9645 X-0.7731 Y-0.8059
N9650 X-0.7741 Y-0.7919
N9655 X-0.7744 Y-0.7863
N9660 X-0.775 Y-0.7721
N9665 X-0.7751 Y-0.7674
N9670 X-0.7752 Y-0.7529
N9675 Y-0.7489
N9680 X-0.7749 Y-0.7343
N9685 X-0.7748 Y-0.731
N9690 X-0.7742 Y-0.7162
N9695 X-0.7741 Y-0.7137
N9700 X-0.7732 Y-0.6988
N9705 X-0.7731 Y-0.6969
N9710 X-0.7721 Y-0.6819
N9715 X-0.772 Y-0.6807
N9720 X-0.7708 Y-0.6656
N9725 Y-0.665
N9730 X-0.77 Y-0.656
N9735 Y0.2395
N9740 X-0.772 Y0.2754
N9745 X-0.7744 Y0.3144
N9750 X-0.7771 Y0.3521
N9755 X-0.7804 Y0.3882
N9760 X-0.7844 Y0.4225
N9765 X-0.7893 Y0.4547
N9770 X-0.795 Y0.4844
N9775 X-0.8016 Y0.5115
N9780 X-0.809 Y0.5355
N9785 X-0.8172 Y0.5564
N9790 X-0.8259 Y0.5741
N9795 X-0.8349 Y0.5887
N9800 X-0.8443 Y0.6007
N9805 X-0.855 Y0.6115
N9810 X-0.8684 Y0.6223
N9815 X-0.8854 Y0.6334
N9820 X-0.906 Y0.6446
N9825 X-0.9301 Y0.6557
N9830 X-0.9573 Y0.6664
N9835 X-0.9874 Y0.6768
N9840 X-1.0199 Y0.6869
N9845 X-1.0546 Y0.6967
N9850 X-1.0909 Y0.7063
N9855 X-1.0947 Y0.7073
N9860 X-1.0994 Y0.7063
N9865 X-1.137 Y0.6982
N9870 X-1.173 Y0.6898
N9875 X-1.207 Y0.6811
N9880 X-1.2386 Y0.6719
N9885 X-1.2675 Y0.6622
N9890 X-1.2933 Y0.652
N9895 X-1.3157 Y0.6414
N9900 X-1.3345 Y0.6307
N9905 X-1.3497 Y0.6201
N9910 X-1.3617 Y0.6097
N9915 X-1.3718 Y0.5985
N9920 X-1.3813 Y0.5851
N9925 X-1.3906 Y0.5686
N9930 X-1.3996 Y0.5488
N9935 X-1.408 Y0.5256
N9940 X-1.4157 Y0.4992
N9945 X-1.4225 Y0.4699
N9950 X-1.4286 Y0.438
N9955 X-1.4338 Y0.4037
N9960 X-1.4383 Y0.3676
N9965 X-1.4424 Y0.3297
N9970 X-1.4461 Y0.2905
N9975 X-1.4489 Y0.2578
N9980 X-1.4488 Y0.2499
N9985 X-1.4485 Y0.2343
N9990 X-1.4482 Y0.2189
N9995 X-1.4479 Y0.2037
N10000 X-1.4475 Y0.1887
N10005 X-1.447 Y0.1738
N10010 X-1.4464 Y0.1591
N10015 X-1.4457 Y0.1445
N10020 X-1.4449 Y0.1302
N10025 X-1.444 Y0.116
N10030 X-1.443 Y0.102
N10035 X-1.4417 Y0.0882
N10040 X-1.4404 Y0.0745
N10045 X-1.4388 Y0.0608
N10050 X-1.437 Y0.0469
N10055 X-1.4357 Y0.0372
N10060 X-1.3892
N10065 X-1.3889 Y0.0462
N10070 X-1.3887 Y0.0488
N10075 X-1.3881 Y0.0605
N10080 X-1.3878 Y0.064
N10085 X-1.3869 Y0.0754
N10090 X-1.3864 Y0.08
N10095 X-1.3852 Y0.0912
N10100 X-1.3844 Y0.0969
N10105 X-1.3828 Y0.1078
N10110 X-1.3815 Y0.1147
N10115 X-1.3794 Y0.1253
N10120 X-1.3775 Y0.1335
N10125 X-1.3749 Y0.1436
N10130 G2 X-1.3721 Y0.1533 I0.1452 J-0.0377
N10135 G1 X-1.3688 Y0.1629
N10140 G2 X-1.3647 Y0.1739 I0.1423 J-0.0474
N10145 G1 X-1.3608 Y0.1831
N10150 G2 X-1.355 Y0.1954 I0.1382 J-0.0584
N10155 G1 X-1.3504 Y0.2039
N10160 G2 X-1.3425 Y0.217 I0.1323 J-0.0706
N10165 G1 X-1.3372 Y0.225
N10170 G2 X-1.327 Y0.2384 I0.1244 J-0.0838
N10175 G1 X-1.3208 Y0.2457
N10180 G2 X-1.3089 Y0.2581 I0.1143 J-0.0972
N10185 G1 X-1.3019 Y0.2647
N10190 G2 X-1.2903 Y0.2745 I0.1024 J-0.1096
N10195 G1 X-1.2824 Y0.2805
N10200 G2 X-1.2719 Y0.2879 I0.0908 J-0.1194
N10205 G1 X-1.2633 Y0.2933
N10210 G2 X-1.2541 Y0.2987 I0.0803 J-0.1267
N10215 G1 X-1.2449 Y0.3036
N10220 X-1.2372 Y0.3075
N10225 X-1.2275 Y0.312
N10230 X-1.2212 Y0.3148
N10235 X-1.211 Y0.3189
N10240 X-1.2062 Y0.3208
N10245 X-1.1957 Y0.3247
N10250 X-1.1921 Y0.326
N10255 X-1.1813 Y0.3297
N10260 X-1.179 Y0.3305
N10265 X-1.168 Y0.334
N10270 X-1.1669 Y0.3344
N10275 X-1.1558 Y0.3379
N10280 G2 X-1.0738 Y0.3402 I0.0451 J-0.1431
N10285 G1 X-1.0639 Y0.3377
N10290 X-1.0628 Y0.3374
N10295 X-1.053 Y0.3348
N10300 X-1.0508 Y0.3342
N10305 X-1.0411 Y0.3315
N10310 X-1.0376 Y0.3305
N10315 X-1.0282 Y0.3276
N10320 X-1.0235 Y0.3261
N10325 X-1.0143 Y0.323
N10330 X-1.0082 Y0.3208
N10335 X-0.9994 Y0.3173
N10340 X-0.9919 Y0.3141
N10345 X-0.9835 Y0.3103
N10350 G2 X-0.9744 Y0.3059 I-0.062 J-0.1366
N10355 G1 X-0.9666 Y0.3016
N10360 G2 X-0.9561 Y0.2954 I-0.0711 J-0.1321
N10365 G1 X-0.9488 Y0.2907
N10370 G2 X-0.937 Y0.2822 I-0.0816 J-0.1259
N10375 G1 X-0.9304 Y0.277
N10380 G2 X-0.9179 Y0.2658 I-0.0933 J-0.1174
N10385 G1 X-0.9119 Y0.2599
N10390 G2 X-0.9002 Y0.2467 I-0.1059 J-0.1063
N10395 G1 X-0.895 Y0.2401
N10400 X-0.8896 Y0.2328
N10405 G2 Y0.2094 I-0.0168 J-0.0117
N10410 G3 X-0.8915 Y0.186 I0.0191 J-0.0133
N10415 G1 X-0.8881 Y0.1782
N10420 X-0.8848 Y0.17
N10425 X-0.8833 Y0.1658
N10430 X-0.8818 Y0.1615
N10435 X-0.8791 Y0.1528
N10440 X-0.8771 Y0.1455
N10445 X-0.8748 Y0.1365
N10450 X-0.8735 Y0.1303
N10455 X-0.8716 Y0.1209
N10460 X-0.8708 Y0.1159
N10465 X-0.8693 Y0.1062
N10470 X-0.8687 Y0.1021
N10475 X-0.8675 Y0.0922
N10480 X-0.8672 Y0.0891
N10485 X-0.8662 Y0.0789
N10490 X-0.8661 Y0.0766
N10495 X-0.8653 Y0.0663
N10500 X-0.8652 Y0.0649
N10505 X-0.8645 Y0.0545
N10510 Y0.0538
N10515 X-0.8639 Y0.0433
N10520 G2 X-0.8689 Y0.0002 I-0.1248 J-0.0072
N10525 G1 X-0.8729 Y-0.0131
N10530 X-0.8731 Y-0.0138
N10535 X-0.8772 Y-0.027
N10540 X-0.8776 Y-0.0285
N10545 X-0.8819 Y-0.0417
N10550 X-0.8826 Y-0.0439
N10555 X-0.887 Y-0.0569
N10560 X-0.888 Y-0.0598
N10565 X-0.8927 Y-0.0726
N10570 X-0.8942 Y-0.0763
N10575 X-0.8992 Y-0.0888
N10580 X-0.9012 Y-0.0933
N10585 X-0.9066 Y-0.1054
N10590 X-0.9091 Y-0.1106
N10595 X-0.9151 Y-0.1224
N10600 X-0.9184 Y-0.1284
N10605 X-0.9249 Y-0.1397
N10610 X-0.929 Y-0.1463
N10615 X-0.9362 Y-0.1571
N10620 X-0.941 Y-0.1638
N10625 X-0.9489 Y-0.1742
N10630 X-0.9538 Y-0.1803
N10635 X-0.9624 Y-0.1901
N10640 X-0.9673 Y-0.1954
N10645 X-0.9764 Y-0.2047
N10650 X-0.9811 Y-0.2093
N10655 X-0.9907 Y-0.2182
N10660 X-0.9951 Y-0.2221
N10665 X-1.0053 Y-0.2306
N10670 X-1.0093 Y-0.2338
N10675 X-1.0199 Y-0.242
N10680 X-1.0235 Y-0.2447
N10685 X-1.0345 Y-0.2526
N10690 X-1.0377 Y-0.2548
N10695 X-1.0491 Y-0.2624
N10700 X-1.0518 Y-0.2642
N10705 X-1.0634 Y-0.2715
N10710 X-1.0657 Y-0.2729
N10715 X-1.0776 Y-0.2801
N10720 X-1.0794 Y-0.2812
N10725 X-1.0915 Y-0.2882
N10730 X-1.0928 Y-0.289
N10735 X-1.1051 Y-0.2959
N10740 X-1.106 Y-0.2964
N10745 X-1.1183 Y-0.3033
N10750 X-1.1188 Y-0.3035
N10755 X-1.1252 Y-0.307
N10760 X-1.148 Y-0.323
N10765 X-1.1758 Y-0.3427
N10770 X-1.2027 Y-0.3621
N10775 X-1.2286 Y-0.3815
N10780 X-1.2533 Y-0.4008
N10785 X-1.2766 Y-0.4201
N10790 X-1.2985 Y-0.4393
N10795 X-1.3187 Y-0.4586
N10800 X-1.3373 Y-0.4779
N10805 X-1.354 Y-0.4972
N10810 X-1.3688 Y-0.5166
N10815 X-1.3818 Y-0.5362
N10820 X-1.3934 Y-0.5565
N10825 X-1.4038 Y-0.5782
N10830 X-1.4133 Y-0.6016
N10835 X-1.4219 Y-0.6266
N10840 X-1.4297 Y-0.6531
N10845 X-1.4367 Y-0.6812
N10850 X-1.443 Y-0.7106
N10855 X-1.4487 Y-0.7412
N10860 X-1.4539 Y-0.7729
N10865 X-1.4587 Y-0.8057
N10870 X-1.4633 Y-0.8393
N10875 X-1.4672 Y-0.8696
N10880 X-1.4698 Y-0.9095
N10885 X-1.4724 Y-0.9529
N10890 X-1.4745 Y-0.9955
N10895 X-1.4761 Y-1.0372
N10900 X-1.4768 Y-1.0777
N10905 X-1.4766 Y-1.117
N10910 X-1.4753 Y-1.1548
N10915 X-1.4728 Y-1.1911
N10920 X-1.4689 Y-1.2255
N10925 X-1.4636 Y-1.258
N10930 X-1.4568 Y-1.2885
N10935 X-1.4485 Y-1.3168
N10940 X-1.4388 Y-1.343
N10945 X-1.4275 Y-1.367
N10950 X-1.4146 Y-1.3891
N10955 X-1.3997 Y-1.4099
N10960 X-1.3819 Y-1.4303
N10965 X-1.3608 Y-1.451
N10970 X-1.3365 Y-1.4719
N10975 X-1.3093 Y-1.4929
N10980 X-1.2795 Y-1.5141
N10985 X-1.2475 Y-1.5355
N10990 X-1.2218 Y-1.552
N10995 X-1.2116 Y-1.5494
N11000 X-1.1994 Y-1.546
N11005 X-1.1885 Y-1.5426
N11010 X-1.179 Y-1.5391
N11015 X-1.1709 Y-1.5357
N11020 X-1.1642 Y-1.5324
N11025 X-1.159 Y-1.5294
N11030 X-1.1549 Y-1.5266
N11035 X-1.1512 Y-1.5235
N11040 X-1.1471 Y-1.5196
N11045 X-1.1426 Y-1.5146
N11050 X-1.1377 Y-1.5083
N11055 X-1.1325 Y-1.5008
N11060 X-1.127 Y-1.492
N11065 X-1.1213 Y-1.482
N11070 X-1.1154 Y-1.4709
N11075 X-1.1094 Y-1.4588
N11080 X-1.1033 Y-1.4456
N11085 X-1.097 Y-1.4317
N11090 X-1.0906 Y-1.4169
N11095 X-1.084 Y-1.4015
N11100 G2 X-0.8573 Y-1.395 I0.1149 J-0.0492
N11105 G1 X-0.8493 Y-1.4109
N11110 X-0.8416 Y-1.4261
N11115 X-0.8341 Y-1.4406
N11120 X-0.8268 Y-1.4541
N11125 X-0.8196 Y-1.4668
N11130 X-0.8126 Y-1.4783
N11135 X-0.8058 Y-1.4887
N11140 X-0.7993 Y-1.4979
N11145 X-0.793 Y-1.5058
N11150 X-0.7871 Y-1.5124
N11155 X-0.7816 Y-1.5178
N11160 X-0.7766 Y-1.5221
N11165 X-0.7717 Y-1.5256
N11170 X-0.7661 Y-1.529
N11175 X-0.7592 Y-1.5326
N11180 X-0.7509 Y-1.5362
N11185 X-0.7412 Y-1.5397
N11190 X-0.7301 Y-1.5432
N11195 X-0.7178 Y-1.5466
N11200 X-0.7042 Y-1.5498
N11205 X-0.6896 Y-1.5529
N11210 X-0.6739 Y-1.5559
N11215 X-0.6574 Y-1.5589
N11220 X-0.6562 Y-1.5591
N11225 X-0.6552 Y-1.559
N11230 X-0.6472 Y-1.5583
N11235 X-0.6395 Y-1.5574
N11240 X-0.6323 Y-1.5566
N11245 X-0.6254 Y-1.5557
N11250 X-0.619 Y-1.5547
N11255 X-0.6129 Y-1.5537
N11260 X-0.6073 Y-1.5526
N11265 X-0.6021 Y-1.5514
N11270 X-0.5974 Y-1.5502
N11275 X-0.5928 Y-1.5489
N11280 X-0.5882 Y-1.5474
N11285 X-0.5839 Y-1.5459
N11290 Y-1.0659
N11295 G2 X-0.5953 Y-1.0578 I0.0664 J0.1059
N11300 G1 X-0.6066 Y-1.0488
N11305 X-0.6075 Y-1.048
N11310 X-0.6187 Y-1.039
N11315 X-0.6205 Y-1.0375
N11320 X-0.6314 Y-1.0283
N11325 X-0.6341 Y-1.0259
N11330 X-0.6446 Y-1.0165
N11335 X-0.6483 Y-1.0131
N11340 X-0.6582 Y-1.0035
N11345 X-0.6628 Y-0.9988
N11350 X-0.672 Y-0.9888
N11355 X-0.6773 Y-0.9827
N11360 X-0.6857 Y-0.9723
N11365 X-0.6887 Y-0.9685
N11370 X-0.6916 Y-0.9645
N11375 X-0.6991 Y-0.9537
N11380 G2 X-0.7048 Y-0.9447 I0.1029 J0.071
N11385 G1 X-0.7112 Y-0.9333
N11390 G2 X-0.716 Y-0.9241 I0.1085 J0.062
N11395 G1 X-0.7215 Y-0.9123
N11400 X-0.7234 Y-0.908
N11405 X-0.7252 Y-0.9035
N11410 X-0.7298 Y-0.8913
N11415 X-0.7326 Y-0.8829
N11420 X-0.7364 Y-0.8703
N11425 X-0.7384 Y-0.8626
N11430 X-0.7414 Y-0.8496
N11435 X-0.7428 Y-0.8426
N11440 X-0.7451 Y-0.8293
N11445 X-0.746 Y-0.8231
N11450 X-0.7476 Y-0.8094
N11455 X-0.7481 Y-0.804
N11460 X-0.7492 Y-0.79
N11465 X-0.7495 Y-0.7854
N11470 X-0.75 Y-0.7711
N11475 X-0.7501 Y-0.7672
N11480 X-0.7502 Y-0.7527
N11485 Y-0.7494
N11490 X-0.7499 Y-0.7348
N11495 X-0.7498 Y-0.7321
N11500 X-0.7492 Y-0.7173
N11505 X-0.7491 Y-0.7152
N11510 X-0.7483 Y-0.7002
N11515 X-0.7482 Y-0.6987
N11520 X-0.7471 Y-0.6836
N11525 Y-0.6826
N11530 X-0.7459 Y-0.6675
N11535 X-0.7458 Y-0.667
N11540 X-0.745 Y-0.657
N11545 Y0.2402
N11550 X-0.747 Y0.2769
N11555 X-0.7494 Y0.3161
N11560 X-0.7522 Y0.3541
N11565 X-0.7556 Y0.3908
N11570 X-0.7596 Y0.4258
N11575 X-0.7646 Y0.4589
N11580 X-0.7705 Y0.4898
N11585 X-0.7775 Y0.5181
N11590 X-0.7854 Y0.5438
N11595 X-0.7943 Y0.5665
N11600 X-0.804 Y0.5862
N11605 X-0.8144 Y0.603
N11610 X-0.8256 Y0.6173
N11615 X-0.8383 Y0.6301
N11620 X-0.8537 Y0.6425
N11625 X-0.8726 Y0.6549
N11630 X-0.8948 Y0.667
N11635 X-0.9203 Y0.6787
N11640 X-0.9487 Y0.6899
N11645 X-0.9796 Y0.7006
N11650 X-1.0128 Y0.7108
N11655 X-1.0479 Y0.7208
N11660 X-1.0846 Y0.7305
N11665 X-1.0941 Y0.733
N11670 X-1.1046 Y0.7308
N11675 X-1.1425 Y0.7225
N11680 X-1.179 Y0.7141
N11685 X-1.2136 Y0.7052
N11690 X-1.2461 Y0.6957
N11695 X-1.2761 Y0.6856
N11700 X-1.3032 Y0.6749
N11705 X-1.3273 Y0.6636
N11710 X-1.3479 Y0.6519
N11715 X-1.3651 Y0.6398
N11720 X-1.3793 Y0.6275
N11725 X-1.3913 Y0.6142
N11730 X-1.4024 Y0.5986
N11735 X-1.4129 Y0.58
N11740 X-1.4228 Y0.5582
N11745 X-1.4318 Y0.5333
N11750 X-1.4399 Y0.5055
N11755 X-1.447 Y0.475
N11760 X-1.4532 Y0.4422
N11765 X-1.4586 Y0.4072
N11770 X-1.4632 Y0.3705
N11775 X-1.4672 Y0.3322
N11780 X-1.471 Y0.2927
N11785 X-1.4739 Y0.2587
N11790 X-1.4738 Y0.2495
N11795 X-1.4735 Y0.2339
N11800 X-1.4732 Y0.2184
N11805 X-1.4729 Y0.2031
N11810 X-1.4724 Y0.1879
N11815 X-1.472 Y0.1729
N11820 X-1.4714 Y0.158
N11825 X-1.4707 Y0.1433
N11830 X-1.4699 Y0.1287
N11835 X-1.469 Y0.1143
N11840 X-1.4679 Y0.1
N11845 X-1.4666 Y0.0858
N11850 X-1.4652 Y0.0718
N11855 X-1.4636 Y0.0578
N11860 X-1.4618 Y0.0436
N11865 X-1.4598 Y0.0293
N11870 X-1.4577 Y0.0149
N11875 X-1.4573 Y0.0122
N11880 X-1.365
N11885 X-1.3648 Y0.0193
N11890 Y0.0201
N11895 X-1.3644 Y0.032
N11900 Y0.0333
N11905 X-1.3639 Y0.0451
N11910 X-1.3638 Y0.0474
N11915 X-1.3631 Y0.059
N11920 X-1.3629 Y0.0619
N11925 X-1.362 Y0.0734
N11930 X-1.3616 Y0.0772
N11935 X-1.3603 Y0.0884
N11940 X-1.3597 Y0.0931
N11945 X-1.3581 Y0.104
N11950 X-1.357 Y0.1098
N11955 X-1.3549 Y0.1204
N11960 X-1.3533 Y0.1272
N11965 X-1.3507 Y0.1373
N11970 X-1.3483 Y0.1454
N11975 X-1.3451 Y0.155
N11980 X-1.3435 Y0.1597
N11985 X-1.3417 Y0.1642
N11990 X-1.3378 Y0.1734
N11995 G2 X-1.3329 Y0.1836 I0.1151 J-0.0486
N12000 G1 X-1.3284 Y0.1922
N12005 G2 X-1.3218 Y0.2031 I0.1103 J-0.0589
N12010 G1 X-1.3164 Y0.211
N12015 G2 X-1.308 Y0.2222 I0.1037 J-0.0698
N12020 G1 X-1.3018 Y0.2295
N12025 G2 X-1.2919 Y0.2399 I0.0952 J-0.081
N12030 G1 X-1.2848 Y0.2465
N12035 G2 X-1.2751 Y0.2546 I0.0854 J-0.0913
N12040 G1 X-1.2673 Y0.2606
N12045 G2 X-1.2585 Y0.2667 I0.0757 J-0.0995
N12050 G1 X-1.2499 Y0.2722
N12055 X-1.2461 Y0.2745
N12060 X-1.2422 Y0.2766
N12065 X-1.2331 Y0.2816
N12070 X-1.2266 Y0.2848
N12075 X-1.2169 Y0.2893
N12080 X-1.2117 Y0.2916
N12085 X-1.2015 Y0.2958
N12090 X-1.1975 Y0.2974
N12095 X-1.187 Y0.3013
N12100 X-1.184 Y0.3024
N12105 X-1.1732 Y0.306
N12110 X-1.1713 Y0.3067
N12115 X-1.1603 Y0.3102
N12120 X-1.1593 Y0.3105
N12125 X-1.1483 Y0.314
N12130 G2 X-1.08 Y0.316 I0.0376 J-0.1192
N12135 G1 X-1.0701 Y0.3134
N12140 X-1.0692 Y0.3132
N12145 X-1.0593 Y0.3106
N12150 X-1.0575 Y0.3101
N12155 X-1.0478 Y0.3074
N12160 X-1.0449 Y0.3066
N12165 X-1.0355 Y0.3037
N12170 X-1.0315 Y0.3024
N12175 X-1.0224 Y0.2993
N12180 X-1.0173 Y0.2975
N12185 X-1.0085 Y0.294
N12190 X-1.0022 Y0.2914
N12195 X-0.9938 Y0.2876
N12200 X-0.9863 Y0.2838
N12205 X-0.9784 Y0.2796
N12210 G2 X-0.9697 Y0.2744 I-0.0592 J-0.1101
N12215 G1 X-0.9624 Y0.2697
N12220 G2 X-0.9526 Y0.2627 I-0.068 J-0.1049
N12225 G1 X-0.9459 Y0.2574
N12230 G2 X-0.9355 Y0.2481 I-0.0778 J-0.0979
N12235 G1 X-0.9296 Y0.2422
N12240 G2 X-0.9198 Y0.2312 I-0.0882 J-0.0886
N12245 G1 X-0.9146 Y0.2246
N12250 G2 X-0.9066 Y0.2134 I-0.098 J-0.0776
N12255 G1 X-0.9022 Y0.2062
N12260 G2 X-0.8963 Y0.1956 I-0.106 J-0.0663
N12265 G1 X-0.8924 Y0.1879
N12270 X-0.8915 Y0.186
N12275 X-0.8896 Y0.1827 Z-0.1244 F10.
N12280 X-0.8872 Y0.1797 Z-0.1238
N12285 X-0.8846 Y0.1773 Z-0.122
N12290 X-0.8817 Y0.1753 Z-0.1202
N12295 X-0.8793 Y0.174 Z-0.1175
N12300 X-0.8767 Y0.173 Z-0.1147
N12305 X-0.8733 Y0.1722 Z-0.1077
N12310 X-0.8721 Y0.172 Z-0.1
N12315 Z0.2
N12320 G0 X-2.2438 Y-1.2838
N12325 G1 Z0.1249 F10.
N12330 X-2.2432 Y-1.2829 Z0.1176 F5.
N12335 X-2.2415 Y-1.2802 Z0.1109
N12340 X-2.2389 Y-1.2759 Z0.1055
N12345 X-2.236 Y-1.2703 Z0.1017
N12350 X-2.2329 Y-1.2638 Z0.1
N12355 G3 X-2.4516 Y-1.1711 Z0.0674 I-0.1093 J0.0464
N12360 X-2.2329 Y-1.2638 Z0.0347 I0.1093 J-0.0464
N12365 X-2.4516 Y-1.1711 Z0.0021 I-0.1093 J0.0464
N12370 X-2.2329 Y-1.2638 Z-0.0306 I0.1093 J-0.0464
N12375 X-2.4516 Y-1.1711 Z-0.0632 I-0.1093 J0.0464
N12380 X-2.2329 Y-1.2638 Z-0.0958 I0.1093 J-0.0464
N12385 X-2.2235 Y-1.2174 Z-0.1 I-0.1093 J0.0464
N12390 X-2.4386 I-0.1075 J0.
N12395 G1 Y-1.3815
N12400 G3 X-2.4258 Y-1.3943 I0.0128 J0.
N12405 G1 X-2.3445
N12410 G3 X-2.3317 Y-1.3815 I0. J0.0128
N12415 G1 Y-1.2019
N12420 G3 X-2.3452 Y-1.179 I-0.0262 J0.
N12425 G2 X-2.3856 Y-1.1512 I0.126 J0.2264
N12430 G3 X-2.4018 I-0.0081 J-0.0097
N12435 G2 X-2.4251 Y-1.1686 I-0.1665 J0.1985
N12440 G3 X-2.4386 Y-1.1937 I0.0167 J-0.0251
N12445 G1 Y-1.2174
N12450 G2 X-2.4931 Y-1.2992 I-0.0886 J0.
N12455 G3 X-2.5476 Y-1.381 I0.0341 J-0.0818
N12460 G1 Y-1.5033
N12465 X-2.2226
N12470 Y-1.1026
N12475 G2 X-2.3691 Y-0.9527 I0.0035 J0.15
N12480 G1 Y-0.1295
N12485 X-2.3699 Y-0.1211
N12490 X-2.37 Y-0.1206
N12495 X-2.3713 Y-0.1054
N12500 X-2.3714 Y-0.1043
N12505 X-2.3726 Y-0.0891
N12510 X-2.3727 Y-0.0875
N12515 X-2.3738 Y-0.0724
N12520 X-2.3739 Y-0.0702
N12525 X-2.3748 Y-0.0552
N12530 X-2.3749 Y-0.0524
N12535 X-2.3755 Y-0.0375
N12540 Y-0.0341
N12545 X-2.3758 Y-0.0194
N12550 Y-0.0153
N12555 X-2.3756 Y-0.0007
N12560 X-2.3754 Y0.004
N12565 X-2.3748 Y0.0184
N12570 X-2.3744 Y0.0239
N12575 X-2.3733 Y0.0381
N12580 X-2.3727 Y0.0443
N12585 X-2.3709 Y0.0583
N12590 X-2.3699 Y0.0653
N12595 X-2.3675 Y0.079
N12600 X-2.366 Y0.0866
N12605 X-2.363 Y0.1001
N12610 X-2.3608 Y0.1085
N12615 X-2.3571 Y0.1216
N12620 X-2.3542 Y0.1306
N12625 X-2.3496 Y0.1434
N12630 G2 X-2.3459 Y0.1529 I0.1413 J-0.0504
N12635 G1 X-2.3404 Y0.1653
N12640 G2 X-2.3358 Y0.1751 I0.1375 J-0.0598
N12645 G1 X-2.3295 Y0.1872
N12650 G2 X-2.3242 Y0.1964 I0.1329 J-0.0696
N12655 G1 X-2.3169 Y0.2082
N12660 X-2.3119 Y0.2158
N12665 X-2.3038 Y0.2272
N12670 X-2.2994 Y0.2332
N12675 X-2.2907 Y0.2443
N12680 X-2.287 Y0.2488
N12685 X-2.2778 Y0.2597
N12690 X-2.275 Y0.2629
N12695 X-2.2653 Y0.2737
N12700 X-2.2634 Y0.2758
N12705 X-2.2535 Y0.2864
N12710 X-2.2526 Y0.2874
N12715 X-2.2425 Y0.298
N12720 G2 X-2.0385 Y0.3108 I0.1088 J-0.1032
N12725 G1 X-2.0256 Y0.3001
N12730 X-2.0245 Y0.2992
N12735 X-2.0117 Y0.2885
N12740 X-2.0095 Y0.2867
N12745 X-1.997 Y0.2758
N12750 X-1.9937 Y0.2728
N12755 X-1.9817 Y0.2617
N12760 X-1.9773 Y0.2575
N12765 X-1.9659 Y0.2461
N12770 X-1.9605 Y0.2405
N12775 X-1.9499 Y0.2287
N12780 X-1.9437 Y0.2213
N12785 X-1.934 Y0.2091
N12790 G2 X-1.9271 Y0.1997 I-0.1177 J-0.093
N12795 G1 X-1.9186 Y0.1869
N12800 G2 X-1.912 Y0.1761 I-0.1246 J-0.0836
N12805 G1 X-1.9046 Y0.1627
N12810 G2 X-1.8991 Y0.1519 I-0.1312 J-0.0727
N12815 G1 X-1.8928 Y0.138
N12820 G2 X-1.8886 Y0.1276 I-0.1366 J-0.0619
N12825 G1 X-1.8833 Y0.1132
N12830 G2 X-1.8801 Y0.1034 I-0.1409 J-0.0515
N12835 G1 X-1.8778 Y0.0955
N12840 X-1.8777 Y0.1009
N12845 X-1.8773 Y0.1271
N12850 X-1.877 Y0.1534
N12855 X-1.8767 Y0.1798
N12860 X-1.8765 Y0.2062
N12865 X-1.8763 Y0.2327
N12870 X-1.8761 Y0.2593
N12875 X-1.876 Y0.286
N12880 X-1.8757 Y0.294
N12885 X-1.8739 Y0.3249
N12890 X-1.8722 Y0.3551
N12895 X-1.8709 Y0.3843
N12900 X-1.87 Y0.4126
N12905 X-1.8697 Y0.4398
N12910 X-1.87 Y0.4656
N12915 X-1.871 Y0.4901
N12920 X-1.8728 Y0.513
N12925 X-1.8754 Y0.5341
N12930 X-1.8787 Y0.5534
N12935 X-1.8828 Y0.5708
N12940 X-1.8875 Y0.5861
N12945 X-1.8927 Y0.5994
N12950 X-1.8984 Y0.611
N12955 X-1.9046 Y0.6211
N12960 X-1.9117 Y0.6305
N12965 X-1.9209 Y0.6406
N12970 X-1.9328 Y0.6517
N12975 X-1.9474 Y0.6637
N12980 X-1.9647 Y0.6764
N12985 X-1.9842 Y0.6896
N12990 X-1.986 Y0.6908
N12995 X-1.9866 Y0.6904
N13000 X-1.9961 Y0.6847
N13005 X-2.0037 Y0.6796
N13010 X-2.0095 Y0.6751
N13015 X-2.0137 Y0.6713
N13020 X-2.0171 Y0.6678
N13025 X-2.0205 Y0.6635
N13030 X-2.0242 Y0.6581
N13035 X-2.0282 Y0.6514
N13040 X-2.0323 Y0.6434
N13045 X-2.0365 Y0.634
N13050 X-2.0407 Y0.6232
N13055 X-2.0449 Y0.6111
N13060 X-2.049 Y0.5978
N13065 X-2.053 Y0.5833
N13070 X-2.0569 Y0.5678
N13075 X-2.0607 Y0.5513
N13080 X-2.0645 Y0.5339
N13085 X-2.0683 Y0.5157
N13090 X-2.0722 Y0.4969
N13095 G2 X-2.3691 Y0.5268 I-0.147 J0.03
N13100 G1 Y0.6771
N13105 X-2.5476
N13110 Y0.3092
N13115 G2 X-2.4183 Y0.1606 I-0.0206 J-0.1486
N13120 G1 Y-0.9527
N13125 G2 X-2.5476 Y-1.1012 I-0.15 J0.
N13130 G1 Y-1.381
N13135 G3 X-2.3499 Y-1.4409 Z-0.1079 I0.108 J0.
N13140 G1 X-2.2408 Y-1.2773 Z-0.1135
N13145 G3 X-2.4204 Y-1.1575 Z-0.1232 I-0.0898 J0.0599
N13150 X-2.4386 Y-1.2174 Z-0.125 I0.0898 J-0.0599
N13155 G1 Y-1.3815
N13160 G3 X-2.4258 Y-1.3943 I0.0128 J0.
N13165 G1 X-2.3445
N13170 G3 X-2.3317 Y-1.3815 I0. J0.0128
N13175 G1 Y-1.2019
N13180 G3 X-2.3452 Y-1.179 I-0.0262 J0.
N13185 G2 X-2.3856 Y-1.1512 I0.126 J0.2264
N13190 G3 X-2.4018 I-0.0081 J-0.0097
N13195 G2 X-2.4251 Y-1.1686 I-0.1665 J0.1985
N13200 G3 X-2.4386 Y-1.1937 I0.0167 J-0.0251
N13205 G1 Y-1.2174
N13210 G2 X-2.4931 Y-1.2992 I-0.0886 J0.
N13215 G3 X-2.5476 Y-1.381 I0.0341 J-0.0818
N13220 G1 Y-1.5033
N13225 X-2.2226
N13230 Y-1.1026
N13235 G2 X-2.3691 Y-0.9527 I0.0035 J0.15
N13240 G1 Y-0.1295
N13245 X-2.3699 Y-0.1211
N13250 X-2.37 Y-0.1206
N13255 X-2.3713 Y-0.1054
N13260 X-2.3714 Y-0.1043
N13265 X-2.3726 Y-0.0891
N13270 X-2.3727 Y-0.0875
N13275 X-2.3738 Y-0.0724
N13280 X-2.3739 Y-0.0702
N13285 X-2.3748 Y-0.0552
N13290 X-2.3749 Y-0.0524
N13295 X-2.3755 Y-0.0375
N13300 Y-0.0341
N13305 X-2.3758 Y-0.0194
N13310 Y-0.0153
N13315 X-2.3756 Y-0.0007
N13320 X-2.3754 Y0.004
N13325 X-2.3748 Y0.0184
N13330 X-2.3744 Y0.0239
N13335 X-2.3733 Y0.0381
N13340 X-2.3727 Y0.0443
N13345 X-2.3709 Y0.0583
N13350 X-2.3699 Y0.0653
N13355 X-2.3675 Y0.079
N13360 X-2.366 Y0.0866
N13365 X-2.363 Y0.1001
N13370 X-2.3608 Y0.1085
N13375 X-2.3571 Y0.1216
N13380 X-2.3542 Y0.1306
N13385 X-2.3496 Y0.1434
N13390 G2 X-2.3459 Y0.1529 I0.1413 J-0.0504
N13395 G1 X-2.3404 Y0.1653
N13400 G2 X-2.3358 Y0.1751 I0.1375 J-0.0598
N13405 G1 X-2.3295 Y0.1872
N13410 G2 X-2.3242 Y0.1964 I0.1329 J-0.0696
N13415 G1 X-2.3169 Y0.2082
N13420 X-2.3119 Y0.2158
N13425 X-2.3038 Y0.2272
N13430 X-2.2994 Y0.2332
N13435 X-2.2907 Y0.2443
N13440 X-2.287 Y0.2488
N13445 X-2.2778 Y0.2597
N13450 X-2.275 Y0.2629
N13455 X-2.2653 Y0.2737
N13460 X-2.2634 Y0.2758
N13465 X-2.2535 Y0.2864
N13470 X-2.2526 Y0.2874
N13475 X-2.2425 Y0.298
N13480 G2 X-2.0385 Y0.3108 I0.1088 J-0.1032
N13485 G1 X-2.0256 Y0.3001
N13490 X-2.0245 Y0.2992
N13495 X-2.0117 Y0.2885
N13500 X-2.0095 Y0.2867
N13505 X-1.997 Y0.2758
N13510 X-1.9937 Y0.2728
N13515 X-1.9817 Y0.2617
N13520 X-1.9773 Y0.2575
N13525 X-1.9659 Y0.2461
N13530 X-1.9605 Y0.2405
N13535 X-1.9499 Y0.2287
N13540 X-1.9437 Y0.2213
N13545 X-1.934 Y0.2091
N13550 G2 X-1.9271 Y0.1997 I-0.1177 J-0.093
N13555 G1 X-1.9186 Y0.1869
N13560 G2 X-1.912 Y0.1761 I-0.1246 J-0.0836
N13565 G1 X-1.9046 Y0.1627
N13570 G2 X-1.8991 Y0.1519 I-0.1312 J-0.0727
N13575 G1 X-1.8928 Y0.138
N13580 G2 X-1.8886 Y0.1276 I-0.1366 J-0.0619
N13585 G1 X-1.8833 Y0.1132
N13590 G2 X-1.8801 Y0.1034 I-0.1409 J-0.0515
N13595 G1 X-1.8778 Y0.0955
N13600 X-1.8777 Y0.1009
N13605 X-1.8773 Y0.1271
N13610 X-1.877 Y0.1534
N13615 X-1.8767 Y0.1798
N13620 X-1.8765 Y0.2062
N13625 X-1.8763 Y0.2327
N13630 X-1.8761 Y0.2593
N13635 X-1.876 Y0.286
N13640 X-1.8757 Y0.294
N13645 X-1.8739 Y0.3249
N13650 X-1.8722 Y0.3551
N13655 X-1.8709 Y0.3843
N13660 X-1.87 Y0.4126
N13665 X-1.8697 Y0.4398
N13670 X-1.87 Y0.4656
N13675 X-1.871 Y0.4901
N13680 X-1.8728 Y0.513
N13685 X-1.8754 Y0.5341
N13690 X-1.8787 Y0.5534
N13695 X-1.8828 Y0.5708
N13700 X-1.8875 Y0.5861
N13705 X-1.8927 Y0.5994
N13710 X-1.8984 Y0.611
N13715 X-1.9046 Y0.6211
N13720 X-1.9117 Y0.6305
N13725 X-1.9209 Y0.6406
N13730 X-1.9328 Y0.6517
N13735 X-1.9474 Y0.6637
N13740 X-1.9647 Y0.6764
N13745 X-1.9842 Y0.6896
N13750 X-1.986 Y0.6908
N13755 X-1.9866 Y0.6904
N13760 X-1.9961 Y0.6847
N13765 X-2.0037 Y0.6796
N13770 X-2.0095 Y0.6751
N13775 X-2.0137 Y0.6713
N13780 X-2.0171 Y0.6678
N13785 X-2.0205 Y0.6635
N13790 X-2.0242 Y0.6581
N13795 X-2.0282 Y0.6514
N13800 X-2.0323 Y0.6434
N13805 X-2.0365 Y0.634
N13810 X-2.0407 Y0.6232
N13815 X-2.0449 Y0.6111
N13820 X-2.049 Y0.5978
N13825 X-2.053 Y0.5833
N13830 X-2.0569 Y0.5678
N13835 X-2.0607 Y0.5513
N13840 X-2.0645 Y0.5339
N13845 X-2.0683 Y0.5157
N13850 X-2.0722 Y0.4969
N13855 G2 X-2.3691 Y0.5268 I-0.147 J0.03
N13860 G1 Y0.6771
N13865 X-2.5476
N13870 Y0.3092
N13875 G2 X-2.4183 Y0.1606 I-0.0206 J-0.1486
N13880 G1 Y-0.9527
N13885 G2 X-2.5476 Y-1.1012 I-0.15 J0.
N13890 G1 Y-1.381
N13895 G2 X-2.5601 Y-1.3998 I-0.0203 J0.
N13900 G3 X-2.5726 Y-1.4185 I0.0078 J-0.0187
N13905 G1 Y-1.5283
N13910 X-2.1976
N13915 Y-1.0777
N13920 X-2.2191
N13925 G2 X-2.3441 Y-0.9527 I0. J0.125
N13930 G1 Y-0.1283
N13935 X-2.345 Y-0.1188
N13940 Y-0.1184
N13945 X-2.3464 Y-0.1032
N13950 X-2.3465 Y-0.1023
N13955 X-2.3477 Y-0.0871
N13960 X-2.3478 Y-0.0858
N13965 X-2.3489 Y-0.0707
N13970 X-2.349 Y-0.0688
N13975 X-2.3498 Y-0.0538
N13980 X-2.3499 Y-0.0515
N13985 X-2.3505 Y-0.0366
N13990 X-2.3506 Y-0.0338
N13995 X-2.3508 Y-0.019
N14000 Y-0.0156
N14005 X-2.3506 Y-0.001
N14010 X-2.3505 Y0.0029
N14015 X-2.3498 Y0.0173
N14020 X-2.3495 Y0.0219
N14025 X-2.3484 Y0.0361
N14030 X-2.3478 Y0.0413
N14035 X-2.3461 Y0.0552
N14040 X-2.3453 Y0.0611
N14045 X-2.3429 Y0.0748
N14050 X-2.3416 Y0.0811
N14055 X-2.3386 Y0.0946
N14060 X-2.3368 Y0.1016
N14065 X-2.333 Y0.1147
N14070 X-2.3306 Y0.1222
N14075 X-2.3261 Y0.135
N14080 X-2.3229 Y0.1429
N14085 X-2.3175 Y0.1554
N14090 X-2.3157 Y0.1594
N14095 X-2.3136 Y0.1635
N14100 X-2.3073 Y0.1756
N14105 X-2.3052 Y0.1795
N14110 X-2.3029 Y0.1833
N14115 X-2.2957 Y0.195
N14120 X-2.2914 Y0.2014
N14125 X-2.2834 Y0.2128
N14130 X-2.2797 Y0.2178
N14135 X-2.271 Y0.2289
N14140 X-2.2679 Y0.2327
N14145 X-2.2587 Y0.2436
N14150 X-2.2564 Y0.2462
N14155 X-2.2467 Y0.257
N14160 X-2.2451 Y0.2587
N14165 X-2.2352 Y0.2694
N14170 X-2.2344 Y0.2702
N14175 X-2.2244 Y0.2808
N14180 G2 X-2.0544 Y0.2914 I0.0907 J-0.086
N14185 G1 X-2.0414 Y0.2808
N14190 X-2.0405 Y0.28
N14195 X-2.0277 Y0.2693
N14200 X-2.0259 Y0.2678
N14205 X-2.0134 Y0.2569
N14210 X-2.0106 Y0.2544
N14215 X-1.9986 Y0.2434
N14220 X-1.995 Y0.2399
N14225 X-1.9836 Y0.2285
N14230 X-1.9791 Y0.2238
N14235 X-1.9685 Y0.212
N14240 X-1.9633 Y0.2058
N14245 X-1.9536 Y0.1936
N14250 X-1.9507 Y0.1897
N14255 X-1.9479 Y0.1857
N14260 X-1.9393 Y0.173
N14265 G2 X-1.9338 Y0.1639 I-0.1038 J-0.0697
N14270 G1 X-1.9264 Y0.1506
N14275 G2 X-1.9219 Y0.1416 I-0.1093 J-0.0606
N14280 G1 X-1.9156 Y0.1277
N14285 X-1.9137 Y0.1234
N14290 X-1.912 Y0.119
N14295 X-1.9068 Y0.1047
N14300 X-1.9041 Y0.0964
N14305 X-1.8998 Y0.0816
N14310 X-1.8979 Y0.0741
N14315 X-1.8945 Y0.0589
N14320 X-1.8932 Y0.052
N14325 X-1.8906 Y0.0364
N14330 X-1.8897 Y0.0303
N14335 X-1.8879 Y0.0143
N14340 X-1.8874 Y0.009
N14345 X-1.8862 Y-0.0073
N14350 X-1.886 Y-0.0119
N14355 X-1.8854 Y-0.0285
N14360 X-1.8853 Y-0.0324
N14365 X-1.8852 Y-0.0493
N14370 Y-0.0526
N14375 X-1.8856 Y-0.0696
N14380 X-1.8857 Y-0.0723
N14385 X-1.8864 Y-0.0895
N14390 X-1.8865 Y-0.0916
N14395 X-1.8876 Y-0.109
N14400 X-1.8877 Y-0.1105
N14405 X-1.8889 Y-0.1281
N14410 X-1.889 Y-0.129
N14415 X-1.8904 Y-0.1466
N14420 X-1.8905 Y-0.1472
N14425 X-1.8918 Y-0.1627
N14430 X-1.8921 Y-0.1689
N14435 X-1.8925 Y-0.1774
N14440 X-1.8929 Y-0.186
N14445 X-1.8934 Y-0.1946
N14450 Y-0.195
N14455 X-1.8939 Y-0.2034
N14460 X-1.894 Y-0.2039
N14465 X-1.8945 Y-0.2123
N14470 Y-0.2128
N14475 X-1.8951 Y-0.2212
N14480 Y-0.2219
N14485 X-1.8957 Y-0.2295
N14490 X-1.8684
N14495 X-1.8671 Y-0.2123
N14500 X-1.8652 Y-0.1861
N14505 X-1.8634 Y-0.1599
N14510 X-1.8617 Y-0.1338
N14515 X-1.8601 Y-0.1078
N14520 X-1.8587 Y-0.0819
N14525 X-1.8574 Y-0.0559
N14530 X-1.8563 Y-0.03
N14535 X-1.8554 Y-0.0041
N14540 X-1.8545 Y0.022
N14545 X-1.8538 Y0.0481
N14550 X-1.8532 Y0.0742
N14555 X-1.8527 Y0.1005
N14560 X-1.8523 Y0.1268
N14565 X-1.852 Y0.1531
N14570 X-1.8517 Y0.1796
N14575 X-1.8515 Y0.206
N14580 X-1.8513 Y0.2326
N14585 X-1.8511 Y0.2592
N14590 X-1.851 Y0.2858
N14595 X-1.8507 Y0.2925
N14600 X-1.8489 Y0.3235
N14605 X-1.8473 Y0.3538
N14610 X-1.8459 Y0.3834
N14615 X-1.845 Y0.4121
N14620 X-1.8447 Y0.4397
N14625 X-1.845 Y0.4663
N14630 X-1.846 Y0.4916
N14635 X-1.8479 Y0.5155
N14640 X-1.8506 Y0.5378
N14645 X-1.8542 Y0.5584
N14650 X-1.8586 Y0.5773
N14655 X-1.8639 Y0.5943
N14660 X-1.8698 Y0.6095
N14665 X-1.8765 Y0.6231
N14670 X-1.8839 Y0.6352
N14675 X-1.8925 Y0.6465
N14680 X-1.9031 Y0.6582
N14685 X-1.9163 Y0.6706
N14690 X-1.9321 Y0.6835
N14695 X-1.9502 Y0.6968
N14700 X-1.9705 Y0.7106
N14705 X-1.985 Y0.7197
N14710 X-1.9871 Y0.7187
N14715 X-1.9991 Y0.7121
N14720 X-2.0095 Y0.7058
N14725 X-2.0183 Y0.6998
N14730 X-2.0255 Y0.6943
N14735 X-2.0311 Y0.6893
N14740 X-2.0359 Y0.6842
N14745 X-2.0406 Y0.6784
N14750 X-2.0453 Y0.6716
N14755 X-2.0501 Y0.6635
N14760 X-2.0548 Y0.6542
N14765 X-2.0596 Y0.6437
N14770 X-2.0642 Y0.6319
N14775 X-2.0687 Y0.6189
N14780 X-2.073 Y0.6048
N14785 X-2.0772 Y0.5897
N14790 X-2.0812 Y0.5736
N14795 X-2.0851 Y0.5568
N14800 X-2.089 Y0.5391
N14805 X-2.0928 Y0.5208
N14810 X-2.0967 Y0.5019
N14815 G2 X-2.3441 Y0.5268 I-0.1225 J0.025
N14820 G1 Y0.7021
N14825 X-2.5726
N14830 Y0.2856
N14835 X-2.5683
N14840 G2 X-2.4433 Y0.1606 I0. J-0.125
N14845 G1 Y-0.9527
N14850 G2 X-2.5683 Y-1.0777 I-0.125 J0.
N14855 G1 X-2.5726
N14860 Y-1.4185
N14865 X-2.5723 Y-1.4224 Z-0.1244 F10.
N14870 X-2.5715 Y-1.4261 Z-0.1238
N14875 X-2.5702 Y-1.4294 Z-0.122
N14880 X-2.5685 Y-1.4324 Z-0.1202
N14885 X-2.5668 Y-1.4346 Z-0.1175
N14890 X-2.5649 Y-1.4366 Z-0.1147
N14895 X-2.5622 Y-1.4389 Z-0.1077
N14900 X-2.5612 Y-1.4396 Z-0.1
N14905 Z0.2
N14910 G0 X-3.4721 Y-1.2374
N14915 G1 Z0.1249 F10.
N14920 X-3.4711 Y-1.2377 Z0.1176 F5.
N14925 X-3.468 Y-1.2385 Z0.1109
N14930 X-3.4632 Y-1.2396 Z0.1055
N14935 X-3.4569 Y-1.2408 Z0.1017
N14940 X-3.4498 Y-1.2417 Z0.1
N14945 G3 X-3.4275 Y-1.0052 Z0.0674 I0.0111 J0.1182
N14950 X-3.4498 Y-1.2417 Z0.0347 I-0.0111 J-0.1182
N14955 X-3.4275 Y-1.0052 Z0.0021 I0.0111 J0.1182
N14960 X-3.4498 Y-1.2417 Z-0.0306 I-0.0111 J-0.1182
N14965 X-3.4275 Y-1.0052 Z-0.0632 I0.0111 J0.1182
N14970 X-3.4498 Y-1.2417 Z-0.0958 I-0.0111 J-0.1182
N14975 X-3.4027 Y-1.2366 Z-0.1 I0.0111 J0.1182
N14980 X-3.3585 Y-1.2159 I-0.0564 J0.1778
N14985 X-3.3381 Y-1.1918 I-0.029 J0.0453
N14990 X-3.3001 Y-1.0868 I-0.8903 J0.3812
N14995 X-3.309 Y-1.0792 I-0.0061 J0.0018
N15000 G2 X-3.367 Y-1.1058 I-0.8347 J1.7468
N15005 X-3.4266 Y-1.1287 I-0.284 J0.6484
N15010 X-3.5071 Y-1.1521 I-0.3321 J0.9936
N15015 X-3.5903 Y-1.1626 I-0.0862 J0.3483
N15020 G1 X-3.6693
N15025 G2 X-3.7846 Y-1.1447 I0. J0.3803
N15030 X-3.8897 Y-1.0943 I0.1275 J0.401
N15035 G3 X-3.9006 Y-1.1002 I-0.0039 J-0.0058
N15040 G1 Y-1.242
N15045 G3 X-3.8878 Y-1.2548 I0.0128 J0.
N15050 G1 X-3.662
N15055 G3 X-3.5027 Y-1.2508 I0. J3.2346
N15060 X-3.4284 Y-1.2428 I-0.0316 J0.6416
N15065 X-3.4027 Y-1.2366 I-0.0308 J0.184
N15070 G2 X-3.3321 Y-1.2574 I0.0199 J-0.0628
N15075 G3 X-3.2588 Y-1.2494 I0.034 J0.0281
N15080 G1 X-3.256 Y-1.2433
N15085 G3 X-3.2001 Y-1.063 I-0.8376 J0.3587
N15090 X-3.179 Y-0.8754 I-1.0897 J0.2175
N15095 X-3.1884 Y-0.8718 I-0.0053 J0.0001
N15100 G2 X-3.3094 Y-0.9715 I-0.3387 J0.2878
N15105 X-3.4522 Y-1.0362 I-0.4453 J0.7928
N15110 X-3.5216 Y-1.0575 I-0.2914 J0.8259
N15115 X-3.5936 Y-1.0668 I-0.072 J0.2749
N15120 G1 X-3.6693
N15125 G2 X-3.7935 Y-1.0394 I0. J0.2948
N15130 X-3.8956 Y-0.9635 I0.1319 J0.284
N15135 G3 X-3.9094 I-0.0069 J-0.0061
N15140 G2 X-3.9852 Y-1.0251 I-0.2263 J0.2013
N15145 G3 X-3.9964 Y-1.0443 I0.011 J-0.0192
N15150 G1 Y-1.338
N15155 G3 X-3.9839 Y-1.3505 I0.0125 J0.
N15160 G1 X-3.785
N15165 G3 X-3.544 Y-1.348 I0. J11.6761
N15170 X-3.4182 Y-1.3372 I-0.0201 J0.9714
N15175 X-3.3003 Y-1.2919 I-0.0442 J0.2912
N15180 G1 X-3.2959 Y-1.2892
N15185 X-3.2915 Y-1.2864
N15190 G3 X-3.2588 Y-1.2494 I-0.0557 J0.0821
N15195 G1 X-3.2576 Y-1.2457 Z-0.0994 F10.
N15200 X-3.2569 Y-1.2419 Z-0.0988
N15205 X-3.2568 Y-1.2384 Z-0.097
N15210 X-3.2572 Y-1.235 Z-0.0952
N15215 X-3.2579 Y-1.2323 Z-0.0925
N15220 X-3.2588 Y-1.2297 Z-0.0897
N15225 X-3.2605 Y-1.2265 Z-0.0827
N15230 X-3.2611 Y-1.2255 Z-0.075
N15235 Z0.2
N15240 G0 X-3.377 Y1.1983
N15245 G1 Z0.1249 F10.
N15250 X-3.3777 Y1.1991 Z0.1176 F5.
N15255 X-3.3798 Y1.2015 Z0.1109
N15260 X-3.3832 Y1.2051 Z0.1055
N15265 X-3.3878 Y1.2096 Z0.1017
N15270 X-3.3932 Y1.2143 Z0.1
N15275 G3 X-3.5429 Y1.0299 Z0.0674 I-0.0748 J-0.0922
N15280 X-3.3932 Y1.2143 Z0.0347 I0.0748 J0.0922
N15285 X-3.5429 Y1.0299 Z0.0021 I-0.0748 J-0.0922
N15290 X-3.3932 Y1.2143 Z-0.0306 I0.0748 J0.0922
N15295 X-3.5429 Y1.0299 Z-0.0632 I-0.0748 J-0.0922
N15300 X-3.3932 Y1.2143 Z-0.0958 I0.0748 J0.0922
N15305 X-3.4352 Y1.2362 Z-0.1 I-0.0748 J-0.0922
N15310 X-3.4509 Y1.2402 I-0.0699 J-0.2422
N15315 G1 X-3.4523
N15320 X-3.4537 Y1.2397
N15325 X-3.4548 Y1.2387
N15330 X-3.4554 Y1.2374
N15335 X-3.4555 Y1.236
N15340 X-3.455 Y1.2346
N15345 X-3.4541 Y1.2335
N15350 X-3.4528 Y1.2328
N15355 G2 X-3.4207 Y1.2231 I-0.6746 J-2.2818
N15360 G1 X-3.4193 Y1.223
N15365 X-3.4179 Y1.2233
N15370 X-3.4168 Y1.2242
N15375 X-3.4161 Y1.2254
N15380 X-3.4159 Y1.2268
N15385 X-3.4162 Y1.2282
N15390 X-3.417 Y1.2294
N15395 X-3.4181 Y1.2302
N15400 G3 X-3.4343 Y1.2359 I-0.0581 J-0.1377
N15405 G1 X-3.4352 Y1.2362
N15410 X-3.4435 Y1.2384 Z-0.0985 F10.
N15415 X-3.4509 Y1.2402 Z-0.094
N15420 X-3.452 Z-0.0929
N15425 X-3.4531 Y1.24 Z-0.0917
N15430 X-3.454 Y1.2394 Z-0.0906
N15435 X-3.4549 Y1.2385 Z-0.0886
N15440 X-3.4554 Y1.2373 Z-0.0866
N15445 X-3.4555 Y1.2362 Z-0.0838
N15450 X-3.4553 Y1.2352 Z-0.081
N15455 X-3.455 Y1.2345 Z-0.075
N15460 Z0.1249
N15465 X-3.7869 Y1.2255 F5.
N15470 X-3.7878 Y1.2261 Z0.1176
N15475 X-3.7905 Y1.2278 Z0.1109
N15480 X-3.7948 Y1.2304 Z0.1055
N15485 X-3.8004 Y1.2334 Z0.1017
N15490 X-3.807 Y1.2364 Z0.1
N15495 G3 X-3.8997 Y1.0177 Z0.0674 I-0.0464 J-0.1093
N15500 X-3.807 Y1.2364 Z0.0347 I0.0464 J0.1093
N15505 X-3.8997 Y1.0177 Z0.0021 I-0.0464 J-0.1093
N15510 X-3.807 Y1.2364 Z-0.0306 I0.0464 J0.1093
N15515 X-3.8997 Y1.0177 Z-0.0632 I-0.0464 J-0.1093
N15520 X-3.807 Y1.2364 Z-0.0958 I0.0464 J0.1093
N15525 X-3.8533 Y1.2458 Z-0.1 I-0.0464 J-0.1093
N15530 G1 X-3.8535
N15535 G3 X-3.8658 Y1.2334 I0. J-0.0124
N15540 G1 Y1.2259
N15545 G3 X-3.8548 Y1.2188 I0.0078 J0.
N15550 G2 X-3.8086 Y1.2375 I0.1854 J-0.3917
N15555 G1 X-3.8073 Y1.2382
N15560 X-3.8063 Y1.2394
N15565 X-3.8058 Y1.2408
N15570 Y1.2422
N15575 X-3.8063 Y1.2436
N15580 X-3.8072 Y1.2448
N15585 X-3.8085 Y1.2455
N15590 X-3.8099 Y1.2458
N15595 X-3.8533
N15600 G2 X-3.9223 Y1.2792 I0. J0.0878
N15605 G3 X-3.9947 Y1.2541 I-0.0318 J-0.0251
N15610 G1 Y1.1129
N15615 G3 X-3.9814 Y1.0897 I0.0269 J0.
N15620 G2 X-3.9105 Y1.0322 I-0.1542 J-0.2626
N15625 G3 X-3.8944 I0.008 J0.0073
N15630 G2 X-3.7926 Y1.1065 I0.233 J-0.2122
N15635 X-3.6693 Y1.1334 I0.1232 J-0.2694
N15640 X-3.5789 Y1.1311 I0. J-1.7998
N15645 X-3.4897 Y1.1159 I-0.0192 J-0.3818
N15650 X-3.3444 Y1.0593 I-0.2625 J-0.888
N15655 X-3.2196 Y0.9657 I-0.185 J-0.377
N15660 G3 X-3.21 Y0.9696 I0.0041 J0.0037
N15665 X-3.2282 Y1.1268 I-0.8964 J-0.0246
N15670 X-3.278 Y1.2771 I-0.6711 J-0.139
N15675 X-3.3124 Y1.3149 I-0.078 J-0.0363
N15680 X-3.3926 Y1.3505 I-0.194 J-0.3294
N15685 X-3.4787 Y1.368 I-0.1296 J-0.4159
N15690 X-3.5463 Y1.3722 I-0.0894 J-0.8902
N15695 X-3.614 Y1.3731 I-0.073 J-3.0007
N15700 G1 X-3.9823 Y1.3747
N15705 G3 X-3.9947 Y1.3623 I0. J-0.0124
N15710 G1 Y1.2541
N15715 G2 X-4.072 Y1.1382 I-0.1255 J0.
N15720 G3 X-4.1492 Y1.0223 I0.0483 J-0.1159
N15725 G1 Y0.9771
N15730 X-4.1356
N15735 G2 X-3.9856 Y0.8271 I0. J-0.15
N15740 G1 Y-0.7622
N15745 G2 X-4.1356 Y-0.9122 I-0.15 J0.
N15750 G1 X-4.1492
N15755 Y-1.5033
N15760 X-3.6209
N15765 X-3.5938 Y-1.5032
N15770 X-3.567 Y-1.503
N15775 X-3.5408 Y-1.5026
N15780 X-3.5153 Y-1.5019
N15785 X-3.4904 Y-1.5009
N15790 X-3.4663 Y-1.4995
N15795 X-3.443 Y-1.4976
N15800 X-3.4205 Y-1.4952
N15805 X-3.3989 Y-1.4923
N15810 X-3.3782 Y-1.4887
N15815 X-3.3584 Y-1.4845
N15820 X-3.3396 Y-1.4797
N15825 X-3.3218 Y-1.4742
N15830 X-3.3047 Y-1.4679
N15835 X-3.2879 Y-1.4608
N15840 X-3.2708 Y-1.4524
N15845 X-3.253 Y-1.4427
N15850 X-3.2348 Y-1.4318
N15855 X-3.216 Y-1.4198
N15860 X-3.1967 Y-1.4067
N15865 X-3.1768 Y-1.3926
N15870 X-3.1565 Y-1.3777
N15875 X-3.1443 Y-1.3686
N15880 X-3.1334 Y-1.3443
N15885 X-3.1207 Y-1.3156
N15890 X-3.1086 Y-1.2874
N15895 X-3.0972 Y-1.2596
N15900 X-3.0866 Y-1.2322
N15905 X-3.0769 Y-1.2053
N15910 X-3.0681 Y-1.1787
N15915 X-3.0604 Y-1.1526
N15920 X-3.0537 Y-1.1265
N15925 X-3.0478 Y-1.1001
N15930 X-3.0428 Y-1.073
N15935 X-3.0385 Y-1.0454
N15940 X-3.035 Y-1.0172
N15945 X-3.032 Y-0.9885
N15950 X-3.0297 Y-0.9592
N15955 X-3.028 Y-0.9293
N15960 X-3.0267 Y-0.899
N15965 X-3.0259 Y-0.8682
N15970 X-3.0254 Y-0.8369
N15975 X-3.0253 Y-0.8051
N15980 Y-0.773
N15985 X-3.0256 Y-0.7404
N15990 X-3.0259 Y-0.7075
N15995 Y-0.7042
N16000 X-3.0256 Y-0.6801
N16005 X-3.0253 Y-0.6563
N16010 X-3.0251 Y-0.6328
N16015 Y-0.6095
N16020 X-3.0252 Y-0.5865
N16025 X-3.0255 Y-0.5639
N16030 X-3.026 Y-0.5415
N16035 X-3.0268 Y-0.5195
N16040 X-3.0279 Y-0.4978
N16045 X-3.0293 Y-0.4764
N16050 X-3.0311 Y-0.4553
N16055 X-3.0332 Y-0.4346
N16060 X-3.0358 Y-0.4143
N16065 X-3.0388 Y-0.3942
N16070 X-3.0422 Y-0.3745
N16075 X-3.0462 Y-0.3547
N16080 X-3.0508 Y-0.3347
N16085 X-3.0558 Y-0.3142
N16090 X-3.0614 Y-0.2934
N16095 X-3.0674 Y-0.2722
N16100 X-3.0738 Y-0.2506
N16105 X-3.0805 Y-0.2286
N16110 X-3.0845 Y-0.2159
N16115 X-3.0853 Y-0.215
N16120 X-3.0967 Y-0.2031
N16125 X-3.1076 Y-0.1919
N16130 X-3.1182 Y-0.1814
N16135 X-3.1285 Y-0.1718
N16140 X-3.1385 Y-0.163
N16145 X-3.148 Y-0.155
N16150 X-3.1572 Y-0.1479
N16155 X-3.1662 Y-0.1416
N16160 X-3.1754 Y-0.1357
N16165 X-3.1853 Y-0.13
N16170 X-3.1958 Y-0.1244
N16175 X-3.2071 Y-0.1189
N16180 X-3.2191 Y-0.1136
N16185 X-3.2319 Y-0.1084
N16190 X-3.2453 Y-0.1033
N16195 X-3.2594 Y-0.0983
N16200 X-3.2741 Y-0.0934
N16205 X-3.2894 Y-0.0886
N16210 X-3.3053 Y-0.0838
N16215 X-3.3172 Y-0.0803
N16220 X-3.3161 Y-0.0813
N16225 G2 X-3.3037 Y-0.0943 I-0.1022 J-0.1098
N16230 G1 X-3.2936 Y-0.1063
N16235 G2 X-3.2834 Y-0.1198 I-0.1146 J-0.0968
N16240 G1 X-3.2747 Y-0.133
N16245 G2 X-3.2669 Y-0.1459 I-0.1248 J-0.0833
N16250 G1 X-3.2594 Y-0.1602
N16255 G2 X-3.2537 Y-0.172 I-0.1325 J-0.0703
N16260 G1 X-3.2473 Y-0.1872
N16265 G2 X-3.2433 Y-0.1977 I-0.1381 J-0.0585
N16270 G1 X-3.2379 Y-0.2139
N16275 X-3.2351 Y-0.2228
N16280 X-3.2306 Y-0.2397
N16285 X-3.2288 Y-0.2473
N16290 X-3.225 Y-0.2649
N16295 X-3.2238 Y-0.2711
N16300 X-3.2207 Y-0.2893
N16305 X-3.22 Y-0.2942
N16310 X-3.2174 Y-0.3129
N16315 X-3.217 Y-0.3167
N16320 X-3.2149 Y-0.3358
N16325 X-3.2146 Y-0.3386
N16330 X-3.2128 Y-0.358
N16335 X-3.2127 Y-0.3598
N16340 X-3.2111 Y-0.3793
N16345 Y-0.3802
N16350 X-3.2097 Y-0.3999
N16355 G2 X-3.2093 Y-0.4136 I-0.1496 J-0.0108
N16360 G1 X-3.2097 Y-0.4355
N16365 Y-0.4363
N16370 X-3.2103 Y-0.4582
N16375 Y-0.4599
N16380 X-3.2111 Y-0.4815
N16385 X-3.2112 Y-0.4841
N16390 X-3.2124 Y-0.5055
N16395 X-3.2126 Y-0.509
N16400 X-3.2142 Y-0.53
N16405 X-3.2146 Y-0.5345
N16410 X-3.2168 Y-0.5551
N16415 X-3.2175 Y-0.5607
N16420 X-3.2204 Y-0.5807
N16425 X-3.2216 Y-0.5876
N16430 X-3.2254 Y-0.6069
N16435 X-3.2272 Y-0.6151
N16440 X-3.2319 Y-0.6337
N16445 G2 X-3.2346 Y-0.6432 I-0.1454 J0.0367
N16450 G1 X-3.2404 Y-0.661
N16455 G2 X-3.2444 Y-0.672 I-0.1427 J0.0462
N16460 G1 X-3.2513 Y-0.6888
N16465 G2 X-3.257 Y-0.701 I-0.1387 J0.0571
N16470 G1 X-3.2652 Y-0.7168
N16475 G2 X-3.2729 Y-0.7298 I-0.133 J0.0693
N16480 G1 X-3.2826 Y-0.7446
N16485 G2 X-3.2925 Y-0.758 I-0.1254 J0.0823
N16490 G1 X-3.3037 Y-0.7715
N16495 G2 X-3.3154 Y-0.784 I-0.1155 J0.0958
N16500 G1 X-3.3282 Y-0.7963
N16505 G2 X-3.3397 Y-0.8063 I-0.1038 J0.1083
N16510 G1 X-3.354 Y-0.8174
N16515 G2 X-3.3645 Y-0.8249 I-0.0922 J0.1183
N16520 G1 X-3.3801 Y-0.8351
N16525 G2 X-3.3893 Y-0.8406 I-0.0817 J0.1258
N16530 G1 X-3.4061 Y-0.8498
N16535 X-3.4138 Y-0.8538
N16540 X-3.4315 Y-0.8623
N16545 X-3.4378 Y-0.8651
N16550 X-3.4563 Y-0.8729
N16555 X-3.4612 Y-0.8749
N16560 X-3.4804 Y-0.8822
N16565 X-3.484 Y-0.8835
N16570 X-3.5036 Y-0.8905
N16575 X-3.506 Y-0.8913
N16580 X-3.526 Y-0.8979
N16585 X-3.5271 Y-0.8983
N16590 X-3.5472 Y-0.9049
N16595 G2 X-3.5936 Y-0.9122 I-0.0464 J0.1426
N16600 G1 X-3.6693
N16605 G2 X-3.8193 Y-0.7622 I0. J0.15
N16610 G1 Y-0.1177
N16615 G2 X-3.6693 Y0.0323 I0.15 J0.
N16620 G1 X-3.5961
N16625 G2 X-3.5623 Y0.0284 I0. J-0.15
N16630 G1 X-3.5435 Y0.0241
N16635 X-3.5424 Y0.0238
N16640 X-3.5237 Y0.0194
N16645 X-3.5215 Y0.0188
N16650 X-3.5031 Y0.0141
N16655 X-3.4998 Y0.0132
N16660 X-3.4817 Y0.0082
N16665 X-3.4771 Y0.0068
N16670 X-3.4596 Y0.0013
N16675 X-3.4536 Y-0.0007
N16680 X-3.4422 Y-0.0049
N16685 G2 X-3.4525 Y0.1358 I0.1269 J0.08
N16690 G1 X-3.4569 Y0.1339
N16695 X-3.4618 Y0.1319
N16700 X-3.4776 Y0.1257
N16705 X-3.4812 Y0.1244
N16710 X-3.4975 Y0.1185
N16715 X-3.4998 Y0.1177
N16720 X-3.5164 Y0.1121
N16725 X-3.5175 Y0.1117
N16730 X-3.5342 Y0.1062
N16735 G2 X-3.5814 Y0.0985 I-0.0473 J0.1424
N16740 G1 X-3.6693
N16745 G2 X-3.8193 Y0.2485 I0. J0.15
N16750 G1 Y0.8271
N16755 G2 X-3.6693 Y0.9771 I0.15 J0.
N16760 G1 X-3.5936
N16765 G2 X-3.5522 Y0.9713 I0. J-0.15
N16770 G1 X-3.5351 Y0.9664
N16775 X-3.534 Y0.9661
N16780 X-3.5171 Y0.961
N16785 X-3.5147 Y0.9603
N16790 X-3.498 Y0.9551
N16795 X-3.4945 Y0.954
N16800 X-3.4782 Y0.9484
N16805 X-3.4734 Y0.9467
N16810 X-3.4576 Y0.9407
N16815 X-3.4515 Y0.9382
N16820 X-3.4363 Y0.9317
N16825 X-3.4286 Y0.9281
N16830 X-3.4143 Y0.9209
N16835 G2 X-3.4051 Y0.916 I-0.0671 J-0.1342
N16840 G1 X-3.3917 Y0.908
N16845 G2 X-3.3812 Y0.9012 I-0.0762 J-0.1292
N16850 G1 X-3.3688 Y0.8924
N16855 G2 X-3.3571 Y0.8832 I-0.0867 J-0.1224
N16860 G1 X-3.3459 Y0.8735
N16865 G2 X-3.3337 Y0.8616 I-0.0984 J-0.1132
N16870 G1 X-3.3238 Y0.8508
N16875 G2 X-3.3129 Y0.8374 I-0.1107 J-0.1013
N16880 G1 X-3.3043 Y0.8255
N16885 G2 X-3.2957 Y0.8122 I-0.1216 J-0.0878
N16890 G1 X-3.2883 Y0.7993
N16895 G2 X-3.2819 Y0.7868 I-0.1302 J-0.0745
N16900 G1 X-3.2757 Y0.773
N16905 G2 X-3.2711 Y0.7618 I-0.1366 J-0.062
N16910 G1 X-3.2659 Y0.7472
N16915 G2 X-3.2627 Y0.7372 I-0.1412 J-0.0507
N16920 G1 X-3.2583 Y0.7218
N16925 X-3.2562 Y0.7134
N16930 X-3.2527 Y0.6974
N16935 X-3.2513 Y0.6902
N16940 X-3.2484 Y0.6737
N16945 X-3.2476 Y0.6678
N16950 X-3.2454 Y0.6507
N16955 X-3.2448 Y0.646
N16960 X-3.2431 Y0.6285
N16965 X-3.2428 Y0.6249
N16970 X-3.2415 Y0.6071
N16975 X-3.2413 Y0.6045
N16980 X-3.2403 Y0.5864
N16985 X-3.2402 Y0.5846
N16990 X-3.2394 Y0.5664
N16995 Y0.5655
N17000 X-3.2387 Y0.5472
N17005 X-3.2386 Y0.5391
N17010 X-3.2389 Y0.5208
N17015 Y0.52
N17020 X-3.2393 Y0.5019
N17025 Y0.5002
N17030 X-3.2399 Y0.4823
N17035 X-3.24 Y0.4797
N17040 X-3.2409 Y0.462
N17045 X-3.2411 Y0.4585
N17050 X-3.2424 Y0.4411
N17055 X-3.2428 Y0.4365
N17060 X-3.2446 Y0.4195
N17065 X-3.2453 Y0.4139
N17070 X-3.2476 Y0.3973
N17075 X-3.2487 Y0.3905
N17080 X-3.2518 Y0.3744
N17085 X-3.2536 Y0.3662
N17090 X-3.2574 Y0.3508
N17095 X-3.2586 Y0.346
N17100 X-3.2601 Y0.3413
N17105 X-3.2648 Y0.3265
N17110 G2 X-3.2687 Y0.3156 I-0.1429 J0.0455
N17115 G1 X-3.2744 Y0.3016
N17120 G2 X-3.2799 Y0.2895 I-0.139 J0.0563
N17125 G1 X-3.2867 Y0.2763
N17130 G2 X-3.2942 Y0.2634 I-0.1335 J0.0684
N17135 G1 X-3.3021 Y0.2511
N17140 G2 X-3.3119 Y0.2377 I-0.126 J0.0814
N17145 G1 X-3.3199 Y0.2278
N17150 X-3.3159 Y0.2287
N17155 X-3.3009 Y0.2322
N17160 X-3.2866 Y0.2357
N17165 X-3.273 Y0.2392
N17170 X-3.2601 Y0.2428
N17175 X-3.248 Y0.2465
N17180 X-3.2366 Y0.2502
N17185 X-3.2261 Y0.2541
N17190 X-3.2165 Y0.2581
N17195 X-3.2077 Y0.2621
N17200 X-3.1997 Y0.2662
N17205 X-3.1925 Y0.2703
N17210 X-3.1858 Y0.2746
N17215 X-3.1789 Y0.2796
N17220 X-3.1716 Y0.2854
N17225 X-3.1638 Y0.2922
N17230 X-3.1556 Y0.2999
N17235 X-3.1469 Y0.3084
N17240 X-3.1378 Y0.3178
N17245 X-3.1284 Y0.3281
N17250 X-3.1185 Y0.339
N17255 X-3.1171 Y0.3407
N17260 X-3.1123 Y0.355
N17265 X-3.1055 Y0.3757
N17270 X-3.0991 Y0.396
N17275 X-3.093 Y0.416
N17280 X-3.0874 Y0.4355
N17285 X-3.0822 Y0.4547
N17290 X-3.0775 Y0.4735
N17295 X-3.0735 Y0.4919
N17300 X-3.0699 Y0.5103
N17305 X-3.0668 Y0.5288
N17310 X-3.0641 Y0.5477
N17315 X-3.0619 Y0.567
N17320 X-3.06 Y0.5866
N17325 X-3.0584 Y0.6066
N17330 X-3.0572 Y0.627
N17335 X-3.0563 Y0.6477
N17340 X-3.0556 Y0.6687
N17345 X-3.0552 Y0.6901
N17350 X-3.0549 Y0.7118
N17355 X-3.0548 Y0.7338
N17360 X-3.0549 Y0.7561
N17365 X-3.055 Y0.7787
N17370 X-3.0552 Y0.8016
N17375 Y0.8044
N17380 X-3.0548 Y0.8353
N17385 X-3.0545 Y0.8658
N17390 X-3.0544 Y0.8959
N17395 X-3.0546 Y0.9255
N17400 X-3.055 Y0.9547
N17405 X-3.0558 Y0.9834
N17410 X-3.057 Y1.0115
N17415 X-3.0587 Y1.0391
N17420 X-3.0609 Y1.0661
N17425 X-3.0638 Y1.0925
N17430 X-3.0672 Y1.1183
N17435 X-3.0714 Y1.1435
N17440 X-3.0763 Y1.168
N17445 X-3.0819 Y1.192
N17450 X-3.0884 Y1.2155
N17455 X-3.0959 Y1.239
N17460 X-3.1045 Y1.263
N17465 X-3.1141 Y1.2874
N17470 X-3.1245 Y1.3123
N17475 X-3.1358 Y1.3377
N17480 X-3.1478 Y1.3635
N17485 X-3.1605 Y1.3899
N17490 X-3.1692 Y1.4076
N17495 X-3.1803 Y1.4148
N17500 X-3.2019 Y1.4286
N17505 X-3.2231 Y1.4416
N17510 X-3.2437 Y1.4538
N17515 X-3.2638 Y1.4649
N17520 X-3.2834 Y1.475
N17525 X-3.3024 Y1.484
N17530 X-3.3209 Y1.4918
N17535 X-3.3391 Y1.4985
N17540 X-3.3578 Y1.5044
N17545 X-3.3772 Y1.5095
N17550 X-3.3975 Y1.5139
N17555 X-3.4185 Y1.5177
N17560 X-3.4404 Y1.5209
N17565 X-3.4631 Y1.5235
N17570 X-3.4865 Y1.5255
N17575 X-3.5106 Y1.5271
N17580 X-3.5355 Y1.5281
N17585 X-3.5609 Y1.5288
N17590 X-3.587 Y1.5292
N17595 X-3.6137 Y1.5293
N17600 X-3.6409
N17605 X-3.6686 Y1.5292
N17610 X-3.6693
N17615 X-4.1492
N17620 Y1.0223
N17625 G3 X-4.0731 Y0.9829 Z-0.105 I0.0483 J0.
N17630 G1 X-3.8254 Y1.1581 Z-0.1193
N17635 G3 X-3.8533 Y1.2458 Z-0.125 I-0.0279 J0.0394
N17640 G1 X-3.8535
N17645 G3 X-3.8658 Y1.2334 I0. J-0.0124
N17650 G1 Y1.2259
N17655 G3 X-3.8548 Y1.2188 I0.0078 J0.
N17660 G2 X-3.8086 Y1.2375 I0.1854 J-0.3917
N17665 G1 X-3.8073 Y1.2382
N17670 X-3.8063 Y1.2394
N17675 X-3.8058 Y1.2408
N17680 Y1.2422
N17685 X-3.8063 Y1.2436
N17690 X-3.8072 Y1.2448
N17695 X-3.8085 Y1.2455
N17700 X-3.8099 Y1.2458
N17705 X-3.8533
N17710 G3 X-3.8658 Y1.2332 I0. J-0.0125
N17715 X-3.8531 Y1.2208 I0.0125 J0.0001
N17720 G1 X-3.4413 Y1.2288
N17725 X-3.4393 Y1.2287
N17730 X-3.4374 Y1.2282
N17735 G2 X-3.4207 Y1.2231 I-0.69 J-2.2772
N17740 G1 X-3.4193 Y1.223
N17745 X-3.4179 Y1.2233
N17750 X-3.4168 Y1.2242
N17755 X-3.4161 Y1.2254
N17760 X-3.4159 Y1.2268
N17765 X-3.4162 Y1.2282
N17770 X-3.417 Y1.2294
N17775 X-3.4181 Y1.2302
N17780 G3 X-3.4343 Y1.2359 I-0.0581 J-0.1377
N17785 X-3.4509 Y1.2402 I-0.0707 J-0.242
N17790 G1 X-3.4523
N17795 X-3.4537 Y1.2397
N17800 X-3.4548 Y1.2387
N17805 X-3.4554 Y1.2374
N17810 X-3.4555 Y1.236
N17815 X-3.455 Y1.2346
N17820 X-3.4541 Y1.2335
N17825 X-3.4528 Y1.2328
N17830 G2 X-3.4374 Y1.2282 I-0.6746 J-2.2818
N17835 X-3.3646 Y1.1372 I-0.0298 J-0.0984
N17840 G3 X-3.3048 Y1.0371 I0.129 J0.0092
N17845 G2 X-3.2196 Y0.9657 I-0.2246 J-0.3549
N17850 G3 X-3.21 Y0.9696 I0.0041 J0.0037
N17855 X-3.2282 Y1.1268 I-0.8964 J-0.0246
N17860 X-3.278 Y1.2771 I-0.6711 J-0.139
N17865 X-3.3124 Y1.3149 I-0.078 J-0.0363
N17870 X-3.3926 Y1.3505 I-0.194 J-0.3294
N17875 X-3.4787 Y1.368 I-0.1296 J-0.4159
N17880 X-3.5463 Y1.3722 I-0.0894 J-0.8902
N17885 X-3.614 Y1.3731 I-0.073 J-3.0007
N17890 G1 X-3.9823 Y1.3747
N17895 G3 X-3.9947 Y1.3623 I0. J-0.0124
N17900 G1 Y1.1129
N17905 G3 X-3.9814 Y1.0897 I0.0269 J0.
N17910 G2 X-3.9105 Y1.0322 I-0.1542 J-0.2626
N17915 G3 X-3.8944 I0.008 J0.0073
N17920 G2 X-3.7926 Y1.1065 I0.233 J-0.2122
N17925 X-3.6693 Y1.1334 I0.1232 J-0.2694
N17930 X-3.5789 Y1.1311 I0. J-1.7998
N17935 X-3.4897 Y1.1159 I-0.0192 J-0.3818
N17940 X-3.3444 Y1.0593 I-0.2625 J-0.888
N17945 X-3.3048 Y1.0371 I-0.185 J-0.377
N17950 G1 X-3.3014 Y1.0353 Z-0.1244 F10.
N17955 X-3.2977 Y1.034 Z-0.1238
N17960 X-3.2943 Y1.0334 Z-0.122
N17965 X-3.2908 Y1.0332 Z-0.1202
N17970 X-3.2881 Y1.0335 Z-0.1175
N17975 X-3.2854 Y1.034 Z-0.1147
N17980 X-3.282 Y1.0351 Z-0.1077
N17985 X-3.2809 Y1.0356 Z-0.1
N17990 Z0.2
N17995 G0 X-3.473 Y-1.1541
N18000 G1 Z0.0249 F10.
N18005 X-3.4739 Y-1.1548 Z0.0176 F5.
N18010 X-3.4763 Y-1.1569 Z0.0109
N18015 X-3.4799 Y-1.1603 Z0.0055
N18020 X-3.4843 Y-1.1649 Z0.0017
N18025 X-3.489 Y-1.1703 Z0.
N18030 G3 X-3.3046 Y-1.32 Z-0.0326 I0.0922 J-0.0748
N18035 X-3.489 Y-1.1703 Z-0.0653 I-0.0922 J0.0748
N18040 X-3.3046 Y-1.32 Z-0.0979 I0.0922 J-0.0748
N18045 X-3.438 Y-1.1338 Z-0.125 I-0.0922 J0.0748
N18050 G1 X-3.4451 Y-1.1364
N18055 G2 X-3.5903 Y-1.1626 I-0.1489 J0.4087
N18060 G1 X-3.6693
N18065 G2 X-3.7846 Y-1.1447 I0. J0.3803
N18070 X-3.8897 Y-1.0943 I0.1275 J0.401
N18075 G3 X-3.9006 Y-1.1002 I-0.0039 J-0.0058
N18080 G1 Y-1.242
N18085 G3 X-3.8878 Y-1.2548 I0.0128 J0.
N18090 G1 X-3.662
N18095 G3 X-3.5027 Y-1.2508 I0. J3.2346
N18100 X-3.4284 Y-1.2428 I-0.0316 J0.6416
N18105 X-3.3585 Y-1.2159 I-0.0308 J0.184
N18110 X-3.3381 Y-1.1918 I-0.029 J0.0453
N18115 X-3.3001 Y-1.0868 I-0.8903 J0.3812
N18120 X-3.309 Y-1.0792 I-0.0061 J0.0018
N18125 G2 X-3.438 Y-1.1338 I-0.6595 J1.3801
N18130 X-3.5291 Y-1.1081 I-0.0279 J0.0754
N18135 G3 X-3.6141 Y-1.0668 I-0.0851 J-0.067
N18140 G1 X-3.6693
N18145 G2 X-3.7935 Y-1.0394 I0. J0.2948
N18150 X-3.8956 Y-0.9635 I0.1319 J0.284
N18155 G3 X-3.9094 I-0.0069 J-0.0061
N18160 G2 X-3.9852 Y-1.0251 I-0.2263 J0.2013
N18165 G3 X-3.9964 Y-1.0443 I0.011 J-0.0192
N18170 G1 Y-1.338
N18175 G3 X-3.9839 Y-1.3505 I0.0125 J0.
N18180 G1 X-3.785
N18185 G3 X-3.544 Y-1.348 I0. J11.6761
N18190 X-3.4182 Y-1.3372 I-0.0201 J0.9714
N18195 X-3.3003 Y-1.2919 I-0.0442 J0.2912
N18200 G1 X-3.2959 Y-1.2892
N18205 X-3.2915 Y-1.2864
N18210 G3 X-3.256 Y-1.2433 I-0.0557 J0.0821
N18215 X-3.2001 Y-1.063 I-0.8376 J0.3587
N18220 X-3.179 Y-0.8754 I-1.0897 J0.2175
N18225 X-3.1884 Y-0.8718 I-0.0053 J0.0001
N18230 G2 X-3.3094 Y-0.9715 I-0.3387 J0.2878
N18235 X-3.4522 Y-1.0362 I-0.4453 J0.7928
N18240 X-3.5216 Y-1.0575 I-0.2914 J0.8259
N18245 X-3.5936 Y-1.0668 I-0.072 J0.2749
N18250 G1 X-3.6141
N18255 G2 X-3.7485 Y-0.9726 I0. J0.1429
N18260 G3 X-3.8079 Y-0.8196 I-3.4356 J-1.2459
N18265 G2 X-3.8193 Y-0.7622 I0.1386 J0.0574
N18270 G1 Y-0.1177
N18275 G2 X-3.6693 Y0.0323 I0.15 J0.
N18280 G1 X-3.5961
N18285 G2 X-3.5623 Y0.0284 I0. J-0.15
N18290 G1 X-3.5435 Y0.0241
N18295 X-3.5424 Y0.0238
N18300 X-3.5237 Y0.0194
N18305 X-3.5215 Y0.0188
N18310 X-3.5031 Y0.0141
N18315 X-3.4998 Y0.0132
N18320 X-3.4817 Y0.0082
N18325 X-3.4771 Y0.0068
N18330 X-3.4596 Y0.0013
N18335 X-3.4536 Y-0.0007
N18340 X-3.4422 Y-0.0049
N18345 G2 X-3.4525 Y0.1358 I0.1269 J0.08
N18350 G1 X-3.4569 Y0.1339
N18355 X-3.4618 Y0.1319
N18360 X-3.4776 Y0.1257
N18365 X-3.4812 Y0.1244
N18370 X-3.4975 Y0.1185
N18375 X-3.4998 Y0.1177
N18380 X-3.5164 Y0.1121
N18385 X-3.5175 Y0.1117
N18390 X-3.5342 Y0.1062
N18395 G2 X-3.5814 Y0.0985 I-0.0473 J0.1424
N18400 G1 X-3.6693
N18405 G2 X-3.8193 Y0.2485 I0. J0.15
N18410 G1 Y0.8271
N18415 G2 X-3.6693 Y0.9771 I0.15 J0.
N18420 G1 X-3.5936
N18425 G2 X-3.5522 Y0.9713 I0. J-0.15
N18430 G1 X-3.5351 Y0.9664
N18435 X-3.534 Y0.9661
N18440 X-3.5171 Y0.961
N18445 X-3.5147 Y0.9603
N18450 X-3.498 Y0.9551
N18455 X-3.4945 Y0.954
