%
(BRANDON2)
(T1  D=0.25 CR=0. - ZMIN=-0.29 - FLAT END MILL)
N10 G90 G94 G17 G91.1
N15 G20
N20 G53 G0 Z0.
(2D POCKET3)
N25 M9
N30 T1 M6
N35 S2000 M3
N40 G54
N45 M8
N50 G0 X-3.3239 Y-1.0929
N55 G43 Z0.6 H1
N60 G0 Z0.2
N65 G1 Z0.05 F10.
N70 G3 X-3.5534 Y-1.154 Z0.0174 I-0.1147 J-0.0306 F5.
N75 X-3.3239 Y-1.0929 Z-0.0153 I0.1147 J0.0306
N80 X-3.5534 Y-1.154 Z-0.0479 I-0.1147 J-0.0306
N85 X-3.3239 Y-1.0929 Z-0.0806 I0.1147 J0.0306
N90 X-3.5534 Y-1.154 Z-0.1132 I-0.1147 J-0.0306
N95 X-3.4027 Y-1.2366 Z-0.13 I0.1147 J0.0306
N100 X-3.3585 Y-1.2159 I-0.0564 J0.1778
N105 X-3.3381 Y-1.1918 I-0.029 J0.0453
N110 X-3.3001 Y-1.0868 I-0.8903 J0.3812
N115 X-3.309 Y-1.0792 I-0.0061 J0.0018
N120 G2 X-3.367 Y-1.1058 I-0.8347 J1.7468
N125 X-3.4266 Y-1.1287 I-0.284 J0.6484
N130 X-3.5071 Y-1.1521 I-0.3321 J0.9936
N135 X-3.5903 Y-1.1626 I-0.0862 J0.3483
N140 G1 X-3.6693
N145 G2 X-3.7846 Y-1.1447 I0. J0.3803
N150 X-3.8897 Y-1.0943 I0.1275 J0.401
N155 G3 X-3.9006 Y-1.1002 I-0.0039 J-0.0058
N160 G1 Y-1.242
N165 G3 X-3.8878 Y-1.2548 I0.0128 J0.
N170 G1 X-3.662
N175 G3 X-3.5027 Y-1.2508 I0. J3.2346
N180 X-3.4284 Y-1.2428 I-0.0316 J0.6416
N185 X-3.4027 Y-1.2366 I-0.0308 J0.184
N190 G2 X-3.3321 Y-1.2574 I0.0199 J-0.0628
N195 G3 X-3.2588 Y-1.2494 I0.034 J0.0281
N200 G1 X-3.256 Y-1.2433
N205 G3 X-3.2001 Y-1.063 I-0.8376 J0.3587
N210 X-3.179 Y-0.8754 I-1.0897 J0.2175
N215 X-3.1884 Y-0.8718 I-0.0053 J0.0001
N220 G2 X-3.3094 Y-0.9715 I-0.3387 J0.2878
N225 X-3.4522 Y-1.0362 I-0.4453 J0.7928
N230 X-3.5216 Y-1.0575 I-0.2914 J0.8259
N235 X-3.5936 Y-1.0668 I-0.072 J0.2749
N240 G1 X-3.6693
N245 G2 X-3.7935 Y-1.0394 I0. J0.2948
N250 X-3.8956 Y-0.9635 I0.1319 J0.284
N255 G3 X-3.9094 I-0.0069 J-0.0061
N260 G2 X-3.9852 Y-1.0251 I-0.2263 J0.2013
N265 G3 X-3.9964 Y-1.0443 I0.011 J-0.0192
N270 G1 Y-1.338
N275 G3 X-3.9839 Y-1.3505 I0.0125 J0.
N280 G1 X-3.785
N285 G3 X-3.544 Y-1.348 I0. J11.6761
N290 X-3.4182 Y-1.3372 I-0.0201 J0.9714
N295 X-3.3003 Y-1.2919 I-0.0442 J0.2912
N300 G1 X-3.2959 Y-1.2892
N305 X-3.2915 Y-1.2864
N310 G3 X-3.2588 Y-1.2494 I-0.0557 J0.0821
N315 G1 Z0.2 F10.
N320 G0 X-3.5801 Y1.16
N325 G1 Z0.05 F10.
N330 G3 X-3.3551 Y1.0839 Z0.0174 I0.1125 J-0.038 F5.
N335 X-3.5801 Y1.16 Z-0.0153 I-0.1125 J0.038
N340 X-3.3551 Y1.0839 Z-0.0479 I0.1125 J-0.038
N345 X-3.5801 Y1.16 Z-0.0806 I-0.1125 J0.038
N350 X-3.3551 Y1.0839 Z-0.1132 I0.1125 J-0.038
N355 X-3.4348 Y1.2361 Z-0.13 I-0.1125 J0.038
N360 X-3.452 Y1.2404 I-0.0777 J-0.2708
N365 G1 X-3.4534
N370 X-3.4548 Y1.2399
N375 X-3.4558 Y1.239
N380 X-3.4564 Y1.2377
N385 X-3.4565 Y1.2363
N390 X-3.4561 Y1.2349
N395 X-3.4551 Y1.2338
N400 X-3.4539 Y1.2332
N405 G2 X-3.4207 Y1.2231 I-0.7213 J-2.4395
N410 G1 X-3.4193 Y1.223
N415 X-3.4179 Y1.2233
N420 X-3.4168 Y1.2242
N425 X-3.4161 Y1.2254
N430 X-3.4159 Y1.2268
N435 X-3.4162 Y1.2282
N440 X-3.417 Y1.2294
N445 X-3.4181 Y1.2302
N450 G3 X-3.4348 Y1.2361 I-0.0574 J-0.1361
N455 G1 Z0.05 F10.
N460 X-3.7868 Y1.374 F5.
N465 G3 X-4.0075 Y1.2862 Z0.0174 I-0.1103 J-0.0439
N470 X-3.7868 Y1.374 Z-0.0153 I0.1103 J0.0439
N475 X-4.0075 Y1.2862 Z-0.0479 I-0.1103 J-0.0439
N480 X-3.7868 Y1.374 Z-0.0806 I0.1103 J0.0439
N485 X-4.0075 Y1.2862 Z-0.1132 I-0.1103 J-0.0439
N490 X-3.8482 Y1.2219 Z-0.13 I0.1103 J0.0439
N495 G2 X-3.8086 Y1.2375 I0.1788 J-0.3948
N500 G1 X-3.8073 Y1.2382
N505 X-3.8063 Y1.2394
N510 X-3.8058 Y1.2408
N515 Y1.2422
N520 X-3.8063 Y1.2436
N525 X-3.8072 Y1.2448
N530 X-3.8085 Y1.2455
N535 X-3.8099 Y1.2458
N540 X-3.8533
N545 X-3.8535
N550 G3 X-3.8658 Y1.2334 I0. J-0.0124
N555 G1 Y1.2259
N560 G3 X-3.8548 Y1.2188 I0.0078 J0.
N565 G1 X-3.8482 Y1.2219
N570 G2 X-3.7226 Y1.191 I0.0431 J-0.0952
N575 G3 X-3.6074 Y1.1323 I0.1205 J0.0941
N580 G2 X-3.5789 Y1.1311 I-0.0619 J-1.7987
N585 X-3.4897 Y1.1159 I-0.0192 J-0.3818
N590 X-3.3444 Y1.0593 I-0.2625 J-0.888
N595 X-3.2196 Y0.9657 I-0.185 J-0.377
N600 G3 X-3.21 Y0.9696 I0.0041 J0.0037
N605 X-3.2282 Y1.1268 I-0.8964 J-0.0246
N610 X-3.278 Y1.2771 I-0.6711 J-0.139
N615 X-3.3124 Y1.3149 I-0.078 J-0.0363
N620 X-3.3926 Y1.3505 I-0.194 J-0.3294
N625 X-3.4787 Y1.368 I-0.1296 J-0.4159
N630 X-3.5463 Y1.3722 I-0.0894 J-0.8902
N635 X-3.614 Y1.3731 I-0.073 J-3.0007
N640 G1 X-3.9823 Y1.3747
N645 G3 X-3.9947 Y1.3623 I0. J-0.0124
N650 G1 Y1.1129
N655 G3 X-3.9814 Y1.0897 I0.0269 J0.
N660 G2 X-3.9105 Y1.0322 I-0.1542 J-0.2626
N665 G3 X-3.8944 I0.008 J0.0073
N670 G2 X-3.7926 Y1.1065 I0.233 J-0.2122
N675 X-3.6693 Y1.1334 I0.1232 J-0.2694
N680 X-3.6074 Y1.1323 I0. J-1.7998
N685 X-3.4861 Y1.0339 I-0.0045 J-0.1295
N690 G3 X-3.3928 Y0.9087 I0.1957 J0.0484
N695 G1 X-3.3917 Y0.908
N700 G2 X-3.3812 Y0.9012 I-0.0762 J-0.1292
N705 G1 X-3.3688 Y0.8924
N710 G2 X-3.3571 Y0.8832 I-0.0867 J-0.1224
N715 G1 X-3.3459 Y0.8735
N720 G2 X-3.3337 Y0.8616 I-0.0984 J-0.1132
N725 G1 X-3.3238 Y0.8508
N730 G2 X-3.3129 Y0.8374 I-0.1107 J-0.1013
N735 G1 X-3.3043 Y0.8255
N740 G2 X-3.2957 Y0.8122 I-0.1216 J-0.0878
N745 G1 X-3.2883 Y0.7993
N750 G2 X-3.2819 Y0.7868 I-0.1302 J-0.0745
N755 G1 X-3.2757 Y0.773
N760 G2 X-3.2711 Y0.7618 I-0.1366 J-0.062
N765 G1 X-3.2659 Y0.7472
N770 G2 X-3.2627 Y0.7372 I-0.1412 J-0.0507
N775 G1 X-3.2583 Y0.7218
N780 X-3.2562 Y0.7134
N785 X-3.2527 Y0.6974
N790 X-3.2513 Y0.6902
N795 X-3.2484 Y0.6737
N800 X-3.2476 Y0.6678
N805 X-3.2454 Y0.6507
N810 X-3.2448 Y0.646
N815 X-3.2431 Y0.6285
N820 X-3.2428 Y0.6249
N825 X-3.2415 Y0.6071
N830 X-3.2413 Y0.6045
N835 X-3.2403 Y0.5864
N840 X-3.2402 Y0.5846
N845 X-3.2394 Y0.5664
N850 Y0.5655
N855 X-3.2387 Y0.5472
N860 X-3.2386 Y0.5391
N865 X-3.2389 Y0.5208
N870 Y0.52
N875 X-3.2393 Y0.5019
N880 Y0.5002
N885 X-3.2399 Y0.4823
N890 X-3.24 Y0.4797
N895 X-3.2409 Y0.462
N900 X-3.2411 Y0.4585
N905 X-3.2424 Y0.4411
N910 X-3.2428 Y0.4365
N915 X-3.2446 Y0.4195
N920 X-3.2453 Y0.4139
N925 X-3.2476 Y0.3973
N930 X-3.2487 Y0.3905
N935 X-3.2518 Y0.3744
N940 X-3.2536 Y0.3662
N945 X-3.2574 Y0.3508
N950 X-3.2586 Y0.346
N955 X-3.2601 Y0.3413
N960 X-3.2648 Y0.3265
N965 G2 X-3.2687 Y0.3156 I-0.1429 J0.0455
N970 G1 X-3.2744 Y0.3016
N975 G2 X-3.2799 Y0.2895 I-0.139 J0.0563
N980 G1 X-3.2867 Y0.2763
N985 G2 X-3.2942 Y0.2634 I-0.1335 J0.0684
N990 G1 X-3.3021 Y0.2511
N995 G2 X-3.3119 Y0.2377 I-0.126 J0.0814
N1000 G1 X-3.3199 Y0.2278
N1005 X-3.3159 Y0.2287
N1010 X-3.3009 Y0.2322
N1015 X-3.2866 Y0.2357
N1020 X-3.273 Y0.2392
N1025 X-3.2601 Y0.2428
N1030 X-3.248 Y0.2465
N1035 X-3.2366 Y0.2502
N1040 X-3.2261 Y0.2541
N1045 X-3.2165 Y0.2581
N1050 X-3.2077 Y0.2621
N1055 X-3.1997 Y0.2662
N1060 X-3.1925 Y0.2703
N1065 X-3.1858 Y0.2746
N1070 X-3.1789 Y0.2796
N1075 X-3.1716 Y0.2854
N1080 X-3.1638 Y0.2922
N1085 X-3.1556 Y0.2999
N1090 X-3.1469 Y0.3084
N1095 X-3.1378 Y0.3178
N1100 X-3.1284 Y0.3281
N1105 X-3.1185 Y0.339
N1110 X-3.1171 Y0.3407
N1115 X-3.1123 Y0.355
N1120 X-3.1055 Y0.3757
N1125 X-3.0991 Y0.396
N1130 X-3.093 Y0.416
N1135 X-3.0874 Y0.4355
N1140 X-3.0822 Y0.4547
N1145 X-3.0775 Y0.4735
N1150 X-3.0735 Y0.4919
N1155 X-3.0699 Y0.5103
N1160 X-3.0668 Y0.5288
N1165 X-3.0641 Y0.5477
N1170 X-3.0619 Y0.567
N1175 X-3.06 Y0.5866
N1180 X-3.0584 Y0.6066
N1185 X-3.0572 Y0.627
N1190 X-3.0563 Y0.6477
N1195 X-3.0556 Y0.6687
N1200 X-3.0552 Y0.6901
N1205 X-3.0549 Y0.7118
N1210 X-3.0548 Y0.7338
N1215 X-3.0549 Y0.7561
N1220 X-3.055 Y0.7787
N1225 X-3.0552 Y0.8016
N1230 Y0.8044
N1235 X-3.0548 Y0.8353
N1240 X-3.0545 Y0.8658
N1245 X-3.0544 Y0.8959
N1250 X-3.0546 Y0.9255
N1255 X-3.055 Y0.9547
N1260 X-3.0558 Y0.9834
N1265 X-3.057 Y1.0115
N1270 X-3.0587 Y1.0391
N1275 X-3.0609 Y1.0661
N1280 X-3.0638 Y1.0925
N1285 X-3.0672 Y1.1183
N1290 X-3.0714 Y1.1435
N1295 X-3.0763 Y1.168
N1300 X-3.0819 Y1.192
N1305 X-3.0884 Y1.2155
N1310 X-3.0959 Y1.239
N1315 X-3.1045 Y1.263
N1320 X-3.1141 Y1.2874
N1325 X-3.1245 Y1.3123
N1330 X-3.1358 Y1.3377
N1335 X-3.1478 Y1.3635
N1340 X-3.1605 Y1.3899
N1345 X-3.1692 Y1.4076
N1350 X-3.1803 Y1.4148
N1355 X-3.2019 Y1.4286
N1360 X-3.2231 Y1.4416
N1365 X-3.2437 Y1.4538
N1370 X-3.2638 Y1.4649
N1375 X-3.2834 Y1.475
N1380 X-3.3024 Y1.484
N1385 X-3.3209 Y1.4918
N1390 X-3.3391 Y1.4985
N1395 X-3.3578 Y1.5044
N1400 X-3.3772 Y1.5095
N1405 X-3.3975 Y1.5139
N1410 X-3.4185 Y1.5177
N1415 X-3.4404 Y1.5209
N1420 X-3.4631 Y1.5235
N1425 X-3.4865 Y1.5255
N1430 X-3.5106 Y1.5271
N1435 X-3.5355 Y1.5281
N1440 X-3.5609 Y1.5288
N1445 X-3.587 Y1.5292
N1450 X-3.6137 Y1.5293
N1455 X-3.6409
N1460 X-3.6686 Y1.5292
N1465 X-3.6693
N1470 X-4.1492
N1475 Y0.9771
N1480 X-4.1356
N1485 G2 X-3.9856 Y0.8271 I0. J-0.15
N1490 G1 Y-0.7622
N1495 G2 X-4.1356 Y-0.9122 I-0.15 J0.
N1500 G1 X-4.1492
N1505 Y-1.5033
N1510 X-3.6209
N1515 X-3.5938 Y-1.5032
N1520 X-3.567 Y-1.503
N1525 X-3.5408 Y-1.5026
N1530 X-3.5153 Y-1.5019
N1535 X-3.4904 Y-1.5009
N1540 X-3.4663 Y-1.4995
N1545 X-3.443 Y-1.4976
N1550 X-3.4205 Y-1.4952
N1555 X-3.3989 Y-1.4923
N1560 X-3.3782 Y-1.4887
N1565 X-3.3584 Y-1.4845
N1570 X-3.3396 Y-1.4797
N1575 X-3.3218 Y-1.4742
N1580 X-3.3047 Y-1.4679
N1585 X-3.2879 Y-1.4608
N1590 X-3.2708 Y-1.4524
N1595 X-3.253 Y-1.4427
N1600 X-3.2348 Y-1.4318
N1605 X-3.216 Y-1.4198
N1610 X-3.1967 Y-1.4067
N1615 X-3.1768 Y-1.3926
N1620 X-3.1565 Y-1.3777
N1625 X-3.1443 Y-1.3686
N1630 X-3.1334 Y-1.3443
N1635 X-3.1207 Y-1.3156
N1640 X-3.1086 Y-1.2874
N1645 X-3.0972 Y-1.2596
N1650 X-3.0866 Y-1.2322
N1655 X-3.0769 Y-1.2053
N1660 X-3.0681 Y-1.1787
N1665 X-3.0604 Y-1.1526
N1670 X-3.0537 Y-1.1265
N1675 X-3.0478 Y-1.1001
N1680 X-3.0428 Y-1.073
N1685 X-3.0385 Y-1.0454
N1690 X-3.035 Y-1.0172
N1695 X-3.032 Y-0.9885
N1700 X-3.0297 Y-0.9592
N1705 X-3.028 Y-0.9293
N1710 X-3.0267 Y-0.899
N1715 X-3.0259 Y-0.8682
N1720 X-3.0254 Y-0.8369
N1725 X-3.0253 Y-0.8051
N1730 Y-0.773
N1735 X-3.0256 Y-0.7404
N1740 X-3.0259 Y-0.7075
N1745 Y-0.7042
N1750 X-3.0256 Y-0.6801
N1755 X-3.0253 Y-0.6563
N1760 X-3.0251 Y-0.6328
N1765 Y-0.6095
N1770 X-3.0252 Y-0.5865
N1775 X-3.0255 Y-0.5639
N1780 X-3.026 Y-0.5415
N1785 X-3.0268 Y-0.5195
N1790 X-3.0279 Y-0.4978
N1795 X-3.0293 Y-0.4764
N1800 X-3.0311 Y-0.4553
N1805 X-3.0332 Y-0.4346
N1810 X-3.0358 Y-0.4143
N1815 X-3.0388 Y-0.3942
N1820 X-3.0422 Y-0.3745
N1825 X-3.0462 Y-0.3547
N1830 X-3.0508 Y-0.3347
N1835 X-3.0558 Y-0.3142
N1840 X-3.0614 Y-0.2934
N1845 X-3.0674 Y-0.2722
N1850 X-3.0738 Y-0.2506
N1855 X-3.0805 Y-0.2286
N1860 X-3.0845 Y-0.2159
N1865 X-3.0853 Y-0.215
N1870 X-3.0967 Y-0.2031
N1875 X-3.1076 Y-0.1919
N1880 X-3.1182 Y-0.1814
N1885 X-3.1285 Y-0.1718
N1890 X-3.1385 Y-0.163
N1895 X-3.148 Y-0.155
N1900 X-3.1572 Y-0.1479
N1905 X-3.1662 Y-0.1416
N1910 X-3.1754 Y-0.1357
N1915 X-3.1853 Y-0.13
N1920 X-3.1958 Y-0.1244
N1925 X-3.2071 Y-0.1189
N1930 X-3.2191 Y-0.1136
N1935 X-3.2319 Y-0.1084
N1940 X-3.2453 Y-0.1033
N1945 X-3.2594 Y-0.0983
N1950 X-3.2741 Y-0.0934
N1955 X-3.2894 Y-0.0886
N1960 X-3.3053 Y-0.0838
N1965 X-3.3172 Y-0.0803
N1970 X-3.3161 Y-0.0813
N1975 G2 X-3.3037 Y-0.0943 I-0.1022 J-0.1098
N1980 G1 X-3.2936 Y-0.1063
N1985 G2 X-3.2834 Y-0.1198 I-0.1146 J-0.0968
N1990 G1 X-3.2747 Y-0.133
N1995 G2 X-3.2669 Y-0.1459 I-0.1248 J-0.0833
N2000 G1 X-3.2594 Y-0.1602
N2005 G2 X-3.2537 Y-0.172 I-0.1325 J-0.0703
N2010 G1 X-3.2473 Y-0.1872
N2015 G2 X-3.2433 Y-0.1977 I-0.1381 J-0.0585
N2020 G1 X-3.2379 Y-0.2139
N2025 X-3.2351 Y-0.2228
N2030 X-3.2306 Y-0.2397
N2035 X-3.2288 Y-0.2473
N2040 X-3.225 Y-0.2649
N2045 X-3.2238 Y-0.2711
N2050 X-3.2207 Y-0.2893
N2055 X-3.22 Y-0.2942
N2060 X-3.2174 Y-0.3129
N2065 X-3.217 Y-0.3167
N2070 X-3.2149 Y-0.3358
N2075 X-3.2146 Y-0.3386
N2080 X-3.2128 Y-0.358
N2085 X-3.2127 Y-0.3598
N2090 X-3.2111 Y-0.3793
N2095 Y-0.3802
N2100 X-3.2097 Y-0.3999
N2105 G2 X-3.2093 Y-0.4136 I-0.1496 J-0.0108
N2110 G1 X-3.2097 Y-0.4355
N2115 Y-0.4363
N2120 X-3.2103 Y-0.4582
N2125 Y-0.4599
N2130 X-3.2111 Y-0.4815
N2135 X-3.2112 Y-0.4841
N2140 X-3.2124 Y-0.5055
N2145 X-3.2126 Y-0.509
N2150 X-3.2142 Y-0.53
N2155 X-3.2146 Y-0.5345
N2160 X-3.2168 Y-0.5551
N2165 X-3.2175 Y-0.5607
N2170 X-3.2204 Y-0.5807
N2175 X-3.2216 Y-0.5876
N2180 X-3.2254 Y-0.6069
N2185 X-3.2272 Y-0.6151
N2190 X-3.2319 Y-0.6337
N2195 G2 X-3.2346 Y-0.6432 I-0.1454 J0.0367
N2200 G1 X-3.2404 Y-0.661
N2205 G2 X-3.2444 Y-0.672 I-0.1427 J0.0462
N2210 G1 X-3.2513 Y-0.6888
N2215 G2 X-3.257 Y-0.701 I-0.1387 J0.0571
N2220 G1 X-3.2652 Y-0.7168
N2225 G2 X-3.2729 Y-0.7298 I-0.133 J0.0693
N2230 G1 X-3.2826 Y-0.7446
N2235 G2 X-3.2925 Y-0.758 I-0.1254 J0.0823
N2240 G1 X-3.3037 Y-0.7715
N2245 G2 X-3.3154 Y-0.784 I-0.1155 J0.0958
N2250 G1 X-3.3282 Y-0.7963
N2255 G2 X-3.3397 Y-0.8063 I-0.1038 J0.1083
N2260 G1 X-3.354 Y-0.8174
N2265 G2 X-3.3645 Y-0.8249 I-0.0922 J0.1183
N2270 G1 X-3.3801 Y-0.8351
N2275 G2 X-3.3893 Y-0.8406 I-0.0817 J0.1258
N2280 G1 X-3.4061 Y-0.8498
N2285 X-3.4138 Y-0.8538
N2290 X-3.4315 Y-0.8623
N2295 X-3.4378 Y-0.8651
N2300 X-3.4563 Y-0.8729
N2305 X-3.4612 Y-0.8749
N2310 X-3.4804 Y-0.8822
N2315 X-3.484 Y-0.8835
N2320 X-3.5036 Y-0.8905
N2325 X-3.506 Y-0.8913
N2330 X-3.526 Y-0.8979
N2335 X-3.5271 Y-0.8983
N2340 X-3.5472 Y-0.9049
N2345 G2 X-3.5936 Y-0.9122 I-0.0464 J0.1426
N2350 G1 X-3.6693
N2355 G2 X-3.8193 Y-0.7622 I0. J0.15
N2360 G1 Y-0.1177
N2365 G2 X-3.6693 Y0.0323 I0.15 J0.
N2370 G1 X-3.5961
N2375 G2 X-3.5623 Y0.0284 I0. J-0.15
N2380 G1 X-3.5435 Y0.0241
N2385 X-3.5424 Y0.0238
N2390 X-3.5237 Y0.0194
N2395 X-3.5215 Y0.0188
N2400 X-3.5031 Y0.0141
N2405 X-3.4998 Y0.0132
N2410 X-3.4817 Y0.0082
N2415 X-3.4771 Y0.0068
N2420 X-3.4596 Y0.0013
N2425 X-3.4536 Y-0.0007
N2430 X-3.4422 Y-0.0049
N2435 G2 X-3.4525 Y0.1358 I0.1269 J0.08
N2440 G1 X-3.4569 Y0.1339
N2445 X-3.4618 Y0.1319
N2450 X-3.4776 Y0.1257
N2455 X-3.4812 Y0.1244
N2460 X-3.4975 Y0.1185
N2465 X-3.4998 Y0.1177
N2470 X-3.5164 Y0.1121
N2475 X-3.5175 Y0.1117
N2480 X-3.5342 Y0.1062
N2485 G2 X-3.5814 Y0.0985 I-0.0473 J0.1424
N2490 G1 X-3.6693
N2495 G2 X-3.8193 Y0.2485 I0. J0.15
N2500 G1 Y0.8271
N2505 G2 X-3.6693 Y0.9771 I0.15 J0.
N2510 G1 X-3.5936
N2515 G2 X-3.5522 Y0.9713 I0. J-0.15
N2520 G1 X-3.5351 Y0.9664
N2525 X-3.534 Y0.9661
N2530 X-3.5171 Y0.961
N2535 X-3.5147 Y0.9603
N2540 X-3.498 Y0.9551
N2545 X-3.4945 Y0.954
N2550 X-3.4782 Y0.9484
N2555 X-3.4734 Y0.9467
N2560 X-3.4576 Y0.9407
N2565 X-3.4515 Y0.9382
N2570 X-3.4363 Y0.9317
N2575 X-3.4286 Y0.9281
N2580 X-3.4143 Y0.9209
N2585 G2 X-3.4051 Y0.916 I-0.0671 J-0.1342
N2590 G1 X-3.3928 Y0.9087
N2595 G3 X-3.3808 Y0.9143 I0.0041 J0.0069
N2600 G1 X-3.3498 Y1.107
N2605 G3 X-3.5854 Y1.1368 Z-0.1626 I-0.1178 J0.0149
N2610 X-3.3498 Y1.107 Z-0.1953 I0.1178 J-0.0149
N2615 X-3.4348 Y1.2361 Z-0.21 I-0.1178 J0.0149
N2620 X-3.452 Y1.2404 I-0.0777 J-0.2708
N2625 G1 X-3.4534
N2630 X-3.4548 Y1.2399
N2635 X-3.4558 Y1.239
N2640 X-3.4564 Y1.2377
N2645 X-3.4565 Y1.2363
N2650 X-3.4561 Y1.2349
N2655 X-3.4551 Y1.2338
N2660 X-3.4539 Y1.2332
N2665 G2 X-3.4207 Y1.2231 I-0.7213 J-2.4395
N2670 G1 X-3.4193 Y1.223
N2675 X-3.4179 Y1.2233
N2680 X-3.4168 Y1.2242
N2685 X-3.4161 Y1.2254
N2690 X-3.4159 Y1.2268
N2695 X-3.4162 Y1.2282
N2700 X-3.417 Y1.2294
N2705 X-3.4181 Y1.2302
N2710 G3 X-3.4348 Y1.2361 I-0.0574 J-0.1361
N2715 G1 Z-0.08 F10.
N2720 X-3.8425 Y1.2247 F5.
N2725 G3 X-3.9519 Y1.4355 Z-0.1126 I-0.0547 J0.1054
N2730 X-3.8425 Y1.2247 Z-0.1453 I0.0547 J-0.1054
N2735 X-3.9519 Y1.4355 Z-0.1779 I-0.0547 J0.1054
N2740 X-3.8482 Y1.2219 Z-0.21 I0.0547 J-0.1054
N2745 G2 X-3.8086 Y1.2375 I0.1788 J-0.3948
N2750 G1 X-3.8073 Y1.2382
N2755 X-3.8063 Y1.2394
N2760 X-3.8058 Y1.2408
N2765 Y1.2422
N2770 X-3.8063 Y1.2436
N2775 X-3.8072 Y1.2448
N2780 X-3.8085 Y1.2455
N2785 X-3.8099 Y1.2458
N2790 X-3.8533
N2795 X-3.8535
N2800 G3 X-3.8658 Y1.2334 I0. J-0.0124
N2805 G1 Y1.2259
N2810 G3 X-3.8548 Y1.2188 I0.0078 J0.
N2815 G1 X-3.8482 Y1.2219
N2820 G2 X-3.7226 Y1.191 I0.0431 J-0.0952
N2825 G3 X-3.6074 Y1.1323 I0.1205 J0.0941
N2830 G2 X-3.5789 Y1.1311 I-0.0619 J-1.7987
N2835 X-3.4897 Y1.1159 I-0.0192 J-0.3818
N2840 X-3.3444 Y1.0593 I-0.2625 J-0.888
N2845 X-3.2196 Y0.9657 I-0.185 J-0.377
N2850 G3 X-3.21 Y0.9696 I0.0041 J0.0037
N2855 X-3.2282 Y1.1268 I-0.8964 J-0.0246
N2860 X-3.278 Y1.2771 I-0.6711 J-0.139
N2865 X-3.3124 Y1.3149 I-0.078 J-0.0363
N2870 X-3.3926 Y1.3505 I-0.194 J-0.3294
N2875 X-3.4787 Y1.368 I-0.1296 J-0.4159
N2880 X-3.5463 Y1.3722 I-0.0894 J-0.8902
N2885 X-3.614 Y1.3731 I-0.073 J-3.0007
N2890 G1 X-3.9823 Y1.3747
N2895 G3 X-3.9947 Y1.3623 I0. J-0.0124
N2900 G1 Y1.1129
N2905 G3 X-3.9814 Y1.0897 I0.0269 J0.
N2910 G2 X-3.9105 Y1.0322 I-0.1542 J-0.2626
N2915 G3 X-3.8944 I0.008 J0.0073
N2920 G2 X-3.7926 Y1.1065 I0.233 J-0.2122
N2925 X-3.6693 Y1.1334 I0.1232 J-0.2694
N2930 X-3.6074 Y1.1323 I0. J-1.7998
N2935 G1 Z0.2 F10.
N2940 G0 X-3.3967 Y-1.2345
N2945 G1 Z-0.08 F10.
N2950 G3 X-3.4806 Y-1.0123 Z-0.1126 I-0.0419 J0.1111 F5.
N2955 X-3.3967 Y-1.2345 Z-0.1453 I0.0419 J-0.1111
N2960 X-3.4806 Y-1.0123 Z-0.1779 I-0.0419 J0.1111
N2965 X-3.4027 Y-1.2366 Z-0.21 I0.0419 J-0.1111
N2970 X-3.3585 Y-1.2159 I-0.0564 J0.1778
N2975 X-3.3381 Y-1.1918 I-0.029 J0.0453
N2980 X-3.3001 Y-1.0868 I-0.8903 J0.3812
N2985 X-3.309 Y-1.0792 I-0.0061 J0.0018
N2990 G2 X-3.367 Y-1.1058 I-0.8347 J1.7468
N2995 X-3.4266 Y-1.1287 I-0.284 J0.6484
N3000 X-3.5071 Y-1.1521 I-0.3321 J0.9936
N3005 X-3.5903 Y-1.1626 I-0.0862 J0.3483
N3010 G1 X-3.6693
N3015 G2 X-3.7846 Y-1.1447 I0. J0.3803
N3020 X-3.8897 Y-1.0943 I0.1275 J0.401
N3025 G3 X-3.9006 Y-1.1002 I-0.0039 J-0.0058
N3030 G1 Y-1.242
N3035 G3 X-3.8878 Y-1.2548 I0.0128 J0.
N3040 G1 X-3.662
N3045 G3 X-3.5027 Y-1.2508 I0. J3.2346
N3050 X-3.4284 Y-1.2428 I-0.0316 J0.6416
N3055 X-3.4027 Y-1.2366 I-0.0308 J0.184
N3060 G2 X-3.3321 Y-1.2574 I0.0199 J-0.0628
N3065 G3 X-3.2588 Y-1.2494 I0.034 J0.0281
N3070 G1 X-3.256 Y-1.2433
N3075 G3 X-3.2001 Y-1.063 I-0.8376 J0.3587
N3080 X-3.179 Y-0.8754 I-1.0897 J0.2175
N3085 X-3.1884 Y-0.8718 I-0.0053 J0.0001
N3090 G2 X-3.3094 Y-0.9715 I-0.3387 J0.2878
N3095 X-3.4522 Y-1.0362 I-0.4453 J0.7928
N3100 X-3.5216 Y-1.0575 I-0.2914 J0.8259
N3105 X-3.5936 Y-1.0668 I-0.072 J0.2749
N3110 G1 X-3.6693
N3115 G2 X-3.7935 Y-1.0394 I0. J0.2948
N3120 X-3.8956 Y-0.9635 I0.1319 J0.284
N3125 G3 X-3.9094 I-0.0069 J-0.0061
N3130 G2 X-3.9852 Y-1.0251 I-0.2263 J0.2013
N3135 G3 X-3.9964 Y-1.0443 I0.011 J-0.0192
N3140 G1 Y-1.338
N3145 G3 X-3.9839 Y-1.3505 I0.0125 J0.
N3150 G1 X-3.785
N3155 G3 X-3.544 Y-1.348 I0. J11.6761
N3160 X-3.4182 Y-1.3372 I-0.0201 J0.9714
N3165 X-3.3003 Y-1.2919 I-0.0442 J0.2912
N3170 G1 X-3.2959 Y-1.2892
N3175 X-3.2915 Y-1.2864
N3180 G3 X-3.2588 Y-1.2494 I-0.0557 J0.0821
N3185 G2 X-3.1488 Y-1.1823 I0.1095 J-0.0559
N3190 G3 X-3.0482 Y-1.1018 I0.0004 J0.1026
N3195 G1 X-3.0478 Y-1.1001
N3200 X-3.0428 Y-1.073
N3205 X-3.0385 Y-1.0454
N3210 X-3.035 Y-1.0172
N3215 X-3.032 Y-0.9885
N3220 X-3.0297 Y-0.9592
N3225 X-3.028 Y-0.9293
N3230 X-3.0267 Y-0.899
N3235 X-3.0259 Y-0.8682
N3240 X-3.0254 Y-0.8369
N3245 X-3.0253 Y-0.8051
N3250 Y-0.773
N3255 X-3.0256 Y-0.7404
N3260 X-3.0259 Y-0.7075
N3265 Y-0.7042
N3270 X-3.0256 Y-0.6801
N3275 X-3.0253 Y-0.6563
N3280 X-3.0251 Y-0.6328
N3285 Y-0.6095
N3290 X-3.0252 Y-0.5865
N3295 X-3.0255 Y-0.5639
N3300 X-3.026 Y-0.5415
N3305 X-3.0268 Y-0.5195
N3310 X-3.0279 Y-0.4978
N3315 X-3.0293 Y-0.4764
N3320 X-3.0311 Y-0.4553
N3325 X-3.0332 Y-0.4346
N3330 X-3.0358 Y-0.4143
N3335 X-3.0388 Y-0.3942
N3340 X-3.0422 Y-0.3745
N3345 X-3.0462 Y-0.3547
N3350 X-3.0508 Y-0.3347
N3355 X-3.0558 Y-0.3142
N3360 X-3.0614 Y-0.2934
N3365 X-3.0674 Y-0.2722
N3370 X-3.0738 Y-0.2506
N3375 X-3.0805 Y-0.2286
N3380 X-3.0845 Y-0.2159
N3385 X-3.0853 Y-0.215
N3390 X-3.0967 Y-0.2031
N3395 X-3.1076 Y-0.1919
N3400 X-3.1182 Y-0.1814
N3405 X-3.1285 Y-0.1718
N3410 X-3.1385 Y-0.163
N3415 X-3.148 Y-0.155
N3420 X-3.1572 Y-0.1479
N3425 X-3.1662 Y-0.1416
N3430 X-3.1754 Y-0.1357
N3435 X-3.1853 Y-0.13
N3440 X-3.1958 Y-0.1244
N3445 X-3.2071 Y-0.1189
N3450 X-3.2191 Y-0.1136
N3455 X-3.2319 Y-0.1084
N3460 X-3.2453 Y-0.1033
N3465 X-3.2594 Y-0.0983
N3470 X-3.2741 Y-0.0934
N3475 X-3.2894 Y-0.0886
N3480 X-3.3053 Y-0.0838
N3485 X-3.3172 Y-0.0803
N3490 X-3.3161 Y-0.0813
N3495 G2 X-3.3037 Y-0.0943 I-0.1022 J-0.1098
N3500 G1 X-3.2936 Y-0.1063
N3505 G2 X-3.2834 Y-0.1198 I-0.1146 J-0.0968
N3510 G1 X-3.2747 Y-0.133
N3515 G2 X-3.2669 Y-0.1459 I-0.1248 J-0.0833
N3520 G1 X-3.2594 Y-0.1602
N3525 G2 X-3.2537 Y-0.172 I-0.1325 J-0.0703
N3530 G1 X-3.2473 Y-0.1872
N3535 G2 X-3.2433 Y-0.1977 I-0.1381 J-0.0585
N3540 G1 X-3.2379 Y-0.2139
N3545 X-3.2351 Y-0.2228
N3550 X-3.2306 Y-0.2397
N3555 X-3.2288 Y-0.2473
N3560 X-3.225 Y-0.2649
N3565 X-3.2238 Y-0.2711
N3570 X-3.2207 Y-0.2893
N3575 X-3.22 Y-0.2942
N3580 X-3.2174 Y-0.3129
N3585 X-3.217 Y-0.3167
N3590 X-3.2149 Y-0.3358
N3595 X-3.2146 Y-0.3386
N3600 X-3.2128 Y-0.358
N3605 X-3.2127 Y-0.3598
N3610 X-3.2111 Y-0.3793
N3615 Y-0.3802
N3620 X-3.2097 Y-0.3999
N3625 G2 X-3.2093 Y-0.4136 I-0.1496 J-0.0108
N3630 G1 X-3.2097 Y-0.4355
N3635 Y-0.4363
N3640 X-3.2103 Y-0.4582
N3645 Y-0.4599
N3650 X-3.2111 Y-0.4815
N3655 X-3.2112 Y-0.4841
N3660 X-3.2124 Y-0.5055
N3665 X-3.2126 Y-0.509
N3670 X-3.2142 Y-0.53
N3675 X-3.2146 Y-0.5345
N3680 X-3.2168 Y-0.5551
N3685 X-3.2175 Y-0.5607
N3690 X-3.2204 Y-0.5807
N3695 X-3.2216 Y-0.5876
N3700 X-3.2254 Y-0.6069
N3705 X-3.2272 Y-0.6151
N3710 X-3.2319 Y-0.6337
N3715 G2 X-3.2346 Y-0.6432 I-0.1454 J0.0367
N3720 G1 X-3.2404 Y-0.661
N3725 G2 X-3.2444 Y-0.672 I-0.1427 J0.0462
N3730 G1 X-3.2513 Y-0.6888
N3735 G2 X-3.257 Y-0.701 I-0.1387 J0.0571
N3740 G1 X-3.2652 Y-0.7168
N3745 G2 X-3.2729 Y-0.7298 I-0.133 J0.0693
N3750 G1 X-3.2826 Y-0.7446
N3755 G2 X-3.2925 Y-0.758 I-0.1254 J0.0823
N3760 G1 X-3.3037 Y-0.7715
N3765 G2 X-3.3154 Y-0.784 I-0.1155 J0.0958
N3770 G1 X-3.3282 Y-0.7963
N3775 G2 X-3.3397 Y-0.8063 I-0.1038 J0.1083
N3780 G1 X-3.354 Y-0.8174
N3785 G2 X-3.3645 Y-0.8249 I-0.0922 J0.1183
N3790 G1 X-3.3801 Y-0.8351
N3795 G2 X-3.3893 Y-0.8406 I-0.0817 J0.1258
N3800 G1 X-3.4061 Y-0.8498
N3805 X-3.4138 Y-0.8538
N3810 X-3.4315 Y-0.8623
N3815 X-3.4378 Y-0.8651
N3820 X-3.4563 Y-0.8729
N3825 X-3.4612 Y-0.8749
N3830 X-3.4804 Y-0.8822
N3835 X-3.484 Y-0.8835
N3840 X-3.5036 Y-0.8905
N3845 X-3.506 Y-0.8913
N3850 X-3.526 Y-0.8979
N3855 X-3.5271 Y-0.8983
N3860 X-3.5472 Y-0.9049
N3865 G2 X-3.5936 Y-0.9122 I-0.0464 J0.1426
N3870 G1 X-3.6693
N3875 G2 X-3.8193 Y-0.7622 I0. J0.15
N3880 G1 Y-0.1177
N3885 G2 X-3.6693 Y0.0323 I0.15 J0.
N3890 G1 X-3.5961
N3895 G2 X-3.5623 Y0.0284 I0. J-0.15
N3900 G1 X-3.5435 Y0.0241
N3905 X-3.5424 Y0.0238
N3910 X-3.5237 Y0.0194
N3915 X-3.5215 Y0.0188
N3920 X-3.5031 Y0.0141
N3925 X-3.4998 Y0.0132
N3930 X-3.4817 Y0.0082
N3935 X-3.4771 Y0.0068
N3940 X-3.4596 Y0.0013
N3945 X-3.4536 Y-0.0007
N3950 X-3.4422 Y-0.0049
N3955 G2 X-3.4525 Y0.1358 I0.1269 J0.08
N3960 G1 X-3.4569 Y0.1339
N3965 X-3.4618 Y0.1319
N3970 X-3.4776 Y0.1257
N3975 X-3.4812 Y0.1244
N3980 X-3.4975 Y0.1185
N3985 X-3.4998 Y0.1177
N3990 X-3.5164 Y0.1121
N3995 X-3.5175 Y0.1117
N4000 X-3.5342 Y0.1062
N4005 G2 X-3.5814 Y0.0985 I-0.0473 J0.1424
N4010 G1 X-3.6693
N4015 G2 X-3.8193 Y0.2485 I0. J0.15
N4020 G1 Y0.8271
N4025 G2 X-3.6693 Y0.9771 I0.15 J0.
N4030 G1 X-3.5936
N4035 G2 X-3.5522 Y0.9713 I0. J-0.15
N4040 G1 X-3.5351 Y0.9664
N4045 X-3.534 Y0.9661
N4050 X-3.5171 Y0.961
N4055 X-3.5147 Y0.9603
N4060 X-3.498 Y0.9551
N4065 X-3.4945 Y0.954
N4070 X-3.4782 Y0.9484
N4075 X-3.4734 Y0.9467
N4080 X-3.4576 Y0.9407
N4085 X-3.4515 Y0.9382
N4090 X-3.4363 Y0.9317
N4095 X-3.4286 Y0.9281
N4100 X-3.4143 Y0.9209
N4105 G2 X-3.4051 Y0.916 I-0.0671 J-0.1342
N4110 G1 X-3.3917 Y0.908
N4115 G2 X-3.3812 Y0.9012 I-0.0762 J-0.1292
N4120 G1 X-3.3688 Y0.8924
N4125 G2 X-3.3571 Y0.8832 I-0.0867 J-0.1224
N4130 G1 X-3.3459 Y0.8735
N4135 G2 X-3.3337 Y0.8616 I-0.0984 J-0.1132
N4140 G1 X-3.3238 Y0.8508
N4145 G2 X-3.3129 Y0.8374 I-0.1107 J-0.1013
N4150 G1 X-3.3043 Y0.8255
N4155 G2 X-3.2957 Y0.8122 I-0.1216 J-0.0878
N4160 G1 X-3.2883 Y0.7993
N4165 G2 X-3.2819 Y0.7868 I-0.1302 J-0.0745
N4170 G1 X-3.2757 Y0.773
N4175 G2 X-3.2711 Y0.7618 I-0.1366 J-0.062
N4180 G1 X-3.2659 Y0.7472
N4185 G2 X-3.2627 Y0.7372 I-0.1412 J-0.0507
N4190 G1 X-3.2583 Y0.7218
N4195 X-3.2562 Y0.7134
N4200 X-3.2527 Y0.6974
N4205 X-3.2513 Y0.6902
N4210 X-3.2484 Y0.6737
N4215 X-3.2476 Y0.6678
N4220 X-3.2454 Y0.6507
N4225 X-3.2448 Y0.646
N4230 X-3.2431 Y0.6285
N4235 X-3.2428 Y0.6249
N4240 X-3.2415 Y0.6071
N4245 X-3.2413 Y0.6045
N4250 X-3.2403 Y0.5864
N4255 X-3.2402 Y0.5846
N4260 X-3.2394 Y0.5664
N4265 Y0.5655
N4270 X-3.2387 Y0.5472
N4275 X-3.2386 Y0.5391
N4280 X-3.2389 Y0.5208
N4285 Y0.52
N4290 X-3.2393 Y0.5019
N4295 Y0.5002
N4300 X-3.2399 Y0.4823
N4305 X-3.24 Y0.4797
N4310 X-3.2409 Y0.462
N4315 X-3.2411 Y0.4585
N4320 X-3.2424 Y0.4411
N4325 X-3.2428 Y0.4365
N4330 X-3.2446 Y0.4195
N4335 X-3.2453 Y0.4139
N4340 X-3.2476 Y0.3973
N4345 X-3.2487 Y0.3905
N4350 X-3.2518 Y0.3744
N4355 X-3.2536 Y0.3662
N4360 X-3.2574 Y0.3508
N4365 X-3.2586 Y0.346
N4370 X-3.2601 Y0.3413
N4375 X-3.2648 Y0.3265
N4380 G2 X-3.2687 Y0.3156 I-0.1429 J0.0455
N4385 G1 X-3.2744 Y0.3016
N4390 G2 X-3.2799 Y0.2895 I-0.139 J0.0563
N4395 G1 X-3.2867 Y0.2763
N4400 G2 X-3.2942 Y0.2634 I-0.1335 J0.0684
N4405 G1 X-3.3021 Y0.2511
N4410 G2 X-3.3119 Y0.2377 I-0.126 J0.0814
N4415 G1 X-3.3199 Y0.2278
N4420 X-3.3159 Y0.2287
N4425 X-3.3009 Y0.2322
N4430 X-3.2866 Y0.2357
N4435 X-3.273 Y0.2392
N4440 X-3.2601 Y0.2428
N4445 X-3.248 Y0.2465
N4450 X-3.2366 Y0.2502
N4455 X-3.2261 Y0.2541
N4460 X-3.2165 Y0.2581
N4465 X-3.2077 Y0.2621
N4470 X-3.1997 Y0.2662
N4475 X-3.1925 Y0.2703
N4480 X-3.1858 Y0.2746
N4485 X-3.1789 Y0.2796
N4490 X-3.1716 Y0.2854
N4495 X-3.1638 Y0.2922
N4500 X-3.1556 Y0.2999
N4505 X-3.1469 Y0.3084
N4510 X-3.1378 Y0.3178
N4515 X-3.1284 Y0.3281
N4520 X-3.1185 Y0.339
N4525 X-3.1171 Y0.3407
N4530 X-3.1123 Y0.355
N4535 X-3.1055 Y0.3757
N4540 X-3.0991 Y0.396
N4545 X-3.093 Y0.416
N4550 X-3.0874 Y0.4355
N4555 X-3.0822 Y0.4547
N4560 X-3.0775 Y0.4735
N4565 X-3.0735 Y0.4919
N4570 X-3.0699 Y0.5103
N4575 X-3.0668 Y0.5288
N4580 X-3.0641 Y0.5477
N4585 X-3.0619 Y0.567
N4590 X-3.06 Y0.5866
N4595 X-3.0584 Y0.6066
N4600 X-3.0572 Y0.627
N4605 X-3.0563 Y0.6477
N4610 X-3.0556 Y0.6687
N4615 X-3.0552 Y0.6901
N4620 X-3.0549 Y0.7118
N4625 X-3.0548 Y0.7338
N4630 X-3.0549 Y0.7561
N4635 X-3.055 Y0.7787
N4640 X-3.0552 Y0.8016
N4645 Y0.8044
N4650 X-3.0548 Y0.8353
N4655 X-3.0545 Y0.8658
N4660 X-3.0544 Y0.8959
N4665 X-3.0546 Y0.9255
N4670 X-3.055 Y0.9547
N4675 X-3.0558 Y0.9834
N4680 X-3.057 Y1.0115
N4685 X-3.0587 Y1.0391
N4690 X-3.0609 Y1.0661
N4695 X-3.0638 Y1.0925
N4700 X-3.0672 Y1.1183
N4705 X-3.0714 Y1.1435
N4710 X-3.0763 Y1.168
N4715 X-3.0819 Y1.192
N4720 X-3.0884 Y1.2155
N4725 X-3.0959 Y1.239
N4730 X-3.1045 Y1.263
N4735 X-3.1141 Y1.2874
N4740 X-3.1245 Y1.3123
N4745 X-3.1358 Y1.3377
N4750 X-3.1478 Y1.3635
N4755 X-3.1605 Y1.3899
N4760 X-3.1692 Y1.4076
N4765 X-3.1803 Y1.4148
N4770 X-3.2019 Y1.4286
N4775 X-3.2231 Y1.4416
N4780 X-3.2437 Y1.4538
N4785 X-3.2638 Y1.4649
N4790 X-3.2834 Y1.475
N4795 X-3.3024 Y1.484
N4800 X-3.3209 Y1.4918
N4805 X-3.3391 Y1.4985
N4810 X-3.3578 Y1.5044
N4815 X-3.3772 Y1.5095
N4820 X-3.3975 Y1.5139
N4825 X-3.4185 Y1.5177
N4830 X-3.4404 Y1.5209
N4835 X-3.4631 Y1.5235
N4840 X-3.4865 Y1.5255
N4845 X-3.5106 Y1.5271
N4850 X-3.5355 Y1.5281
N4855 X-3.5609 Y1.5288
N4860 X-3.587 Y1.5292
N4865 X-3.6137 Y1.5293
N4870 X-3.6409
N4875 X-3.6686 Y1.5292
N4880 X-3.6693
N4885 X-4.1492
N4890 Y0.9771
N4895 X-4.1356
N4900 G2 X-3.9856 Y0.8271 I0. J-0.15
N4905 G1 Y-0.7622
N4910 G2 X-4.1356 Y-0.9122 I-0.15 J0.
N4915 G1 X-4.1492
N4920 Y-1.5033
N4925 X-3.6209
N4930 X-3.5938 Y-1.5032
N4935 X-3.567 Y-1.503
N4940 X-3.5408 Y-1.5026
N4945 X-3.5153 Y-1.5019
N4950 X-3.4904 Y-1.5009
N4955 X-3.4663 Y-1.4995
N4960 X-3.443 Y-1.4976
N4965 X-3.4205 Y-1.4952
N4970 X-3.3989 Y-1.4923
N4975 X-3.3782 Y-1.4887
N4980 X-3.3584 Y-1.4845
N4985 X-3.3396 Y-1.4797
N4990 X-3.3218 Y-1.4742
N4995 X-3.3047 Y-1.4679
N5000 X-3.2879 Y-1.4608
N5005 X-3.2708 Y-1.4524
N5010 X-3.253 Y-1.4427
N5015 X-3.2348 Y-1.4318
N5020 X-3.216 Y-1.4198
N5025 X-3.1967 Y-1.4067
N5030 X-3.1768 Y-1.3926
N5035 X-3.1565 Y-1.3777
N5040 X-3.1443 Y-1.3686
N5045 X-3.1334 Y-1.3443
N5050 X-3.1207 Y-1.3156
N5055 X-3.1086 Y-1.2874
N5060 X-3.0972 Y-1.2596
N5065 X-3.0866 Y-1.2322
N5070 X-3.0769 Y-1.2053
N5075 X-3.0681 Y-1.1787
N5080 X-3.0604 Y-1.1526
N5085 X-3.0537 Y-1.1265
N5090 X-3.0482 Y-1.1018
N5095 Y-1.1004
N5100 X-3.0487 Y-1.0991
N5105 X-3.0497 Y-1.0981
N5110 X-3.051 Y-1.0975
N5115 X-3.0524
N5120 X-3.0692 Y-1.1011
N5125 X-3.5294 Y-1.1713
N5130 X-3.5427 Y-1.1723
N5135 X-3.5438 Y-1.1726
N5140 X-3.5446 Y-1.1732
N5145 X-3.5451 Y-1.1741
N5150 X-3.5453 Y-1.1752
N5155 X-3.545 Y-1.1763
N5160 G3 X-3.3323 Y-1.0706 Z-0.2426 I0.1064 J0.0528
N5165 X-3.545 Y-1.1763 Z-0.2753 I-0.1064 J-0.0528
N5170 X-3.4027 Y-1.2366 Z-0.29 I0.1064 J0.0528
N5175 X-3.3585 Y-1.2159 I-0.0564 J0.1778
N5180 X-3.3381 Y-1.1918 I-0.029 J0.0453
N5185 X-3.3001 Y-1.0868 I-0.8903 J0.3812
N5190 X-3.309 Y-1.0792 I-0.0061 J0.0018
N5195 G2 X-3.367 Y-1.1058 I-0.8347 J1.7468
N5200 X-3.4266 Y-1.1287 I-0.284 J0.6484
N5205 X-3.5071 Y-1.1521 I-0.3321 J0.9936
N5210 X-3.5903 Y-1.1626 I-0.0862 J0.3483
N5215 G1 X-3.6693
N5220 G2 X-3.7846 Y-1.1447 I0. J0.3803
N5225 X-3.8897 Y-1.0943 I0.1275 J0.401
N5230 G3 X-3.9006 Y-1.1002 I-0.0039 J-0.0058
N5235 G1 Y-1.242
N5240 G3 X-3.8878 Y-1.2548 I0.0128 J0.
N5245 G1 X-3.662
N5250 G3 X-3.5027 Y-1.2508 I0. J3.2346
N5255 X-3.4284 Y-1.2428 I-0.0316 J0.6416
N5260 X-3.4027 Y-1.2366 I-0.0308 J0.184
N5265 G2 X-3.3321 Y-1.2574 I0.0199 J-0.0628
N5270 G3 X-3.2588 Y-1.2494 I0.034 J0.0281
N5275 G1 X-3.256 Y-1.2433
N5280 G3 X-3.2001 Y-1.063 I-0.8376 J0.3587
N5285 X-3.179 Y-0.8754 I-1.0897 J0.2175
N5290 X-3.1884 Y-0.8718 I-0.0053 J0.0001
N5295 G2 X-3.3094 Y-0.9715 I-0.3387 J0.2878
N5300 X-3.4522 Y-1.0362 I-0.4453 J0.7928
N5305 X-3.5216 Y-1.0575 I-0.2914 J0.8259
N5310 X-3.5936 Y-1.0668 I-0.072 J0.2749
N5315 G1 X-3.6693
N5320 G2 X-3.7935 Y-1.0394 I0. J0.2948
N5325 X-3.8956 Y-0.9635 I0.1319 J0.284
N5330 G3 X-3.9094 I-0.0069 J-0.0061
N5335 G2 X-3.9852 Y-1.0251 I-0.2263 J0.2013
N5340 G3 X-3.9964 Y-1.0443 I0.011 J-0.0192
N5345 G1 Y-1.338
N5350 G3 X-3.9839 Y-1.3505 I0.0125 J0.
N5355 G1 X-3.785
N5360 G3 X-3.544 Y-1.348 I0. J11.6761
N5365 X-3.4182 Y-1.3372 I-0.0201 J0.9714
N5370 X-3.3003 Y-1.2919 I-0.0442 J0.2912
N5375 G1 X-3.2959 Y-1.2892
N5380 X-3.2915 Y-1.2864
N5385 G3 X-3.2588 Y-1.2494 I-0.0557 J0.0821
N5390 G1 Z0.2 F10.
N5395 G0 X-3.441 Y1.2376
N5400 G1 Z-0.16 F10.
N5405 G3 X-3.4942 Y1.0062 Z-0.1926 I-0.0266 J-0.1157 F5.
N5410 X-3.441 Y1.2376 Z-0.2253 I0.0266 J0.1157
N5415 X-3.4942 Y1.0062 Z-0.2579 I-0.0266 J-0.1157
N5420 X-3.4348 Y1.2361 Z-0.29 I0.0266 J0.1157
N5425 X-3.452 Y1.2404 I-0.0777 J-0.2708
N5430 G1 X-3.4534
N5435 X-3.4548 Y1.2399
N5440 X-3.4558 Y1.239
N5445 X-3.4564 Y1.2377
N5450 X-3.4565 Y1.2363
N5455 X-3.4561 Y1.2349
N5460 X-3.4551 Y1.2338
N5465 X-3.4539 Y1.2332
N5470 G2 X-3.4207 Y1.2231 I-0.7213 J-2.4395
N5475 G1 X-3.4193 Y1.223
N5480 X-3.4179 Y1.2233
N5485 X-3.4168 Y1.2242
N5490 X-3.4161 Y1.2254
N5495 X-3.4159 Y1.2268
N5500 X-3.4162 Y1.2282
N5505 X-3.417 Y1.2294
N5510 X-3.4181 Y1.2302
N5515 G3 X-3.4348 Y1.2361 I-0.0574 J-0.1361
N5520 G1 Z-0.16 F10.
N5525 X-3.8425 Y1.2247 F5.
N5530 G3 X-3.9519 Y1.4355 Z-0.1926 I-0.0547 J0.1054
N5535 X-3.8425 Y1.2247 Z-0.2253 I0.0547 J-0.1054
N5540 X-3.9519 Y1.4355 Z-0.2579 I-0.0547 J0.1054
N5545 X-3.8482 Y1.2219 Z-0.29 I0.0547 J-0.1054
N5550 G2 X-3.8086 Y1.2375 I0.1788 J-0.3948
N5555 G1 X-3.8073 Y1.2382
N5560 X-3.8063 Y1.2394
N5565 X-3.8058 Y1.2408
N5570 Y1.2422
N5575 X-3.8063 Y1.2436
N5580 X-3.8072 Y1.2448
N5585 X-3.8085 Y1.2455
N5590 X-3.8099 Y1.2458
N5595 X-3.8533
N5600 X-3.8535
N5605 G3 X-3.8658 Y1.2334 I0. J-0.0124
N5610 G1 Y1.2259
N5615 G3 X-3.8548 Y1.2188 I0.0078 J0.
N5620 G1 X-3.8482 Y1.2219
N5625 G2 X-3.7226 Y1.191 I0.0431 J-0.0952
N5630 G3 X-3.6074 Y1.1323 I0.1205 J0.0941
N5635 G2 X-3.5789 Y1.1311 I-0.0619 J-1.7987
N5640 X-3.4897 Y1.1159 I-0.0192 J-0.3818
N5645 X-3.3444 Y1.0593 I-0.2625 J-0.888
N5650 X-3.2196 Y0.9657 I-0.185 J-0.377
N5655 G3 X-3.21 Y0.9696 I0.0041 J0.0037
N5660 X-3.2282 Y1.1268 I-0.8964 J-0.0246
N5665 X-3.278 Y1.2771 I-0.6711 J-0.139
N5670 X-3.3124 Y1.3149 I-0.078 J-0.0363
N5675 X-3.3926 Y1.3505 I-0.194 J-0.3294
N5680 X-3.4787 Y1.368 I-0.1296 J-0.4159
N5685 X-3.5463 Y1.3722 I-0.0894 J-0.8902
N5690 X-3.614 Y1.3731 I-0.073 J-3.0007
N5695 G1 X-3.9823 Y1.3747
N5700 G3 X-3.9947 Y1.3623 I0. J-0.0124
N5705 G1 Y1.1129
N5710 G3 X-3.9814 Y1.0897 I0.0269 J0.
N5715 G2 X-3.9105 Y1.0322 I-0.1542 J-0.2626
N5720 G3 X-3.8944 I0.008 J0.0073
N5725 G2 X-3.7926 Y1.1065 I0.233 J-0.2122
N5730 X-3.6693 Y1.1334 I0.1232 J-0.2694
N5735 X-3.6074 Y1.1323 I0. J-1.7998
N5740 X-3.4861 Y1.0339 I-0.0045 J-0.1295
N5745 G3 X-3.3928 Y0.9087 I0.1957 J0.0484
N5750 G1 X-3.3917 Y0.908
N5755 G2 X-3.3812 Y0.9012 I-0.0762 J-0.1292
N5760 G1 X-3.3688 Y0.8924
N5765 G2 X-3.3571 Y0.8832 I-0.0867 J-0.1224
N5770 G1 X-3.3459 Y0.8735
N5775 G2 X-3.3337 Y0.8616 I-0.0984 J-0.1132
N5780 G1 X-3.3238 Y0.8508
N5785 G2 X-3.3129 Y0.8374 I-0.1107 J-0.1013
N5790 G1 X-3.3043 Y0.8255
N5795 G2 X-3.2957 Y0.8122 I-0.1216 J-0.0878
N5800 G1 X-3.2883 Y0.7993
N5805 G2 X-3.2819 Y0.7868 I-0.1302 J-0.0745
N5810 G1 X-3.2757 Y0.773
N5815 G2 X-3.2711 Y0.7618 I-0.1366 J-0.062
N5820 G1 X-3.2659 Y0.7472
N5825 G2 X-3.2627 Y0.7372 I-0.1412 J-0.0507
N5830 G1 X-3.2583 Y0.7218
N5835 X-3.2562 Y0.7134
N5840 X-3.2527 Y0.6974
N5845 X-3.2513 Y0.6902
N5850 X-3.2484 Y0.6737
N5855 X-3.2476 Y0.6678
N5860 X-3.2454 Y0.6507
N5865 X-3.2448 Y0.646
N5870 X-3.2431 Y0.6285
N5875 X-3.2428 Y0.6249
N5880 X-3.2415 Y0.6071
N5885 X-3.2413 Y0.6045
N5890 X-3.2403 Y0.5864
N5895 X-3.2402 Y0.5846
N5900 X-3.2394 Y0.5664
N5905 Y0.5655
N5910 X-3.2387 Y0.5472
N5915 X-3.2386 Y0.5391
N5920 X-3.2389 Y0.5208
N5925 Y0.52
N5930 X-3.2393 Y0.5019
N5935 Y0.5002
N5940 X-3.2399 Y0.4823
N5945 X-3.24 Y0.4797
N5950 X-3.2409 Y0.462
N5955 X-3.2411 Y0.4585
N5960 X-3.2424 Y0.4411
N5965 X-3.2428 Y0.4365
N5970 X-3.2446 Y0.4195
N5975 X-3.2453 Y0.4139
N5980 X-3.2476 Y0.3973
N5985 X-3.2487 Y0.3905
N5990 X-3.2518 Y0.3744
N5995 X-3.2536 Y0.3662
N6000 X-3.2574 Y0.3508
N6005 X-3.2586 Y0.346
N6010 X-3.2601 Y0.3413
N6015 X-3.2648 Y0.3265
N6020 G2 X-3.2687 Y0.3156 I-0.1429 J0.0455
N6025 G1 X-3.2744 Y0.3016
N6030 G2 X-3.2799 Y0.2895 I-0.139 J0.0563
N6035 G1 X-3.2867 Y0.2763
N6040 G2 X-3.2942 Y0.2634 I-0.1335 J0.0684
N6045 G1 X-3.3021 Y0.2511
N6050 G2 X-3.3119 Y0.2377 I-0.126 J0.0814
N6055 G1 X-3.3199 Y0.2278
N6060 X-3.3159 Y0.2287
N6065 X-3.3009 Y0.2322
N6070 X-3.2866 Y0.2357
N6075 X-3.273 Y0.2392
N6080 X-3.2601 Y0.2428
N6085 X-3.248 Y0.2465
N6090 X-3.2366 Y0.2502
N6095 X-3.2261 Y0.2541
N6100 X-3.2165 Y0.2581
N6105 X-3.2077 Y0.2621
N6110 X-3.1997 Y0.2662
N6115 X-3.1925 Y0.2703
N6120 X-3.1858 Y0.2746
N6125 X-3.1789 Y0.2796
N6130 X-3.1716 Y0.2854
N6135 X-3.1638 Y0.2922
N6140 X-3.1556 Y0.2999
N6145 X-3.1469 Y0.3084
N6150 X-3.1378 Y0.3178
N6155 X-3.1284 Y0.3281
N6160 X-3.1185 Y0.339
N6165 X-3.1171 Y0.3407
N6170 X-3.1123 Y0.355
N6175 X-3.1055 Y0.3757
N6180 X-3.0991 Y0.396
N6185 X-3.093 Y0.416
N6190 X-3.0874 Y0.4355
N6195 X-3.0822 Y0.4547
N6200 X-3.0775 Y0.4735
N6205 X-3.0735 Y0.4919
N6210 X-3.0699 Y0.5103
N6215 X-3.0668 Y0.5288
N6220 X-3.0641 Y0.5477
N6225 X-3.0619 Y0.567
N6230 X-3.06 Y0.5866
N6235 X-3.0584 Y0.6066
N6240 X-3.0572 Y0.627
N6245 X-3.0563 Y0.6477
N6250 X-3.0556 Y0.6687
N6255 X-3.0552 Y0.6901
N6260 X-3.0549 Y0.7118
N6265 X-3.0548 Y0.7338
N6270 X-3.0549 Y0.7561
N6275 X-3.055 Y0.7787
N6280 X-3.0552 Y0.8016
N6285 Y0.8044
N6290 X-3.0548 Y0.8353
N6295 X-3.0545 Y0.8658
N6300 X-3.0544 Y0.8959
N6305 X-3.0546 Y0.9255
N6310 X-3.055 Y0.9547
N6315 X-3.0558 Y0.9834
N6320 X-3.057 Y1.0115
N6325 X-3.0587 Y1.0391
N6330 X-3.0609 Y1.0661
N6335 X-3.0638 Y1.0925
N6340 X-3.0672 Y1.1183
N6345 X-3.0714 Y1.1435
N6350 X-3.0763 Y1.168
N6355 X-3.0819 Y1.192
N6360 X-3.0884 Y1.2155
N6365 X-3.0959 Y1.239
N6370 X-3.1045 Y1.263
N6375 X-3.1141 Y1.2874
N6380 X-3.1245 Y1.3123
N6385 X-3.1358 Y1.3377
N6390 X-3.1478 Y1.3635
N6395 X-3.1605 Y1.3899
N6400 X-3.1692 Y1.4076
N6405 X-3.1803 Y1.4148
N6410 X-3.2019 Y1.4286
N6415 X-3.2231 Y1.4416
N6420 X-3.2437 Y1.4538
N6425 X-3.2638 Y1.4649
N6430 X-3.2834 Y1.475
N6435 X-3.3024 Y1.484
N6440 X-3.3209 Y1.4918
N6445 X-3.3391 Y1.4985
N6450 X-3.3578 Y1.5044
N6455 X-3.3772 Y1.5095
N6460 X-3.3975 Y1.5139
N6465 X-3.4185 Y1.5177
N6470 X-3.4404 Y1.5209
N6475 X-3.4631 Y1.5235
N6480 X-3.4865 Y1.5255
N6485 X-3.5106 Y1.5271
N6490 X-3.5355 Y1.5281
N6495 X-3.5609 Y1.5288
N6500 X-3.587 Y1.5292
N6505 X-3.6137 Y1.5293
N6510 X-3.6409
N6515 X-3.6686 Y1.5292
N6520 X-3.6693
N6525 X-4.1492
N6530 Y0.9771
N6535 X-4.1356
N6540 G2 X-3.9856 Y0.8271 I0. J-0.15
N6545 G1 Y-0.7622
N6550 G2 X-4.1356 Y-0.9122 I-0.15 J0.
N6555 G1 X-4.1492
N6560 Y-1.5033
N6565 X-3.6209
N6570 X-3.5938 Y-1.5032
N6575 X-3.567 Y-1.503
N6580 X-3.5408 Y-1.5026
N6585 X-3.5153 Y-1.5019
N6590 X-3.4904 Y-1.5009
N6595 X-3.4663 Y-1.4995
N6600 X-3.443 Y-1.4976
N6605 X-3.4205 Y-1.4952
N6610 X-3.3989 Y-1.4923
N6615 X-3.3782 Y-1.4887
N6620 X-3.3584 Y-1.4845
N6625 X-3.3396 Y-1.4797
N6630 X-3.3218 Y-1.4742
N6635 X-3.3047 Y-1.4679
N6640 X-3.2879 Y-1.4608
N6645 X-3.2708 Y-1.4524
N6650 X-3.253 Y-1.4427
N6655 X-3.2348 Y-1.4318
N6660 X-3.216 Y-1.4198
N6665 X-3.1967 Y-1.4067
N6670 X-3.1768 Y-1.3926
N6675 X-3.1565 Y-1.3777
N6680 X-3.1443 Y-1.3686
N6685 X-3.1334 Y-1.3443
N6690 X-3.1207 Y-1.3156
N6695 X-3.1086 Y-1.2874
N6700 X-3.0972 Y-1.2596
N6705 X-3.0866 Y-1.2322
N6710 X-3.0769 Y-1.2053
N6715 X-3.0681 Y-1.1787
N6720 X-3.0604 Y-1.1526
N6725 X-3.0537 Y-1.1265
N6730 X-3.0478 Y-1.1001
N6735 X-3.0428 Y-1.073
N6740 X-3.0385 Y-1.0454
N6745 X-3.035 Y-1.0172
N6750 X-3.032 Y-0.9885
N6755 X-3.0297 Y-0.9592
N6760 X-3.028 Y-0.9293
N6765 X-3.0267 Y-0.899
N6770 X-3.0259 Y-0.8682
N6775 X-3.0254 Y-0.8369
N6780 X-3.0253 Y-0.8051
N6785 Y-0.773
N6790 X-3.0256 Y-0.7404
N6795 X-3.0259 Y-0.7075
N6800 Y-0.7042
N6805 X-3.0256 Y-0.6801
N6810 X-3.0253 Y-0.6563
N6815 X-3.0251 Y-0.6328
N6820 Y-0.6095
N6825 X-3.0252 Y-0.5865
N6830 X-3.0255 Y-0.5639
N6835 X-3.026 Y-0.5415
N6840 X-3.0268 Y-0.5195
N6845 X-3.0279 Y-0.4978
N6850 X-3.0293 Y-0.4764
N6855 X-3.0311 Y-0.4553
N6860 X-3.0332 Y-0.4346
N6865 X-3.0358 Y-0.4143
N6870 X-3.0388 Y-0.3942
N6875 X-3.0422 Y-0.3745
N6880 X-3.0462 Y-0.3547
N6885 X-3.0508 Y-0.3347
N6890 X-3.0558 Y-0.3142
N6895 X-3.0614 Y-0.2934
N6900 X-3.0674 Y-0.2722
N6905 X-3.0738 Y-0.2506
N6910 X-3.0805 Y-0.2286
N6915 X-3.0845 Y-0.2159
N6920 X-3.0853 Y-0.215
N6925 X-3.0967 Y-0.2031
N6930 X-3.1076 Y-0.1919
N6935 X-3.1182 Y-0.1814
N6940 X-3.1285 Y-0.1718
N6945 X-3.1385 Y-0.163
N6950 X-3.148 Y-0.155
N6955 X-3.1572 Y-0.1479
N6960 X-3.1662 Y-0.1416
N6965 X-3.1754 Y-0.1357
N6970 X-3.1853 Y-0.13
N6975 X-3.1958 Y-0.1244
N6980 X-3.2071 Y-0.1189
N6985 X-3.2191 Y-0.1136
N6990 X-3.2319 Y-0.1084
N6995 X-3.2453 Y-0.1033
N7000 X-3.2594 Y-0.0983
N7005 X-3.2741 Y-0.0934
N7010 X-3.2894 Y-0.0886
N7015 X-3.3053 Y-0.0838
N7020 X-3.3172 Y-0.0803
N7025 X-3.3161 Y-0.0813
N7030 G2 X-3.3037 Y-0.0943 I-0.1022 J-0.1098
N7035 G1 X-3.2936 Y-0.1063
N7040 G2 X-3.2834 Y-0.1198 I-0.1146 J-0.0968
N7045 G1 X-3.2747 Y-0.133
N7050 G2 X-3.2669 Y-0.1459 I-0.1248 J-0.0833
N7055 G1 X-3.2594 Y-0.1602
N7060 G2 X-3.2537 Y-0.172 I-0.1325 J-0.0703
N7065 G1 X-3.2473 Y-0.1872
N7070 G2 X-3.2433 Y-0.1977 I-0.1381 J-0.0585
N7075 G1 X-3.2379 Y-0.2139
N7080 X-3.2351 Y-0.2228
N7085 X-3.2306 Y-0.2397
N7090 X-3.2288 Y-0.2473
N7095 X-3.225 Y-0.2649
N7100 X-3.2238 Y-0.2711
N7105 X-3.2207 Y-0.2893
N7110 X-3.22 Y-0.2942
N7115 X-3.2174 Y-0.3129
N7120 X-3.217 Y-0.3167
N7125 X-3.2149 Y-0.3358
N7130 X-3.2146 Y-0.3386
N7135 X-3.2128 Y-0.358
N7140 X-3.2127 Y-0.3598
N7145 X-3.2111 Y-0.3793
N7150 Y-0.3802
N7155 X-3.2097 Y-0.3999
N7160 G2 X-3.2093 Y-0.4136 I-0.1496 J-0.0108
N7165 G1 X-3.2097 Y-0.4355
N7170 Y-0.4363
N7175 X-3.2103 Y-0.4582
N7180 Y-0.4599
N7185 X-3.2111 Y-0.4815
N7190 X-3.2112 Y-0.4841
N7195 X-3.2124 Y-0.5055
N7200 X-3.2126 Y-0.509
N7205 X-3.2142 Y-0.53
N7210 X-3.2146 Y-0.5345
N7215 X-3.2168 Y-0.5551
N7220 X-3.2175 Y-0.5607
N7225 X-3.2204 Y-0.5807
N7230 X-3.2216 Y-0.5876
N7235 X-3.2254 Y-0.6069
N7240 X-3.2272 Y-0.6151
N7245 X-3.2319 Y-0.6337
N7250 G2 X-3.2346 Y-0.6432 I-0.1454 J0.0367
N7255 G1 X-3.2404 Y-0.661
N7260 G2 X-3.2444 Y-0.672 I-0.1427 J0.0462
N7265 G1 X-3.2513 Y-0.6888
N7270 G2 X-3.257 Y-0.701 I-0.1387 J0.0571
N7275 G1 X-3.2652 Y-0.7168
N7280 G2 X-3.2729 Y-0.7298 I-0.133 J0.0693
N7285 G1 X-3.2826 Y-0.7446
N7290 G2 X-3.2925 Y-0.758 I-0.1254 J0.0823
N7295 G1 X-3.3037 Y-0.7715
N7300 G2 X-3.3154 Y-0.784 I-0.1155 J0.0958
N7305 G1 X-3.3282 Y-0.7963
N7310 G2 X-3.3397 Y-0.8063 I-0.1038 J0.1083
N7315 G1 X-3.354 Y-0.8174
N7320 G2 X-3.3645 Y-0.8249 I-0.0922 J0.1183
N7325 G1 X-3.3801 Y-0.8351
N7330 G2 X-3.3893 Y-0.8406 I-0.0817 J0.1258
N7335 G1 X-3.4061 Y-0.8498
N7340 X-3.4138 Y-0.8538
N7345 X-3.4315 Y-0.8623
N7350 X-3.4378 Y-0.8651
N7355 X-3.4563 Y-0.8729
N7360 X-3.4612 Y-0.8749
N7365 X-3.4804 Y-0.8822
N7370 X-3.484 Y-0.8835
N7375 X-3.5036 Y-0.8905
N7380 X-3.506 Y-0.8913
N7385 X-3.526 Y-0.8979
N7390 X-3.5271 Y-0.8983
N7395 X-3.5472 Y-0.9049
N7400 G2 X-3.5936 Y-0.9122 I-0.0464 J0.1426
N7405 G1 X-3.6693
N7410 G2 X-3.8193 Y-0.7622 I0. J0.15
N7415 G1 Y-0.1177
N7420 G2 X-3.6693 Y0.0323 I0.15 J0.
N7425 G1 X-3.5961
N7430 G2 X-3.5623 Y0.0284 I0. J-0.15
N7435 G1 X-3.5435 Y0.0241
N7440 X-3.5424 Y0.0238
N7445 X-3.5237 Y0.0194
N7450 X-3.5215 Y0.0188
N7455 X-3.5031 Y0.0141
N7460 X-3.4998 Y0.0132
N7465 X-3.4817 Y0.0082
N7470 X-3.4771 Y0.0068
N7475 X-3.4596 Y0.0013
N7480 X-3.4536 Y-0.0007
N7485 X-3.4422 Y-0.0049
N7490 G2 X-3.4525 Y0.1358 I0.1269 J0.08
N7495 G1 X-3.4569 Y0.1339
N7500 X-3.4618 Y0.1319
N7505 X-3.4776 Y0.1257
N7510 X-3.4812 Y0.1244
N7515 X-3.4975 Y0.1185
N7520 X-3.4998 Y0.1177
N7525 X-3.5164 Y0.1121
N7530 X-3.5175 Y0.1117
N7535 X-3.5342 Y0.1062
N7540 G2 X-3.5814 Y0.0985 I-0.0473 J0.1424
N7545 G1 X-3.6693
N7550 G2 X-3.8193 Y0.2485 I0. J0.15
N7555 G1 Y0.8271
N7560 G2 X-3.6693 Y0.9771 I0.15 J0.
N7565 G1 X-3.5936
N7570 G2 X-3.5522 Y0.9713 I0. J-0.15
N7575 G1 X-3.5351 Y0.9664
N7580 X-3.534 Y0.9661
N7585 X-3.5171 Y0.961
N7590 X-3.5147 Y0.9603
N7595 X-3.498 Y0.9551
N7600 X-3.4945 Y0.954
N7605 X-3.4782 Y0.9484
N7610 X-3.4734 Y0.9467
N7615 X-3.4576 Y0.9407
N7620 X-3.4515 Y0.9382
N7625 X-3.4363 Y0.9317
N7630 X-3.4286 Y0.9281
N7635 X-3.4143 Y0.9209
N7640 G2 X-3.4051 Y0.916 I-0.0671 J-0.1342
N7645 G1 X-3.3928 Y0.9087
N7650 G2 X-3.3829 Y0.8875 I-0.0105 J-0.0178
N7655 G3 X-3.3749 Y0.8656 I0.0233 J-0.0039
N7660 G1 X-3.3735 Y0.8644
N7665 X-3.3623 Y0.8546
N7670 G2 X-3.3521 Y0.8447 I-0.082 J-0.0943
N7675 G1 X-3.3422 Y0.8339
N7680 G2 X-3.3331 Y0.8227 I-0.0922 J-0.0844
N7685 G1 X-3.3246 Y0.8109
N7690 G2 X-3.3174 Y0.7998 I-0.1013 J-0.0732
N7695 G1 X-3.31 Y0.7869
N7700 G2 X-3.3047 Y0.7765 I-0.1085 J-0.0621
N7705 G1 X-3.2984 Y0.7627
N7710 G2 X-3.2946 Y0.7533 I-0.1138 J-0.0517
N7715 G1 X-3.2894 Y0.7387
N7720 X-3.2867 Y0.7304
N7725 X-3.2824 Y0.7151
N7730 X-3.2806 Y0.708
N7735 X-3.2771 Y0.692
N7740 X-3.2759 Y0.686
N7745 X-3.2731 Y0.6695
N7750 X-3.2724 Y0.6646
N7755 X-3.2701 Y0.6475
N7760 X-3.2697 Y0.6436
N7765 X-3.268 Y0.6261
N7770 X-3.2677 Y0.6231
N7775 X-3.2664 Y0.6052
N7780 X-3.2663 Y0.6031
N7785 X-3.2653 Y0.585
N7790 X-3.2652 Y0.5835
N7795 X-3.2644 Y0.5653
N7800 Y0.5646
N7805 X-3.2637 Y0.5463
N7810 X-3.2636 Y0.5395
N7815 X-3.2639 Y0.5213
N7820 Y0.5206
N7825 X-3.2643 Y0.5024
N7830 Y0.501
N7835 X-3.2649 Y0.4831
N7840 X-3.265 Y0.4809
N7845 X-3.2659 Y0.4632
N7850 X-3.2661 Y0.4603
N7855 X-3.2673 Y0.4429
N7860 X-3.2677 Y0.4391
N7865 X-3.2694 Y0.422
N7870 X-3.27 Y0.4174
N7875 X-3.2724 Y0.4008
N7880 X-3.2733 Y0.3951
N7885 X-3.2763 Y0.379
N7890 X-3.2778 Y0.3722
N7895 X-3.2817 Y0.3568
N7900 X-3.2839 Y0.3489
N7905 X-3.2886 Y0.3341
N7910 X-3.2901 Y0.3295
N7915 X-3.2919 Y0.325
N7920 X-3.2975 Y0.311
N7925 G2 X-3.3022 Y0.3009 I-0.1158 J0.047
N7930 G1 X-3.3089 Y0.2877
N7935 G2 X-3.3152 Y0.2769 I-0.1112 J0.057
N7940 G1 X-3.3231 Y0.2646
N7945 G2 X-3.3312 Y0.2535 I-0.105 J0.0678
N7950 G1 X-3.3405 Y0.2422
N7955 G2 X-3.3501 Y0.2317 I-0.0969 J0.079
N7960 G1 X-3.3606 Y0.2214
N7965 G2 X-3.3702 Y0.213 I-0.0872 J0.0895
N7970 G1 X-3.382 Y0.2036
N7975 G2 X-3.3908 Y0.1973 I-0.0776 J0.098
N7980 G1 X-3.4036 Y0.1888
N7985 X-3.4074 Y0.1864
N7990 X-3.4113 Y0.1841
N7995 X-3.4251 Y0.1764
N8000 X-3.4316 Y0.173
N8005 X-3.4462 Y0.1659
N8010 X-3.4515 Y0.1635
N8015 X-3.4668 Y0.1569
N8020 X-3.4709 Y0.1552
N8025 X-3.4867 Y0.149
N8030 X-3.4897 Y0.1479
N8035 X-3.5059 Y0.1421
N8040 X-3.5079 Y0.1414
N8045 X-3.5244 Y0.1357
N8050 X-3.5254 Y0.1354
N8055 X-3.5421 Y0.1299
N8060 G2 X-3.5814 Y0.1235 I-0.0394 J0.1186
N8065 G1 X-3.6693
N8070 G2 X-3.7943 Y0.2485 I0. J0.125
N8075 G1 Y0.8271
N8080 G2 X-3.6693 Y0.9521 I0.125 J0.
N8085 G1 X-3.5936
N8090 G2 X-3.5591 Y0.9473 I0. J-0.125
N8095 G1 X-3.542 Y0.9424
N8100 X-3.5411 Y0.9421
N8105 X-3.5241 Y0.9371
N8110 X-3.5222 Y0.9365
N8115 X-3.5055 Y0.9313
N8120 X-3.5026 Y0.9303
N8125 X-3.4863 Y0.9247
N8130 X-3.4823 Y0.9233
N8135 X-3.4665 Y0.9173
N8140 X-3.4613 Y0.9152
N8145 X-3.4462 Y0.9087
N8150 X-3.4398 Y0.9057
N8155 X-3.4255 Y0.8986
N8160 X-3.4178 Y0.8944
N8165 X-3.4044 Y0.8865
N8170 G2 X-3.3956 Y0.8808 I-0.0635 J-0.1077
N8175 G1 X-3.3832 Y0.872
N8180 G2 X-3.3749 Y0.8656 I-0.0723 J-0.102
N8185 G3 X-3.3617 Y0.8714 I0.0052 J0.0061
N8190 G1 X-3.3382 Y1.5183
N8195 X-3.3384 Y1.5203
N8200 X-3.3391 Y1.5223
N8205 X-3.3403 Y1.524
N8210 X-3.3419 Y1.5253
N8215 X-3.3438 Y1.5262
N8220 X-3.3509 Y1.5284
N8225 X-3.3713 Y1.5338
N8230 X-3.3926 Y1.5385
N8235 X-3.4145 Y1.5424
N8240 X-3.4372 Y1.5457
N8245 X-3.4606 Y1.5484
N8250 X-3.4846 Y1.5504
N8255 X-3.5093 Y1.552
N8260 X-3.5346 Y1.5531
N8265 X-3.5604 Y1.5538
N8270 X-3.5868 Y1.5542
N8275 X-3.6137 Y1.5543
N8280 X-3.641
N8285 X-3.6687 Y1.5542
N8290 X-3.6693
N8295 X-4.1742
N8300 Y0.9521
N8305 X-4.1356
N8310 G2 X-4.0106 Y0.8271 I0. J-0.125
N8315 G1 Y-0.7622
N8320 G2 X-4.1356 Y-0.8872 I-0.125 J0.
N8325 G1 X-4.1742
N8330 Y-1.5283
N8335 X-3.6208
N8340 X-3.5937 Y-1.5282
N8345 X-3.5667 Y-1.528
N8350 X-3.5403 Y-1.5276
N8355 X-3.5144 Y-1.5269
N8360 X-3.4892 Y-1.5259
N8365 X-3.4646 Y-1.5245
N8370 X-3.4407 Y-1.5225
N8375 X-3.4175 Y-1.5201
N8380 X-3.3951 Y-1.517
N8385 X-3.3735 Y-1.5133
N8390 X-3.3527 Y-1.5089
N8395 X-3.3328 Y-1.5038
N8400 X-3.3138 Y-1.4979
N8405 X-3.2955 Y-1.4912
N8410 X-3.2775 Y-1.4835
N8415 X-3.2593 Y-1.4746
N8420 X-3.2406 Y-1.4644
N8425 X-3.2216 Y-1.4531
N8430 X-3.2022 Y-1.4407
N8435 X-3.1824 Y-1.4272
N8440 X-3.1622 Y-1.4129
N8445 X-3.1416 Y-1.3978
N8450 X-3.1242 Y-1.3847
N8455 X-3.1238 Y-1.3838
N8460 X-3.1106 Y-1.3545
N8465 X-3.0978 Y-1.3256
N8470 X-3.0856 Y-1.297
N8475 X-3.074 Y-1.2688
N8480 X-3.0632 Y-1.241
N8485 X-3.0532 Y-1.2134
N8490 X-3.0442 Y-1.1862
N8495 X-3.0363 Y-1.1593
N8500 X-3.0293 Y-1.1323
N8505 X-3.0233 Y-1.1051
N8510 X-3.0182 Y-1.0772
N8515 X-3.0138 Y-1.0489
N8520 X-3.0101 Y-1.0201
N8525 X-3.0071 Y-0.9907
N8530 X-3.0048 Y-0.9609
N8535 X-3.003 Y-0.9306
N8540 X-3.0017 Y-0.8998
N8545 X-3.0009 Y-0.8687
N8550 X-3.0004 Y-0.8371
N8555 X-3.0003 Y-0.8052
N8560 Y-0.7729
N8565 X-3.0006 Y-0.7402
N8570 X-3.0009 Y-0.7072
N8575 Y-0.7045
N8580 X-3.0006 Y-0.6804
N8585 X-3.0003 Y-0.6565
N8590 X-3.0001 Y-0.6329
N8595 Y-0.6095
N8600 X-3.0002 Y-0.5863
N8605 X-3.0005 Y-0.5634
N8610 X-3.001 Y-0.5408
N8615 X-3.0018 Y-0.5184
N8620 X-3.0029 Y-0.4963
N8625 X-3.0044 Y-0.4745
N8630 X-3.0062 Y-0.453
N8635 X-3.0084 Y-0.4318
N8640 X-3.011 Y-0.4109
N8645 X-3.0141 Y-0.3902
N8650 X-3.0177 Y-0.3699
N8655 X-3.0218 Y-0.3495
N8660 X-3.0264 Y-0.3289
N8665 X-3.0316 Y-0.308
N8670 X-3.0373 Y-0.2868
N8675 X-3.0434 Y-0.2653
N8680 X-3.0498 Y-0.2434
N8685 X-3.0566 Y-0.2213
N8690 X-3.0623 Y-0.2029
N8695 X-3.0671 Y-0.1978
N8700 X-3.0787 Y-0.1857
N8705 X-3.0899 Y-0.1742
N8710 X-3.1009 Y-0.1634
N8715 X-3.1117 Y-0.1533
N8720 X-3.1221 Y-0.144
N8725 X-3.1324 Y-0.1355
N8730 X-3.1424 Y-0.1278
N8735 X-3.1523 Y-0.1208
N8740 X-3.1624 Y-0.1143
N8745 X-3.1732 Y-0.1081
N8750 X-3.1846 Y-0.1021
N8755 X-3.1966 Y-0.0963
N8760 X-3.2093 Y-0.0906
N8765 X-3.2227 Y-0.0852
N8770 X-3.2367 Y-0.0798
N8775 X-3.2512 Y-0.0747
N8780 X-3.2664 Y-0.0696
N8785 X-3.282 Y-0.0647
N8790 X-3.2982 Y-0.0598
N8795 X-3.3148 Y-0.0549
N8800 X-3.3319 Y-0.05
N8805 X-3.3493 Y-0.0451
N8810 G2 X-3.3422 Y0.1972 I0.034 J0.1203
N8815 G1 X-3.326 Y0.2008
N8820 X-3.3104 Y0.2043
N8825 X-3.2952 Y0.2078
N8830 X-3.2805 Y0.2114
N8835 X-3.2665 Y0.215
N8840 X-3.2531 Y0.2188
N8845 X-3.2404 Y0.2226
N8850 X-3.2284 Y0.2267
N8855 X-3.2171 Y0.2308
N8860 X-3.2066 Y0.2351
N8865 X-3.1968 Y0.2396
N8870 X-3.1878 Y0.2442
N8875 X-3.1795 Y0.2489
N8880 X-3.1717 Y0.254
N8885 X-3.1638 Y0.2597
N8890 X-3.1556 Y0.2662
N8895 X-3.1471 Y0.2736
N8900 X-3.1382 Y0.2818
N8905 X-3.1291 Y0.2909
N8910 X-3.1197 Y0.3007
N8915 X-3.1099 Y0.3112
N8920 X-3.0998 Y0.3224
N8925 X-3.095 Y0.3279
N8930 X-3.0886 Y0.3471
N8935 X-3.0818 Y0.368
N8940 X-3.0752 Y0.3886
N8945 X-3.069 Y0.4088
N8950 X-3.0633 Y0.4288
N8955 X-3.058 Y0.4484
N8960 X-3.0532 Y0.4678
N8965 X-3.049 Y0.4868
N8970 X-3.0453 Y0.5058
N8975 X-3.0421 Y0.525
N8980 X-3.0393 Y0.5445
N8985 X-3.037 Y0.5643
N8990 X-3.0351 Y0.5844
N8995 X-3.0335 Y0.6049
N9000 X-3.0322 Y0.6257
N9005 X-3.0313 Y0.6467
N9010 X-3.0306 Y0.6681
N9015 X-3.0302 Y0.6897
N9020 X-3.0299 Y0.7116
N9025 X-3.0298 Y0.7338
N9030 X-3.0299 Y0.7562
N9035 X-3.03 Y0.7789
N9040 X-3.0302 Y0.8018
N9045 Y0.8041
N9050 X-3.0298 Y0.8351
N9055 X-3.0295 Y0.8657
N9060 X-3.0294 Y0.8959
N9065 X-3.0296 Y0.9258
N9070 X-3.03 Y0.9552
N9075 X-3.0308 Y0.9842
N9080 X-3.032 Y1.0128
N9085 X-3.0338 Y1.0409
N9090 X-3.036 Y1.0684
N9095 X-3.0389 Y1.0955
N9100 X-3.0425 Y1.122
N9105 X-3.0468 Y1.1479
N9110 X-3.0519 Y1.1733
N9115 X-3.0577 Y1.1982
N9120 X-3.0645 Y1.2226
N9125 X-3.0723 Y1.247
N9130 X-3.0811 Y1.2718
N9135 X-3.0909 Y1.2968
N9140 X-3.1016 Y1.3223
N9145 X-3.1131 Y1.3481
N9150 X-3.1252 Y1.3742
N9155 X-3.138 Y1.4008
N9160 X-3.1498 Y1.4248
N9165 X-3.1667 Y1.4358
N9170 X-3.1887 Y1.4498
N9175 X-3.2102 Y1.463
N9180 X-3.2313 Y1.4755
N9185 X-3.252 Y1.487
N9190 X-3.2723 Y1.4974
N9195 X-3.2922 Y1.5068
N9200 X-3.3117 Y1.5151
N9205 X-3.3311 Y1.5222
N9210 X-3.3438 Y1.5262
N9215 Z0.2 F10.
N9220 G0 X-3.5623 Y0.0284
N9225 G1 Z-0.085 F10.
N9230 Z-0.29 F5.
N9235 X-3.5627 Y0.0274
N9240 X-3.5632 Y0.0264
N9245 X-3.5717 Y0.0137
N9250 G3 X-3.5679 Y0.0041 I0.0052 J-0.0035
N9255 G1 X-3.5491 Y-0.0003
N9260 X-3.5482 Y-0.0005
N9265 X-3.5295 Y-0.0049
N9270 X-3.5277 Y-0.0054
N9275 X-3.5093 Y-0.0101
N9280 X-3.5065 Y-0.0108
N9285 X-3.4885 Y-0.0159
N9290 X-3.4846 Y-0.017
N9295 X-3.4671 Y-0.0225
N9300 X-3.4622 Y-0.0242
N9305 X-3.4453 Y-0.0303
N9310 X-3.4391 Y-0.0327
N9315 X-3.4231 Y-0.0395
N9320 X-3.4157 Y-0.043
N9325 X-3.4006 Y-0.0506
N9330 G2 X-3.3919 Y-0.0554 I-0.0562 J-0.1117
N9335 G1 X-3.3778 Y-0.0639
N9340 G2 X-3.368 Y-0.0705 I-0.0649 J-0.1068
N9345 G1 X-3.3552 Y-0.0801
N9350 G2 X-3.3447 Y-0.0889 I-0.0747 J-0.1002
N9355 G1 X-3.3331 Y-0.0996
N9360 G2 X-3.3228 Y-0.1104 I-0.0852 J-0.0915
N9365 G1 X-3.3127 Y-0.1224
N9370 G2 X-3.3042 Y-0.1337 I-0.0955 J-0.0807
N9375 G1 X-3.2955 Y-0.1468
N9380 G2 X-3.289 Y-0.1577 I-0.104 J-0.0694
N9385 G1 X-3.2814 Y-0.1719
N9390 G2 X-3.2767 Y-0.1818 I-0.1104 J-0.0586
N9395 G1 X-3.2703 Y-0.197
N9400 X-3.2686 Y-0.2013
N9405 X-3.267 Y-0.2057
N9410 X-3.2616 Y-0.2218
N9415 X-3.2593 Y-0.2293
N9420 X-3.2547 Y-0.2462
N9425 X-3.2532 Y-0.2525
N9430 X-3.2495 Y-0.2701
N9435 X-3.2485 Y-0.2753
N9440 X-3.2454 Y-0.2935
N9445 X-3.2447 Y-0.2976
N9450 X-3.2422 Y-0.3163
N9455 X-3.2418 Y-0.3195
N9460 X-3.2397 Y-0.3385
N9465 X-3.2395 Y-0.3409
N9470 X-3.2377 Y-0.3602
N9475 X-3.2376 Y-0.3617
N9480 X-3.2361 Y-0.3813
N9485 X-3.236 Y-0.382
N9490 X-3.2346 Y-0.4017
N9495 G2 X-3.2343 Y-0.4131 I-0.1247 J-0.009
N9500 G1 X-3.2347 Y-0.435
N9505 Y-0.4357
N9510 X-3.2353 Y-0.4576
N9515 Y-0.459
N9520 X-3.2361 Y-0.4806
N9525 X-3.2362 Y-0.4828
N9530 X-3.2373 Y-0.5041
N9535 X-3.2375 Y-0.5071
N9540 X-3.2391 Y-0.5281
N9545 X-3.2395 Y-0.5319
N9550 X-3.2417 Y-0.5524
N9555 X-3.2423 Y-0.5571
N9560 X-3.2452 Y-0.5771
N9565 X-3.2462 Y-0.5828
N9570 X-3.2499 Y-0.6022
N9575 X-3.2514 Y-0.609
N9580 X-3.2561 Y-0.6276
N9585 X-3.2584 Y-0.6355
N9590 X-3.2642 Y-0.6533
N9595 X-3.2657 Y-0.6579
N9600 X-3.2675 Y-0.6624
N9605 X-3.2744 Y-0.6793
N9610 G2 X-3.2792 Y-0.6894 I-0.1156 J0.0476
N9615 G1 X-3.2874 Y-0.7052
N9620 G2 X-3.2938 Y-0.7161 I-0.1109 J0.0578
N9625 G1 X-3.3035 Y-0.7308
N9630 G2 X-3.3117 Y-0.742 I-0.1045 J0.0686
N9635 G1 X-3.3229 Y-0.7555
N9640 G2 X-3.3327 Y-0.766 I-0.0962 J0.0798
N9645 G1 X-3.3455 Y-0.7783
N9650 G2 X-3.3551 Y-0.7866 I-0.0865 J0.0902
N9655 G1 X-3.3694 Y-0.7977
N9660 G2 X-3.3782 Y-0.804 I-0.0769 J0.0986
N9665 G1 X-3.3937 Y-0.8141
N9670 X-3.3975 Y-0.8165
N9675 X-3.4014 Y-0.8187
N9680 X-3.4181 Y-0.8279
N9685 X-3.4246 Y-0.8313
N9690 X-3.4423 Y-0.8397
N9695 X-3.4476 Y-0.8421
N9700 X-3.4661 Y-0.8499
N9705 X-3.4701 Y-0.8515
N9710 X-3.4893 Y-0.8588
N9715 X-3.4923 Y-0.8599
N9720 X-3.5119 Y-0.8669
N9725 X-3.5139 Y-0.8676
N9730 X-3.5339 Y-0.8742
N9735 X-3.5348 Y-0.8745
N9740 X-3.555 Y-0.8811
N9745 G2 X-3.5936 Y-0.8872 I-0.0387 J0.1189
N9750 G1 X-3.6693
N9755 G2 X-3.7943 Y-0.7622 I0. J0.125
N9760 G1 Y-0.1177
N9765 G2 X-3.6693 Y0.0073 I0.125 J0.
N9770 G1 X-3.5961
N9775 G2 X-3.5679 Y0.0041 I0. J-0.125
N9780 G1 Z0.2 F10.
N9785 G0 Z0.6
N9790 X-2.3367 Y-1.0988
N9795 Z0.2
N9800 G1 Z0.05 F10.
N9805 G3 X-2.3478 Y-1.336 Z0.0174 I-0.0056 J-0.1186 F5.
N9810 X-2.3367 Y-1.0988 Z-0.0153 I0.0056 J0.1186
N9815 X-2.3478 Y-1.336 Z-0.0479 I-0.0056 J-0.1186
N9820 X-2.3367 Y-1.0988 Z-0.0806 I0.0056 J0.1186
N9825 X-2.3478 Y-1.336 Z-0.1132 I-0.0056 J-0.1186
N9830 X-2.2235 Y-1.2174 Z-0.13 I0.0056 J0.1186
N9835 X-2.4386 I-0.1075 J0.
N9840 G1 Y-1.3815
N9845 G3 X-2.4258 Y-1.3943 I0.0128 J0.
N9850 G1 X-2.3445
N9855 G3 X-2.3317 Y-1.3815 I0. J0.0128
N9860 G1 Y-1.2019
N9865 G3 X-2.3452 Y-1.179 I-0.0262 J0.
N9870 G2 X-2.3856 Y-1.1512 I0.126 J0.2264
N9875 G3 X-2.4018 I-0.0081 J-0.0097
N9880 G2 X-2.4251 Y-1.1686 I-0.1665 J0.1985
N9885 G3 X-2.4386 Y-1.1937 I0.0167 J-0.0251
N9890 G1 Y-1.2174
N9895 G2 X-2.4931 Y-1.2992 I-0.0886 J0.
N9900 G3 X-2.5476 Y-1.381 I0.0341 J-0.0818
N9905 G1 Y-1.5033
N9910 X-2.2226
N9915 Y-1.1026
N9920 G2 X-2.3691 Y-0.9527 I0.0035 J0.15
N9925 G1 Y-0.1295
N9930 X-2.3699 Y-0.1211
N9935 X-2.37 Y-0.1206
N9940 X-2.3713 Y-0.1054
N9945 X-2.3714 Y-0.1043
N9950 X-2.3726 Y-0.0891
N9955 X-2.3727 Y-0.0875
N9960 X-2.3738 Y-0.0724
N9965 X-2.3739 Y-0.0702
N9970 X-2.3748 Y-0.0552
N9975 X-2.3749 Y-0.0524
N9980 X-2.3755 Y-0.0375
N9985 Y-0.0341
N9990 X-2.3758 Y-0.0194
N9995 Y-0.0153
N10000 X-2.3756 Y-0.0007
N10005 X-2.3754 Y0.004
N10010 X-2.3748 Y0.0184
N10015 X-2.3744 Y0.0239
N10020 X-2.3733 Y0.0381
N10025 X-2.3727 Y0.0443
N10030 X-2.3709 Y0.0583
N10035 X-2.3699 Y0.0653
N10040 X-2.3675 Y0.079
N10045 X-2.366 Y0.0866
N10050 X-2.363 Y0.1001
N10055 X-2.3608 Y0.1085
N10060 X-2.3571 Y0.1216
N10065 X-2.3542 Y0.1306
N10070 X-2.3496 Y0.1434
N10075 G2 X-2.3459 Y0.1529 I0.1413 J-0.0504
N10080 G1 X-2.3404 Y0.1653
N10085 G2 X-2.3358 Y0.1751 I0.1375 J-0.0598
N10090 G1 X-2.3295 Y0.1872
N10095 G2 X-2.3242 Y0.1964 I0.1329 J-0.0696
N10100 G1 X-2.3169 Y0.2082
N10105 X-2.3119 Y0.2158
N10110 X-2.3038 Y0.2272
N10115 X-2.2994 Y0.2332
N10120 X-2.2907 Y0.2443
N10125 X-2.287 Y0.2488
N10130 X-2.2778 Y0.2597
N10135 X-2.275 Y0.2629
N10140 X-2.2653 Y0.2737
N10145 X-2.2634 Y0.2758
N10150 X-2.2535 Y0.2864
N10155 X-2.2526 Y0.2874
N10160 X-2.2425 Y0.298
N10165 G2 X-2.0385 Y0.3108 I0.1088 J-0.1032
N10170 G1 X-2.0256 Y0.3001
N10175 X-2.0245 Y0.2992
N10180 X-2.0117 Y0.2885
N10185 X-2.0095 Y0.2867
N10190 X-1.997 Y0.2758
N10195 X-1.9937 Y0.2728
N10200 X-1.9817 Y0.2617
N10205 X-1.9773 Y0.2575
N10210 X-1.9659 Y0.2461
N10215 X-1.9605 Y0.2405
N10220 X-1.9499 Y0.2287
N10225 X-1.9437 Y0.2213
N10230 X-1.934 Y0.2091
N10235 G2 X-1.9271 Y0.1997 I-0.1177 J-0.093
N10240 G1 X-1.9186 Y0.1869
N10245 G2 X-1.912 Y0.1761 I-0.1246 J-0.0836
N10250 G1 X-1.9046 Y0.1627
N10255 G2 X-1.8991 Y0.1519 I-0.1312 J-0.0727
N10260 G1 X-1.8928 Y0.138
N10265 G2 X-1.8886 Y0.1276 I-0.1366 J-0.0619
N10270 G1 X-1.8833 Y0.1132
N10275 G2 X-1.8801 Y0.1034 I-0.1409 J-0.0515
N10280 G1 X-1.8778 Y0.0955
N10285 X-1.8777 Y0.1009
N10290 X-1.8773 Y0.1271
N10295 X-1.877 Y0.1534
N10300 X-1.8767 Y0.1798
N10305 X-1.8765 Y0.2062
N10310 X-1.8763 Y0.2327
N10315 X-1.8761 Y0.2593
N10320 X-1.876 Y0.286
N10325 X-1.8757 Y0.294
N10330 X-1.8739 Y0.3249
N10335 X-1.8722 Y0.3551
N10340 X-1.8709 Y0.3843
N10345 X-1.87 Y0.4126
N10350 X-1.8697 Y0.4398
N10355 X-1.87 Y0.4656
N10360 X-1.871 Y0.4901
N10365 X-1.8728 Y0.513
N10370 X-1.8754 Y0.5341
N10375 X-1.8787 Y0.5534
N10380 X-1.8828 Y0.5708
N10385 X-1.8875 Y0.5861
N10390 X-1.8927 Y0.5994
N10395 X-1.8984 Y0.611
N10400 X-1.9046 Y0.6211
N10405 X-1.9117 Y0.6305
N10410 X-1.9209 Y0.6406
N10415 X-1.9328 Y0.6517
N10420 X-1.9474 Y0.6637
N10425 X-1.9647 Y0.6764
N10430 X-1.9842 Y0.6896
N10435 X-1.986 Y0.6908
N10440 X-1.9866 Y0.6904
N10445 X-1.9961 Y0.6847
N10450 X-2.0037 Y0.6796
N10455 X-2.0095 Y0.6751
N10460 X-2.0137 Y0.6713
N10465 X-2.0171 Y0.6678
N10470 X-2.0205 Y0.6635
N10475 X-2.0242 Y0.6581
N10480 X-2.0282 Y0.6514
N10485 X-2.0323 Y0.6434
N10490 X-2.0365 Y0.634
N10495 X-2.0407 Y0.6232
N10500 X-2.0449 Y0.6111
N10505 X-2.049 Y0.5978
N10510 X-2.053 Y0.5833
N10515 X-2.0569 Y0.5678
N10520 X-2.0607 Y0.5513
N10525 X-2.0645 Y0.5339
N10530 X-2.0683 Y0.5157
N10535 X-2.0722 Y0.4969
N10540 G2 X-2.3691 Y0.5268 I-0.147 J0.03
N10545 G1 Y0.6771
N10550 X-2.5476
N10555 Y0.3092
N10560 G2 X-2.4183 Y0.1606 I-0.0206 J-0.1486
N10565 G1 Y-0.9527
N10570 G2 X-2.5476 Y-1.1012 I-0.15 J0.
N10575 G1 Y-1.381
N10580 X-2.5474 Y-1.3822
N10585 X-2.5468 Y-1.3832
N10590 X-2.5458 Y-1.3838
N10595 X-2.5447 Y-1.3841
N10600 X-2.5435 Y-1.3839
N10605 X-2.5296 Y-1.3787
N10610 X-2.336 Y-1.327
N10615 X-2.3347 Y-1.3269
N10620 X-2.3335 Y-1.3272
N10625 X-2.3325 Y-1.328
N10630 X-2.3272 Y-1.3337
N10635 X-2.3263 Y-1.3344
N10640 X-2.3252 Y-1.3348
N10645 X-2.3241
N10650 G3 X-2.3605 Y-1.1001 Z-0.1626 I-0.0182 J0.1173
N10655 X-2.3241 Y-1.3348 Z-0.1953 I0.0182 J-0.1173
N10660 X-2.2235 Y-1.2174 Z-0.21 I-0.0182 J0.1173
N10665 X-2.4386 I-0.1075 J0.
N10670 G1 Y-1.3815
N10675 G3 X-2.4258 Y-1.3943 I0.0128 J0.
N10680 G1 X-2.3445
N10685 G3 X-2.3317 Y-1.3815 I0. J0.0128
N10690 G1 Y-1.2019
N10695 G3 X-2.3452 Y-1.179 I-0.0262 J0.
N10700 G2 X-2.3856 Y-1.1512 I0.126 J0.2264
N10705 G3 X-2.4018 I-0.0081 J-0.0097
N10710 G2 X-2.4251 Y-1.1686 I-0.1665 J0.1985
N10715 G3 X-2.4386 Y-1.1937 I0.0167 J-0.0251
N10720 G1 Y-1.2174
N10725 G2 X-2.4931 Y-1.2992 I-0.0886 J0.
N10730 G3 X-2.5476 Y-1.381 I0.0341 J-0.0818
N10735 G1 Y-1.5033
N10740 X-2.2226
N10745 Y-1.1026
N10750 G2 X-2.3691 Y-0.9527 I0.0035 J0.15
N10755 G1 Y-0.1295
N10760 X-2.3699 Y-0.1211
N10765 X-2.37 Y-0.1206
N10770 X-2.3713 Y-0.1054
N10775 X-2.3714 Y-0.1043
N10780 X-2.3726 Y-0.0891
N10785 X-2.3727 Y-0.0875
N10790 X-2.3738 Y-0.0724
N10795 X-2.3739 Y-0.0702
N10800 X-2.3748 Y-0.0552
N10805 X-2.3749 Y-0.0524
N10810 X-2.3755 Y-0.0375
N10815 Y-0.0341
N10820 X-2.3758 Y-0.0194
N10825 Y-0.0153
N10830 X-2.3756 Y-0.0007
N10835 X-2.3754 Y0.004
N10840 X-2.3748 Y0.0184
N10845 X-2.3744 Y0.0239
N10850 X-2.3733 Y0.0381
N10855 X-2.3727 Y0.0443
N10860 X-2.3709 Y0.0583
N10865 X-2.3699 Y0.0653
N10870 X-2.3675 Y0.079
N10875 X-2.366 Y0.0866
N10880 X-2.363 Y0.1001
N10885 X-2.3608 Y0.1085
N10890 X-2.3571 Y0.1216
N10895 X-2.3542 Y0.1306
N10900 X-2.3496 Y0.1434
N10905 G2 X-2.3459 Y0.1529 I0.1413 J-0.0504
N10910 G1 X-2.3404 Y0.1653
N10915 G2 X-2.3358 Y0.1751 I0.1375 J-0.0598
N10920 G1 X-2.3295 Y0.1872
N10925 G2 X-2.3242 Y0.1964 I0.1329 J-0.0696
N10930 G1 X-2.3169 Y0.2082
N10935 X-2.3119 Y0.2158
N10940 X-2.3038 Y0.2272
N10945 X-2.2994 Y0.2332
N10950 X-2.2907 Y0.2443
N10955 X-2.287 Y0.2488
N10960 X-2.2778 Y0.2597
N10965 X-2.275 Y0.2629
N10970 X-2.2653 Y0.2737
N10975 X-2.2634 Y0.2758
N10980 X-2.2535 Y0.2864
N10985 X-2.2526 Y0.2874
N10990 X-2.2425 Y0.298
N10995 G2 X-2.0385 Y0.3108 I0.1088 J-0.1032
N11000 G1 X-2.0256 Y0.3001
N11005 X-2.0245 Y0.2992
N11010 X-2.0117 Y0.2885
N11015 X-2.0095 Y0.2867
N11020 X-1.997 Y0.2758
N11025 X-1.9937 Y0.2728
N11030 X-1.9817 Y0.2617
N11035 X-1.9773 Y0.2575
N11040 X-1.9659 Y0.2461
N11045 X-1.9605 Y0.2405
N11050 X-1.9499 Y0.2287
N11055 X-1.9437 Y0.2213
N11060 X-1.934 Y0.2091
N11065 G2 X-1.9271 Y0.1997 I-0.1177 J-0.093
N11070 G1 X-1.9186 Y0.1869
N11075 G2 X-1.912 Y0.1761 I-0.1246 J-0.0836
N11080 G1 X-1.9046 Y0.1627
N11085 G2 X-1.8991 Y0.1519 I-0.1312 J-0.0727
N11090 G1 X-1.8928 Y0.138
N11095 G2 X-1.8886 Y0.1276 I-0.1366 J-0.0619
N11100 G1 X-1.8833 Y0.1132
N11105 G2 X-1.8801 Y0.1034 I-0.1409 J-0.0515
N11110 G1 X-1.8778 Y0.0955
N11115 X-1.8777 Y0.1009
N11120 X-1.8773 Y0.1271
N11125 X-1.877 Y0.1534
N11130 X-1.8767 Y0.1798
N11135 X-1.8765 Y0.2062
N11140 X-1.8763 Y0.2327
N11145 X-1.8761 Y0.2593
N11150 X-1.876 Y0.286
N11155 X-1.8757 Y0.294
N11160 X-1.8739 Y0.3249
N11165 X-1.8722 Y0.3551
N11170 X-1.8709 Y0.3843
N11175 X-1.87 Y0.4126
N11180 X-1.8697 Y0.4398
N11185 X-1.87 Y0.4656
N11190 X-1.871 Y0.4901
N11195 X-1.8728 Y0.513
N11200 X-1.8754 Y0.5341
N11205 X-1.8787 Y0.5534
N11210 X-1.8828 Y0.5708
N11215 X-1.8875 Y0.5861
N11220 X-1.8927 Y0.5994
N11225 X-1.8984 Y0.611
N11230 X-1.9046 Y0.6211
N11235 X-1.9117 Y0.6305
N11240 X-1.9209 Y0.6406
N11245 X-1.9328 Y0.6517
N11250 X-1.9474 Y0.6637
N11255 X-1.9647 Y0.6764
N11260 X-1.9842 Y0.6896
N11265 X-1.986 Y0.6908
N11270 X-1.9866 Y0.6904
N11275 X-1.9961 Y0.6847
N11280 X-2.0037 Y0.6796
N11285 X-2.0095 Y0.6751
N11290 X-2.0137 Y0.6713
N11295 X-2.0171 Y0.6678
N11300 X-2.0205 Y0.6635
N11305 X-2.0242 Y0.6581
N11310 X-2.0282 Y0.6514
N11315 X-2.0323 Y0.6434
N11320 X-2.0365 Y0.634
N11325 X-2.0407 Y0.6232
N11330 X-2.0449 Y0.6111
N11335 X-2.049 Y0.5978
N11340 X-2.053 Y0.5833
N11345 X-2.0569 Y0.5678
N11350 X-2.0607 Y0.5513
N11355 X-2.0645 Y0.5339
N11360 X-2.0683 Y0.5157
N11365 X-2.0722 Y0.4969
N11370 G2 X-2.3691 Y0.5268 I-0.147 J0.03
N11375 G1 Y0.6771
N11380 X-2.5476
N11385 Y0.3092
N11390 G2 X-2.4183 Y0.1606 I-0.0206 J-0.1486
N11395 G1 Y-0.9527
N11400 G2 X-2.5476 Y-1.1012 I-0.15 J0.
N11405 G1 Y-1.381
N11410 X-2.5474 Y-1.3824
N11415 X-2.5467 Y-1.3836
N11420 X-2.5457 Y-1.3845
N11425 X-2.5445 Y-1.385
N11430 X-2.5431 Y-1.3851
N11435 X-2.5418 Y-1.3847
N11440 X-2.5407 Y-1.3839
N11445 X-2.5282 Y-1.3711
N11450 X-2.3416 Y-1.115
N11455 X-2.3352 Y-1.1042
N11460 X-2.3348 Y-1.103
N11465 X-2.335 Y-1.1018
N11470 X-2.3357 Y-1.1008
N11475 X-2.3368 Y-1.1002
N11480 X-2.338 Y-1.1001
N11485 G3 X-2.3016 Y-1.3348 Z-0.2426 I0.0182 J-0.1173
N11490 X-2.338 Y-1.1001 Z-0.2753 I-0.0182 J0.1173
N11495 X-2.4386 Y-1.2174 Z-0.29 I0.0182 J-0.1173
N11500 G1 Y-1.3815
N11505 G3 X-2.4258 Y-1.3943 I0.0128 J0.
N11510 G1 X-2.3445
N11515 G3 X-2.3317 Y-1.3815 I0. J0.0128
N11520 G1 Y-1.2019
N11525 G3 X-2.3452 Y-1.179 I-0.0262 J0.
N11530 G2 X-2.3856 Y-1.1512 I0.126 J0.2264
N11535 G3 X-2.4018 I-0.0081 J-0.0097
N11540 G2 X-2.4251 Y-1.1686 I-0.1665 J0.1985
N11545 G3 X-2.4386 Y-1.1937 I0.0167 J-0.0251
N11550 G1 Y-1.2174
N11555 G2 X-2.4931 Y-1.2992 I-0.0886 J0.
N11560 G3 X-2.5476 Y-1.381 I0.0341 J-0.0818
N11565 G1 Y-1.5033
N11570 X-2.2226
N11575 Y-1.1026
N11580 G2 X-2.3691 Y-0.9527 I0.0035 J0.15
N11585 G1 Y-0.1295
N11590 X-2.3699 Y-0.1211
N11595 X-2.37 Y-0.1206
N11600 X-2.3713 Y-0.1054
N11605 X-2.3714 Y-0.1043
N11610 X-2.3726 Y-0.0891
N11615 X-2.3727 Y-0.0875
N11620 X-2.3738 Y-0.0724
N11625 X-2.3739 Y-0.0702
N11630 X-2.3748 Y-0.0552
N11635 X-2.3749 Y-0.0524
N11640 X-2.3755 Y-0.0375
N11645 Y-0.0341
N11650 X-2.3758 Y-0.0194
N11655 Y-0.0153
N11660 X-2.3756 Y-0.0007
N11665 X-2.3754 Y0.004
N11670 X-2.3748 Y0.0184
N11675 X-2.3744 Y0.0239
N11680 X-2.3733 Y0.0381
N11685 X-2.3727 Y0.0443
N11690 X-2.3709 Y0.0583
N11695 X-2.3699 Y0.0653
N11700 X-2.3675 Y0.079
N11705 X-2.366 Y0.0866
N11710 X-2.363 Y0.1001
N11715 X-2.3608 Y0.1085
N11720 X-2.3571 Y0.1216
N11725 X-2.3542 Y0.1306
N11730 X-2.3496 Y0.1434
N11735 G2 X-2.3459 Y0.1529 I0.1413 J-0.0504
N11740 G1 X-2.3404 Y0.1653
N11745 G2 X-2.3358 Y0.1751 I0.1375 J-0.0598
N11750 G1 X-2.3295 Y0.1872
N11755 G2 X-2.3242 Y0.1964 I0.1329 J-0.0696
N11760 G1 X-2.3169 Y0.2082
N11765 X-2.3119 Y0.2158
N11770 X-2.3038 Y0.2272
N11775 X-2.2994 Y0.2332
N11780 X-2.2907 Y0.2443
N11785 X-2.287 Y0.2488
N11790 X-2.2778 Y0.2597
N11795 X-2.275 Y0.2629
N11800 X-2.2653 Y0.2737
N11805 X-2.2634 Y0.2758
N11810 X-2.2535 Y0.2864
N11815 X-2.2526 Y0.2874
N11820 X-2.2425 Y0.298
N11825 G2 X-2.0385 Y0.3108 I0.1088 J-0.1032
N11830 G1 X-2.0256 Y0.3001
N11835 X-2.0245 Y0.2992
N11840 X-2.0117 Y0.2885
N11845 X-2.0095 Y0.2867
N11850 X-1.997 Y0.2758
N11855 X-1.9937 Y0.2728
N11860 X-1.9817 Y0.2617
N11865 X-1.9773 Y0.2575
N11870 X-1.9659 Y0.2461
N11875 X-1.9605 Y0.2405
N11880 X-1.9499 Y0.2287
N11885 X-1.9437 Y0.2213
N11890 X-1.934 Y0.2091
N11895 G2 X-1.9271 Y0.1997 I-0.1177 J-0.093
N11900 G1 X-1.9186 Y0.1869
N11905 G2 X-1.912 Y0.1761 I-0.1246 J-0.0836
N11910 G1 X-1.9046 Y0.1627
N11915 G2 X-1.8991 Y0.1519 I-0.1312 J-0.0727
N11920 G1 X-1.8928 Y0.138
N11925 G2 X-1.8886 Y0.1276 I-0.1366 J-0.0619
N11930 G1 X-1.8833 Y0.1132
N11935 G2 X-1.8801 Y0.1034 I-0.1409 J-0.0515
N11940 G1 X-1.8778 Y0.0955
N11945 X-1.8777 Y0.1009
N11950 X-1.8773 Y0.1271
N11955 X-1.877 Y0.1534
N11960 X-1.8767 Y0.1798
N11965 X-1.8765 Y0.2062
N11970 X-1.8763 Y0.2327
N11975 X-1.8761 Y0.2593
N11980 X-1.876 Y0.286
N11985 X-1.8757 Y0.294
N11990 X-1.8739 Y0.3249
N11995 X-1.8722 Y0.3551
N12000 X-1.8709 Y0.3843
N12005 X-1.87 Y0.4126
N12010 X-1.8697 Y0.4398
N12015 X-1.87 Y0.4656
N12020 X-1.871 Y0.4901
N12025 X-1.8728 Y0.513
N12030 X-1.8754 Y0.5341
N12035 X-1.8787 Y0.5534
N12040 X-1.8828 Y0.5708
N12045 X-1.8875 Y0.5861
N12050 X-1.8927 Y0.5994
N12055 X-1.8984 Y0.611
N12060 X-1.9046 Y0.6211
N12065 X-1.9117 Y0.6305
N12070 X-1.9209 Y0.6406
N12075 X-1.9328 Y0.6517
N12080 X-1.9474 Y0.6637
N12085 X-1.9647 Y0.6764
N12090 X-1.9842 Y0.6896
N12095 X-1.986 Y0.6908
N12100 X-1.9866 Y0.6904
N12105 X-1.9961 Y0.6847
N12110 X-2.0037 Y0.6796
N12115 X-2.0095 Y0.6751
N12120 X-2.0137 Y0.6713
N12125 X-2.0171 Y0.6678
N12130 X-2.0205 Y0.6635
N12135 X-2.0242 Y0.6581
N12140 X-2.0282 Y0.6514
N12145 X-2.0323 Y0.6434
N12150 X-2.0365 Y0.634
N12155 X-2.0407 Y0.6232
N12160 X-2.0449 Y0.6111
N12165 X-2.049 Y0.5978
N12170 X-2.053 Y0.5833
N12175 X-2.0569 Y0.5678
N12180 X-2.0607 Y0.5513
N12185 X-2.0645 Y0.5339
N12190 X-2.0683 Y0.5157
N12195 X-2.0722 Y0.4969
N12200 G2 X-2.3691 Y0.5268 I-0.147 J0.03
N12205 G1 Y0.6771
N12210 X-2.5476
N12215 Y0.3092
N12220 G2 X-2.4183 Y0.1606 I-0.0206 J-0.1486
N12225 G1 Y-0.9527
N12230 G2 X-2.5476 Y-1.1012 I-0.15 J0.
N12235 G1 Y-1.381
N12240 G2 X-2.5601 Y-1.3998 I-0.0203 J0.
N12245 G3 X-2.5726 Y-1.4185 I0.0078 J-0.0187
N12250 G1 Y-1.5283
N12255 X-2.1976
N12260 Y-1.0777
N12265 X-2.2191
N12270 G2 X-2.3441 Y-0.9527 I0. J0.125
N12275 G1 Y-0.1283
N12280 X-2.345 Y-0.1188
N12285 Y-0.1184
N12290 X-2.3464 Y-0.1032
N12295 X-2.3465 Y-0.1023
N12300 X-2.3477 Y-0.0871
N12305 X-2.3478 Y-0.0858
N12310 X-2.3489 Y-0.0707
N12315 X-2.349 Y-0.0688
N12320 X-2.3498 Y-0.0538
N12325 X-2.3499 Y-0.0515
N12330 X-2.3505 Y-0.0366
N12335 X-2.3506 Y-0.0338
N12340 X-2.3508 Y-0.019
N12345 Y-0.0156
N12350 X-2.3506 Y-0.001
N12355 X-2.3505 Y0.0029
N12360 X-2.3498 Y0.0173
N12365 X-2.3495 Y0.0219
N12370 X-2.3484 Y0.0361
N12375 X-2.3478 Y0.0413
N12380 X-2.3461 Y0.0552
N12385 X-2.3453 Y0.0611
N12390 X-2.3429 Y0.0748
N12395 X-2.3416 Y0.0811
N12400 X-2.3386 Y0.0946
N12405 X-2.3368 Y0.1016
N12410 X-2.333 Y0.1147
N12415 X-2.3306 Y0.1222
N12420 X-2.3261 Y0.135
N12425 X-2.3229 Y0.1429
N12430 X-2.3175 Y0.1554
N12435 X-2.3157 Y0.1594
N12440 X-2.3136 Y0.1635
N12445 X-2.3073 Y0.1756
N12450 X-2.3052 Y0.1795
N12455 X-2.3029 Y0.1833
N12460 X-2.2957 Y0.195
N12465 X-2.2914 Y0.2014
N12470 X-2.2834 Y0.2128
N12475 X-2.2797 Y0.2178
N12480 X-2.271 Y0.2289
N12485 X-2.2679 Y0.2327
N12490 X-2.2587 Y0.2436
N12495 X-2.2564 Y0.2462
N12500 X-2.2467 Y0.257
N12505 X-2.2451 Y0.2587
N12510 X-2.2352 Y0.2694
N12515 X-2.2344 Y0.2702
N12520 X-2.2244 Y0.2808
N12525 G2 X-2.0544 Y0.2914 I0.0907 J-0.086
N12530 G1 X-2.0414 Y0.2808
N12535 X-2.0405 Y0.28
N12540 X-2.0277 Y0.2693
N12545 X-2.0259 Y0.2678
N12550 X-2.0134 Y0.2569
N12555 X-2.0106 Y0.2544
N12560 X-1.9986 Y0.2434
N12565 X-1.995 Y0.2399
N12570 X-1.9836 Y0.2285
N12575 X-1.9791 Y0.2238
N12580 X-1.9685 Y0.212
N12585 X-1.9633 Y0.2058
N12590 X-1.9536 Y0.1936
N12595 X-1.9507 Y0.1897
N12600 X-1.9479 Y0.1857
N12605 X-1.9393 Y0.173
N12610 G2 X-1.9338 Y0.1639 I-0.1038 J-0.0697
N12615 G1 X-1.9264 Y0.1506
N12620 G2 X-1.9219 Y0.1416 I-0.1093 J-0.0606
N12625 G1 X-1.9156 Y0.1277
N12630 X-1.9137 Y0.1234
N12635 X-1.912 Y0.119
N12640 X-1.9068 Y0.1047
N12645 X-1.9041 Y0.0964
N12650 X-1.8998 Y0.0816
N12655 X-1.8979 Y0.0741
N12660 X-1.8945 Y0.0589
N12665 X-1.8932 Y0.052
N12670 X-1.8906 Y0.0364
N12675 X-1.8897 Y0.0303
N12680 X-1.8879 Y0.0143
N12685 X-1.8874 Y0.009
N12690 X-1.8862 Y-0.0073
N12695 X-1.886 Y-0.0119
N12700 X-1.8854 Y-0.0285
N12705 X-1.8853 Y-0.0324
N12710 X-1.8852 Y-0.0493
N12715 Y-0.0526
N12720 X-1.8856 Y-0.0696
N12725 X-1.8857 Y-0.0723
N12730 X-1.8864 Y-0.0895
N12735 X-1.8865 Y-0.0916
N12740 X-1.8876 Y-0.109
N12745 X-1.8877 Y-0.1105
N12750 X-1.8889 Y-0.1281
N12755 X-1.889 Y-0.129
N12760 X-1.8904 Y-0.1466
N12765 X-1.8905 Y-0.1472
N12770 X-1.8918 Y-0.1627
N12775 X-1.8921 Y-0.1689
N12780 X-1.8925 Y-0.1774
N12785 X-1.8929 Y-0.186
N12790 X-1.8934 Y-0.1946
N12795 Y-0.195
N12800 X-1.8939 Y-0.2034
N12805 X-1.894 Y-0.2039
N12810 X-1.8945 Y-0.2123
N12815 Y-0.2128
N12820 X-1.8951 Y-0.2212
N12825 Y-0.2219
N12830 X-1.8957 Y-0.2295
N12835 X-1.8684
N12840 X-1.8671 Y-0.2123
N12845 X-1.8652 Y-0.1861
N12850 X-1.8634 Y-0.1599
N12855 X-1.8617 Y-0.1338
N12860 X-1.8601 Y-0.1078
N12865 X-1.8587 Y-0.0819
N12870 X-1.8574 Y-0.0559
N12875 X-1.8563 Y-0.03
N12880 X-1.8554 Y-0.0041
N12885 X-1.8545 Y0.022
N12890 X-1.8538 Y0.0481
N12895 X-1.8532 Y0.0742
N12900 X-1.8527 Y0.1005
N12905 X-1.8523 Y0.1268
N12910 X-1.852 Y0.1531
N12915 X-1.8517 Y0.1796
N12920 X-1.8515 Y0.206
N12925 X-1.8513 Y0.2326
N12930 X-1.8511 Y0.2592
N12935 X-1.851 Y0.2858
N12940 X-1.8507 Y0.2925
N12945 X-1.8489 Y0.3235
N12950 X-1.8473 Y0.3538
N12955 X-1.8459 Y0.3834
N12960 X-1.845 Y0.4121
N12965 X-1.8447 Y0.4397
N12970 X-1.845 Y0.4663
N12975 X-1.846 Y0.4916
N12980 X-1.8479 Y0.5155
N12985 X-1.8506 Y0.5378
N12990 X-1.8542 Y0.5584
N12995 X-1.8586 Y0.5773
N13000 X-1.8639 Y0.5943
N13005 X-1.8698 Y0.6095
N13010 X-1.8765 Y0.6231
N13015 X-1.8839 Y0.6352
N13020 X-1.8925 Y0.6465
N13025 X-1.9031 Y0.6582
N13030 X-1.9163 Y0.6706
N13035 X-1.9321 Y0.6835
N13040 X-1.9502 Y0.6968
N13045 X-1.9705 Y0.7106
N13050 X-1.985 Y0.7197
N13055 X-1.9871 Y0.7187
N13060 X-1.9991 Y0.7121
N13065 X-2.0095 Y0.7058
N13070 X-2.0183 Y0.6998
N13075 X-2.0255 Y0.6943
N13080 X-2.0311 Y0.6893
N13085 X-2.0359 Y0.6842
N13090 X-2.0406 Y0.6784
N13095 X-2.0453 Y0.6716
N13100 X-2.0501 Y0.6635
N13105 X-2.0548 Y0.6542
N13110 X-2.0596 Y0.6437
N13115 X-2.0642 Y0.6319
N13120 X-2.0687 Y0.6189
N13125 X-2.073 Y0.6048
N13130 X-2.0772 Y0.5897
N13135 X-2.0812 Y0.5736
N13140 X-2.0851 Y0.5568
N13145 X-2.089 Y0.5391
N13150 X-2.0928 Y0.5208
N13155 X-2.0967 Y0.5019
N13160 G2 X-2.3441 Y0.5268 I-0.1225 J0.025
N13165 G1 Y0.7021
N13170 X-2.5726
N13175 Y0.2856
N13180 X-2.5683
N13185 G2 X-2.4433 Y0.1606 I0. J-0.125
N13190 G1 Y-0.9527
N13195 G2 X-2.5683 Y-1.0777 I-0.125 J0.
N13200 G1 X-2.5726
N13205 Y-1.4185
N13210 Z0.2 F10.
N13215 G0 Z0.6
N13220 X-0.7708 Y-1.2934
N13225 Z0.2
N13230 G1 Z0.05 F10.
N13235 G3 X-0.9333 Y-1.1202 Z0.0174 I-0.0813 J0.0866 F5.
N13240 X-0.7708 Y-1.2934 Z-0.0153 I0.0813 J-0.0866
N13245 X-0.9333 Y-1.1202 Z-0.0479 I-0.0813 J0.0866
N13250 X-0.7708 Y-1.2934 Z-0.0806 I0.0813 J-0.0866
N13255 X-0.9333 Y-1.1202 Z-0.1132 I-0.0813 J0.0866
N13260 X-0.9348 Y-1.2921 Z-0.13 I0.0813 J-0.0866
N13265 X-0.7853 Y-1.1382 I0.0747 J0.0769
N13270 G2 X-0.7946 Y-1.1289 I0.2676 J0.2758
N13275 G3 X-0.8123 Y-1.1283 I-0.0092 J-0.0088
N13280 G2 X-0.8278 Y-1.142 I-0.4455 J0.4936
N13285 X-0.8439 Y-1.155 I-0.29 J0.3421
N13290 G3 X-0.8424 Y-1.1676 I0.0045 J-0.0058
N13295 G2 X-0.7794 Y-1.2053 I-0.1267 J-0.2832
N13300 G3 X-0.7691 Y-1.2002 I0.0039 J0.0051
N13305 G1 Y-1.1633
N13310 G3 X-0.7759 Y-1.1473 I-0.0221 J0.
N13315 G2 X-0.7853 Y-1.1382 I1.5616 J1.6281
N13320 G1 X-0.7868 Y-1.1371
N13325 X-0.7886 Y-1.1363
N13330 X-0.7904 Y-1.136
N13335 X-0.7923 Y-1.1361
N13340 X-1.2281 Y-1.2149
N13345 X-1.2299 Y-1.215
N13350 X-1.2316 Y-1.2147
N13355 G2 X-1.3157 Y-1.1832 I0.1419 J0.5065
N13360 G3 X-1.3259 Y-1.1905 I-0.0031 J-0.0065
N13365 X-1.3137 Y-1.2573 I0.4951 J0.0559
N13370 X-1.2836 Y-1.3181 I0.1576 J0.04
N13375 X-1.2628 Y-1.3417 I0.2279 J0.1803
N13380 X-1.2393 Y-1.3625 I0.1659 J0.1633
N13385 X-1.2245 Y-1.3587 I0.0059 J0.0076
N13390 G1 X-1.2216 Y-1.3513
N13395 X-1.2187 Y-1.3439
N13400 G2 X-1.1857 Y-1.2874 I0.242 J-0.1036
N13405 X-1.1401 Y-1.2404 I0.2221 J-0.1702
N13410 G3 X-1.1433 Y-1.2302 I-0.0036 J0.0045
N13415 G2 X-1.2316 Y-1.2147 I0.034 J0.4525
N13420 X-1.3095 Y-1.1192 I0.0288 J0.103
N13425 G3 X-1.3538 Y-1.0043 I-0.209 J-0.0147
N13430 G1 X-1.3586 Y-0.9979
N13435 X-1.364 Y-0.9903
N13440 G2 X-1.3722 Y-0.9772 I0.1226 J0.0864
N13445 G1 X-1.3769 Y-0.9689
N13450 G2 X-1.3829 Y-0.9569 I0.1308 J0.0733
N13455 G1 X-1.3869 Y-0.9479
N13460 G2 X-1.3912 Y-0.9373 I0.1369 J0.0613
N13465 G1 X-1.3946 Y-0.9278
N13470 X-1.3976 Y-0.9186
N13475 X-1.4005 Y-0.9086
N13480 X-1.4025 Y-0.9009
N13485 X-1.4049 Y-0.8905
N13490 X-1.4062 Y-0.8842
N13495 X-1.4082 Y-0.8735
N13500 X-1.409 Y-0.8684
N13505 X-1.4107 Y-0.8573
N13510 X-1.4112 Y-0.8534
N13515 X-1.4126 Y-0.8422
N13520 X-1.4129 Y-0.8393
N13525 X-1.4141 Y-0.8278
N13530 X-1.4143 Y-0.826
N13535 X-1.4154 Y-0.8144
N13540 X-1.4155 Y-0.8135
N13545 X-1.4164 Y-0.8018
N13550 G2 X-1.4114 Y-0.7484 I0.1495 J0.0127
N13555 G1 X-1.4058 Y-0.7287
N13560 X-1.4056 Y-0.7278
N13565 X-1.3999 Y-0.7081
N13570 X-1.3993 Y-0.7063
N13575 X-1.3935 Y-0.6868
N13580 X-1.3926 Y-0.6841
N13585 X-1.3864 Y-0.6649
N13590 X-1.3852 Y-0.6613
N13595 X-1.3785 Y-0.6424
N13600 X-1.3768 Y-0.6378
N13605 X-1.3697 Y-0.6193
N13610 X-1.3674 Y-0.6137
N13615 X-1.3596 Y-0.5958
N13620 X-1.3565 Y-0.5893
N13625 X-1.348 Y-0.5719
N13630 X-1.344 Y-0.5645
N13635 X-1.3346 Y-0.5478
N13640 X-1.3296 Y-0.5396
N13645 X-1.3192 Y-0.5236
N13650 G2 X-1.3131 Y-0.515 I0.1256 J-0.082
N13655 G1 X-1.3016 Y-0.4999
N13660 G2 X-1.2952 Y-0.492 I0.1195 J-0.0907
N13665 G1 X-1.2827 Y-0.4777
N13670 X-1.2763 Y-0.4708
N13675 X-1.2629 Y-0.4572
N13680 X-1.2567 Y-0.4514
N13685 X-1.2425 Y-0.4385
N13690 X-1.2367 Y-0.4336
N13695 X-1.2216 Y-0.4213
N13700 X-1.2164 Y-0.4172
N13705 X-1.2006 Y-0.4055
N13710 X-1.1959 Y-0.4021
N13715 X-1.1795 Y-0.3909
N13720 X-1.1753 Y-0.3882
N13725 X-1.1584 Y-0.3774
N13730 X-1.1549 Y-0.3752
N13735 X-1.1375 Y-0.3648
N13740 X-1.1345 Y-0.3631
N13745 X-1.1167 Y-0.353
N13750 X-1.1144 Y-0.3517
N13755 X-1.0963 Y-0.3418
N13760 X-1.0945 Y-0.3409
N13765 X-1.0762 Y-0.3312
N13770 X-1.075 Y-0.3306
N13775 X-1.0565 Y-0.321
N13780 X-1.0559 Y-0.3207
N13785 X-1.0373 Y-0.3112
N13790 G2 X-0.8191 Y-0.4448 I0.0682 J-0.1336
N13795 G1 Y-0.657
N13800 X-0.8186 Y-0.6715
N13805 Y-0.6722
N13810 X-0.8181 Y-0.6893
N13815 X-0.818 Y-0.6908
N13820 X-0.8177 Y-0.7077
N13825 Y-0.71
N13830 X-0.8176 Y-0.7267
N13835 Y-0.7299
N13840 X-0.8178 Y-0.7464
N13845 X-0.8179 Y-0.7504
N13850 X-0.8186 Y-0.7667
N13855 X-0.8189 Y-0.7715
N13860 X-0.8201 Y-0.7875
N13865 X-0.8206 Y-0.7935
N13870 X-0.8224 Y-0.8091
N13875 X-0.8234 Y-0.8161
N13880 X-0.8259 Y-0.8312
N13885 X-0.8274 Y-0.8395
N13890 X-0.8307 Y-0.8541
N13895 X-0.8318 Y-0.8588
N13900 X-0.8331 Y-0.8635
N13905 X-0.8372 Y-0.8776
N13910 G2 X-0.8407 Y-0.8883 I-0.144 J0.0419
N13915 G1 X-0.8458 Y-0.9017
N13920 G2 X-0.8507 Y-0.9134 I-0.1405 J0.0526
N13925 G1 X-0.8567 Y-0.9261
N13930 G2 X-0.8634 Y-0.9386 I-0.1355 J0.0642
N13935 G1 X-0.8705 Y-0.9506
N13940 G2 X-0.879 Y-0.9634 I-0.1289 J0.0767
N13945 G1 X-0.8874 Y-0.9746
N13950 G2 X-0.8974 Y-0.9867 I-0.1204 J0.0894
N13955 G1 X-0.907 Y-0.9971
N13960 G2 X-0.9169 Y-1.0069 I-0.1104 J0.1015
N13965 G1 X-0.9276 Y-1.0166
N13970 G2 X-0.9365 Y-1.024 I-0.1005 J0.1113
N13975 G1 X-0.9482 Y-1.0331
N13980 X-0.9559 Y-1.0387
N13985 X-0.9685 Y-1.0471
N13990 X-0.9749 Y-1.0512
N13995 X-0.9881 Y-1.0592
N14000 X-0.9932 Y-1.0621
N14005 X-1.007 Y-1.0697
N14010 X-1.0107 Y-1.0717
N14015 X-1.025 Y-1.0791
N14020 X-1.0274 Y-1.0803
N14025 X-1.0419 Y-1.0874
N14030 X-1.0432 Y-1.0881
N14035 X-1.0579 Y-1.0951
N14040 G2 X-1.1541 Y-1.1067 I-0.0651 J0.1351
N14045 G1 X-1.1654 Y-1.1043
N14050 X-1.1665 Y-1.1041
N14055 X-1.1776 Y-1.1016
N14060 X-1.1798 Y-1.1011
N14065 X-1.1909 Y-1.0985
N14070 X-1.1941 Y-1.0977
N14075 X-1.2049 Y-1.0949
N14080 X-1.2095 Y-1.0936
N14085 X-1.22 Y-1.0905
N14090 X-1.2259 Y-1.0887
N14095 X-1.236 Y-1.0852
N14100 X-1.2433 Y-1.0825
N14105 X-1.2529 Y-1.0787
N14110 X-1.2618 Y-1.0748
N14115 X-1.2709 Y-1.0705
N14120 G2 X-1.2812 Y-1.0651 I0.0644 J0.1355
N14125 G1 X-1.2897 Y-1.0602
N14130 G2 X-1.3014 Y-1.0527 I0.0747 J0.1301
N14135 G1 X-1.3092 Y-1.0472
N14140 G2 X-1.3219 Y-1.0372 I0.0864 J0.1226
N14145 G1 X-1.3289 Y-1.031
N14150 G2 X-1.3416 Y-1.0184 I0.0991 J0.1126
N14155 G1 X-1.3478 Y-1.0115
N14160 X-1.3538 Y-1.0043
N14165 Z0.2 F10.
N14170 G0 X-1.2148 Y0.5938
N14175 G1 Z0.05 F10.
N14180 G3 X-0.9781 Y0.5734 Z0.0174 I0.1183 J-0.0102 F5.
N14185 X-1.2148 Y0.5938 Z-0.0153 I-0.1183 J0.0102
N14190 X-0.9781 Y0.5734 Z-0.0479 I0.1183 J-0.0102
N14195 X-1.2148 Y0.5938 Z-0.0806 I-0.1183 J0.0102
N14200 X-0.9781 Y0.5734 Z-0.1132 I0.1183 J-0.0102
N14205 X-1.0918 Y0.7022 Z-0.13 I-0.1183 J0.0102
N14210 X-1.0991 Y0.5117 I-0.0037 J-0.0953
N14215 G2 X-1.0202 Y0.5 I-0.0145 J-0.3681
N14220 X-1.0035 Y0.495 I-0.0626 J-0.2388
N14225 G3 X-0.9869 Y0.4896 I0.1794 J0.529
N14230 G1 X-0.9855 Y0.4895
N14235 X-0.9841 Y0.4899
N14240 X-0.983 Y0.4907
N14245 X-0.9822 Y0.4919
N14250 X-0.982 Y0.4933
N14255 X-0.9823 Y0.4947
N14260 X-0.9831 Y0.4959
N14265 X-0.9842 Y0.4968
N14270 G3 X-1.0396 Y0.518 I-0.1941 J-0.4225
N14275 X-1.0965 Y0.535 I-0.6458 J-2.0659
N14280 G1 X-1.0988 Y0.5353
N14285 X-1.1011 Y0.5351
N14290 G3 X-1.156 Y0.5215 I0.4832 J-2.0762
N14295 X-1.21 Y0.5046 I0.151 J-0.5786
N14300 G2 X-1.2194 Y0.5014 I-0.0775 J0.2124
N14305 G3 X-1.2287 Y0.4978 I0.0223 J-0.0707
N14310 G1 X-1.2298 Y0.497
N14315 X-1.2306 Y0.4958
N14320 X-1.2309 Y0.4944
N14325 X-1.2306 Y0.493
N14330 X-1.2298 Y0.4918
N14335 X-1.2287 Y0.491
N14340 X-1.2273 Y0.4906
N14345 X-1.2259 Y0.4908
N14350 G3 X-1.2161 Y0.4943 I-0.0612 J0.1887
N14355 G2 X-1.2062 Y0.4978 I0.0555 J-0.1414
N14360 X-1.1134 Y0.512 I0.0927 J-0.294
N14365 X-1.0991 Y0.5117 I-0.0002 J-0.3683
N14370 X-0.9616 Y0.3969 I-0.0058 J-0.1467
N14375 G3 X-0.8896 Y0.2328 I0.4515 J0.1003
N14380 G1 X-0.8854 Y0.2266
N14385 X-0.881 Y0.2195
N14390 G2 X-0.8739 Y0.2068 I-0.1272 J-0.0795
N14395 G1 X-0.87 Y0.1991
N14400 G2 X-0.8648 Y0.1874 I-0.1343 J-0.0668
N14405 G1 X-0.8616 Y0.1792
N14410 G2 X-0.858 Y0.1689 I-0.1395 J-0.0551
N14415 G1 X-0.8553 Y0.1603
N14420 X-0.8528 Y0.1516
N14425 X-0.8506 Y0.1425
N14430 X-0.8489 Y0.1351
N14435 X-0.8471 Y0.1257
N14440 X-0.846 Y0.1197
N14445 X-0.8446 Y0.11
N14450 X-0.8439 Y0.1051
N14455 X-0.8427 Y0.0951
N14460 X-0.8423 Y0.0914
N14465 X-0.8414 Y0.0813
N14470 X-0.8411 Y0.0785
N14475 X-0.8403 Y0.0682
N14480 X-0.8402 Y0.0665
N14485 X-0.8396 Y0.0561
N14490 X-0.8395 Y0.0552
N14495 X-0.8389 Y0.0448
N14500 G2 X-0.845 Y-0.007 I-0.1498 J-0.0086
N14505 G1 X-0.849 Y-0.0203
N14510 X-0.8492 Y-0.0211
N14515 X-0.8533 Y-0.0344
N14520 X-0.8538 Y-0.0361
N14525 X-0.858 Y-0.0493
N14530 X-0.8589 Y-0.0519
N14535 X-0.8633 Y-0.0649
N14540 X-0.8646 Y-0.0684
N14545 X-0.8693 Y-0.0812
N14550 X-0.871 Y-0.0856
N14555 X-0.876 Y-0.0981
N14560 X-0.8784 Y-0.1036
N14565 X-0.8839 Y-0.1157
N14570 X-0.8868 Y-0.122
N14575 X-0.8928 Y-0.1337
N14580 X-0.8967 Y-0.1409
N14585 X-0.9033 Y-0.1522
N14590 X-0.9081 Y-0.1601
N14595 X-0.9153 Y-0.1709
N14600 G2 X-0.9211 Y-0.179 I-0.125 J0.083
N14605 G1 X-0.929 Y-0.1893
N14610 X-0.935 Y-0.1967
N14615 X-0.9435 Y-0.2065
N14620 X-0.9494 Y-0.2129
N14625 X-0.9585 Y-0.2222
N14630 X-0.9641 Y-0.2277
N14635 X-0.9738 Y-0.2366
N14640 X-0.979 Y-0.2412
N14645 X-0.9892 Y-0.2497
N14650 X-0.994 Y-0.2536
N14655 X-1.0046 Y-0.2618
N14660 X-1.009 Y-0.265
N14665 X-1.02 Y-0.2729
N14670 X-1.0238 Y-0.2756
N14675 X-1.0351 Y-0.2832
N14680 X-1.0384 Y-0.2853
N14685 X-1.05 Y-0.2927
N14690 X-1.0528 Y-0.2943
N14695 X-1.0647 Y-0.3015
N14700 X-1.0668 Y-0.3028
N14705 X-1.0789 Y-0.3098
N14710 X-1.0806 Y-0.3108
N14715 X-1.0928 Y-0.3177
N14720 X-1.0939 Y-0.3183
N14725 X-1.1062 Y-0.3251
N14730 X-1.1068 Y-0.3254
N14735 X-1.112 Y-0.3283
N14740 X-1.1336 Y-0.3434
N14745 X-1.1612 Y-0.363
N14750 X-1.1878 Y-0.3823
N14755 X-1.2134 Y-0.4014
N14760 X-1.2376 Y-0.4203
N14765 X-1.2604 Y-0.4391
N14770 X-1.2816 Y-0.4578
N14775 X-1.3011 Y-0.4763
N14780 X-1.3188 Y-0.4947
N14785 X-1.3346 Y-0.513
N14790 X-1.3485 Y-0.5312
N14795 X-1.3605 Y-0.5493
N14800 X-1.3712 Y-0.5681
N14805 X-1.3809 Y-0.5884
N14810 X-1.3899 Y-0.6104
N14815 X-1.3981 Y-0.6342
N14820 X-1.4056 Y-0.6597
N14825 X-1.4123 Y-0.6868
N14830 X-1.4185 Y-0.7155
N14835 X-1.4241 Y-0.7455
N14840 X-1.4292 Y-0.7768
N14845 X-1.4339 Y-0.8092
N14850 X-1.4385 Y-0.8426
N14855 X-1.4423 Y-0.872
N14860 X-1.4448 Y-0.9111
N14865 X-1.4474 Y-0.9543
N14870 X-1.4496 Y-0.9966
N14875 X-1.4511 Y-1.0379
N14880 X-1.4518 Y-1.0779
N14885 X-1.4516 Y-1.1165
N14890 X-1.4503 Y-1.1535
N14895 X-1.4479 Y-1.1888
N14900 X-1.4441 Y-1.2221
N14905 X-1.439 Y-1.2533
N14910 X-1.4326 Y-1.2823
N14915 X-1.4248 Y-1.3089
N14920 X-1.4157 Y-1.3333
N14925 X-1.4053 Y-1.3554
N14930 X-1.3936 Y-1.3755
N14935 X-1.38 Y-1.3944
N14940 X-1.3637 Y-1.4132
N14945 X-1.3439 Y-1.4326
N14950 X-1.3207 Y-1.4525
N14955 X-1.2944 Y-1.4729
N14960 X-1.2653 Y-1.4935
N14965 X-1.2338 Y-1.5146
N14970 X-1.2174 Y-1.5251
N14975 X-1.2066 Y-1.5221
N14980 X-1.1966 Y-1.5189
N14985 X-1.1881 Y-1.5158
N14990 X-1.1813 Y-1.513
N14995 X-1.176 Y-1.5104
N15000 X-1.1724 Y-1.5083
N15005 X-1.17 Y-1.5066
N15010 X-1.1679 Y-1.5049
N15015 X-1.1652 Y-1.5023
N15020 X-1.1618 Y-1.4985
N15025 X-1.1578 Y-1.4934
N15030 X-1.1533 Y-1.487
N15035 X-1.1484 Y-1.4792
N15040 X-1.1432 Y-1.47
N15045 X-1.1377 Y-1.4596
N15050 X-1.1319 Y-1.448
N15055 X-1.126 Y-1.4353
N15060 X-1.1199 Y-1.4216
N15065 X-1.1136 Y-1.407
N15070 X-1.107 Y-1.3917
N15075 G2 X-0.8349 Y-1.3838 I0.1379 J-0.059
N15080 G1 X-0.827 Y-1.3997
N15085 X-0.8194 Y-1.4147
N15090 X-0.812 Y-1.4289
N15095 X-0.8049 Y-1.442
N15100 X-0.7981 Y-1.4541
N15105 X-0.7915 Y-1.465
N15110 X-0.7852 Y-1.4746
N15115 X-0.7793 Y-1.4828
N15120 X-0.7738 Y-1.4897
N15125 X-0.769 Y-1.4952
N15130 X-0.7647 Y-1.4994
N15135 X-0.7611 Y-1.5024
N15140 X-0.7579 Y-1.5048
N15145 X-0.7539 Y-1.5072
N15150 X-0.7485 Y-1.5099
N15155 X-0.7416 Y-1.5129
N15160 X-0.7331 Y-1.5161
N15165 X-0.7231 Y-1.5192
N15170 X-0.7116 Y-1.5223
N15175 X-0.6987 Y-1.5254
N15180 X-0.6846 Y-1.5284
N15185 X-0.6694 Y-1.5313
N15190 X-0.6552 Y-1.5339
N15195 X-0.6497 Y-1.5334
N15200 X-0.6423 Y-1.5326
N15205 X-0.6353 Y-1.5318
N15210 X-0.6289 Y-1.5309
N15215 X-0.6229 Y-1.53
N15220 X-0.6174 Y-1.5291
N15225 X-0.6124 Y-1.5281
N15230 X-0.6089 Y-1.5273
N15235 Y-1.0789
N15240 X-0.6109 Y-1.0773
N15245 X-0.6222 Y-1.0684
N15250 X-0.6233 Y-1.0675
N15255 X-0.6344 Y-1.0584
N15260 X-0.6366 Y-1.0566
N15265 X-0.6475 Y-1.0474
N15270 X-0.6508 Y-1.0445
N15275 X-0.6613 Y-1.0352
N15280 X-0.6657 Y-1.031
N15285 X-0.6756 Y-1.0214
N15290 X-0.6811 Y-1.0158
N15295 X-0.6903 Y-1.0058
N15300 X-0.6936 Y-1.0022
N15305 X-0.6967 Y-0.9985
N15310 X-0.7051 Y-0.9881
N15315 G2 X-0.7122 Y-0.9787 I0.1164 J0.0946
N15320 G1 X-0.7196 Y-0.9679
N15325 G2 X-0.7265 Y-0.957 I0.1234 J0.0852
N15330 G1 X-0.7329 Y-0.9457
N15335 G2 X-0.7386 Y-0.9347 I0.1303 J0.0744
N15340 G1 X-0.7441 Y-0.9229
N15345 G2 X-0.7486 Y-0.9123 I0.136 J0.0634
N15350 G1 X-0.7532 Y-0.9001
N15355 G2 X-0.7566 Y-0.8901 I0.1404 J0.0528
N15360 G1 X-0.7603 Y-0.8774
N15365 X-0.7627 Y-0.8683
N15370 X-0.7657 Y-0.8552
N15375 X-0.7674 Y-0.8468
N15380 X-0.7697 Y-0.8335
N15385 X-0.7708 Y-0.8261
N15390 X-0.7724 Y-0.8124
N15395 X-0.7731 Y-0.8059
N15400 X-0.7741 Y-0.7919
N15405 X-0.7744 Y-0.7863
N15410 X-0.775 Y-0.7721
N15415 X-0.7751 Y-0.7674
N15420 X-0.7752 Y-0.7529
N15425 Y-0.7489
N15430 X-0.7749 Y-0.7343
N15435 X-0.7748 Y-0.731
N15440 X-0.7742 Y-0.7162
N15445 X-0.7741 Y-0.7137
N15450 X-0.7732 Y-0.6988
N15455 X-0.7731 Y-0.6969
N15460 X-0.7721 Y-0.6819
N15465 X-0.772 Y-0.6807
N15470 X-0.7708 Y-0.6656
N15475 Y-0.665
N15480 X-0.77 Y-0.656
N15485 Y0.2395
N15490 X-0.772 Y0.2754
N15495 X-0.7744 Y0.3144
N15500 X-0.7771 Y0.3521
N15505 X-0.7804 Y0.3882
N15510 X-0.7844 Y0.4225
N15515 X-0.7893 Y0.4547
N15520 X-0.795 Y0.4844
N15525 X-0.8016 Y0.5115
N15530 X-0.809 Y0.5355
N15535 X-0.8172 Y0.5564
N15540 X-0.8259 Y0.5741
N15545 X-0.8349 Y0.5887
N15550 X-0.8443 Y0.6007
N15555 X-0.855 Y0.6115
N15560 X-0.8684 Y0.6223
N15565 X-0.8854 Y0.6334
N15570 X-0.906 Y0.6446
N15575 X-0.9301 Y0.6557
N15580 X-0.9573 Y0.6664
N15585 X-0.9874 Y0.6768
N15590 X-1.0199 Y0.6869
N15595 X-1.0546 Y0.6967
N15600 X-1.0909 Y0.7063
N15605 X-1.0947 Y0.7073
N15610 X-1.0994 Y0.7063
N15615 X-1.137 Y0.6982
N15620 X-1.173 Y0.6898
N15625 X-1.207 Y0.6811
N15630 X-1.2386 Y0.6719
N15635 X-1.2675 Y0.6622
N15640 X-1.2933 Y0.652
N15645 X-1.3157 Y0.6414
N15650 X-1.3345 Y0.6307
N15655 X-1.3497 Y0.6201
N15660 X-1.3617 Y0.6097
N15665 X-1.3718 Y0.5985
N15670 X-1.3813 Y0.5851
N15675 X-1.3906 Y0.5686
N15680 X-1.3996 Y0.5488
N15685 X-1.408 Y0.5256
N15690 X-1.4157 Y0.4992
N15695 X-1.4225 Y0.4699
N15700 X-1.4286 Y0.438
N15705 X-1.4338 Y0.4037
N15710 X-1.4383 Y0.3676
N15715 X-1.4424 Y0.3297
N15720 X-1.4461 Y0.2905
N15725 X-1.4489 Y0.2578
N15730 X-1.4488 Y0.2499
N15735 X-1.4485 Y0.2343
N15740 X-1.4482 Y0.2189
N15745 X-1.4479 Y0.2037
N15750 X-1.4475 Y0.1887
N15755 X-1.447 Y0.1738
N15760 X-1.4464 Y0.1591
N15765 X-1.4457 Y0.1445
N15770 X-1.4449 Y0.1302
N15775 X-1.444 Y0.116
N15780 X-1.443 Y0.102
N15785 X-1.4417 Y0.0882
N15790 X-1.4404 Y0.0745
N15795 X-1.4388 Y0.0608
N15800 X-1.437 Y0.0469
N15805 X-1.4357 Y0.0372
N15810 X-1.3892
N15815 X-1.3889 Y0.0462
N15820 X-1.3887 Y0.0488
N15825 X-1.3881 Y0.0605
N15830 X-1.3878 Y0.064
N15835 X-1.3869 Y0.0754
N15840 X-1.3864 Y0.08
N15845 X-1.3852 Y0.0912
N15850 X-1.3844 Y0.0969
N15855 X-1.3828 Y0.1078
N15860 X-1.3815 Y0.1147
N15865 X-1.3794 Y0.1253
N15870 X-1.3775 Y0.1335
N15875 X-1.3749 Y0.1436
N15880 G2 X-1.3721 Y0.1533 I0.1452 J-0.0377
N15885 G1 X-1.3688 Y0.1629
N15890 G2 X-1.3647 Y0.1739 I0.1423 J-0.0474
N15895 G1 X-1.3608 Y0.1831
N15900 G2 X-1.355 Y0.1954 I0.1382 J-0.0584
N15905 G1 X-1.3504 Y0.2039
N15910 G2 X-1.3425 Y0.217 I0.1323 J-0.0706
N15915 G1 X-1.3372 Y0.225
N15920 G2 X-1.327 Y0.2384 I0.1244 J-0.0838
N15925 G1 X-1.3208 Y0.2457
N15930 G2 X-1.3089 Y0.2581 I0.1143 J-0.0972
N15935 G1 X-1.3019 Y0.2647
N15940 G2 X-1.2903 Y0.2745 I0.1024 J-0.1096
N15945 G1 X-1.2824 Y0.2805
N15950 G2 X-1.2719 Y0.2879 I0.0908 J-0.1194
N15955 G1 X-1.2633 Y0.2933
N15960 G2 X-1.2541 Y0.2987 I0.0803 J-0.1267
N15965 G1 X-1.2449 Y0.3036
N15970 X-1.2372 Y0.3075
N15975 X-1.2275 Y0.312
N15980 X-1.2212 Y0.3148
N15985 X-1.211 Y0.3189
N15990 X-1.2062 Y0.3208
N15995 X-1.1957 Y0.3247
N16000 X-1.1921 Y0.326
N16005 X-1.1813 Y0.3297
N16010 X-1.179 Y0.3305
N16015 X-1.168 Y0.334
N16020 X-1.1669 Y0.3344
N16025 X-1.1558 Y0.3379
N16030 G2 X-1.0738 Y0.3402 I0.0451 J-0.1431
N16035 G1 X-1.0639 Y0.3377
N16040 X-1.0628 Y0.3374
N16045 X-1.053 Y0.3348
N16050 X-1.0508 Y0.3342
N16055 X-1.0411 Y0.3315
N16060 X-1.0376 Y0.3305
N16065 X-1.0282 Y0.3276
N16070 X-1.0235 Y0.3261
N16075 X-1.0143 Y0.323
N16080 X-1.0082 Y0.3208
N16085 X-0.9994 Y0.3173
N16090 X-0.9919 Y0.3141
N16095 X-0.9835 Y0.3103
N16100 G2 X-0.9744 Y0.3059 I-0.062 J-0.1366
N16105 G1 X-0.9666 Y0.3016
N16110 G2 X-0.9561 Y0.2954 I-0.0711 J-0.1321
N16115 G1 X-0.9488 Y0.2907
N16120 G2 X-0.937 Y0.2822 I-0.0816 J-0.1259
N16125 G1 X-0.9304 Y0.277
N16130 G2 X-0.9179 Y0.2658 I-0.0933 J-0.1174
N16135 G1 X-0.9119 Y0.2599
N16140 G2 X-0.9002 Y0.2467 I-0.1059 J-0.1063
N16145 G1 X-0.895 Y0.2401
N16150 X-0.8896 Y0.2328
N16155 G3 X-0.8753 Y0.2396 I0.0066 J0.0046
N16160 G1 X-0.9788 Y0.5973
N16165 G3 X-1.2147 Y0.5699 Z-0.1626 I-0.118 J-0.0137
N16170 X-0.9788 Y0.5973 Z-0.1953 I0.118 J0.0137
N16175 X-1.0922 Y0.7023 Z-0.21 I-0.118 J-0.0137
N16180 X-1.0995 Y0.5118 I-0.0036 J-0.0953
N16185 G2 X-1.0202 Y0.5 I-0.0141 J-0.3681
N16190 X-1.0035 Y0.495 I-0.0626 J-0.2388
N16195 G3 X-0.9869 Y0.4896 I0.1794 J0.529
N16200 G1 X-0.9855 Y0.4895
N16205 X-0.9841 Y0.4899
N16210 X-0.983 Y0.4907
N16215 X-0.9822 Y0.4919
N16220 X-0.982 Y0.4933
N16225 X-0.9823 Y0.4947
N16230 X-0.9831 Y0.4959
N16235 X-0.9842 Y0.4968
N16240 G3 X-1.0396 Y0.518 I-0.1941 J-0.4225
N16245 X-1.0965 Y0.535 I-0.6458 J-2.0659
N16250 G1 X-1.0988 Y0.5353
N16255 X-1.1011 Y0.5351
N16260 G3 X-1.156 Y0.5215 I0.4832 J-2.0762
N16265 X-1.21 Y0.5046 I0.151 J-0.5786
N16270 G2 X-1.2194 Y0.5014 I-0.0775 J0.2124
N16275 G3 X-1.2287 Y0.4978 I0.0223 J-0.0707
N16280 G1 X-1.2298 Y0.497
N16285 X-1.2306 Y0.4958
N16290 X-1.2309 Y0.4944
N16295 X-1.2306 Y0.493
N16300 X-1.2298 Y0.4918
N16305 X-1.2287 Y0.491
N16310 X-1.2273 Y0.4906
N16315 X-1.2259 Y0.4908
N16320 G3 X-1.2161 Y0.4943 I-0.0612 J0.1887
N16325 G2 X-1.2062 Y0.4978 I0.0555 J-0.1414
N16330 X-1.1134 Y0.512 I0.0927 J-0.294
N16335 X-1.0995 Y0.5118 I-0.0002 J-0.3683
N16340 G1 Z0.2 F10.
N16345 G0 X-0.9301 Y-1.2963
N16350 G1 Z-0.08 F10.
N16355 G3 X-0.774 Y-1.1173 Z-0.1126 I0.078 J0.0895 F5.
N16360 X-0.9301 Y-1.2963 Z-0.1453 I-0.078 J-0.0895
N16365 X-0.774 Y-1.1173 Z-0.1779 I0.078 J0.0895
N16370 X-0.9348 Y-1.2921 Z-0.21 I-0.078 J-0.0895
N16375 X-0.7853 Y-1.1382 I0.0747 J0.0769
N16380 G2 X-0.7946 Y-1.1289 I0.2676 J0.2758
N16385 G3 X-0.8123 Y-1.1283 I-0.0092 J-0.0088
N16390 G2 X-0.8278 Y-1.142 I-0.4455 J0.4936
N16395 X-0.8439 Y-1.155 I-0.29 J0.3421
N16400 G3 X-0.8424 Y-1.1676 I0.0045 J-0.0058
N16405 G2 X-0.7794 Y-1.2053 I-0.1267 J-0.2832
N16410 G3 X-0.7691 Y-1.2002 I0.0039 J0.0051
N16415 G1 Y-1.1633
N16420 G3 X-0.7759 Y-1.1473 I-0.0221 J0.
N16425 G2 X-0.7853 Y-1.1382 I1.5616 J1.6281
N16430 G1 X-0.7868 Y-1.1371
N16435 X-0.7886 Y-1.1363
N16440 X-0.7904 Y-1.136
N16445 X-0.7923 Y-1.1361
N16450 X-1.2281 Y-1.2149
N16455 X-1.2299 Y-1.215
N16460 X-1.2316 Y-1.2147
N16465 G2 X-1.3157 Y-1.1832 I0.1419 J0.5065
N16470 G3 X-1.3259 Y-1.1905 I-0.0031 J-0.0065
N16475 X-1.3137 Y-1.2573 I0.4951 J0.0559
N16480 X-1.2836 Y-1.3181 I0.1576 J0.04
N16485 X-1.2628 Y-1.3417 I0.2279 J0.1803
N16490 X-1.2393 Y-1.3625 I0.1659 J0.1633
N16495 X-1.2245 Y-1.3587 I0.0059 J0.0076
N16500 G1 X-1.2216 Y-1.3513
N16505 X-1.2187 Y-1.3439
N16510 G2 X-1.1857 Y-1.2874 I0.242 J-0.1036
N16515 X-1.1401 Y-1.2404 I0.2221 J-0.1702
N16520 G3 X-1.1433 Y-1.2302 I-0.0036 J0.0045
N16525 G2 X-1.2316 Y-1.2147 I0.034 J0.4525
N16530 X-1.3095 Y-1.1192 I0.0288 J0.103
N16535 G3 X-1.3538 Y-1.0043 I-0.209 J-0.0147
N16540 G1 X-1.3586 Y-0.9979
N16545 X-1.364 Y-0.9903
N16550 G2 X-1.3722 Y-0.9772 I0.1226 J0.0864
N16555 G1 X-1.3769 Y-0.9689
N16560 G2 X-1.3829 Y-0.9569 I0.1308 J0.0733
N16565 G1 X-1.3869 Y-0.9479
N16570 G2 X-1.3912 Y-0.9373 I0.1369 J0.0613
N16575 G1 X-1.3946 Y-0.9278
N16580 X-1.3976 Y-0.9186
N16585 X-1.4005 Y-0.9086
N16590 X-1.4025 Y-0.9009
N16595 X-1.4049 Y-0.8905
N16600 X-1.4062 Y-0.8842
N16605 X-1.4082 Y-0.8735
N16610 X-1.409 Y-0.8684
N16615 X-1.4107 Y-0.8573
N16620 X-1.4112 Y-0.8534
N16625 X-1.4126 Y-0.8422
N16630 X-1.4129 Y-0.8393
N16635 X-1.4141 Y-0.8278
N16640 X-1.4143 Y-0.826
N16645 X-1.4154 Y-0.8144
N16650 X-1.4155 Y-0.8135
N16655 X-1.4164 Y-0.8018
N16660 G2 X-1.4114 Y-0.7484 I0.1495 J0.0127
N16665 G1 X-1.4058 Y-0.7287
N16670 X-1.4056 Y-0.7278
N16675 X-1.3999 Y-0.7081
N16680 X-1.3993 Y-0.7063
N16685 X-1.3935 Y-0.6868
N16690 X-1.3926 Y-0.6841
N16695 X-1.3864 Y-0.6649
N16700 X-1.3852 Y-0.6613
N16705 X-1.3785 Y-0.6424
N16710 X-1.3768 Y-0.6378
N16715 X-1.3697 Y-0.6193
N16720 X-1.3674 Y-0.6137
N16725 X-1.3596 Y-0.5958
N16730 X-1.3565 Y-0.5893
N16735 X-1.348 Y-0.5719
N16740 X-1.344 Y-0.5645
N16745 X-1.3346 Y-0.5478
N16750 X-1.3296 Y-0.5396
N16755 X-1.3192 Y-0.5236
N16760 G2 X-1.3131 Y-0.515 I0.1256 J-0.082
N16765 G1 X-1.3016 Y-0.4999
N16770 G2 X-1.2952 Y-0.492 I0.1195 J-0.0907
N16775 G1 X-1.2827 Y-0.4777
N16780 X-1.2763 Y-0.4708
N16785 X-1.2629 Y-0.4572
N16790 X-1.2567 Y-0.4514
N16795 X-1.2425 Y-0.4385
N16800 X-1.2367 Y-0.4336
N16805 X-1.2216 Y-0.4213
N16810 X-1.2164 Y-0.4172
N16815 X-1.2006 Y-0.4055
N16820 X-1.1959 Y-0.4021
N16825 X-1.1795 Y-0.3909
N16830 X-1.1753 Y-0.3882
N16835 X-1.1584 Y-0.3774
N16840 X-1.1549 Y-0.3752
N16845 X-1.1375 Y-0.3648
N16850 X-1.1345 Y-0.3631
N16855 X-1.1167 Y-0.353
N16860 X-1.1144 Y-0.3517
N16865 X-1.0963 Y-0.3418
N16870 X-1.0945 Y-0.3409
N16875 X-1.0762 Y-0.3312
N16880 X-1.075 Y-0.3306
N16885 X-1.0565 Y-0.321
N16890 X-1.0559 Y-0.3207
N16895 X-1.0373 Y-0.3112
N16900 G2 X-0.8191 Y-0.4448 I0.0682 J-0.1336
N16905 G1 Y-0.657
N16910 X-0.8186 Y-0.6715
N16915 Y-0.6722
N16920 X-0.8181 Y-0.6893
N16925 X-0.818 Y-0.6908
N16930 X-0.8177 Y-0.7077
N16935 Y-0.71
N16940 X-0.8176 Y-0.7267
N16945 Y-0.7299
N16950 X-0.8178 Y-0.7464
N16955 X-0.8179 Y-0.7504
N16960 X-0.8186 Y-0.7667
N16965 X-0.8189 Y-0.7715
N16970 X-0.8201 Y-0.7875
N16975 X-0.8206 Y-0.7935
N16980 X-0.8224 Y-0.8091
N16985 X-0.8234 Y-0.8161
N16990 X-0.8259 Y-0.8312
N16995 X-0.8274 Y-0.8395
N17000 X-0.8307 Y-0.8541
N17005 X-0.8318 Y-0.8588
N17010 X-0.8331 Y-0.8635
N17015 X-0.8372 Y-0.8776
N17020 G2 X-0.8407 Y-0.8883 I-0.144 J0.0419
N17025 G1 X-0.8458 Y-0.9017
N17030 G2 X-0.8507 Y-0.9134 I-0.1405 J0.0526
N17035 G1 X-0.8567 Y-0.9261
N17040 G2 X-0.8634 Y-0.9386 I-0.1355 J0.0642
N17045 G1 X-0.8705 Y-0.9506
N17050 G2 X-0.879 Y-0.9634 I-0.1289 J0.0767
N17055 G1 X-0.8874 Y-0.9746
N17060 G2 X-0.8974 Y-0.9867 I-0.1204 J0.0894
N17065 G1 X-0.907 Y-0.9971
N17070 G2 X-0.9169 Y-1.0069 I-0.1104 J0.1015
N17075 G1 X-0.9276 Y-1.0166
N17080 G2 X-0.9365 Y-1.024 I-0.1005 J0.1113
N17085 G1 X-0.9482 Y-1.0331
N17090 X-0.9559 Y-1.0387
N17095 X-0.9685 Y-1.0471
N17100 X-0.9749 Y-1.0512
N17105 X-0.9881 Y-1.0592
N17110 X-0.9932 Y-1.0621
N17115 X-1.007 Y-1.0697
N17120 X-1.0107 Y-1.0717
N17125 X-1.025 Y-1.0791
N17130 X-1.0274 Y-1.0803
N17135 X-1.0419 Y-1.0874
N17140 X-1.0432 Y-1.0881
N17145 X-1.0579 Y-1.0951
N17150 G2 X-1.1541 Y-1.1067 I-0.0651 J0.1351
N17155 G1 X-1.1654 Y-1.1043
N17160 X-1.1665 Y-1.1041
N17165 X-1.1776 Y-1.1016
N17170 X-1.1798 Y-1.1011
N17175 X-1.1909 Y-1.0985
N17180 X-1.1941 Y-1.0977
N17185 X-1.2049 Y-1.0949
N17190 X-1.2095 Y-1.0936
N17195 X-1.22 Y-1.0905
N17200 X-1.2259 Y-1.0887
N17205 X-1.236 Y-1.0852
N17210 X-1.2433 Y-1.0825
N17215 X-1.2529 Y-1.0787
N17220 X-1.2618 Y-1.0748
N17225 X-1.2709 Y-1.0705
N17230 G2 X-1.2812 Y-1.0651 I0.0644 J0.1355
N17235 G1 X-1.2897 Y-1.0602
N17240 G2 X-1.3014 Y-1.0527 I0.0747 J0.1301
N17245 G1 X-1.3092 Y-1.0472
N17250 G2 X-1.3219 Y-1.0372 I0.0864 J0.1226
N17255 G1 X-1.3289 Y-1.031
N17260 G2 X-1.3416 Y-1.0184 I0.0991 J0.1126
N17265 G1 X-1.3478 Y-1.0115
N17270 X-1.3538 Y-1.0043
N17275 G3 X-1.37 Y-0.9975 I-0.0143 J-0.0112
N17280 G1 X-1.3913 Y-0.9998
N17285 G2 X-1.411 Y-0.9855 I-0.0019 J0.018
N17290 X-1.4225 Y-0.803 I0.621 J0.1309
N17295 X-1.3833 Y-0.6245 I0.6765 J-0.0551
N17300 G1 X-1.3826 Y-0.6115
N17305 X-1.3829 Y-0.61
N17310 X-1.3836 Y-0.6088
N17315 X-1.3848 Y-0.608
N17320 X-1.3863 Y-0.6077
N17325 X-1.3877 Y-0.6079
N17330 X-1.3889 Y-0.6087
N17335 X-1.3897 Y-0.6099
N17340 X-1.3899 Y-0.6104
N17345 X-1.3981 Y-0.6342
N17350 X-1.4056 Y-0.6597
N17355 X-1.4123 Y-0.6868
N17360 X-1.4185 Y-0.7155
N17365 X-1.4241 Y-0.7455
N17370 X-1.4292 Y-0.7768
N17375 X-1.4339 Y-0.8092
N17380 X-1.4385 Y-0.8426
N17385 X-1.4423 Y-0.872
N17390 X-1.4448 Y-0.9111
N17395 X-1.4474 Y-0.9543
N17400 X-1.4496 Y-0.9966
N17405 X-1.4511 Y-1.0379
N17410 X-1.4518 Y-1.0779
N17415 X-1.4516 Y-1.1165
N17420 X-1.4503 Y-1.1535
N17425 X-1.4479 Y-1.1888
N17430 X-1.4441 Y-1.2221
N17435 X-1.439 Y-1.2533
N17440 X-1.4326 Y-1.2823
N17445 X-1.4248 Y-1.3089
N17450 X-1.4157 Y-1.3333
N17455 X-1.4053 Y-1.3554
N17460 X-1.3936 Y-1.3755
N17465 X-1.38 Y-1.3944
N17470 X-1.3637 Y-1.4132
N17475 X-1.3439 Y-1.4326
N17480 X-1.3207 Y-1.4525
N17485 X-1.2944 Y-1.4729
N17490 X-1.2653 Y-1.4935
N17495 X-1.2338 Y-1.5146
N17500 X-1.2174 Y-1.5251
N17505 X-1.2066 Y-1.5221
N17510 X-1.1966 Y-1.5189
N17515 X-1.1881 Y-1.5158
N17520 X-1.1813 Y-1.513
N17525 X-1.176 Y-1.5104
N17530 X-1.1724 Y-1.5083
N17535 X-1.17 Y-1.5066
N17540 X-1.1679 Y-1.5049
N17545 X-1.1652 Y-1.5023
N17550 X-1.1618 Y-1.4985
N17555 X-1.1578 Y-1.4934
N17560 X-1.1533 Y-1.487
N17565 X-1.1484 Y-1.4792
N17570 X-1.1432 Y-1.47
N17575 X-1.1377 Y-1.4596
N17580 X-1.1319 Y-1.448
N17585 X-1.126 Y-1.4353
N17590 X-1.1199 Y-1.4216
N17595 X-1.1136 Y-1.407
N17600 X-1.107 Y-1.3917
N17605 G2 X-0.8349 Y-1.3838 I0.1379 J-0.059
N17610 G1 X-0.827 Y-1.3997
N17615 X-0.8194 Y-1.4147
N17620 X-0.812 Y-1.4289
N17625 X-0.8049 Y-1.442
N17630 X-0.7981 Y-1.4541
N17635 X-0.7915 Y-1.465
N17640 X-0.7852 Y-1.4746
N17645 X-0.7793 Y-1.4828
N17650 X-0.7738 Y-1.4897
N17655 X-0.769 Y-1.4952
N17660 X-0.7647 Y-1.4994
N17665 X-0.7611 Y-1.5024
N17670 X-0.7579 Y-1.5048
N17675 X-0.7539 Y-1.5072
N17680 X-0.7485 Y-1.5099
N17685 X-0.7416 Y-1.5129
N17690 X-0.7331 Y-1.5161
N17695 X-0.7231 Y-1.5192
N17700 X-0.7116 Y-1.5223
N17705 X-0.6987 Y-1.5254
N17710 X-0.6846 Y-1.5284
N17715 X-0.6694 Y-1.5313
N17720 X-0.6552 Y-1.5339
N17725 X-0.6497 Y-1.5334
N17730 X-0.6423 Y-1.5326
N17735 X-0.6353 Y-1.5318
N17740 X-0.6289 Y-1.5309
N17745 X-0.6229 Y-1.53
N17750 X-0.6174 Y-1.5291
N17755 X-0.6124 Y-1.5281
N17760 X-0.6089 Y-1.5273
N17765 Y-1.0789
N17770 X-0.6109 Y-1.0773
N17775 X-0.6222 Y-1.0684
N17780 X-0.6233 Y-1.0675
N17785 X-0.6344 Y-1.0584
N17790 X-0.6366 Y-1.0566
N17795 X-0.6475 Y-1.0474
N17800 X-0.6508 Y-1.0445
N17805 X-0.6613 Y-1.0352
N17810 X-0.6657 Y-1.031
N17815 X-0.6756 Y-1.0214
N17820 X-0.6811 Y-1.0158
N17825 X-0.6903 Y-1.0058
N17830 X-0.6936 Y-1.0022
N17835 X-0.6967 Y-0.9985
N17840 X-0.7051 Y-0.9881
N17845 G2 X-0.7122 Y-0.9787 I0.1164 J0.0946
N17850 G1 X-0.7196 Y-0.9679
N17855 G2 X-0.7265 Y-0.957 I0.1234 J0.0852
N17860 G1 X-0.7329 Y-0.9457
N17865 G2 X-0.7386 Y-0.9347 I0.1303 J0.0744
N17870 G1 X-0.7441 Y-0.9229
N17875 G2 X-0.7486 Y-0.9123 I0.136 J0.0634
N17880 G1 X-0.7532 Y-0.9001
N17885 G2 X-0.7566 Y-0.8901 I0.1404 J0.0528
N17890 G1 X-0.7603 Y-0.8774
N17895 X-0.7627 Y-0.8683
N17900 X-0.7657 Y-0.8552
N17905 X-0.7674 Y-0.8468
N17910 X-0.7697 Y-0.8335
N17915 X-0.7708 Y-0.8261
N17920 X-0.7724 Y-0.8124
N17925 X-0.7731 Y-0.8059
N17930 X-0.7741 Y-0.7919
N17935 X-0.7744 Y-0.7863
N17940 X-0.775 Y-0.7721
N17945 X-0.7751 Y-0.7674
N17950 X-0.7752 Y-0.7529
N17955 Y-0.7489
N17960 X-0.7749 Y-0.7343
N17965 X-0.7748 Y-0.731
N17970 X-0.7742 Y-0.7162
N17975 X-0.7741 Y-0.7137
N17980 X-0.7732 Y-0.6988
N17985 X-0.7731 Y-0.6969
N17990 X-0.7721 Y-0.6819
N17995 X-0.772 Y-0.6807
N18000 X-0.7708 Y-0.6656
N18005 Y-0.665
N18010 X-0.77 Y-0.656
N18015 Y0.2395
N18020 X-0.772 Y0.2754
N18025 X-0.7744 Y0.3144
N18030 X-0.7771 Y0.3521
N18035 X-0.7804 Y0.3882
N18040 X-0.7844 Y0.4225
N18045 X-0.7893 Y0.4547
N18050 X-0.795 Y0.4844
N18055 X-0.8016 Y0.5115
N18060 X-0.809 Y0.5355
N18065 X-0.8172 Y0.5564
N18070 X-0.8259 Y0.5741
N18075 X-0.8349 Y0.5887
N18080 X-0.8443 Y0.6007
N18085 X-0.855 Y0.6115
N18090 X-0.8684 Y0.6223
N18095 X-0.8854 Y0.6334
N18100 X-0.906 Y0.6446
N18105 X-0.9301 Y0.6557
N18110 X-0.9573 Y0.6664
N18115 X-0.9874 Y0.6768
N18120 X-1.0199 Y0.6869
N18125 X-1.0546 Y0.6967
N18130 X-1.0909 Y0.7063
N18135 X-1.0947 Y0.7073
N18140 X-1.0994 Y0.7063
N18145 X-1.137 Y0.6982
N18150 X-1.173 Y0.6898
N18155 X-1.207 Y0.6811
N18160 X-1.2386 Y0.6719
N18165 X-1.2675 Y0.6622
N18170 X-1.2933 Y0.652
N18175 X-1.3157 Y0.6414
N18180 X-1.3345 Y0.6307
N18185 X-1.3497 Y0.6201
N18190 X-1.3617 Y0.6097
N18195 X-1.3718 Y0.5985
N18200 X-1.3813 Y0.5851
N18205 X-1.3906 Y0.5686
N18210 X-1.3996 Y0.5488
N18215 X-1.408 Y0.5256
N18220 X-1.4157 Y0.4992
N18225 X-1.4225 Y0.4699
N18230 X-1.4286 Y0.438
N18235 X-1.4338 Y0.4037
N18240 X-1.4383 Y0.3676
N18245 X-1.4424 Y0.3297
N18250 X-1.4461 Y0.2905
N18255 X-1.4489 Y0.2578
N18260 X-1.4488 Y0.2499
N18265 X-1.4485 Y0.2343
N18270 X-1.4482 Y0.2189
N18275 X-1.4479 Y0.2037
N18280 X-1.4475 Y0.1887
N18285 X-1.447 Y0.1738
N18290 X-1.4464 Y0.1591
N18295 X-1.4457 Y0.1445
N18300 X-1.4449 Y0.1302
N18305 X-1.444 Y0.116
N18310 X-1.443 Y0.102
N18315 X-1.4417 Y0.0882
N18320 X-1.4404 Y0.0745
N18325 X-1.4388 Y0.0608
N18330 X-1.437 Y0.0469
N18335 X-1.4357 Y0.0372
N18340 X-1.3892
N18345 X-1.3889 Y0.0462
N18350 X-1.3887 Y0.0488
N18355 X-1.3881 Y0.0605
N18360 X-1.3878 Y0.064
N18365 X-1.3869 Y0.0754
N18370 X-1.3864 Y0.08
N18375 X-1.3852 Y0.0912
N18380 X-1.3844 Y0.0969
N18385 X-1.3828 Y0.1078
N18390 X-1.3815 Y0.1147
N18395 X-1.3794 Y0.1253
N18400 X-1.3775 Y0.1335
N18405 X-1.3749 Y0.1436
N18410 G2 X-1.3721 Y0.1533 I0.1452 J-0.0377
N18415 G1 X-1.3688 Y0.1629
N18420 G2 X-1.3647 Y0.1739 I0.1423 J-0.0474
N18425 G1 X-1.3608 Y0.1831
N18430 G2 X-1.355 Y0.1954 I0.1382 J-0.0584
N18435 G1 X-1.3504 Y0.2039
N18440 G2 X-1.3425 Y0.217 I0.1323 J-0.0706
N18445 G1 X-1.3372 Y0.225
N18450 G2 X-1.327 Y0.2384 I0.1244 J-0.0838
N18455 G1 X-1.3208 Y0.2457
N18460 G2 X-1.3089 Y0.2581 I0.1143 J-0.0972
N18465 G1 X-1.3019 Y0.2647
N18470 G2 X-1.2903 Y0.2745 I0.1024 J-0.1096
N18475 G1 X-1.2824 Y0.2805
N18480 G2 X-1.2719 Y0.2879 I0.0908 J-0.1194
N18485 G1 X-1.2633 Y0.2933
N18490 G2 X-1.2541 Y0.2987 I0.0803 J-0.1267
N18495 G1 X-1.2449 Y0.3036
N18500 X-1.2372 Y0.3075
N18505 X-1.2275 Y0.312
N18510 X-1.2212 Y0.3148
N18515 X-1.211 Y0.3189
N18520 X-1.2062 Y0.3208
N18525 X-1.1957 Y0.3247
N18530 X-1.1921 Y0.326
N18535 X-1.1813 Y0.3297
N18540 X-1.179 Y0.3305
N18545 X-1.168 Y0.334
N18550 X-1.1669 Y0.3344
N18555 X-1.1558 Y0.3379
N18560 G2 X-1.0738 Y0.3402 I0.0451 J-0.1431
N18565 G1 X-1.0639 Y0.3377
N18570 X-1.0628 Y0.3374
N18575 X-1.053 Y0.3348
N18580 X-1.0508 Y0.3342
N18585 X-1.0411 Y0.3315
N18590 X-1.0376 Y0.3305
N18595 X-1.0282 Y0.3276
N18600 X-1.0235 Y0.3261
N18605 X-1.0143 Y0.323
N18610 X-1.0082 Y0.3208
N18615 X-0.9994 Y0.3173
N18620 X-0.9919 Y0.3141
N18625 X-0.9835 Y0.3103
N18630 G2 X-0.9744 Y0.3059 I-0.062 J-0.1366
N18635 G1 X-0.9666 Y0.3016
N18640 G2 X-0.9561 Y0.2954 I-0.0711 J-0.1321
