%
(BRANDON MINIMAL POCKET)
(T1  D=0.25 CR=0. - ZMIN=-0.125 - FLAT END MILL)
N10 G90 G94 G17 G91.1
N15 G20
N20 G53 G0 Z0.
(2D POCKET4)
N25 M9
N30 T1 M6
N35 S2000 M3
N40 G54
N45 M8
N50 G0 X0.5935 Y0.5469
N55 G43 Z0.6 H1
N60 G0 Z0.2
N65 G1 Z0.0749 F10.
N70 X0.5943 Y0.5462 Z0.0676 F5.
N75 X0.5967 Y0.544 Z0.0609
N80 X0.6003 Y0.5406 Z0.0555
N85 X0.6047 Y0.536 Z0.0517
N90 X0.6093 Y0.5305 Z0.05
N95 G2 X0.4237 Y0.3824 Z0.0174 I-0.0928 J-0.074
N100 X0.6093 Y0.5305 Z-0.0153 I0.0928 J0.074
N105 X0.4237 Y0.3824 Z-0.0479 I-0.0928 J-0.074
N110 X0.6093 Y0.5305 Z-0.0806 I0.0928 J0.074
N115 X0.4237 Y0.3824 Z-0.1132 I-0.0928 J-0.074
N120 X0.4103 Y0.5095 Z-0.125 I0.0928 J0.074
N125 X0.4247 Y0.5367 I0.5521 J-0.2757
N130 G3 X0.4309 Y0.548 I-0.8912 J0.502
N135 G2 X0.4378 Y0.5589 I0.0927 J-0.0507
N140 X0.4867 Y0.5708 I0.0314 J-0.0225
N145 G1 X0.4911 Y0.5684
N150 G2 X0.5105 Y0.5414 I-0.02 J-0.035
N155 X0.5166 Y0.488 I-0.3031 J-0.0615
N160 X0.5177 Y0.4344 I-3.8875 J-0.1029
N165 G3 X0.5184 Y0.4163 I0.3578 J0.0045
N170 G2 X0.5189 Y0.3983 I-0.261 J-0.0165
N175 X0.508 Y0.3924 I-0.007 J0.
N180 G3 X0.4534 Y0.4251 I-0.4522 J-0.6941
N185 X0.3947 Y0.4495 I-0.1421 J-0.2598
N190 G2 X0.3886 Y0.4621 I0.0026 J0.009
N195 X0.4056 Y0.4999 I0.7901 J-0.3317
N200 X0.4103 Y0.5095 I0.5568 J-0.2661
N205 G1 X0.4122 Y0.5129 Z-0.1244 F10.
N210 X0.4146 Y0.5159 Z-0.1238
N215 X0.4171 Y0.5182 Z-0.122
N220 X0.42 Y0.5203 Z-0.1202
N225 X0.4224 Y0.5215 Z-0.1175
N230 X0.425 Y0.5226 Z-0.1147
N235 X0.4284 Y0.5234 Z-0.1077
N240 X0.4296 Y0.5236 Z-0.1
N245 Z0.2
N250 G0 X0.6728 Y-1.3487
N255 G1 Z0.0749 F10.
N260 X0.672 Y-1.3495 Z0.0676 F5.
N265 X0.6697 Y-1.3517 Z0.0609
N270 X0.6659 Y-1.3549 Z0.0555
N275 X0.6609 Y-1.3589 Z0.0517
N280 X0.655 Y-1.363 Z0.05
N285 G2 X0.525 Y-1.1642 Z0.0174 I-0.065 J0.0994
N290 X0.655 Y-1.363 Z-0.0153 I0.065 J-0.0994
N295 X0.525 Y-1.1642 Z-0.0479 I-0.065 J0.0994
N300 X0.655 Y-1.363 Z-0.0806 I0.065 J-0.0994
N305 X0.525 Y-1.1642 Z-0.1132 I-0.065 J0.0994
N310 X0.6528 Y-1.1628 Z-0.125 I0.065 J-0.0994
N315 G3 X0.6619 Y-1.1682 I0.131 J0.2101
N320 G2 X0.6753 Y-1.1912 I-0.013 J-0.023
N325 G1 Y-1.3929
N330 G2 X0.6626 Y-1.4057 I-0.0128 J0.
N335 G1 X0.5925
N340 G2 X0.5798 Y-1.3929 I0. J0.0128
N345 G1 Y-1.1646
N350 G2 X0.5883 Y-1.1468 I0.0226 J0.
N355 G3 X0.5999 Y-1.1371 I-0.1537 J0.1942
N360 G2 X0.6186 I0.0093 J-0.0104
N365 G3 X0.6528 Y-1.1628 I0.1652 J0.1844
N370 G1 X0.6559 Y-1.1651 Z-0.1244 F10.
N375 X0.6586 Y-1.1678 Z-0.1238
N380 X0.6607 Y-1.1706 Z-0.122
N385 X0.6624 Y-1.1737 Z-0.1202
N390 X0.6634 Y-1.1763 Z-0.1175
N395 X0.6641 Y-1.1789 Z-0.1147
N400 X0.6646 Y-1.1825 Z-0.1077
N405 Y-1.1837 Z-0.1
N410 Z0.2
N415 G0 X-0.0664 Y-1.0834
N420 G1 Z0.0749 F10.
N425 X-0.0653 Y-1.0836 Z0.0676 F5.
N430 X-0.0622 Y-1.0845 Z0.0609
N435 X-0.0575 Y-1.0859 Z0.0555
N440 X-0.0515 Y-1.0881 Z0.0517
N445 X-0.0449 Y-1.0909 Z0.05
N450 G2 X-0.1448 Y-1.3064 Z0.0174 I-0.05 J-0.1077
N455 X-0.0449 Y-1.0909 Z-0.0153 I0.05 J0.1077
N460 X-0.1448 Y-1.3064 Z-0.0479 I-0.05 J-0.1077
N465 X-0.0449 Y-1.0909 Z-0.0806 I0.05 J0.1077
N470 X-0.1448 Y-1.3064 Z-0.1132 I-0.05 J-0.1077
N475 X-0.2136 Y-1.1986 Z-0.125 I0.05 J0.1077
N480 X0.0039 I0.1088 J0.
N485 G1 Y-1.3929
N490 G2 X-0.0088 Y-1.4057 I-0.0128 J0.
N495 G1 X-0.0788
N500 G2 X-0.0916 Y-1.3929 I0. J0.0128
N505 G1 Y-1.1879
N510 G2 X-0.0782 Y-1.1639 I0.0281 J0.
N515 G3 X-0.0501 Y-1.1439 I-0.1292 J0.2112
N520 G2 X-0.0303 I0.0099 J-0.012
N525 G3 X-0.0095 Y-1.1592 I0.1573 J0.1912
N530 G2 X0.0039 Y-1.1843 I-0.0166 J-0.025
N535 G1 Y-1.1986
N540 G3 X0.0528 Y-1.2719 I0.0793 J0.
N545 G2 X0.1016 Y-1.3451 I-0.0305 J-0.0732
N550 G1 Y-1.5033
N555 X-0.1892
N560 Y-1.1016
N565 G3 X-0.0574 Y-0.9527 I-0.0182 J0.1489
N570 G1 Y0.1606
N575 G3 X-0.1892 Y0.3095 I-0.15 J0.
N580 G1 Y0.6771
N585 X-0.0229
N590 Y0.5244
N595 G3 X0.2656 Y0.467 I0.15 J0.
N600 G1 X0.2743 Y0.4878
N605 X0.2827 Y0.5079
N610 X0.291 Y0.5272
N615 X0.2992 Y0.5455
N620 X0.3073 Y0.5627
N625 X0.3154 Y0.5789
N630 X0.3234 Y0.5937
N635 X0.3314 Y0.6073
N640 X0.3392 Y0.6194
N645 X0.3469 Y0.6301
N650 X0.3544 Y0.6394
N655 X0.3615 Y0.6472
N660 X0.3685 Y0.6538
N665 X0.3753 Y0.6594
N670 X0.3831 Y0.6648
N675 X0.3925 Y0.6704
N680 X0.4036 Y0.6761
N685 X0.4164 Y0.6819
N690 X0.431 Y0.6878
N695 X0.4471 Y0.6936
N700 X0.4647 Y0.6994
N705 X0.4755 Y0.7027
N710 X0.4796 Y0.701
N715 X0.503 Y0.6909
N720 X0.5245 Y0.681
N725 X0.5436 Y0.6713
N730 X0.56 Y0.6618
N735 X0.5736 Y0.6529
N740 X0.5843 Y0.6447
N745 X0.592 Y0.6375
N750 X0.5978 Y0.631
N755 X0.6028 Y0.6238
N760 X0.6078 Y0.6148
N765 X0.6127 Y0.6037
N770 X0.6174 Y0.5901
N775 X0.6216 Y0.5742
N780 X0.6254 Y0.5559
N785 X0.6284 Y0.5354
N790 X0.6308 Y0.513
N795 X0.6325 Y0.4887
N800 X0.6336 Y0.463
N805 X0.6342 Y0.4358
N810 X0.6343 Y0.4075
N815 X0.6341 Y0.3781
N820 X0.6338 Y0.3478
N825 Y0.3462
N830 Y-0.9527
N835 G3 X0.773 Y-1.1023 I0.15 J0.
N840 G1 Y-1.5033
N845 X0.4821
N850 Y-1.095
N855 G3 X0.5847 Y-0.9527 I-0.0475 J0.1423
N860 G1 Y-0.1543
N865 X0.5846 Y-0.151
N870 X0.5823 Y-0.0465
N875 X0.5827 Y-0.0386
N880 Y-0.0379
N885 X0.5833 Y-0.0246
N890 X0.5834 Y-0.0232
N895 X0.5838 Y-0.0101
N900 X0.5839 Y-0.0079
N905 X0.5842 Y0.0051
N910 Y0.0081
N915 Y0.021
N920 Y0.0247
N925 X0.5839 Y0.0374
N930 X0.5837 Y0.0421
N935 X0.583 Y0.0546
N940 X0.5826 Y0.0602
N945 X0.5814 Y0.0724
N950 X0.5806 Y0.0791
N955 X0.579 Y0.091
N960 X0.5777 Y0.0988
N965 X0.5754 Y0.1103
N970 X0.5734 Y0.1193
N975 X0.5705 Y0.1304
N980 G3 X0.5675 Y0.1405 I-0.1452 J-0.0376
N985 G1 X0.564 Y0.1512
N990 G3 X0.5597 Y0.1624 I-0.1422 J-0.0477
N995 G1 X0.5554 Y0.1725
N1000 G3 X0.5496 Y0.1845 I-0.1379 J-0.0589
N1005 G1 X0.5444 Y0.1941
N1010 G3 X0.537 Y0.2065 I-0.1322 J-0.0709
N1015 G1 X0.5309 Y0.2156
N1020 G3 X0.5218 Y0.2279 I-0.1248 J-0.0833
N1025 G1 X0.5148 Y0.2364
N1030 G3 X0.5054 Y0.2468 I-0.1157 J-0.0955
N1035 G1 X0.4975 Y0.2547
N1040 G3 X0.4888 Y0.2628 I-0.1063 J-0.1059
N1045 G1 X0.4801 Y0.2702
N1050 X0.4725 Y0.2763
N1055 X0.4632 Y0.2833
N1060 X0.4569 Y0.2878
N1065 X0.4469 Y0.2945
N1070 X0.4419 Y0.2977
N1075 X0.4315 Y0.3041
N1080 X0.4278 Y0.3064
N1085 X0.4171 Y0.3126
N1090 X0.4147 Y0.3139
N1095 X0.4037 Y0.32
N1100 X0.4025 Y0.3207
N1105 X0.3914 Y0.3267
N1110 G3 X0.2412 Y0.3225 I-0.0715 J-0.1319
N1115 G1 X0.2215 Y0.3103
N1120 X0.2203 Y0.3096
N1125 X0.2008 Y0.2973
N1130 X0.1984 Y0.2957
N1135 X0.1792 Y0.2832
N1140 X0.1756 Y0.2807
N1145 X0.1572 Y0.2678
N1150 X0.1523 Y0.2643
N1155 X0.1347 Y0.2509
N1160 X0.1286 Y0.246
N1165 X0.112 Y0.232
N1170 X0.1083 Y0.2288
N1175 X0.1047 Y0.2254
N1180 X0.0895 Y0.2107
N1185 G3 X0.0812 Y0.2021 I0.1042 J-0.1079
N1190 G1 X0.0675 Y0.1865
N1195 G3 X0.0587 Y0.1756 I0.1124 J-0.0993
N1200 G1 X0.0466 Y0.159
N1205 G3 X0.0387 Y0.147 I0.1211 J-0.0885
N1210 G1 X0.0283 Y0.1295
N1215 G3 X0.0219 Y0.1176 I0.1291 J-0.0765
N1220 G1 X0.0131 Y0.0991
N1225 G3 X0.0083 Y0.0877 I0.1354 J-0.0646
N1230 G1 X0.001 Y0.0684
N1235 G3 X-0.0026 Y0.0579 I0.1402 J-0.0532
N1240 G1 X-0.0086 Y0.0378
N1245 G3 X-0.0111 Y0.0282 I0.1438 J-0.0427
N1250 G1 X-0.0158 Y0.0074
N1255 X-0.0175 Y-0.0011
N1260 X-0.021 Y-0.0226
N1265 X-0.0221 Y-0.0299
N1270 X-0.0246 Y-0.052
N1275 X-0.0252 Y-0.0584
N1280 X-0.0269 Y-0.081
N1285 X-0.0272 Y-0.0863
N1290 X-0.028 Y-0.1094
N1295 X-0.0281 Y-0.1139
N1300 X-0.0283 Y-0.1373
N1305 Y-0.1409
N1310 X-0.0279 Y-0.1647
N1315 X-0.0278 Y-0.1675
N1320 X-0.027 Y-0.1915
N1325 X-0.0269 Y-0.1936
N1330 X-0.0257 Y-0.2178
N1335 X-0.0256 Y-0.2192
N1340 X-0.0242 Y-0.2436
N1345 Y-0.2442
N1350 X-0.0229 Y-0.264
N1355 Y-0.9527
N1360 G3 X0.1016 Y-1.1005 I0.15 J0.
N1365 G1 Y-1.3451
N1370 G3 X0.1141 Y-1.3638 I0.0203 J0.
N1375 G2 X0.1266 Y-1.3826 I-0.0078 J-0.0187
N1380 G1 Y-1.5283
N1385 X-0.2142
N1390 Y-1.0777
N1395 X-0.2074
N1400 G3 X-0.0824 Y-0.9527 I0. J0.125
N1405 G1 Y0.1606
N1410 G3 X-0.2074 Y0.2856 I-0.125 J0.
N1415 G1 X-0.2142
N1420 Y0.7021
N1425 X0.0021
N1430 Y0.5244
N1435 G3 X0.2425 Y0.4766 I0.125 J0.
N1440 G1 X0.2512 Y0.4974
N1445 X0.2597 Y0.5177
N1450 X0.2681 Y0.5372
N1455 X0.2765 Y0.5559
N1460 X0.2848 Y0.5737
N1465 X0.2932 Y0.5904
N1470 X0.3017 Y0.606
N1475 X0.3101 Y0.6204
N1480 X0.3186 Y0.6335
N1485 X0.327 Y0.6453
N1490 X0.3354 Y0.6557
N1495 X0.3437 Y0.6647
N1500 X0.3519 Y0.6726
N1505 X0.3603 Y0.6794
N1510 X0.3695 Y0.6858
N1515 X0.3803 Y0.6922
N1520 X0.3927 Y0.6986
N1525 X0.4067 Y0.7049
N1530 X0.4221 Y0.7111
N1535 X0.439 Y0.7172
N1540 X0.4571 Y0.7232
N1545 X0.4764 Y0.7291
N1550 X0.4893 Y0.7241
N1555 X0.5132 Y0.7138
N1560 X0.5354 Y0.7035
N1565 X0.5555 Y0.6933
N1570 X0.5731 Y0.6832
N1575 X0.5881 Y0.6733
N1580 X0.6004 Y0.6639
N1585 X0.61 Y0.655
N1590 X0.6175 Y0.6464
N1595 X0.624 Y0.6371
N1600 X0.6302 Y0.626
N1605 X0.636 Y0.6128
N1610 X0.6413 Y0.5974
N1615 X0.646 Y0.5799
N1620 X0.65 Y0.5602
N1625 X0.6532 Y0.5386
N1630 X0.6557 Y0.5152
N1635 X0.6575 Y0.4902
N1640 X0.6586 Y0.4638
N1645 X0.6592 Y0.4361
N1650 X0.6593 Y0.4075
N1655 X0.6591 Y0.3779
N1660 X0.6588 Y0.3475
N1665 Y0.3462
N1670 Y-0.9527
N1675 G3 X0.7838 Y-1.0777 I0.125 J0.
N1680 G1 X0.798
N1685 Y-1.5283
N1690 X0.4571
N1695 Y-1.0756
N1700 G3 X0.5597 Y-0.9527 I-0.0225 J0.123
N1705 G1 Y-0.1543
N1710 X0.5596 Y-0.1515
N1715 X0.5573 Y-0.0461
N1720 X0.5577 Y-0.0373
N1725 X0.5578 Y-0.0368
N1730 X0.5584 Y-0.0235
N1735 Y-0.0223
N1740 X0.5589 Y-0.0092
N1745 Y-0.0074
N1750 X0.5592 Y0.0056
N1755 Y0.0081
N1760 Y0.021
N1765 Y0.0241
N1770 X0.5589 Y0.0368
N1775 X0.5587 Y0.0407
N1780 X0.558 Y0.0532
N1785 X0.5577 Y0.0579
N1790 X0.5565 Y0.07
N1795 X0.5559 Y0.0757
N1800 X0.5542 Y0.0875
N1805 X0.5531 Y0.0941
N1810 X0.5509 Y0.1056
N1815 X0.5492 Y0.113
N1820 X0.5463 Y0.1241
N1825 X0.5438 Y0.1326
N1830 X0.5403 Y0.1432
N1835 G3 X0.5367 Y0.1525 I-0.1185 J-0.0398
N1840 G1 X0.5324 Y0.1627
N1845 G3 X0.5276 Y0.1727 I-0.115 J-0.0491
N1850 G1 X0.5224 Y0.1823
N1855 G3 X0.5162 Y0.1927 I-0.1102 J-0.059
N1860 G1 X0.5101 Y0.2018
N1865 G3 X0.5026 Y0.2119 I-0.104 J-0.0694
N1870 G1 X0.4955 Y0.2205
N1875 G3 X0.4877 Y0.2291 I-0.0964 J-0.0796
N1880 G1 X0.4798 Y0.2371
N1885 G3 X0.4725 Y0.2438 I-0.0886 J-0.0882
N1890 G1 X0.4638 Y0.2512
N1895 X0.4575 Y0.2563
N1900 X0.4481 Y0.2633
N1905 X0.4429 Y0.2671
N1910 X0.4329 Y0.2738
N1915 X0.4288 Y0.2765
N1920 X0.4184 Y0.2829
N1925 X0.4153 Y0.2847
N1930 X0.4046 Y0.2909
N1935 X0.4025 Y0.2921
N1940 X0.3916 Y0.2982
N1945 X0.3906 Y0.2987
N1950 X0.3795 Y0.3047
N1955 G3 X0.2543 Y0.3012 I-0.0596 J-0.1099
N1960 G1 X0.2346 Y0.289
N1965 X0.2336 Y0.2884
N1970 X0.2141 Y0.2761
N1975 X0.2121 Y0.2748
N1980 X0.193 Y0.2623
N1985 X0.1899 Y0.2603
N1990 X0.1715 Y0.2474
N1995 X0.1674 Y0.2444
N2000 X0.1498 Y0.231
N2005 X0.1447 Y0.2269
N2010 X0.1282 Y0.2129
N2015 X0.1221 Y0.2074
N2020 X0.1068 Y0.1927
N2025 G3 X0.1 Y0.1855 I0.0868 J-0.0899
N2030 G1 X0.0862 Y0.1699
N2035 G3 X0.0789 Y0.1609 I0.0937 J-0.0828
N2040 G1 X0.0668 Y0.1443
N2045 G3 X0.0602 Y0.1343 I0.1009 J-0.0737
N2050 G1 X0.0498 Y0.1167
N2055 G3 X0.0445 Y0.1068 I0.1075 J-0.0637
N2060 G1 X0.0357 Y0.0883
N2065 G3 X0.0317 Y0.0789 I0.1128 J-0.0538
N2070 G1 X0.0243 Y0.0596
N2075 X0.0228 Y0.0552
N2080 X0.0214 Y0.0508
N2085 X0.0154 Y0.0307
N2090 X0.0133 Y0.0227
N2095 X0.0086 Y0.0019
N2100 X0.0072 Y-0.0052
N2105 X0.0036 Y-0.0267
N2110 X0.0028 Y-0.0328
N2115 X0.0002 Y-0.0549
N2120 X-0.0003 Y-0.0602
N2125 X-0.002 Y-0.0828
N2130 X-0.0022 Y-0.0873
N2135 X-0.0031 Y-0.1103
N2140 Y-0.114
N2145 X-0.0033 Y-0.1375
N2150 Y-0.1405
N2155 X-0.0029 Y-0.1643
N2160 X-0.0028 Y-0.1666
N2165 X-0.002 Y-0.1907
N2170 X-0.0019 Y-0.1924
N2175 X-0.0007 Y-0.2166
N2180 Y-0.2177
N2185 X0.0007 Y-0.2421
N2190 X0.0008 Y-0.2427
N2195 X0.0021 Y-0.2632
N2200 Y-0.9527
N2205 G3 X0.1266 Y-1.0777 I0.125 J0.
N2210 G1 Y-1.3826
N2215 X0.1263 Y-1.3864 Z-0.1244 F10.
N2220 X0.1254 Y-1.3902 Z-0.1238
N2225 X0.1241 Y-1.3934 Z-0.122
N2230 X0.1224 Y-1.3964 Z-0.1202
N2235 X0.1207 Y-1.3987 Z-0.1175
N2240 X0.1188 Y-1.4007 Z-0.1147
N2245 X0.1161 Y-1.4029 Z-0.1077
N2250 X0.1151 Y-1.4036 Z-0.1
N2255 Z0.2
N2260 G0 X-0.9816 Y0.5775
N2265 G1 Z0.0749 F10.
N2270 X-0.9819 Y0.5765 Z0.0676 F5.
N2275 X-0.9829 Y0.5735 Z0.0609
N2280 X-0.9845 Y0.5688 Z0.0555
N2285 X-0.9869 Y0.5628 Z0.0517
N2290 X-0.99 Y0.5564 Z0.05
N2295 G2 X-1.2015 Y0.6644 Z0.0174 I-0.1058 J0.054
N2300 X-0.99 Y0.5564 Z-0.0153 I0.1058 J-0.054
N2305 X-1.2015 Y0.6644 Z-0.0479 I-0.1058 J0.054
N2310 X-0.99 Y0.5564 Z-0.0806 I0.1058 J-0.054
N2315 X-1.2015 Y0.6644 Z-0.1132 I-0.1058 J0.054
N2320 X-1.0913 Y0.729 Z-0.125 I0.1058 J-0.054
N2325 X-1.0995 Y0.5118 I-0.0041 J-0.1086
N2330 G3 X-1.1146 Y0.512 I-0.0139 J-0.3688
N2335 X-1.2062 Y0.4978 I0.001 J-0.3082
N2340 X-1.2161 Y0.4943 I0.0457 J-0.1451
N2345 G2 X-1.2259 Y0.4908 I-0.0711 J0.1855
N2350 G1 X-1.2273 Y0.4906
N2355 X-1.2287 Y0.491
N2360 X-1.2299 Y0.4918
N2365 X-1.2306 Y0.493
N2370 X-1.2309 Y0.4944
N2375 X-1.2306 Y0.4958
N2380 X-1.2299 Y0.497
N2385 X-1.2287 Y0.4978
N2390 G2 X-1.2087 Y0.5052 I0.0527 J-0.1119
N2395 G3 X-1.1883 Y0.5112 I-0.1572 J0.5733
N2400 G2 X-1.1011 Y0.5351 I0.3726 J-1.19
N2405 G1 X-1.0988 Y0.5353
N2410 X-1.0965 Y0.535
N2415 G2 X-1.0396 Y0.518 I-0.5889 J-2.0828
N2420 X-0.9842 Y0.4968 I-0.1387 J-0.4438
N2425 G1 X-0.9831 Y0.4959
N2430 X-0.9823 Y0.4947
N2435 X-0.982 Y0.4933
N2440 X-0.9822 Y0.4919
N2445 X-0.983 Y0.4907
N2450 X-0.9841 Y0.4899
N2455 X-0.9855 Y0.4895
N2460 X-0.9869 Y0.4896
N2465 G2 X-1.0047 Y0.4954 I0.1662 J0.5455
N2470 G3 X-1.0225 Y0.5007 I-0.0755 J-0.2214
N2475 X-1.0995 Y0.5118 I-0.0908 J-0.3577
N2480 G1 X-1.1074 Y0.512 Z-0.1237 F10.
N2485 X-1.1146 Z-0.1199
N2490 X-1.1199 Z-0.1144
N2495 X-1.1233 Y0.5119 Z-0.1076
N2500 X-1.1245 Y0.5118 Z-0.1
N2505 Z0.2
N2510 G0 X-0.8051 Y-1.3242
N2515 G1 Z0.0749 F10.
N2520 X-0.806 Y-1.3248 Z0.0676 F5.
N2525 X-0.8088 Y-1.3264 Z0.0609
N2530 X-0.8132 Y-1.3288 Z0.0555
N2535 X-0.8189 Y-1.3316 Z0.0517
N2540 X-0.8255 Y-1.3343 Z0.05
N2545 G2 X-0.9105 Y-1.1126 Z0.0174 I-0.0425 J0.1109
N2550 X-0.8255 Y-1.3343 Z-0.0153 I0.0425 J-0.1109
N2555 X-0.9105 Y-1.1126 Z-0.0479 I-0.0425 J0.1109
N2560 X-0.8255 Y-1.3343 Z-0.0806 I0.0425 J-0.1109
N2565 X-0.9105 Y-1.1126 Z-0.1132 I-0.0425 J0.1109
N2570 X-0.7853 Y-1.1382 Z-0.125 I0.0425 J-0.1109
N2575 G3 X-0.7759 Y-1.1473 I1.571 J1.619
N2580 G2 X-0.7691 Y-1.1633 I-0.0153 J-0.016
N2585 G1 Y-1.2002
N2590 G2 X-0.7794 Y-1.2053 I-0.0064 J0.
N2595 G3 X-0.8432 Y-1.1672 I-0.1897 J-0.2454
N2600 G2 X-0.8446 Y-1.1555 I0.0028 J0.0063
N2605 G3 X-0.8282 Y-1.1422 I-0.2906 J0.3767
N2610 X-0.8123 Y-1.1283 I-0.4149 J0.4911
N2615 G2 X-0.7946 Y-1.1289 I0.0085 J-0.0095
N2620 G3 X-0.7853 Y-1.1382 I0.2769 J0.2665
N2625 G1 X-0.7804 Y-1.143 Z-0.1241 F10.
N2630 X-0.7759 Y-1.1473 Z-0.1213
N2635 X-0.7738 Y-1.1497 Z-0.1185
N2640 X-0.772 Y-1.1523 Z-0.1157
N2645 X-0.7711 Y-1.1541 Z-0.112
N2650 X-0.7703 Y-1.1561 Z-0.1083
N2655 X-0.7699 Y-1.1574 Z-0.1
N2660 Z0.0749
N2665 X-1.2221 Y-1.1264 F5.
N2670 X-1.221 Y-1.1261 Z0.0676
N2675 X-1.2179 Y-1.1253 Z0.0609
N2680 X-1.213 Y-1.1243 Z0.0555
N2685 X-1.2067 Y-1.1234 Z0.0517
N2690 X-1.1996 Y-1.1227 Z0.05
N2695 G2 X-1.184 Y-1.3597 Z0.0174 I0.0078 J-0.1185
N2700 X-1.1996 Y-1.1227 Z-0.0153 I-0.0078 J0.1185
N2705 X-1.184 Y-1.3597 Z-0.0479 I0.0078 J-0.1185
N2710 X-1.1996 Y-1.1227 Z-0.0806 I-0.0078 J0.1185
N2715 X-1.184 Y-1.3597 Z-0.1132 I0.0078 J-0.1185
N2720 X-1.296 Y-1.2981 Z-0.125 I-0.0078 J0.1185
N2725 X-1.3082 Y-1.2702 I0.1491 J0.0814
N2730 X-1.3259 Y-1.1905 I0.3818 J0.1268
N2735 X-1.3157 Y-1.1832 I0.0071 J0.0008
N2740 G3 X-1.2316 Y-1.2147 I0.2259 J0.475
N2745 X-1.1433 Y-1.2302 I0.1224 J0.437
N2750 G2 X-1.1401 Y-1.2404 I-0.0004 J-0.0057
N2755 G3 X-1.1857 Y-1.2874 I0.1765 J-0.2171
N2760 X-1.2187 Y-1.3439 I0.2089 J-0.1601
N2765 G1 X-1.2216 Y-1.3513
N2770 X-1.2245 Y-1.3587
N2775 G2 X-1.2393 Y-1.3625 I-0.0089 J0.0038
N2780 X-1.2806 Y-1.3215 I0.1442 J0.1865
N2785 X-1.296 Y-1.2981 I0.1337 J0.1048
N2790 G3 X-1.3787 Y-1.2467 I-0.0867 J-0.0474
N2795 G2 X-1.4486 Y-1.1789 I0.003 J0.0729
N2800 G1 X-1.4503 Y-1.1535
N2805 X-1.4516 Y-1.1165
N2810 X-1.4518 Y-1.0779
N2815 X-1.4511 Y-1.0379
N2820 X-1.4496 Y-0.9966
N2825 X-1.4474 Y-0.9543
N2830 X-1.4448 Y-0.9111
N2835 X-1.4423 Y-0.872
N2840 X-1.4385 Y-0.8426
N2845 X-1.4339 Y-0.8092
N2850 X-1.4292 Y-0.7768
N2855 X-1.4241 Y-0.7455
N2860 X-1.4185 Y-0.7155
N2865 X-1.4123 Y-0.6868
N2870 X-1.4056 Y-0.6597
N2875 X-1.3981 Y-0.6342
N2880 X-1.3899 Y-0.6104
N2885 X-1.3809 Y-0.5884
N2890 X-1.3712 Y-0.5681
N2895 X-1.3605 Y-0.5493
N2900 X-1.3485 Y-0.5312
N2905 X-1.3346 Y-0.513
N2910 X-1.3188 Y-0.4947
N2915 X-1.3011 Y-0.4763
N2920 X-1.2816 Y-0.4578
N2925 X-1.2604 Y-0.4391
N2930 X-1.2376 Y-0.4203
N2935 X-1.2134 Y-0.4014
N2940 X-1.1878 Y-0.3823
N2945 X-1.1612 Y-0.363
N2950 X-1.1336 Y-0.3434
N2955 X-1.112 Y-0.3283
N2960 X-1.1068 Y-0.3254
N2965 X-1.1062 Y-0.3251
N2970 X-1.0939 Y-0.3183
N2975 X-1.0928 Y-0.3177
N2980 X-1.0806 Y-0.3108
N2985 X-1.0789 Y-0.3098
N2990 X-1.0668 Y-0.3028
N2995 X-1.0647 Y-0.3015
N3000 X-1.0528 Y-0.2943
N3005 X-1.05 Y-0.2927
N3010 X-1.0384 Y-0.2853
N3015 X-1.0351 Y-0.2832
N3020 X-1.0238 Y-0.2756
N3025 X-1.02 Y-0.2729
N3030 X-1.009 Y-0.265
N3035 X-1.0046 Y-0.2618
N3040 X-0.994 Y-0.2536
N3045 X-0.9892 Y-0.2497
N3050 X-0.979 Y-0.2412
N3055 X-0.9738 Y-0.2366
N3060 X-0.9641 Y-0.2277
N3065 X-0.9585 Y-0.2222
N3070 X-0.9494 Y-0.2129
N3075 X-0.9435 Y-0.2065
N3080 X-0.935 Y-0.1967
N3085 X-0.929 Y-0.1893
N3090 X-0.9211 Y-0.179
N3095 G3 X-0.9153 Y-0.1709 I-0.1192 J0.0911
N3100 G1 X-0.9081 Y-0.1601
N3105 X-0.9033 Y-0.1522
N3110 X-0.8967 Y-0.1409
N3115 X-0.8928 Y-0.1337
N3120 X-0.8868 Y-0.122
N3125 X-0.8839 Y-0.1157
N3130 X-0.8784 Y-0.1036
N3135 X-0.876 Y-0.0981
N3140 X-0.871 Y-0.0856
N3145 X-0.8693 Y-0.0812
N3150 X-0.8646 Y-0.0684
N3155 X-0.8633 Y-0.0649
N3160 X-0.8589 Y-0.0519
N3165 X-0.858 Y-0.0493
N3170 X-0.8538 Y-0.0361
N3175 X-0.8533 Y-0.0344
N3180 X-0.8492 Y-0.0211
N3185 X-0.849 Y-0.0203
N3190 X-0.845 Y-0.007
N3195 G3 X-0.8389 Y0.0448 I-0.1437 J0.0431
N3200 G1 X-0.8395 Y0.0552
N3205 X-0.8396 Y0.0561
N3210 X-0.8402 Y0.0665
N3215 X-0.8403 Y0.0682
N3220 X-0.8411 Y0.0785
N3225 X-0.8414 Y0.0813
N3230 X-0.8423 Y0.0914
N3235 X-0.8427 Y0.0951
N3240 X-0.8439 Y0.1051
N3245 X-0.8446 Y0.11
N3250 X-0.846 Y0.1197
N3255 X-0.8471 Y0.1257
N3260 X-0.8489 Y0.1351
N3265 X-0.8506 Y0.1425
N3270 X-0.8528 Y0.1516
N3275 X-0.8553 Y0.1603
N3280 X-0.858 Y0.1689
N3285 G3 X-0.8616 Y0.1792 I-0.1431 J-0.0449
N3290 G1 X-0.8648 Y0.1874
N3295 G3 X-0.87 Y0.1991 I-0.1395 J-0.0551
N3300 G1 X-0.8739 Y0.2068
N3305 G3 X-0.881 Y0.2195 I-0.1343 J-0.0668
N3310 G1 X-0.8854 Y0.2266
N3315 G3 X-0.895 Y0.2401 I-0.1272 J-0.0795
N3320 G1 X-0.9002 Y0.2467
N3325 G3 X-0.9119 Y0.2599 I-0.1176 J-0.0931
N3330 G1 X-0.9179 Y0.2658
N3335 G3 X-0.9304 Y0.277 I-0.1059 J-0.1063
N3340 G1 X-0.937 Y0.2822
N3345 G3 X-0.9488 Y0.2907 I-0.0933 J-0.1174
N3350 G1 X-0.9561 Y0.2954
N3355 G3 X-0.9666 Y0.3016 I-0.0816 J-0.1259
N3360 G1 X-0.9744 Y0.3059
N3365 G3 X-0.9835 Y0.3103 I-0.0711 J-0.1321
N3370 G1 X-0.9919 Y0.3141
N3375 X-0.9994 Y0.3173
N3380 X-1.0082 Y0.3208
N3385 X-1.0143 Y0.323
N3390 X-1.0235 Y0.3261
N3395 X-1.0282 Y0.3276
N3400 X-1.0376 Y0.3305
N3405 X-1.0411 Y0.3315
N3410 X-1.0508 Y0.3342
N3415 X-1.053 Y0.3348
N3420 X-1.0628 Y0.3374
N3425 X-1.0639 Y0.3377
N3430 X-1.0738 Y0.3402
N3435 G3 X-1.1558 Y0.3379 I-0.0369 J-0.1454
N3440 G1 X-1.1669 Y0.3344
N3445 X-1.168 Y0.334
N3450 X-1.179 Y0.3305
N3455 X-1.1813 Y0.3297
N3460 X-1.1921 Y0.326
N3465 X-1.1957 Y0.3247
N3470 X-1.2062 Y0.3208
N3475 X-1.211 Y0.3189
N3480 X-1.2212 Y0.3148
N3485 X-1.2275 Y0.312
N3490 X-1.2372 Y0.3075
N3495 X-1.2449 Y0.3036
N3500 X-1.2541 Y0.2987
N3505 G3 X-1.2633 Y0.2933 I0.0711 J-0.1321
N3510 G1 X-1.2719 Y0.2879
N3515 G3 X-1.2824 Y0.2805 I0.0803 J-0.1267
N3520 G1 X-1.2903 Y0.2745
N3525 G3 X-1.3019 Y0.2647 I0.0908 J-0.1194
N3530 G1 X-1.3089 Y0.2581
N3535 G3 X-1.3208 Y0.2457 I0.1024 J-0.1096
N3540 G1 X-1.327 Y0.2384
N3545 G3 X-1.3372 Y0.225 I0.1143 J-0.0972
N3550 G1 X-1.3425 Y0.217
N3555 G3 X-1.3504 Y0.2039 I0.1244 J-0.0838
N3560 G1 X-1.355 Y0.1954
N3565 G3 X-1.3608 Y0.1831 I0.1323 J-0.0706
N3570 G1 X-1.3647 Y0.1739
N3575 G3 X-1.3688 Y0.1629 I0.1382 J-0.0584
N3580 G1 X-1.3721 Y0.1533
N3585 G3 X-1.3749 Y0.1436 I0.1423 J-0.0474
N3590 G1 X-1.3775 Y0.1335
N3595 X-1.3794 Y0.1253
N3600 X-1.3815 Y0.1147
N3605 X-1.3828 Y0.1078
N3610 X-1.3844 Y0.0969
N3615 X-1.3852 Y0.0912
N3620 X-1.3864 Y0.08
N3625 X-1.3869 Y0.0754
N3630 X-1.3878 Y0.064
N3635 X-1.3881 Y0.0605
N3640 X-1.3887 Y0.0488
N3645 X-1.3889 Y0.0462
N3650 X-1.3892 Y0.0372
N3655 X-1.4357
N3660 X-1.437 Y0.0469
N3665 X-1.4388 Y0.0608
N3670 X-1.4404 Y0.0745
N3675 X-1.4417 Y0.0882
N3680 X-1.443 Y0.102
N3685 X-1.444 Y0.116
N3690 X-1.4449 Y0.1302
N3695 X-1.4457 Y0.1445
N3700 X-1.4464 Y0.1591
N3705 X-1.447 Y0.1738
N3710 X-1.4475 Y0.1887
N3715 X-1.4479 Y0.2037
N3720 X-1.4482 Y0.2189
N3725 X-1.4485 Y0.2343
N3730 X-1.4488 Y0.2499
N3735 X-1.4489 Y0.2578
N3740 X-1.4461 Y0.2905
N3745 X-1.4424 Y0.3297
N3750 X-1.4383 Y0.3676
N3755 X-1.4338 Y0.4037
N3760 X-1.4286 Y0.438
N3765 X-1.4225 Y0.4699
N3770 X-1.4157 Y0.4992
N3775 X-1.408 Y0.5256
N3780 X-1.3996 Y0.5488
N3785 X-1.3906 Y0.5686
N3790 X-1.3813 Y0.5851
N3795 X-1.3718 Y0.5985
N3800 X-1.3617 Y0.6097
N3805 X-1.3497 Y0.6201
N3810 X-1.3345 Y0.6307
N3815 X-1.3157 Y0.6414
N3820 X-1.2933 Y0.652
N3825 X-1.2675 Y0.6622
N3830 X-1.2386 Y0.6719
N3835 X-1.207 Y0.6811
N3840 X-1.173 Y0.6898
N3845 X-1.137 Y0.6982
N3850 X-1.0994 Y0.7063
N3855 X-1.0947 Y0.7073
N3860 X-1.0909 Y0.7063
N3865 X-1.0546 Y0.6967
N3870 X-1.0199 Y0.6869
N3875 X-0.9874 Y0.6768
N3880 X-0.9573 Y0.6664
N3885 X-0.9301 Y0.6557
N3890 X-0.906 Y0.6446
N3895 X-0.8854 Y0.6334
N3900 X-0.8684 Y0.6223
N3905 X-0.855 Y0.6115
N3910 X-0.8443 Y0.6007
N3915 X-0.8349 Y0.5887
N3920 X-0.8259 Y0.5741
N3925 X-0.8172 Y0.5564
N3930 X-0.809 Y0.5355
N3935 X-0.8016 Y0.5115
N3940 X-0.795 Y0.4844
N3945 X-0.7893 Y0.4547
N3950 X-0.7844 Y0.4225
N3955 X-0.7804 Y0.3882
N3960 X-0.7771 Y0.3521
N3965 X-0.7744 Y0.3144
N3970 X-0.772 Y0.2754
N3975 X-0.77 Y0.2395
N3980 Y-0.656
N3985 X-0.7708 Y-0.665
N3990 Y-0.6656
N3995 X-0.772 Y-0.6807
N4000 X-0.7721 Y-0.6819
N4005 X-0.7731 Y-0.6969
N4010 X-0.7732 Y-0.6988
N4015 X-0.7741 Y-0.7137
N4020 X-0.7742 Y-0.7162
N4025 X-0.7748 Y-0.731
N4030 X-0.7749 Y-0.7343
N4035 X-0.7752 Y-0.7489
N4040 Y-0.7529
N4045 X-0.7751 Y-0.7674
N4050 X-0.775 Y-0.7721
N4055 X-0.7744 Y-0.7863
N4060 X-0.7741 Y-0.7919
N4065 X-0.7731 Y-0.8059
N4070 X-0.7724 Y-0.8124
N4075 X-0.7708 Y-0.8261
N4080 X-0.7697 Y-0.8335
N4085 X-0.7674 Y-0.8468
N4090 X-0.7657 Y-0.8552
N4095 X-0.7627 Y-0.8683
N4100 X-0.7603 Y-0.8774
N4105 X-0.7566 Y-0.8901
N4110 G3 X-0.7532 Y-0.9001 I0.1438 J0.0428
N4115 G1 X-0.7486 Y-0.9123
N4120 G3 X-0.7441 Y-0.9229 I0.1404 J0.0528
N4125 G1 X-0.7386 Y-0.9347
N4130 G3 X-0.7329 Y-0.9457 I0.136 J0.0634
N4135 G1 X-0.7265 Y-0.957
N4140 G3 X-0.7196 Y-0.9679 I0.1303 J0.0744
N4145 G1 X-0.7122 Y-0.9787
N4150 G3 X-0.7051 Y-0.9881 I0.1234 J0.0852
N4155 G1 X-0.6967 Y-0.9985
N4160 X-0.6936 Y-1.0022
N4165 X-0.6903 Y-1.0058
N4170 X-0.6811 Y-1.0158
N4175 X-0.6756 Y-1.0214
N4180 X-0.6657 Y-1.031
N4185 X-0.6613 Y-1.0352
N4190 X-0.6508 Y-1.0445
N4195 X-0.6475 Y-1.0474
N4200 X-0.6366 Y-1.0566
N4205 X-0.6344 Y-1.0584
N4210 X-0.6233 Y-1.0675
N4215 X-0.6222 Y-1.0684
N4220 X-0.6109 Y-1.0773
N4225 X-0.6089 Y-1.0789
N4230 Y-1.5273
N4235 X-0.6124 Y-1.5281
N4240 X-0.6174 Y-1.5291
N4245 X-0.6229 Y-1.53
N4250 X-0.6289 Y-1.5309
N4255 X-0.6353 Y-1.5318
N4260 X-0.6423 Y-1.5326
N4265 X-0.6497 Y-1.5334
N4270 X-0.6552 Y-1.5339
N4275 X-0.6694 Y-1.5313
N4280 X-0.6846 Y-1.5284
N4285 X-0.6987 Y-1.5254
N4290 X-0.7116 Y-1.5223
N4295 X-0.7231 Y-1.5192
N4300 X-0.7331 Y-1.5161
N4305 X-0.7416 Y-1.5129
N4310 X-0.7485 Y-1.5099
N4315 X-0.7539 Y-1.5072
N4320 X-0.7579 Y-1.5048
N4325 X-0.7611 Y-1.5024
N4330 X-0.7647 Y-1.4994
N4335 X-0.769 Y-1.4952
N4340 X-0.7738 Y-1.4897
N4345 X-0.7793 Y-1.4828
N4350 X-0.7852 Y-1.4746
N4355 X-0.7915 Y-1.465
N4360 X-0.7981 Y-1.4541
N4365 X-0.8049 Y-1.442
N4370 X-0.812 Y-1.4289
N4375 X-0.8194 Y-1.4147
N4380 X-0.827 Y-1.3997
N4385 X-0.8349 Y-1.3838
N4390 G3 X-1.107 Y-1.3917 I-0.1343 J-0.0669
N4395 G1 X-1.1136 Y-1.407
N4400 X-1.1199 Y-1.4216
N4405 X-1.126 Y-1.4353
N4410 X-1.1319 Y-1.448
N4415 X-1.1377 Y-1.4596
N4420 X-1.1432 Y-1.47
N4425 X-1.1484 Y-1.4792
N4430 X-1.1533 Y-1.487
N4435 X-1.1578 Y-1.4934
N4440 X-1.1618 Y-1.4985
N4445 X-1.1652 Y-1.5023
N4450 X-1.1679 Y-1.5049
N4455 X-1.17 Y-1.5066
N4460 X-1.1724 Y-1.5083
N4465 X-1.176 Y-1.5104
N4470 X-1.1813 Y-1.513
N4475 X-1.1881 Y-1.5158
N4480 X-1.1966 Y-1.5189
N4485 X-1.2066 Y-1.5221
N4490 X-1.2174 Y-1.5251
N4495 X-1.2338 Y-1.5146
N4500 X-1.2653 Y-1.4935
N4505 X-1.2944 Y-1.4729
N4510 X-1.3207 Y-1.4525
N4515 X-1.3439 Y-1.4326
N4520 X-1.3637 Y-1.4132
N4525 X-1.38 Y-1.3944
N4530 X-1.3936 Y-1.3755
N4535 X-1.4053 Y-1.3554
N4540 X-1.4157 Y-1.3333
N4545 X-1.4248 Y-1.3089
N4550 X-1.4326 Y-1.2823
N4555 X-1.439 Y-1.2533
N4560 X-1.4441 Y-1.2221
N4565 X-1.4479 Y-1.1888
N4570 X-1.4486 Y-1.1789
N4575 G3 X-1.4623 Y-1.1612 I-0.0201 J-0.0014
N4580 G2 X-1.4757 Y-1.1433 I0.0062 J0.0186
N4585 G1 X-1.4766 Y-1.117
N4590 X-1.4768 Y-1.0777
N4595 X-1.4761 Y-1.0372
N4600 X-1.4745 Y-0.9955
N4605 X-1.4724 Y-0.9529
N4610 X-1.4698 Y-0.9095
N4615 X-1.4672 Y-0.8696
N4620 X-1.4633 Y-0.8393
N4625 X-1.4587 Y-0.8057
N4630 X-1.4539 Y-0.7729
N4635 X-1.4487 Y-0.7412
N4640 X-1.443 Y-0.7106
N4645 X-1.4367 Y-0.6812
N4650 X-1.4297 Y-0.6531
N4655 X-1.4219 Y-0.6266
N4660 X-1.4133 Y-0.6016
N4665 X-1.4038 Y-0.5782
N4670 X-1.3934 Y-0.5565
N4675 X-1.3818 Y-0.5362
N4680 X-1.3688 Y-0.5166
N4685 X-1.354 Y-0.4972
N4690 X-1.3373 Y-0.4779
N4695 X-1.3187 Y-0.4586
N4700 X-1.2985 Y-0.4393
N4705 X-1.2766 Y-0.4201
N4710 X-1.2533 Y-0.4008
N4715 X-1.2286 Y-0.3815
N4720 X-1.2027 Y-0.3621
N4725 X-1.1758 Y-0.3427
N4730 X-1.148 Y-0.323
N4735 X-1.1252 Y-0.307
N4740 X-1.1188 Y-0.3035
N4745 X-1.1183 Y-0.3033
N4750 X-1.106 Y-0.2964
N4755 X-1.1051 Y-0.2959
N4760 X-1.0928 Y-0.289
N4765 X-1.0915 Y-0.2882
N4770 X-1.0794 Y-0.2812
N4775 X-1.0776 Y-0.2801
N4780 X-1.0657 Y-0.2729
N4785 X-1.0634 Y-0.2715
N4790 X-1.0518 Y-0.2642
N4795 X-1.0491 Y-0.2624
N4800 X-1.0377 Y-0.2548
N4805 X-1.0345 Y-0.2526
N4810 X-1.0235 Y-0.2447
N4815 X-1.0199 Y-0.242
N4820 X-1.0093 Y-0.2338
N4825 X-1.0053 Y-0.2306
N4830 X-0.9951 Y-0.2221
N4835 X-0.9907 Y-0.2182
N4840 X-0.9811 Y-0.2093
N4845 X-0.9764 Y-0.2047
N4850 X-0.9673 Y-0.1954
N4855 X-0.9624 Y-0.1901
N4860 X-0.9538 Y-0.1803
N4865 X-0.9489 Y-0.1742
N4870 X-0.941 Y-0.1638
N4875 X-0.9362 Y-0.1571
N4880 X-0.929 Y-0.1463
N4885 X-0.9249 Y-0.1397
N4890 X-0.9184 Y-0.1284
N4895 X-0.9151 Y-0.1224
N4900 X-0.9091 Y-0.1106
N4905 X-0.9066 Y-0.1054
N4910 X-0.9012 Y-0.0933
N4915 X-0.8992 Y-0.0888
N4920 X-0.8942 Y-0.0763
N4925 X-0.8927 Y-0.0726
N4930 X-0.888 Y-0.0598
N4935 X-0.887 Y-0.0569
N4940 X-0.8826 Y-0.0439
N4945 X-0.8819 Y-0.0417
N4950 X-0.8776 Y-0.0285
N4955 X-0.8772 Y-0.027
N4960 X-0.8731 Y-0.0138
N4965 X-0.8729 Y-0.0131
N4970 X-0.8689 Y0.0002
N4975 G3 X-0.8639 Y0.0433 I-0.1197 J0.0359
N4980 G1 X-0.8645 Y0.0538
N4985 Y0.0545
N4990 X-0.8652 Y0.0649
N4995 X-0.8653 Y0.0663
N5000 X-0.8661 Y0.0766
N5005 X-0.8662 Y0.0789
N5010 X-0.8672 Y0.0891
N5015 X-0.8675 Y0.0922
N5020 X-0.8687 Y0.1021
N5025 X-0.8693 Y0.1062
N5030 X-0.8708 Y0.1159
N5035 X-0.8716 Y0.1209
N5040 X-0.8735 Y0.1303
N5045 X-0.8748 Y0.1365
N5050 X-0.8771 Y0.1455
N5055 X-0.8791 Y0.1528
N5060 X-0.8818 Y0.1615
N5065 X-0.8833 Y0.1658
N5070 X-0.8848 Y0.17
N5075 X-0.8881 Y0.1782
N5080 G3 X-0.8924 Y0.1879 I-0.1163 J-0.0459
N5085 G1 X-0.8963 Y0.1956
N5090 G3 X-0.9022 Y0.2062 I-0.1119 J-0.0557
N5095 G1 X-0.9066 Y0.2134
N5100 G3 X-0.9146 Y0.2246 I-0.106 J-0.0663
N5105 G1 X-0.9198 Y0.2312
N5110 G3 X-0.9296 Y0.2422 I-0.098 J-0.0776
N5115 G1 X-0.9355 Y0.2481
N5120 G3 X-0.9459 Y0.2574 I-0.0882 J-0.0886
N5125 G1 X-0.9526 Y0.2627
N5130 G3 X-0.9624 Y0.2697 I-0.0778 J-0.0979
N5135 G1 X-0.9697 Y0.2744
N5140 G3 X-0.9784 Y0.2796 I-0.068 J-0.1049
N5145 G1 X-0.9863 Y0.2838
N5150 X-0.9938 Y0.2876
N5155 X-1.0022 Y0.2914
N5160 X-1.0085 Y0.294
N5165 X-1.0173 Y0.2975
N5170 X-1.0224 Y0.2993
N5175 X-1.0315 Y0.3024
N5180 X-1.0355 Y0.3037
N5185 X-1.0449 Y0.3066
N5190 X-1.0478 Y0.3074
N5195 X-1.0575 Y0.3101
N5200 X-1.0593 Y0.3106
N5205 X-1.0692 Y0.3132
N5210 X-1.0701 Y0.3134
N5215 X-1.08 Y0.316
N5220 G3 X-1.1483 Y0.314 I-0.0308 J-0.1212
N5225 G1 X-1.1593 Y0.3105
N5230 X-1.1603 Y0.3102
N5235 X-1.1713 Y0.3067
N5240 X-1.1732 Y0.306
N5245 X-1.184 Y0.3024
N5250 X-1.187 Y0.3013
N5255 X-1.1975 Y0.2974
N5260 X-1.2015 Y0.2958
N5265 X-1.2117 Y0.2916
N5270 X-1.2169 Y0.2893
N5275 X-1.2266 Y0.2848
N5280 X-1.2331 Y0.2816
N5285 X-1.2422 Y0.2766
N5290 X-1.2461 Y0.2745
N5295 X-1.2499 Y0.2722
N5300 X-1.2585 Y0.2667
N5305 G3 X-1.2673 Y0.2606 I0.0669 J-0.1056
N5310 G1 X-1.2751 Y0.2546
N5315 G3 X-1.2848 Y0.2465 I0.0757 J-0.0995
N5320 G1 X-1.2919 Y0.2399
N5325 G3 X-1.3018 Y0.2295 I0.0854 J-0.0913
N5330 G1 X-1.308 Y0.2222
N5335 G3 X-1.3164 Y0.211 I0.0952 J-0.081
N5340 G1 X-1.3218 Y0.2031
N5345 G3 X-1.3284 Y0.1922 I0.1037 J-0.0698
N5350 G1 X-1.3329 Y0.1836
N5355 G3 X-1.3378 Y0.1734 I0.1103 J-0.0589
N5360 G1 X-1.3417 Y0.1642
N5365 X-1.3435 Y0.1597
N5370 X-1.3451 Y0.155
N5375 X-1.3483 Y0.1454
N5380 X-1.3507 Y0.1373
N5385 X-1.3533 Y0.1272
N5390 X-1.3549 Y0.1204
N5395 X-1.357 Y0.1098
N5400 X-1.3581 Y0.104
N5405 X-1.3597 Y0.0931
N5410 X-1.3603 Y0.0884
N5415 X-1.3616 Y0.0772
N5420 X-1.362 Y0.0734
N5425 X-1.3629 Y0.0619
N5430 X-1.3631 Y0.059
N5435 X-1.3638 Y0.0474
N5440 X-1.3639 Y0.0451
N5445 X-1.3644 Y0.0333
N5450 Y0.032
N5455 X-1.3648 Y0.0201
N5460 Y0.0193
N5465 X-1.365 Y0.0122
N5470 X-1.4573
N5475 X-1.4577 Y0.0149
N5480 X-1.4598 Y0.0293
N5485 X-1.4618 Y0.0436
N5490 X-1.4636 Y0.0578
N5495 X-1.4652 Y0.0718
N5500 X-1.4666 Y0.0858
N5505 X-1.4679 Y0.1
N5510 X-1.469 Y0.1143
N5515 X-1.4699 Y0.1287
N5520 X-1.4707 Y0.1433
N5525 X-1.4714 Y0.158
N5530 X-1.472 Y0.1729
N5535 X-1.4724 Y0.1879
N5540 X-1.4729 Y0.2031
N5545 X-1.4732 Y0.2184
N5550 X-1.4735 Y0.2339
N5555 X-1.4738 Y0.2495
N5560 X-1.4739 Y0.2587
N5565 X-1.471 Y0.2927
N5570 X-1.4672 Y0.3322
N5575 X-1.4632 Y0.3705
N5580 X-1.4586 Y0.4072
N5585 X-1.4532 Y0.4422
N5590 X-1.447 Y0.475
N5595 X-1.4399 Y0.5055
N5600 X-1.4318 Y0.5333
N5605 X-1.4228 Y0.5582
N5610 X-1.4129 Y0.58
N5615 X-1.4024 Y0.5986
N5620 X-1.3913 Y0.6142
N5625 X-1.3793 Y0.6275
N5630 X-1.3651 Y0.6398
N5635 X-1.3479 Y0.6519
N5640 X-1.3273 Y0.6636
N5645 X-1.3032 Y0.6749
N5650 X-1.2761 Y0.6856
N5655 X-1.2461 Y0.6957
N5660 X-1.2136 Y0.7052
N5665 X-1.179 Y0.7141
N5670 X-1.1425 Y0.7225
N5675 X-1.1046 Y0.7308
N5680 X-1.0941 Y0.733
N5685 X-1.0846 Y0.7305
N5690 X-1.0479 Y0.7208
N5695 X-1.0128 Y0.7108
N5700 X-0.9796 Y0.7006
N5705 X-0.9487 Y0.6899
N5710 X-0.9203 Y0.6787
N5715 X-0.8948 Y0.667
N5720 X-0.8726 Y0.6549
N5725 X-0.8537 Y0.6425
N5730 X-0.8383 Y0.6301
N5735 X-0.8256 Y0.6173
N5740 X-0.8144 Y0.603
N5745 X-0.804 Y0.5862
N5750 X-0.7943 Y0.5665
N5755 X-0.7854 Y0.5438
N5760 X-0.7775 Y0.5181
N5765 X-0.7705 Y0.4898
N5770 X-0.7646 Y0.4589
N5775 X-0.7596 Y0.4258
N5780 X-0.7556 Y0.3908
N5785 X-0.7522 Y0.3541
N5790 X-0.7494 Y0.3161
N5795 X-0.747 Y0.2769
N5800 X-0.745 Y0.2402
N5805 Y-0.657
N5810 X-0.7458 Y-0.667
N5815 X-0.7459 Y-0.6675
N5820 X-0.7471 Y-0.6826
N5825 Y-0.6836
N5830 X-0.7482 Y-0.6987
N5835 X-0.7483 Y-0.7002
N5840 X-0.7491 Y-0.7152
N5845 X-0.7492 Y-0.7173
N5850 X-0.7498 Y-0.7321
N5855 X-0.7499 Y-0.7348
N5860 X-0.7502 Y-0.7494
N5865 Y-0.7527
N5870 X-0.7501 Y-0.7672
N5875 X-0.75 Y-0.7711
N5880 X-0.7495 Y-0.7854
N5885 X-0.7492 Y-0.79
N5890 X-0.7481 Y-0.804
N5895 X-0.7476 Y-0.8094
N5900 X-0.746 Y-0.8231
N5905 X-0.7451 Y-0.8293
N5910 X-0.7428 Y-0.8426
N5915 X-0.7414 Y-0.8496
N5920 X-0.7384 Y-0.8626
N5925 X-0.7364 Y-0.8703
N5930 X-0.7326 Y-0.8829
N5935 X-0.7298 Y-0.8913
N5940 X-0.7252 Y-0.9035
N5945 X-0.7234 Y-0.908
N5950 X-0.7215 Y-0.9123
N5955 X-0.716 Y-0.9241
N5960 G3 X-0.7112 Y-0.9333 I0.1133 J0.0528
N5965 G1 X-0.7048 Y-0.9447
N5970 G3 X-0.6991 Y-0.9537 I0.1085 J0.062
N5975 G1 X-0.6916 Y-0.9645
N5980 X-0.6887 Y-0.9685
N5985 X-0.6857 Y-0.9723
N5990 X-0.6773 Y-0.9827
N5995 X-0.672 Y-0.9888
N6000 X-0.6628 Y-0.9988
N6005 X-0.6582 Y-1.0035
N6010 X-0.6483 Y-1.0131
N6015 X-0.6446 Y-1.0165
N6020 X-0.6341 Y-1.0259
N6025 X-0.6314 Y-1.0283
N6030 X-0.6205 Y-1.0375
N6035 X-0.6187 Y-1.039
N6040 X-0.6075 Y-1.048
N6045 X-0.6066 Y-1.0488
N6050 X-0.5953 Y-1.0578
N6055 G3 X-0.5839 Y-1.0659 I0.0779 J0.0978
N6060 G1 Y-1.5459
N6065 X-0.5882 Y-1.5474
N6070 X-0.5928 Y-1.5489
N6075 X-0.5974 Y-1.5502
N6080 X-0.6021 Y-1.5514
N6085 X-0.6073 Y-1.5526
N6090 X-0.6129 Y-1.5537
N6095 X-0.619 Y-1.5547
N6100 X-0.6254 Y-1.5557
N6105 X-0.6323 Y-1.5566
N6110 X-0.6395 Y-1.5574
N6115 X-0.6472 Y-1.5583
N6120 X-0.6552 Y-1.559
N6125 X-0.6562 Y-1.5591
N6130 X-0.6574 Y-1.5589
N6135 X-0.6739 Y-1.5559
N6140 X-0.6896 Y-1.5529
N6145 X-0.7042 Y-1.5498
N6150 X-0.7178 Y-1.5466
N6155 X-0.7301 Y-1.5432
N6160 X-0.7412 Y-1.5397
N6165 X-0.7509 Y-1.5362
N6170 X-0.7592 Y-1.5326
N6175 X-0.7661 Y-1.529
N6180 X-0.7717 Y-1.5256
N6185 X-0.7766 Y-1.5221
N6190 X-0.7816 Y-1.5178
N6195 X-0.7871 Y-1.5124
N6200 X-0.793 Y-1.5058
N6205 X-0.7993 Y-1.4979
N6210 X-0.8058 Y-1.4887
N6215 X-0.8126 Y-1.4783
N6220 X-0.8196 Y-1.4668
N6225 X-0.8268 Y-1.4541
N6230 X-0.8341 Y-1.4406
N6235 X-0.8416 Y-1.4261
N6240 X-0.8493 Y-1.4109
N6245 X-0.8573 Y-1.395
N6250 G3 X-1.084 Y-1.4015 I-0.1119 J-0.0557
N6255 G1 X-1.0906 Y-1.4169
N6260 X-1.097 Y-1.4317
N6265 X-1.1033 Y-1.4456
N6270 X-1.1094 Y-1.4588
N6275 X-1.1154 Y-1.4709
N6280 X-1.1213 Y-1.482
N6285 X-1.127 Y-1.492
N6290 X-1.1325 Y-1.5008
N6295 X-1.1377 Y-1.5083
N6300 X-1.1426 Y-1.5146
N6305 X-1.1471 Y-1.5196
N6310 X-1.1512 Y-1.5235
N6315 X-1.1549 Y-1.5266
N6320 X-1.159 Y-1.5294
N6325 X-1.1642 Y-1.5324
N6330 X-1.1709 Y-1.5357
N6335 X-1.179 Y-1.5391
N6340 X-1.1885 Y-1.5426
N6345 X-1.1994 Y-1.546
N6350 X-1.2116 Y-1.5494
N6355 X-1.2218 Y-1.552
N6360 X-1.2475 Y-1.5355
N6365 X-1.2795 Y-1.5141
N6370 X-1.3093 Y-1.4929
N6375 X-1.3365 Y-1.4719
N6380 X-1.3608 Y-1.451
N6385 X-1.3819 Y-1.4303
N6390 X-1.3997 Y-1.4099
N6395 X-1.4146 Y-1.3891
N6400 X-1.4275 Y-1.367
N6405 X-1.4388 Y-1.343
N6410 X-1.4485 Y-1.3168
N6415 X-1.4568 Y-1.2885
N6420 X-1.4636 Y-1.258
N6425 X-1.4689 Y-1.2255
N6430 X-1.4728 Y-1.1911
N6435 X-1.4753 Y-1.1548
N6440 X-1.4757 Y-1.1433
N6445 G2 X-1.4649 Y-1.1305 I0.0125 J0.0004
N6450 G1 X-1.2053 Y-1.0957
N6455 X-1.2029
N6460 X-1.2005 Y-1.096
N6465 X-1.1941 Y-1.0977
N6470 X-1.1909 Y-1.0985
N6475 X-1.1798 Y-1.1011
N6480 X-1.1776 Y-1.1016
N6485 X-1.1665 Y-1.1041
N6490 X-1.1654 Y-1.1043
N6495 X-1.1541 Y-1.1067
N6500 G3 X-1.0579 Y-1.0951 I0.0312 J0.1467
N6505 G1 X-1.0432 Y-1.0881
N6510 X-1.0419 Y-1.0874
N6515 X-1.0274 Y-1.0803
N6520 X-1.025 Y-1.0791
N6525 X-1.0107 Y-1.0717
N6530 X-1.007 Y-1.0697
N6535 X-0.9932 Y-1.0621
N6540 X-0.9881 Y-1.0592
N6545 X-0.9749 Y-1.0512
N6550 X-0.9685 Y-1.0471
N6555 X-0.9559 Y-1.0387
N6560 X-0.9482 Y-1.0331
N6565 X-0.9365 Y-1.024
N6570 G3 X-0.9276 Y-1.0166 I-0.0916 J0.1188
N6575 G1 X-0.9169 Y-1.0069
N6580 G3 X-0.907 Y-0.9971 I-0.1005 J0.1113
N6585 G1 X-0.8974 Y-0.9867
N6590 G3 X-0.8874 Y-0.9746 I-0.1104 J0.1015
N6595 G1 X-0.879 Y-0.9634
N6600 G3 X-0.8705 Y-0.9506 I-0.1204 J0.0894
N6605 G1 X-0.8634 Y-0.9386
N6610 G3 X-0.8567 Y-0.9261 I-0.1289 J0.0767
N6615 G1 X-0.8507 Y-0.9134
N6620 G3 X-0.8458 Y-0.9017 I-0.1355 J0.0642
N6625 G1 X-0.8407 Y-0.8883
N6630 G3 X-0.8372 Y-0.8776 I-0.1405 J0.0526
N6635 G1 X-0.8331 Y-0.8635
N6640 X-0.8318 Y-0.8588
N6645 X-0.8307 Y-0.8541
N6650 X-0.8274 Y-0.8395
N6655 X-0.8259 Y-0.8312
N6660 X-0.8234 Y-0.8161
N6665 X-0.8224 Y-0.8091
N6670 X-0.8206 Y-0.7935
N6675 X-0.8201 Y-0.7875
N6680 X-0.8189 Y-0.7715
N6685 X-0.8186 Y-0.7667
N6690 X-0.8179 Y-0.7504
N6695 X-0.8178 Y-0.7464
N6700 X-0.8176 Y-0.7299
N6705 Y-0.7267
N6710 X-0.8177 Y-0.71
N6715 Y-0.7077
N6720 X-0.818 Y-0.6908
N6725 X-0.8181 Y-0.6893
N6730 X-0.8186 Y-0.6722
N6735 Y-0.6715
N6740 X-0.8191 Y-0.657
N6745 Y-0.4448
N6750 G3 X-1.0373 Y-0.3112 I-0.15 J0.
N6755 G1 X-1.0559 Y-0.3207
N6760 X-1.0565 Y-0.321
N6765 X-1.075 Y-0.3306
N6770 X-1.0762 Y-0.3312
N6775 X-1.0945 Y-0.3409
N6780 X-1.0963 Y-0.3418
N6785 X-1.1144 Y-0.3517
N6790 X-1.1167 Y-0.353
N6795 X-1.1345 Y-0.3631
N6800 X-1.1375 Y-0.3648
N6805 X-1.1549 Y-0.3752
N6810 X-1.1584 Y-0.3774
N6815 X-1.1753 Y-0.3882
N6820 X-1.1795 Y-0.3909
N6825 X-1.1959 Y-0.4021
N6830 X-1.2006 Y-0.4055
N6835 X-1.2164 Y-0.4172
N6840 X-1.2216 Y-0.4213
N6845 X-1.2367 Y-0.4336
N6850 X-1.2425 Y-0.4385
N6855 X-1.2567 Y-0.4514
N6860 X-1.2629 Y-0.4572
N6865 X-1.2763 Y-0.4708
N6870 X-1.2827 Y-0.4777
N6875 X-1.2952 Y-0.492
N6880 G3 X-1.3016 Y-0.4999 I0.113 J-0.0986
N6885 G1 X-1.3131 Y-0.515
N6890 G3 X-1.3192 Y-0.5236 I0.1195 J-0.0907
N6895 G1 X-1.3296 Y-0.5396
N6900 X-1.3346 Y-0.5478
N6905 X-1.344 Y-0.5645
N6910 X-1.348 Y-0.5719
N6915 X-1.3565 Y-0.5893
N6920 X-1.3596 Y-0.5958
N6925 X-1.3674 Y-0.6137
N6930 X-1.3697 Y-0.6193
N6935 X-1.3768 Y-0.6378
N6940 X-1.3785 Y-0.6424
N6945 X-1.3852 Y-0.6613
N6950 X-1.3864 Y-0.6649
N6955 X-1.3926 Y-0.6841
N6960 X-1.3935 Y-0.6868
N6965 X-1.3993 Y-0.7063
N6970 X-1.3999 Y-0.7081
N6975 X-1.4056 Y-0.7278
N6980 X-1.4058 Y-0.7287
N6985 X-1.4114 Y-0.7484
N6990 G3 X-1.4164 Y-0.8018 I0.1444 J-0.0407
N6995 G1 X-1.4155 Y-0.8135
N7000 X-1.4154 Y-0.8144
N7005 X-1.4143 Y-0.826
N7010 X-1.4141 Y-0.8278
N7015 X-1.4129 Y-0.8393
N7020 X-1.4126 Y-0.8422
N7025 X-1.4112 Y-0.8534
N7030 X-1.4107 Y-0.8573
N7035 X-1.409 Y-0.8684
N7040 X-1.4082 Y-0.8735
N7045 X-1.4062 Y-0.8842
N7050 X-1.4049 Y-0.8905
N7055 X-1.4025 Y-0.9009
N7060 X-1.4005 Y-0.9086
N7065 X-1.3976 Y-0.9186
N7070 X-1.3946 Y-0.9278
N7075 X-1.3912 Y-0.9373
N7080 G3 X-1.3869 Y-0.9479 I0.1412 J0.0506
N7085 G1 X-1.3829 Y-0.9569
N7090 G3 X-1.3769 Y-0.9689 I0.1369 J0.0613
N7095 G1 X-1.3722 Y-0.9772
N7100 G3 X-1.364 Y-0.9903 I0.1308 J0.0733
N7105 G1 X-1.3586 Y-0.9979
N7110 G3 X-1.3478 Y-1.0115 I0.1226 J0.0864
N7115 G1 X-1.3416 Y-1.0184
N7120 G3 X-1.3289 Y-1.031 I0.1118 J0.1
N7125 G1 X-1.3219 Y-1.0372
N7130 G3 X-1.3092 Y-1.0472 I0.0991 J0.1126
N7135 G1 X-1.3014 Y-1.0527
N7140 G3 X-1.2897 Y-1.0602 I0.0864 J0.1226
N7145 G1 X-1.2812 Y-1.0651
N7150 G3 X-1.2709 Y-1.0705 I0.0747 J0.1301
N7155 G1 X-1.2618 Y-1.0748
N7160 X-1.2529 Y-1.0787
N7165 X-1.2433 Y-1.0825
N7170 X-1.236 Y-1.0852
N7175 X-1.2259 Y-1.0887
N7180 X-1.22 Y-1.0905
N7185 X-1.2095 Y-1.0936
N7190 X-1.2049 Y-1.0949
N7195 X-1.2005 Y-1.096
N7200 G3 X-1.179 Y-1.0885 I0.0051 J0.0197
N7205 G2 X-1.1577 Y-1.0804 I0.0169 J-0.0125
N7210 G1 X-1.1489 Y-1.0822
N7215 G3 X-1.0687 Y-1.0726 I0.026 J0.1223
N7220 G1 X-1.054 Y-1.0655
N7225 X-1.053 Y-1.065
N7230 X-1.0384 Y-1.0579
N7235 X-1.0364 Y-1.0568
N7240 X-1.0222 Y-1.0495
N7245 X-1.0191 Y-1.0478
N7250 X-1.0052 Y-1.0402
N7255 X-1.0011 Y-1.0378
N7260 X-0.9878 Y-1.0298
N7265 X-0.9825 Y-1.0264
N7270 X-0.9699 Y-1.0179
N7275 X-0.9635 Y-1.0133
N7280 X-0.9517 Y-1.0042
N7285 X-0.948 Y-1.0012
N7290 X-0.9443 Y-0.998
N7295 X-0.9336 Y-0.9884
N7300 G3 X-0.9254 Y-0.9802 I-0.0838 J0.0928
N7305 G1 X-0.9158 Y-0.9698
N7310 G3 X-0.9074 Y-0.9597 I-0.092 J0.0846
N7315 G1 X-0.8991 Y-0.9485
N7320 G3 X-0.892 Y-0.9378 I-0.1003 J0.0745
N7325 G1 X-0.8849 Y-0.9258
N7330 G3 X-0.8793 Y-0.9154 I-0.1074 J0.0639
N7335 G1 X-0.8733 Y-0.9027
N7340 G3 X-0.8692 Y-0.893 I-0.113 J0.0535
N7345 G1 X-0.8641 Y-0.8795
N7350 X-0.8626 Y-0.8751
N7355 X-0.8612 Y-0.8706
N7360 X-0.8571 Y-0.8566
N7365 X-0.8551 Y-0.8487
N7370 X-0.8519 Y-0.8341
N7375 X-0.8505 Y-0.8272
N7380 X-0.8481 Y-0.8121
N7385 X-0.8473 Y-0.8062
N7390 X-0.8455 Y-0.7907
N7395 X-0.845 Y-0.7856
N7400 X-0.8438 Y-0.7697
N7405 X-0.8436 Y-0.7656
N7410 X-0.8429 Y-0.7493
N7415 X-0.8428 Y-0.7461
N7420 X-0.8426 Y-0.7295
N7425 Y-0.7269
N7430 X-0.8427 Y-0.7101
N7435 Y-0.7083
N7440 X-0.843 Y-0.6913
N7445 X-0.8431 Y-0.6901
N7450 X-0.8436 Y-0.673
N7455 Y-0.6724
N7460 X-0.8441 Y-0.6575
N7465 Y-0.4448
N7470 G3 X-1.026 Y-0.3335 I-0.125 J0.
N7475 G1 X-1.0445 Y-0.343
N7480 X-1.0451 Y-0.3433
N7485 X-1.0636 Y-0.3528
N7490 X-1.0645 Y-0.3533
N7495 X-1.0828 Y-0.363
N7500 X-1.0843 Y-0.3638
N7505 X-1.1024 Y-0.3736
N7510 X-1.1044 Y-0.3747
N7515 X-1.1222 Y-0.3848
N7520 X-1.1246 Y-0.3863
N7525 X-1.142 Y-0.3967
N7530 X-1.145 Y-0.3985
N7535 X-1.1619 Y-0.4093
N7540 X-1.1654 Y-0.4115
N7545 X-1.1818 Y-0.4228
N7550 X-1.1857 Y-0.4256
N7555 X-1.2015 Y-0.4373
N7560 X-1.2059 Y-0.4407
N7565 X-1.2209 Y-0.4529
N7570 X-1.2257 Y-0.4571
N7575 X-1.24 Y-0.4699
N7580 X-1.2451 Y-0.4748
N7585 X-1.2585 Y-0.4884
N7590 X-1.2639 Y-0.4941
N7595 X-1.2763 Y-0.5084
N7600 X-1.2817 Y-0.515
N7605 X-1.2932 Y-0.5301
N7610 X-1.2983 Y-0.5373
N7615 X-1.3087 Y-0.5532
N7620 X-1.3128 Y-0.5601
N7625 X-1.3223 Y-0.5768
N7630 X-1.3255 Y-0.583
N7635 X-1.3341 Y-0.6003
N7640 X-1.3366 Y-0.6058
N7645 X-1.3445 Y-0.6237
N7650 X-1.3464 Y-0.6284
N7655 X-1.3535 Y-0.6468
N7660 X-1.355 Y-0.6507
N7665 X-1.3616 Y-0.6695
N7670 X-1.3626 Y-0.6726
N7675 X-1.3688 Y-0.6918
N7680 X-1.3695 Y-0.6941
N7685 X-1.3754 Y-0.7135
N7690 X-1.3759 Y-0.7151
N7695 X-1.3815 Y-0.7347
N7700 X-1.3817 Y-0.7354
N7705 X-1.3873 Y-0.7552
N7710 G3 X-1.3915 Y-0.7997 I0.1203 J-0.0339
N7715 G1 X-1.3905 Y-0.8113
N7720 Y-0.8121
N7725 X-1.3894 Y-0.8237
N7730 X-1.3893 Y-0.8252
N7735 X-1.3881 Y-0.8367
N7740 X-1.3878 Y-0.8391
N7745 X-1.3864 Y-0.8504
N7750 X-1.386 Y-0.8536
N7755 X-1.3843 Y-0.8646
N7760 X-1.3836 Y-0.8689
N7765 X-1.3816 Y-0.8797
N7770 X-1.3805 Y-0.8849
N7775 X-1.3781 Y-0.8953
N7780 X-1.3764 Y-0.9017
N7785 X-1.3736 Y-0.9117
N7790 X-1.3711 Y-0.9193
N7795 X-1.3677 Y-0.9288
N7800 X-1.366 Y-0.9333
N7805 X-1.3641 Y-0.9377
N7810 X-1.3601 Y-0.9467
N7815 G3 X-1.3551 Y-0.9567 I0.1141 J0.0511
N7820 G1 X-1.3504 Y-0.965
N7825 G3 X-1.3436 Y-0.9759 I0.109 J0.0611
N7830 G1 X-1.3382 Y-0.9835
N7835 G3 X-1.3292 Y-0.9948 I0.1022 J0.072
N7840 G1 X-1.323 Y-1.0018
N7845 G3 X-1.3124 Y-1.0123 I0.0932 J0.0833
N7850 G1 X-1.3054 Y-1.0185
N7855 G3 X-1.2948 Y-1.0268 I0.0826 J0.0938
N7860 G1 X-1.287 Y-1.0323
N7865 G3 X-1.2772 Y-1.0385 I0.072 J0.1022
N7870 G1 X-1.2687 Y-1.0434
N7875 X-1.2645 Y-1.0458
N7880 X-1.2601 Y-1.0479
N7885 X-1.251 Y-1.0523
N7890 X-1.2437 Y-1.0555
N7895 X-1.234 Y-1.0593
N7900 X-1.2279 Y-1.0616
N7905 X-1.2178 Y-1.065
N7910 X-1.2129 Y-1.0666
N7915 X-1.2024 Y-1.0696
N7920 X-1.1986 Y-1.0707
N7925 X-1.1878 Y-1.0735
N7930 X-1.1851 Y-1.0742
N7935 X-1.1741 Y-1.0768
N7940 X-1.1723 Y-1.0772
N7945 X-1.1611 Y-1.0797
N7950 X-1.1602 Y-1.0799
N7955 X-1.1577 Y-1.0804
N7960 X-1.154 Y-1.0815 Z-0.1244 F10.
N7965 X-1.1505 Y-1.0831 Z-0.1238
N7970 X-1.1476 Y-1.0851 Z-0.122
N7975 X-1.145 Y-1.0874 Z-0.1202
N7980 X-1.1432 Y-1.0895 Z-0.1175
N7985 X-1.1416 Y-1.0917 Z-0.1147
N7990 X-1.14 Y-1.0949 Z-0.1077
N7995 X-1.1395 Y-1.096 Z-0.1
N8000 Z0.2
N8005 G0 X-2.3373 Y-1.3581
N8010 G1 Z0.0749 F10.
N8015 X-2.3381 Y-1.3589 Z0.0676 F5.
N8020 X-2.3404 Y-1.3611 Z0.0609
N8025 X-2.3442 Y-1.3643 Z0.0555
N8030 X-2.3492 Y-1.3682 Z0.0517
N8035 X-2.3551 Y-1.3723 Z0.05
N8040 G2 X-2.4846 Y-1.1732 Z0.0174 I-0.0647 J0.0996
N8045 X-2.3551 Y-1.3723 Z-0.0153 I0.0647 J-0.0996
N8050 X-2.4846 Y-1.1732 Z-0.0479 I-0.0647 J0.0996
N8055 X-2.3551 Y-1.3723 Z-0.0806 I0.0647 J-0.0996
N8060 X-2.4846 Y-1.1732 Z-0.1132 I-0.0647 J0.0996
N8065 X-2.3568 Y-1.1721 Z-0.125 I0.0647 J-0.0996
N8070 G3 X-2.3452 Y-1.179 I0.1376 J0.2195
N8075 G2 X-2.3317 Y-1.2019 I-0.0127 J-0.0229
N8080 G1 Y-1.3815
N8085 G2 X-2.3445 Y-1.3943 I-0.0128 J0.
N8090 G1 X-2.426
N8095 G2 X-2.4386 Y-1.3817 I0. J0.0126
N8100 G1 Y-1.1937
N8105 G2 X-2.4251 Y-1.1686 I0.0302 J0.
N8110 G3 X-2.4036 Y-1.1527 I-0.1432 J0.2159
N8115 G2 X-2.3838 I0.0099 J-0.0121
N8120 G3 X-2.3568 Y-1.1721 I0.1646 J0.2
N8125 X-2.288 Y-1.1616 I0.0283 J0.0451
N8130 G2 X-2.2226 Y-1.1857 I0.0282 J-0.0241
N8135 G1 Y-1.5033
N8140 X-2.5476
N8145 Y-1.1012
N8150 G3 X-2.4183 Y-0.9527 I-0.0206 J0.1486
N8155 G1 Y0.1606
N8160 G3 X-2.5476 Y0.3092 I-0.15 J0.
N8165 G1 Y0.6771
N8170 X-2.3691
N8175 Y0.5268
N8180 G3 X-2.0722 Y0.4969 I0.15 J0.
N8185 G1 X-2.0683 Y0.5157
N8190 X-2.0645 Y0.5339
N8195 X-2.0607 Y0.5513
N8200 X-2.0569 Y0.5678
N8205 X-2.053 Y0.5833
N8210 X-2.049 Y0.5978
N8215 X-2.0449 Y0.6111
N8220 X-2.0407 Y0.6232
N8225 X-2.0365 Y0.634
N8230 X-2.0323 Y0.6434
N8235 X-2.0282 Y0.6514
N8240 X-2.0242 Y0.6581
N8245 X-2.0205 Y0.6635
N8250 X-2.0171 Y0.6678
N8255 X-2.0137 Y0.6713
N8260 X-2.0095 Y0.6751
N8265 X-2.0037 Y0.6796
N8270 X-1.9961 Y0.6847
N8275 X-1.9866 Y0.6904
N8280 X-1.986 Y0.6908
N8285 X-1.9842 Y0.6896
N8290 X-1.9647 Y0.6764
N8295 X-1.9474 Y0.6637
N8300 X-1.9328 Y0.6517
N8305 X-1.9209 Y0.6406
N8310 X-1.9117 Y0.6305
N8315 X-1.9046 Y0.6211
N8320 X-1.8984 Y0.611
N8325 X-1.8927 Y0.5994
N8330 X-1.8875 Y0.5861
N8335 X-1.8828 Y0.5708
N8340 X-1.8787 Y0.5534
N8345 X-1.8754 Y0.5341
N8350 X-1.8728 Y0.513
N8355 X-1.871 Y0.4901
N8360 X-1.87 Y0.4656
N8365 X-1.8697 Y0.4398
N8370 X-1.87 Y0.4126
N8375 X-1.8709 Y0.3843
N8380 X-1.8722 Y0.3551
N8385 X-1.8739 Y0.3249
N8390 X-1.8757 Y0.294
N8395 X-1.876 Y0.286
N8400 X-1.8761 Y0.2593
N8405 X-1.8763 Y0.2327
N8410 X-1.8765 Y0.2062
N8415 X-1.8767 Y0.1798
N8420 X-1.877 Y0.1534
N8425 X-1.8773 Y0.1271
N8430 X-1.8777 Y0.1009
N8435 X-1.8778 Y0.0955
N8440 X-1.8801 Y0.1034
N8445 G3 X-1.8833 Y0.1132 I-0.1441 J-0.0417
N8450 G1 X-1.8886 Y0.1276
N8455 G3 X-1.8928 Y0.138 I-0.1409 J-0.0515
N8460 G1 X-1.8991 Y0.1519
N8465 G3 X-1.9046 Y0.1627 I-0.1366 J-0.0619
N8470 G1 X-1.912 Y0.1761
N8475 G3 X-1.9186 Y0.1869 I-0.1312 J-0.0727
N8480 G1 X-1.9271 Y0.1997
N8485 G3 X-1.934 Y0.2091 I-0.1246 J-0.0836
N8490 G1 X-1.9437 Y0.2213
N8495 X-1.9499 Y0.2287
N8500 X-1.9605 Y0.2405
N8505 X-1.9659 Y0.2461
N8510 X-1.9773 Y0.2575
N8515 X-1.9817 Y0.2617
N8520 X-1.9937 Y0.2728
N8525 X-1.997 Y0.2758
N8530 X-2.0095 Y0.2867
N8535 X-2.0117 Y0.2885
N8540 X-2.0245 Y0.2992
N8545 X-2.0256 Y0.3001
N8550 X-2.0385 Y0.3108
N8555 G3 X-2.2425 Y0.298 I-0.0951 J-0.116
N8560 G1 X-2.2526 Y0.2874
N8565 X-2.2535 Y0.2864
N8570 X-2.2634 Y0.2758
N8575 X-2.2653 Y0.2737
N8580 X-2.275 Y0.2629
N8585 X-2.2778 Y0.2597
N8590 X-2.287 Y0.2488
N8595 X-2.2907 Y0.2443
N8600 X-2.2994 Y0.2332
N8605 X-2.3038 Y0.2272
N8610 X-2.3119 Y0.2158
N8615 X-2.3169 Y0.2082
N8620 X-2.3242 Y0.1964
N8625 G3 X-2.3295 Y0.1872 I0.1276 J-0.0788
N8630 G1 X-2.3358 Y0.1751
N8635 G3 X-2.3404 Y0.1653 I0.1329 J-0.0696
N8640 G1 X-2.3459 Y0.1529
N8645 G3 X-2.3496 Y0.1434 I0.1375 J-0.0598
N8650 G1 X-2.3542 Y0.1306
N8655 X-2.3571 Y0.1216
N8660 X-2.3608 Y0.1085
N8665 X-2.363 Y0.1001
N8670 X-2.366 Y0.0866
N8675 X-2.3675 Y0.079
N8680 X-2.3699 Y0.0653
N8685 X-2.3709 Y0.0583
N8690 X-2.3727 Y0.0443
N8695 X-2.3733 Y0.0381
N8700 X-2.3744 Y0.0239
N8705 X-2.3748 Y0.0184
N8710 X-2.3754 Y0.004
N8715 X-2.3756 Y-0.0007
N8720 X-2.3758 Y-0.0153
N8725 Y-0.0194
N8730 X-2.3755 Y-0.0341
N8735 Y-0.0375
N8740 X-2.3749 Y-0.0524
N8745 X-2.3748 Y-0.0552
N8750 X-2.3739 Y-0.0702
N8755 X-2.3738 Y-0.0724
N8760 X-2.3727 Y-0.0875
N8765 X-2.3726 Y-0.0891
N8770 X-2.3714 Y-0.1043
N8775 X-2.3713 Y-0.1054
N8780 X-2.37 Y-0.1206
N8785 X-2.3699 Y-0.1211
N8790 X-2.3691 Y-0.1295
N8795 Y-0.9527
N8800 G3 X-2.2226 Y-1.1026 I0.15 J0.
N8805 G1 Y-1.1857
N8810 G3 X-2.2101 Y-1.2045 I0.0203 J0.
N8815 G2 X-2.1976 Y-1.2232 I-0.0078 J-0.0187
N8820 G1 Y-1.5283
N8825 X-2.5726
N8830 Y-1.0777
N8835 X-2.5683
N8840 G3 X-2.4433 Y-0.9527 I0. J0.125
N8845 G1 Y0.1606
N8850 G3 X-2.5683 Y0.2856 I-0.125 J0.
N8855 G1 X-2.5726
N8860 Y0.7021
N8865 X-2.3441
N8870 Y0.5268
N8875 G3 X-2.0967 Y0.5019 I0.125 J0.
N8880 G1 X-2.0928 Y0.5208
N8885 X-2.089 Y0.5391
N8890 X-2.0851 Y0.5568
N8895 X-2.0812 Y0.5736
N8900 X-2.0772 Y0.5897
N8905 X-2.073 Y0.6048
N8910 X-2.0687 Y0.6189
N8915 X-2.0642 Y0.6319
N8920 X-2.0596 Y0.6437
N8925 X-2.0548 Y0.6542
N8930 X-2.0501 Y0.6635
N8935 X-2.0453 Y0.6716
N8940 X-2.0406 Y0.6784
N8945 X-2.0359 Y0.6842
N8950 X-2.0311 Y0.6893
N8955 X-2.0255 Y0.6943
N8960 X-2.0183 Y0.6998
N8965 X-2.0095 Y0.7058
N8970 X-1.9991 Y0.7121
N8975 X-1.9871 Y0.7187
N8980 X-1.985 Y0.7197
N8985 X-1.9705 Y0.7106
N8990 X-1.9502 Y0.6968
N8995 X-1.9321 Y0.6835
N9000 X-1.9163 Y0.6706
N9005 X-1.9031 Y0.6582
N9010 X-1.8925 Y0.6465
N9015 X-1.8839 Y0.6352
N9020 X-1.8765 Y0.6231
N9025 X-1.8698 Y0.6095
N9030 X-1.8639 Y0.5943
N9035 X-1.8586 Y0.5773
N9040 X-1.8542 Y0.5584
N9045 X-1.8506 Y0.5378
N9050 X-1.8479 Y0.5155
N9055 X-1.846 Y0.4916
N9060 X-1.845 Y0.4663
N9065 X-1.8447 Y0.4397
N9070 X-1.845 Y0.4121
N9075 X-1.8459 Y0.3834
N9080 X-1.8473 Y0.3538
N9085 X-1.8489 Y0.3235
N9090 X-1.8507 Y0.2925
N9095 X-1.851 Y0.2858
N9100 X-1.8511 Y0.2592
N9105 X-1.8513 Y0.2326
N9110 X-1.8515 Y0.206
N9115 X-1.8517 Y0.1796
N9120 X-1.852 Y0.1531
N9125 X-1.8523 Y0.1268
N9130 X-1.8527 Y0.1005
N9135 X-1.8532 Y0.0742
N9140 X-1.8538 Y0.0481
N9145 X-1.8545 Y0.022
N9150 X-1.8554 Y-0.0041
N9155 X-1.8563 Y-0.03
N9160 X-1.8574 Y-0.0559
N9165 X-1.8587 Y-0.0819
N9170 X-1.8601 Y-0.1078
N9175 X-1.8617 Y-0.1338
N9180 X-1.8634 Y-0.1599
N9185 X-1.8652 Y-0.1861
N9190 X-1.8671 Y-0.2123
N9195 X-1.8684 Y-0.2295
N9200 X-1.8957
N9205 X-1.8951 Y-0.2219
N9210 Y-0.2212
N9215 X-1.8945 Y-0.2128
N9220 Y-0.2123
N9225 X-1.894 Y-0.2039
N9230 X-1.8939 Y-0.2034
N9235 X-1.8934 Y-0.195
N9240 Y-0.1946
N9245 X-1.893 Y-0.1863
N9250 X-1.8925 Y-0.1776
N9255 X-1.8921 Y-0.169
N9260 X-1.8918 Y-0.1627
N9265 X-1.8905 Y-0.1472
N9270 X-1.8904 Y-0.1466
N9275 X-1.889 Y-0.129
N9280 X-1.8889 Y-0.1281
N9285 X-1.8877 Y-0.1105
N9290 X-1.8876 Y-0.109
N9295 X-1.8865 Y-0.0916
N9300 X-1.8864 Y-0.0895
N9305 X-1.8857 Y-0.0723
N9310 X-1.8856 Y-0.0696
N9315 X-1.8852 Y-0.0526
N9320 Y-0.0493
N9325 X-1.8853 Y-0.0324
N9330 X-1.8854 Y-0.0285
N9335 X-1.886 Y-0.0119
N9340 X-1.8862 Y-0.0073
N9345 X-1.8874 Y0.009
N9350 X-1.8879 Y0.0143
N9355 X-1.8897 Y0.0303
N9360 X-1.8906 Y0.0364
N9365 X-1.8932 Y0.052
N9370 X-1.8945 Y0.0589
N9375 X-1.8979 Y0.0741
N9380 X-1.8998 Y0.0816
N9385 X-1.9041 Y0.0964
N9390 X-1.9068 Y0.1047
N9395 X-1.912 Y0.119
N9400 X-1.9137 Y0.1234
N9405 X-1.9156 Y0.1277
N9410 X-1.9219 Y0.1416
N9415 G3 X-1.9264 Y0.1506 I-0.1138 J-0.0516
N9420 G1 X-1.9338 Y0.1639
N9425 G3 X-1.9393 Y0.173 I-0.1093 J-0.0606
N9430 G1 X-1.9479 Y0.1857
N9435 X-1.9507 Y0.1897
N9440 X-1.9536 Y0.1936
N9445 X-1.9633 Y0.2058
N9450 X-1.9685 Y0.212
N9455 X-1.9791 Y0.2238
N9460 X-1.9836 Y0.2285
N9465 X-1.995 Y0.2399
N9470 X-1.9986 Y0.2434
N9475 X-2.0106 Y0.2544
N9480 X-2.0134 Y0.2569
N9485 X-2.0259 Y0.2678
N9490 X-2.0277 Y0.2693
N9495 X-2.0405 Y0.28
N9500 X-2.0414 Y0.2808
N9505 X-2.0544 Y0.2914
N9510 G3 X-2.2244 Y0.2808 I-0.0793 J-0.0966
N9515 G1 X-2.2344 Y0.2702
N9520 X-2.2352 Y0.2694
N9525 X-2.2451 Y0.2587
N9530 X-2.2467 Y0.257
N9535 X-2.2564 Y0.2462
N9540 X-2.2587 Y0.2436
N9545 X-2.2679 Y0.2327
N9550 X-2.271 Y0.2289
N9555 X-2.2797 Y0.2178
N9560 X-2.2834 Y0.2128
N9565 X-2.2914 Y0.2014
N9570 X-2.2957 Y0.195
N9575 X-2.3029 Y0.1833
N9580 X-2.3052 Y0.1795
N9585 X-2.3073 Y0.1756
N9590 X-2.3136 Y0.1635
N9595 X-2.3157 Y0.1594
N9600 X-2.3175 Y0.1554
N9605 X-2.3229 Y0.1429
N9610 X-2.3261 Y0.135
N9615 X-2.3306 Y0.1222
N9620 X-2.333 Y0.1147
N9625 X-2.3368 Y0.1016
N9630 X-2.3386 Y0.0946
N9635 X-2.3416 Y0.0811
N9640 X-2.3429 Y0.0748
N9645 X-2.3453 Y0.0611
N9650 X-2.3461 Y0.0552
N9655 X-2.3478 Y0.0413
N9660 X-2.3484 Y0.0361
N9665 X-2.3495 Y0.0219
N9670 X-2.3498 Y0.0173
N9675 X-2.3505 Y0.0029
N9680 X-2.3506 Y-0.001
N9685 X-2.3508 Y-0.0156
N9690 Y-0.019
N9695 X-2.3506 Y-0.0338
N9700 X-2.3505 Y-0.0366
N9705 X-2.3499 Y-0.0515
N9710 X-2.3498 Y-0.0538
N9715 X-2.349 Y-0.0688
N9720 X-2.3489 Y-0.0707
N9725 X-2.3478 Y-0.0858
N9730 X-2.3477 Y-0.0871
N9735 X-2.3465 Y-0.1023
N9740 X-2.3464 Y-0.1032
N9745 X-2.345 Y-0.1184
N9750 Y-0.1188
N9755 X-2.3441 Y-0.1283
N9760 Y-0.9527
N9765 G3 X-2.2191 Y-1.0777 I0.125 J0.
N9770 G1 X-2.1976
N9775 Y-1.2232
N9780 X-2.1979 Y-1.2271 Z-0.1244 F10.
N9785 X-2.1988 Y-1.2308 Z-0.1238
N9790 X-2.2001 Y-1.2341 Z-0.122
N9795 X-2.2018 Y-1.2371 Z-0.1202
N9800 X-2.2035 Y-1.2393 Z-0.1175
N9805 X-2.2054 Y-1.2413 Z-0.1147
N9810 X-2.2081 Y-1.2436 Z-0.1077
N9815 X-2.2091 Y-1.2443 Z-0.1
N9820 Z0.2
N9825 G0 X-3.5584 Y-1.1354
N9830 G1 Z0.0749 F10.
N9835 X-3.5585 Y-1.1343 Z0.0676 F5.
N9840 X-3.5587 Y-1.1311 Z0.0609
N9845 X-3.5589 Y-1.1261 Z0.0555
N9850 X-3.5588 Y-1.1198 Z0.0517
N9855 X-3.5583 Y-1.1126 Z0.05
N9860 G2 X-3.322 Y-1.1363 Z0.0174 I0.1182 J-0.0118
N9865 X-3.5583 Y-1.1126 Z-0.0153 I-0.1182 J0.0118
N9870 X-3.322 Y-1.1363 Z-0.0479 I0.1182 J-0.0118
N9875 X-3.5583 Y-1.1126 Z-0.0806 I-0.1182 J0.0118
N9880 X-3.322 Y-1.1363 Z-0.1132 I0.1182 J-0.0118
N9885 X-3.4012 Y-1.2366 Z-0.125 I-0.1182 J0.0118
N9890 X-3.4498 Y-1.247 I-0.0663 J0.1908
N9895 X-3.546 Y-1.2522 I-0.1258 J1.4277
N9900 X-3.6215 Y-1.253 I-0.0688 J3.335
N9905 G1 X-3.888 Y-1.2548
N9910 G2 X-3.9006 Y-1.2421 I0. J0.0126
N9915 G1 Y-1.1001
N9920 G2 X-3.8898 Y-1.0943 I0.007 J0.
N9925 G3 X-3.7846 Y-1.1447 I0.2328 J0.3506
N9930 X-3.6693 Y-1.1626 I0.1153 J0.3624
N9935 X-3.5688 Y-1.1607 I0. J2.5802
N9940 X-3.4698 Y-1.143 I-0.0143 J0.3658
N9945 X-3.3883 Y-1.1137 I-0.4442 J1.3653
N9950 X-3.309 Y-1.0792 I-0.4467 J1.1354
N9955 G2 X-3.3001 Y-1.0868 I0.0027 J-0.0057
N9960 X-3.3381 Y-1.1918 I-0.9033 J0.2672
N9965 X-3.3585 Y-1.2159 I-0.0495 J0.0212
N9970 X-3.4012 Y-1.2366 I-0.109 J0.1701
N9975 G3 X-3.4512 Y-1.296 I0.025 J-0.0718
N9980 G2 X-3.5096 Y-1.3472 I-0.0604 J0.01
N9985 G1 X-3.5169 Y-1.3474
N9990 G2 X-3.5949 Y-1.3486 I-0.107 J4.438
N9995 G1 X-3.984 Y-1.3505
N10000 G2 X-3.9964 Y-1.3382 I0. J0.0124
N10005 G1 Y-1.0469
N10010 G2 X-3.9831 Y-1.0238 I0.0267 J0.
N10015 G3 X-3.9104 Y-0.9647 I-0.1525 J0.2616
N10020 G2 X-3.8945 I0.008 J-0.0072
N10025 G3 X-3.7928 Y-1.0397 I0.233 J0.2095
N10030 X-3.6693 Y-1.0668 I0.1235 J0.2676
N10035 X-3.5838 Y-1.066 I0. J4.7062
N10040 X-3.4994 Y-1.0519 I-0.0053 J0.2897
N10045 X-3.3743 Y-1.0061 I-0.5693 J1.7498
N10050 X-3.259 Y-0.9394 I-0.1833 J0.4498
N10055 X-3.1884 Y-0.8718 I-0.2972 J0.3813
N10060 G2 X-3.179 Y-0.8754 I0.0041 J-0.0035
N10065 X-3.2001 Y-1.063 I-1.1108 J0.03
N10070 X-3.256 Y-1.2433 I-0.8936 J0.1784
N10075 X-3.2915 Y-1.2864 I-0.0913 J0.0391
N10080 X-3.4392 Y-1.3418 I-0.1884 J0.2777
N10085 X-3.5096 Y-1.3472 I-0.0971 J0.7969
N10090 G1 X-3.5135 Y-1.3471 Z-0.1244 F10.
N10095 X-3.5172 Y-1.3463 Z-0.1238
N10100 X-3.5205 Y-1.3452 Z-0.122
N10105 X-3.5236 Y-1.3436 Z-0.1202
N10110 X-3.5259 Y-1.342 Z-0.1175
N10115 X-3.528 Y-1.3402 Z-0.1147
N10120 X-3.5304 Y-1.3376 Z-0.1077
N10125 X-3.5311 Y-1.3366 Z-0.1
N10130 Z0.2
N10135 G0 X-3.3646 Y1.0627
N10140 G1 Z0.0749 F10.
N10145 X-3.3652 Y1.0618 Z0.0676 F5.
N10150 X-3.3668 Y1.0591 Z0.0609
N10155 X-3.3695 Y1.0549 Z0.0555
N10160 X-3.3733 Y1.0497 Z0.0517
N10165 X-3.3778 Y1.0442 Z0.05
N10170 G2 X-3.5573 Y1.1997 Z0.0174 I-0.0898 J0.0777
N10175 X-3.3778 Y1.0442 Z-0.0153 I0.0898 J-0.0777
N10180 X-3.5573 Y1.1997 Z-0.0479 I-0.0898 J0.0777
N10185 X-3.3778 Y1.0442 Z-0.0806 I0.0898 J-0.0777
N10190 X-3.5573 Y1.1997 Z-0.1132 I-0.0898 J0.0777
N10195 X-3.4348 Y1.2361 Z-0.125 I0.0898 J-0.0777
N10200 X-3.4181 Y1.2302 I-0.0407 J-0.142
N10205 G1 X-3.417 Y1.2294
N10210 X-3.4162 Y1.2282
N10215 X-3.4159 Y1.2268
N10220 X-3.4161 Y1.2254
N10225 X-3.4168 Y1.2242
N10230 X-3.4179 Y1.2233
N10235 X-3.4193 Y1.223
N10240 X-3.4207 Y1.2231
N10245 G3 X-3.4539 Y1.2332 I-0.5549 J-1.7713
N10250 G1 X-3.4551 Y1.2338
N10255 X-3.4561 Y1.2349
N10260 X-3.4565 Y1.2363
N10265 X-3.4564 Y1.2377
N10270 X-3.4558 Y1.239
N10275 X-3.4548 Y1.2399
N10280 X-3.4534 Y1.2404
N10285 X-3.452
N10290 G2 X-3.4348 Y1.2361 I-0.0605 J-0.2751
N10295 X-3.4386 Y1.2115 I-0.0034 J-0.012
N10300 G1 X-3.8428 Y1.2229
N10305 X-3.8447
N10310 X-3.8465 Y1.2225
N10315 X-3.8483 Y1.2218
N10320 X-3.856 Y1.2183
N10325 G2 X-3.8658 Y1.2245 I-0.003 J0.0062
N10330 G1 Y1.2332
N10335 Y1.2334
N10340 G2 X-3.8535 Y1.2458 I0.0124 J0.
N10345 G1 X-3.8099
N10350 X-3.8085 Y1.2455
N10355 X-3.8072 Y1.2448
N10360 X-3.8063 Y1.2436
N10365 X-3.8058 Y1.2422
N10370 Y1.2408
N10375 X-3.8063 Y1.2394
N10380 X-3.8073 Y1.2382
N10385 X-3.8086 Y1.2375
N10390 G3 X-3.8483 Y1.2218 I0.1393 J-0.4104
N10395 X-3.8754 Y1.13 I0.0261 J-0.0577
N10400 G2 X-3.9465 Y1.0657 I-0.0409 J-0.0262
N10405 G3 X-3.9836 Y1.091 I-0.1892 J-0.2386
N10410 G2 X-3.9947 Y1.1102 I0.011 J0.0192
N10415 G1 Y1.3622
N10420 G2 X-3.9822 Y1.3747 I0.0125 J0.
N10425 G1 X-3.7621
N10430 G2 X-3.5642 Y1.3726 I0. J-9.4447
N10435 X-3.4636 Y1.3669 I-0.0293 J-1.3959
N10440 X-3.3661 Y1.3413 I-0.0288 J-0.3084
N10445 X-3.3389 Y1.3288 I-0.7283 J-1.631
N10450 X-3.3124 Y1.3149 I-0.1328 J-0.2845
N10455 X-3.278 Y1.2771 I-0.0437 J-0.0741
N10460 X-3.2282 Y1.1268 I-0.6213 J-0.2892
N10465 X-3.21 Y0.9696 I-0.8781 J-0.1818
N10470 X-3.2196 Y0.9657 I-0.0055 J-0.0002
N10475 G3 X-3.3263 Y1.0503 I-0.3161 J-0.2893
N10480 X-3.4513 Y1.1042 I-0.3221 J-0.5751
N10485 X-3.5214 Y1.1242 I-0.4258 J-1.359
N10490 X-3.5936 Y1.1334 I-0.0723 J-0.2802
N10495 G1 X-3.6693
N10500 G3 X-3.7934 Y1.1062 I0. J-0.2964
N10505 X-3.8956 Y1.0309 I0.1319 J-0.2861
N10510 G2 X-3.9093 I-0.0069 J0.0062
N10515 G3 X-3.9465 Y1.0657 I-0.2263 J-0.2037
N10520 X-4.0512 Y1.057 I-0.0477 J-0.0602
N10525 G2 X-4.1492 Y1.0948 I-0.0418 J0.0377
N10530 G1 Y1.5292
N10535 X-3.6693
N10540 X-3.6686
N10545 X-3.6409 Y1.5293
N10550 X-3.6137
N10555 X-3.587 Y1.5292
N10560 X-3.5609 Y1.5288
N10565 X-3.5355 Y1.5281
N10570 X-3.5106 Y1.5271
N10575 X-3.4865 Y1.5255
N10580 X-3.4631 Y1.5235
N10585 X-3.4404 Y1.5209
N10590 X-3.4185 Y1.5177
N10595 X-3.3975 Y1.5139
N10600 X-3.3772 Y1.5095
N10605 X-3.3578 Y1.5044
N10610 X-3.3391 Y1.4985
N10615 X-3.3209 Y1.4918
N10620 X-3.3024 Y1.484
N10625 X-3.2834 Y1.475
N10630 X-3.2638 Y1.4649
N10635 X-3.2437 Y1.4538
N10640 X-3.2231 Y1.4416
N10645 X-3.2019 Y1.4286
N10650 X-3.1803 Y1.4148
N10655 X-3.1692 Y1.4076
N10660 X-3.1605 Y1.3899
N10665 X-3.1478 Y1.3635
N10670 X-3.1358 Y1.3377
N10675 X-3.1245 Y1.3123
N10680 X-3.1141 Y1.2874
N10685 X-3.1045 Y1.263
N10690 X-3.0959 Y1.239
N10695 X-3.0884 Y1.2155
N10700 X-3.0819 Y1.192
N10705 X-3.0763 Y1.168
N10710 X-3.0714 Y1.1435
N10715 X-3.0672 Y1.1183
N10720 X-3.0638 Y1.0925
N10725 X-3.0609 Y1.0661
N10730 X-3.0587 Y1.0391
N10735 X-3.057 Y1.0115
N10740 X-3.0558 Y0.9834
N10745 X-3.055 Y0.9547
N10750 X-3.0546 Y0.9255
N10755 X-3.0544 Y0.8959
N10760 X-3.0545 Y0.8658
N10765 X-3.0548 Y0.8353
N10770 X-3.0552 Y0.8044
N10775 Y0.8016
N10780 X-3.055 Y0.7787
N10785 X-3.0549 Y0.7561
N10790 X-3.0548 Y0.7338
N10795 X-3.0549 Y0.7118
N10800 X-3.0552 Y0.6901
N10805 X-3.0556 Y0.6687
N10810 X-3.0563 Y0.6477
N10815 X-3.0572 Y0.627
N10820 X-3.0584 Y0.6066
N10825 X-3.06 Y0.5866
N10830 X-3.0619 Y0.567
N10835 X-3.0641 Y0.5477
N10840 X-3.0668 Y0.5288
N10845 X-3.0699 Y0.5103
N10850 X-3.0735 Y0.4919
N10855 X-3.0775 Y0.4735
N10860 X-3.0822 Y0.4547
N10865 X-3.0874 Y0.4355
N10870 X-3.093 Y0.416
N10875 X-3.0991 Y0.396
N10880 X-3.1055 Y0.3757
N10885 X-3.1123 Y0.355
N10890 X-3.1171 Y0.3407
N10895 X-3.1185 Y0.339
N10900 X-3.1284 Y0.3281
N10905 X-3.1378 Y0.3178
N10910 X-3.1469 Y0.3084
N10915 X-3.1556 Y0.2999
N10920 X-3.1638 Y0.2922
N10925 X-3.1716 Y0.2854
N10930 X-3.1789 Y0.2796
N10935 X-3.1858 Y0.2746
N10940 X-3.1925 Y0.2703
N10945 X-3.1997 Y0.2662
N10950 X-3.2077 Y0.2621
N10955 X-3.2165 Y0.2581
N10960 X-3.2261 Y0.2541
N10965 X-3.2366 Y0.2502
N10970 X-3.248 Y0.2465
N10975 X-3.2601 Y0.2428
N10980 X-3.273 Y0.2392
N10985 X-3.2866 Y0.2357
N10990 X-3.3009 Y0.2322
N10995 X-3.3159 Y0.2287
N11000 X-3.3199 Y0.2278
N11005 X-3.3119 Y0.2377
N11010 G3 X-3.3021 Y0.2511 I-0.1162 J0.0948
N11015 G1 X-3.2942 Y0.2634
N11020 G3 X-3.2867 Y0.2763 I-0.126 J0.0814
N11025 G1 X-3.2799 Y0.2895
N11030 G3 X-3.2744 Y0.3016 I-0.1335 J0.0684
N11035 G1 X-3.2687 Y0.3156
N11040 G3 X-3.2648 Y0.3265 I-0.139 J0.0563
N11045 G1 X-3.2601 Y0.3413
N11050 X-3.2586 Y0.346
N11055 X-3.2574 Y0.3508
N11060 X-3.2536 Y0.3662
N11065 X-3.2518 Y0.3744
N11070 X-3.2487 Y0.3905
N11075 X-3.2476 Y0.3973
N11080 X-3.2453 Y0.4139
N11085 X-3.2446 Y0.4195
N11090 X-3.2428 Y0.4365
N11095 X-3.2424 Y0.4411
N11100 X-3.2411 Y0.4585
N11105 X-3.2409 Y0.462
N11110 X-3.24 Y0.4797
N11115 X-3.2399 Y0.4823
N11120 X-3.2393 Y0.5002
N11125 Y0.5019
N11130 X-3.2389 Y0.52
N11135 Y0.5208
N11140 X-3.2386 Y0.5391
N11145 X-3.2387 Y0.5472
N11150 X-3.2394 Y0.5655
N11155 Y0.5664
N11160 X-3.2402 Y0.5846
N11165 X-3.2403 Y0.5864
N11170 X-3.2413 Y0.6045
N11175 X-3.2415 Y0.6071
N11180 X-3.2428 Y0.6249
N11185 X-3.2431 Y0.6285
N11190 X-3.2448 Y0.646
N11195 X-3.2454 Y0.6507
N11200 X-3.2476 Y0.6678
N11205 X-3.2484 Y0.6737
N11210 X-3.2513 Y0.6902
N11215 X-3.2527 Y0.6974
N11220 X-3.2562 Y0.7134
N11225 X-3.2583 Y0.7218
N11230 X-3.2627 Y0.7372
N11235 G3 X-3.2659 Y0.7472 I-0.1443 J-0.0408
N11240 G1 X-3.2711 Y0.7618
N11245 G3 X-3.2757 Y0.773 I-0.1412 J-0.0507
N11250 G1 X-3.2819 Y0.7868
N11255 G3 X-3.2883 Y0.7993 I-0.1366 J-0.062
N11260 G1 X-3.2957 Y0.8122
N11265 G3 X-3.3043 Y0.8255 I-0.1302 J-0.0745
N11270 G1 X-3.3129 Y0.8374
N11275 G3 X-3.3238 Y0.8508 I-0.1216 J-0.0878
N11280 G1 X-3.3337 Y0.8616
N11285 G3 X-3.3459 Y0.8735 I-0.1107 J-0.1013
N11290 G1 X-3.3571 Y0.8832
N11295 G3 X-3.3688 Y0.8924 I-0.0984 J-0.1132
N11300 G1 X-3.3812 Y0.9012
N11305 G3 X-3.3917 Y0.908 I-0.0867 J-0.1224
N11310 G1 X-3.4051 Y0.916
N11315 G3 X-3.4143 Y0.9209 I-0.0762 J-0.1292
N11320 G1 X-3.4286 Y0.9281
N11325 X-3.4363 Y0.9317
N11330 X-3.4515 Y0.9382
N11335 X-3.4576 Y0.9407
N11340 X-3.4734 Y0.9467
N11345 X-3.4782 Y0.9484
N11350 X-3.4945 Y0.954
N11355 X-3.498 Y0.9551
N11360 X-3.5147 Y0.9603
N11365 X-3.5171 Y0.961
N11370 X-3.534 Y0.9661
N11375 X-3.5351 Y0.9664
N11380 X-3.5522 Y0.9713
N11385 G3 X-3.5936 Y0.9771 I-0.0414 J-0.1442
N11390 G1 X-3.6693
N11395 G3 X-3.8193 Y0.8271 I0. J-0.15
N11400 G1 Y0.2485
N11405 G3 X-3.6693 Y0.0985 I0.15 J0.
N11410 G1 X-3.5814
N11415 G3 X-3.5342 Y0.1062 I0. J0.15
N11420 G1 X-3.5175 Y0.1117
N11425 X-3.5164 Y0.1121
N11430 X-3.4998 Y0.1177
N11435 X-3.4975 Y0.1185
N11440 X-3.4812 Y0.1244
N11445 X-3.4776 Y0.1257
N11450 X-3.4618 Y0.1319
N11455 X-3.4569 Y0.1339
N11460 X-3.4525 Y0.1358
N11465 G3 X-3.4422 Y-0.0049 I0.1372 J-0.0606
N11470 G1 X-3.4536 Y-0.0007
N11475 X-3.4596 Y0.0013
N11480 X-3.4771 Y0.0068
N11485 X-3.4817 Y0.0082
N11490 X-3.4998 Y0.0132
N11495 X-3.5031 Y0.0141
N11500 X-3.5215 Y0.0188
N11505 X-3.5237 Y0.0194
N11510 X-3.5424 Y0.0238
N11515 X-3.5435 Y0.0241
N11520 X-3.5623 Y0.0284
N11525 G3 X-3.5961 Y0.0323 I-0.0338 J-0.1461
N11530 G1 X-3.6693
N11535 G3 X-3.8193 Y-0.1177 I0. J-0.15
N11540 G1 Y-0.7622
N11545 G3 X-3.6693 Y-0.9122 I0.15 J0.
N11550 G1 X-3.5936
N11555 G3 X-3.5472 Y-0.9049 I0. J0.15
N11560 G1 X-3.5271 Y-0.8983
N11565 X-3.526 Y-0.8979
N11570 X-3.506 Y-0.8913
N11575 X-3.5036 Y-0.8905
N11580 X-3.484 Y-0.8835
N11585 X-3.4804 Y-0.8822
N11590 X-3.4612 Y-0.8749
N11595 X-3.4563 Y-0.8729
N11600 X-3.4378 Y-0.8651
N11605 X-3.4315 Y-0.8623
N11610 X-3.4138 Y-0.8538
N11615 X-3.4061 Y-0.8498
N11620 X-3.3893 Y-0.8406
N11625 G3 X-3.3801 Y-0.8351 I-0.0725 J0.1313
N11630 G1 X-3.3645 Y-0.8249
N11635 G3 X-3.354 Y-0.8174 I-0.0817 J0.1258
N11640 G1 X-3.3397 Y-0.8063
N11645 G3 X-3.3282 Y-0.7963 I-0.0922 J0.1183
N11650 G1 X-3.3154 Y-0.784
N11655 G3 X-3.3037 Y-0.7715 I-0.1038 J0.1083
N11660 G1 X-3.2925 Y-0.758
N11665 G3 X-3.2826 Y-0.7446 I-0.1155 J0.0958
N11670 G1 X-3.2729 Y-0.7298
N11675 G3 X-3.2652 Y-0.7168 I-0.1254 J0.0823
N11680 G1 X-3.257 Y-0.701
N11685 G3 X-3.2513 Y-0.6888 I-0.133 J0.0693
N11690 G1 X-3.2444 Y-0.672
N11695 G3 X-3.2404 Y-0.661 I-0.1387 J0.0571
N11700 G1 X-3.2346 Y-0.6432
N11705 G3 X-3.2319 Y-0.6337 I-0.1427 J0.0462
N11710 G1 X-3.2272 Y-0.6151
N11715 X-3.2254 Y-0.6069
N11720 X-3.2216 Y-0.5876
N11725 X-3.2204 Y-0.5807
N11730 X-3.2175 Y-0.5607
N11735 X-3.2168 Y-0.5551
N11740 X-3.2146 Y-0.5345
N11745 X-3.2142 Y-0.53
N11750 X-3.2126 Y-0.509
N11755 X-3.2124 Y-0.5055
N11760 X-3.2112 Y-0.4841
N11765 X-3.2111 Y-0.4815
N11770 X-3.2103 Y-0.4599
N11775 Y-0.4582
N11780 X-3.2097 Y-0.4363
N11785 Y-0.4355
N11790 X-3.2093 Y-0.4136
N11795 G3 X-3.2097 Y-0.3999 I-0.15 J0.0029
N11800 G1 X-3.2111 Y-0.3802
N11805 Y-0.3793
N11810 X-3.2127 Y-0.3598
N11815 X-3.2128 Y-0.358
N11820 X-3.2146 Y-0.3386
N11825 X-3.2149 Y-0.3358
N11830 X-3.217 Y-0.3167
N11835 X-3.2174 Y-0.3129
N11840 X-3.22 Y-0.2942
N11845 X-3.2207 Y-0.2893
N11850 X-3.2238 Y-0.2711
N11855 X-3.225 Y-0.2649
N11860 X-3.2288 Y-0.2473
N11865 X-3.2306 Y-0.2397
N11870 X-3.2351 Y-0.2228
N11875 X-3.2379 Y-0.2139
N11880 X-3.2433 Y-0.1977
N11885 G3 X-3.2473 Y-0.1872 I-0.1421 J-0.0479
N11890 G1 X-3.2537 Y-0.172
N11895 G3 X-3.2594 Y-0.1602 I-0.1381 J-0.0585
N11900 G1 X-3.2669 Y-0.1459
N11905 G3 X-3.2747 Y-0.133 I-0.1325 J-0.0703
N11910 G1 X-3.2834 Y-0.1198
N11915 G3 X-3.2936 Y-0.1063 I-0.1248 J-0.0833
N11920 G1 X-3.3037 Y-0.0943
N11925 G3 X-3.3161 Y-0.0813 I-0.1146 J-0.0968
N11930 G1 X-3.3172 Y-0.0803
N11935 X-3.3053 Y-0.0838
N11940 X-3.2894 Y-0.0886
N11945 X-3.2741 Y-0.0934
N11950 X-3.2594 Y-0.0983
N11955 X-3.2453 Y-0.1033
N11960 X-3.2319 Y-0.1084
N11965 X-3.2191 Y-0.1136
N11970 X-3.2071 Y-0.1189
N11975 X-3.1958 Y-0.1244
N11980 X-3.1853 Y-0.13
N11985 X-3.1754 Y-0.1357
N11990 X-3.1662 Y-0.1416
N11995 X-3.1572 Y-0.1479
N12000 X-3.148 Y-0.155
N12005 X-3.1385 Y-0.163
N12010 X-3.1285 Y-0.1718
N12015 X-3.1182 Y-0.1814
N12020 X-3.1076 Y-0.1919
N12025 X-3.0967 Y-0.2031
N12030 X-3.0853 Y-0.215
N12035 X-3.0845 Y-0.2159
N12040 X-3.0805 Y-0.2286
N12045 X-3.0738 Y-0.2506
N12050 X-3.0674 Y-0.2722
N12055 X-3.0614 Y-0.2934
N12060 X-3.0558 Y-0.3142
N12065 X-3.0508 Y-0.3347
N12070 X-3.0462 Y-0.3547
N12075 X-3.0422 Y-0.3745
N12080 X-3.0388 Y-0.3942
N12085 X-3.0358 Y-0.4143
N12090 X-3.0332 Y-0.4346
N12095 X-3.0311 Y-0.4553
N12100 X-3.0293 Y-0.4764
N12105 X-3.0279 Y-0.4978
N12110 X-3.0268 Y-0.5195
N12115 X-3.026 Y-0.5415
N12120 X-3.0255 Y-0.5639
N12125 X-3.0252 Y-0.5865
N12130 X-3.0251 Y-0.6095
N12135 Y-0.6328
N12140 X-3.0253 Y-0.6563
N12145 X-3.0256 Y-0.6801
N12150 X-3.0259 Y-0.7042
N12155 Y-0.7075
N12160 X-3.0256 Y-0.7404
N12165 X-3.0253 Y-0.773
N12170 Y-0.8051
N12175 X-3.0254 Y-0.8369
N12180 X-3.0259 Y-0.8682
N12185 X-3.0267 Y-0.899
N12190 X-3.028 Y-0.9293
N12195 X-3.0297 Y-0.9592
N12200 X-3.032 Y-0.9885
N12205 X-3.035 Y-1.0172
N12210 X-3.0385 Y-1.0454
N12215 X-3.0428 Y-1.073
N12220 X-3.0478 Y-1.1001
N12225 X-3.0537 Y-1.1265
N12230 X-3.0604 Y-1.1526
N12235 X-3.0681 Y-1.1787
N12240 X-3.0769 Y-1.2053
N12245 X-3.0866 Y-1.2322
N12250 X-3.0972 Y-1.2596
N12255 X-3.1086 Y-1.2874
N12260 X-3.1207 Y-1.3156
N12265 X-3.1334 Y-1.3443
N12270 X-3.1443 Y-1.3686
N12275 X-3.1565 Y-1.3777
N12280 X-3.1768 Y-1.3926
N12285 X-3.1967 Y-1.4067
N12290 X-3.216 Y-1.4198
N12295 X-3.2348 Y-1.4318
N12300 X-3.253 Y-1.4427
N12305 X-3.2708 Y-1.4524
N12310 X-3.2879 Y-1.4608
N12315 X-3.3047 Y-1.4679
N12320 X-3.3218 Y-1.4742
N12325 X-3.3396 Y-1.4797
N12330 X-3.3584 Y-1.4845
N12335 X-3.3782 Y-1.4887
N12340 X-3.3989 Y-1.4923
N12345 X-3.4205 Y-1.4952
N12350 X-3.443 Y-1.4976
N12355 X-3.4663 Y-1.4995
N12360 X-3.4904 Y-1.5009
N12365 X-3.5153 Y-1.5019
N12370 X-3.5408 Y-1.5026
N12375 X-3.567 Y-1.503
N12380 X-3.5938 Y-1.5032
N12385 X-3.6209 Y-1.5033
N12390 X-4.1492
N12395 Y-0.9122
N12400 X-4.1356
N12405 G3 X-3.9856 Y-0.7622 I0. J0.15
N12410 G1 Y0.8271
N12415 G3 X-4.1356 Y0.9771 I-0.15 J0.
N12420 G1 X-4.1492
N12425 Y1.0948
N12430 G3 X-4.1617 Y1.1135 I-0.0203 J0.
N12435 G2 X-4.1742 Y1.1323 I0.0078 J0.0187
N12440 G1 Y1.5542
N12445 X-3.6693
N12450 X-3.6687
N12455 X-3.641 Y1.5543
N12460 X-3.6137
N12465 X-3.5868 Y1.5542
N12470 X-3.5604 Y1.5538
N12475 X-3.5346 Y1.5531
N12480 X-3.5093 Y1.552
N12485 X-3.4846 Y1.5504
N12490 X-3.4606 Y1.5484
N12495 X-3.4372 Y1.5457
N12500 X-3.4145 Y1.5424
N12505 X-3.3926 Y1.5385
N12510 X-3.3713 Y1.5338
N12515 X-3.3509 Y1.5284
N12520 X-3.3311 Y1.5222
N12525 X-3.3117 Y1.5151
N12530 X-3.2922 Y1.5068
N12535 X-3.2723 Y1.4974
N12540 X-3.252 Y1.487
N12545 X-3.2313 Y1.4755
N12550 X-3.2102 Y1.463
N12555 X-3.1887 Y1.4498
N12560 X-3.1667 Y1.4358
N12565 X-3.1498 Y1.4248
N12570 X-3.138 Y1.4008
N12575 X-3.1252 Y1.3742
N12580 X-3.1131 Y1.3481
N12585 X-3.1016 Y1.3223
N12590 X-3.0909 Y1.2968
N12595 X-3.0811 Y1.2718
N12600 X-3.0723 Y1.247
N12605 X-3.0645 Y1.2226
N12610 X-3.0577 Y1.1982
N12615 X-3.0519 Y1.1733
N12620 X-3.0468 Y1.1479
N12625 X-3.0425 Y1.122
N12630 X-3.0389 Y1.0955
N12635 X-3.036 Y1.0684
N12640 X-3.0338 Y1.0409
N12645 X-3.032 Y1.0128
N12650 X-3.0308 Y0.9842
N12655 X-3.03 Y0.9552
N12660 X-3.0296 Y0.9258
N12665 X-3.0294 Y0.8959
N12670 X-3.0295 Y0.8657
N12675 X-3.0298 Y0.8351
N12680 X-3.0302 Y0.8041
N12685 Y0.8018
N12690 X-3.03 Y0.7789
N12695 X-3.0299 Y0.7562
N12700 X-3.0298 Y0.7338
N12705 X-3.0299 Y0.7116
N12710 X-3.0302 Y0.6897
N12715 X-3.0306 Y0.6681
N12720 X-3.0313 Y0.6467
N12725 X-3.0322 Y0.6257
N12730 X-3.0335 Y0.6049
N12735 X-3.0351 Y0.5844
N12740 X-3.037 Y0.5643
N12745 X-3.0393 Y0.5445
N12750 X-3.0421 Y0.525
N12755 X-3.0453 Y0.5058
N12760 X-3.049 Y0.4868
N12765 X-3.0532 Y0.4678
N12770 X-3.058 Y0.4484
N12775 X-3.0633 Y0.4288
N12780 X-3.069 Y0.4088
N12785 X-3.0752 Y0.3886
N12790 X-3.0818 Y0.368
N12795 X-3.0886 Y0.3471
N12800 X-3.095 Y0.3279
N12805 X-3.0998 Y0.3224
N12810 X-3.1099 Y0.3112
N12815 X-3.1197 Y0.3007
N12820 X-3.1291 Y0.2909
N12825 X-3.1382 Y0.2818
N12830 X-3.1471 Y0.2736
N12835 X-3.1556 Y0.2662
N12840 X-3.1638 Y0.2597
N12845 X-3.1717 Y0.254
N12850 X-3.1795 Y0.2489
N12855 X-3.1878 Y0.2442
N12860 X-3.1968 Y0.2396
N12865 X-3.2066 Y0.2351
N12870 X-3.2171 Y0.2308
N12875 X-3.2284 Y0.2267
N12880 X-3.2404 Y0.2226
N12885 X-3.2531 Y0.2188
N12890 X-3.2665 Y0.215
N12895 X-3.2805 Y0.2114
N12900 X-3.2952 Y0.2078
N12905 X-3.3104 Y0.2043
N12910 X-3.326 Y0.2008
N12915 X-3.3422 Y0.1972
N12920 G3 X-3.3493 Y-0.0451 I0.0269 J-0.1221
N12925 G1 X-3.3319 Y-0.05
N12930 X-3.3148 Y-0.0549
N12935 X-3.2982 Y-0.0598
N12940 X-3.282 Y-0.0647
N12945 X-3.2664 Y-0.0696
N12950 X-3.2512 Y-0.0747
N12955 X-3.2367 Y-0.0798
N12960 X-3.2227 Y-0.0852
N12965 X-3.2093 Y-0.0906
N12970 X-3.1966 Y-0.0963
N12975 X-3.1846 Y-0.1021
N12980 X-3.1732 Y-0.1081
N12985 X-3.1624 Y-0.1143
N12990 X-3.1523 Y-0.1208
N12995 X-3.1424 Y-0.1278
N13000 X-3.1324 Y-0.1355
N13005 X-3.1221 Y-0.144
N13010 X-3.1117 Y-0.1533
N13015 X-3.1009 Y-0.1634
N13020 X-3.0899 Y-0.1742
N13025 X-3.0787 Y-0.1857
N13030 X-3.0671 Y-0.1978
N13035 X-3.0623 Y-0.2029
N13040 X-3.0566 Y-0.2213
N13045 X-3.0498 Y-0.2434
N13050 X-3.0434 Y-0.2653
N13055 X-3.0373 Y-0.2868
N13060 X-3.0316 Y-0.308
N13065 X-3.0264 Y-0.3289
N13070 X-3.0218 Y-0.3495
N13075 X-3.0177 Y-0.3699
N13080 X-3.0141 Y-0.3902
N13085 X-3.011 Y-0.4109
N13090 X-3.0084 Y-0.4318
N13095 X-3.0062 Y-0.453
N13100 X-3.0044 Y-0.4745
N13105 X-3.0029 Y-0.4963
N13110 X-3.0018 Y-0.5184
N13115 X-3.001 Y-0.5408
N13120 X-3.0005 Y-0.5634
N13125 X-3.0002 Y-0.5863
N13130 X-3.0001 Y-0.6095
N13135 Y-0.6329
N13140 X-3.0003 Y-0.6565
N13145 X-3.0006 Y-0.6804
N13150 X-3.0009 Y-0.7045
N13155 Y-0.7072
N13160 X-3.0006 Y-0.7402
N13165 X-3.0003 Y-0.7729
N13170 Y-0.8052
N13175 X-3.0004 Y-0.8371
N13180 X-3.0009 Y-0.8687
N13185 X-3.0017 Y-0.8998
N13190 X-3.003 Y-0.9306
N13195 X-3.0048 Y-0.9609
N13200 X-3.0071 Y-0.9907
N13205 X-3.0101 Y-1.0201
N13210 X-3.0138 Y-1.0489
N13215 X-3.0182 Y-1.0772
N13220 X-3.0233 Y-1.1051
N13225 X-3.0293 Y-1.1323
N13230 X-3.0363 Y-1.1593
N13235 X-3.0442 Y-1.1862
N13240 X-3.0532 Y-1.2134
N13245 X-3.0632 Y-1.241
N13250 X-3.074 Y-1.2688
N13255 X-3.0856 Y-1.297
N13260 X-3.0978 Y-1.3256
N13265 X-3.1106 Y-1.3545
N13270 X-3.1238 Y-1.3838
N13275 X-3.1242 Y-1.3847
N13280 X-3.1416 Y-1.3978
N13285 X-3.1622 Y-1.4129
N13290 X-3.1824 Y-1.4272
N13295 X-3.2022 Y-1.4407
N13300 X-3.2216 Y-1.4531
N13305 X-3.2406 Y-1.4644
N13310 X-3.2593 Y-1.4746
N13315 X-3.2775 Y-1.4835
N13320 X-3.2955 Y-1.4912
N13325 X-3.3138 Y-1.4979
N13330 X-3.3328 Y-1.5038
N13335 X-3.3527 Y-1.5089
N13340 X-3.3735 Y-1.5133
N13345 X-3.3951 Y-1.517
N13350 X-3.4175 Y-1.5201
N13355 X-3.4407 Y-1.5225
N13360 X-3.4646 Y-1.5245
N13365 X-3.4892 Y-1.5259
N13370 X-3.5144 Y-1.5269
N13375 X-3.5403 Y-1.5276
N13380 X-3.5667 Y-1.528
N13385 X-3.5937 Y-1.5282
N13390 X-3.6208 Y-1.5283
N13395 X-4.1742
N13400 Y-0.8872
N13405 X-4.1356
N13410 G3 X-4.0106 Y-0.7622 I0. J0.125
N13415 G1 Y0.8271
N13420 G3 X-4.1356 Y0.9521 I-0.125 J0.
N13425 G1 X-4.1742
N13430 Y1.1323
N13435 G2 X-4.1569 Y1.1438 I0.0125 J0.
N13440 G1 X-3.7213 Y0.9639
N13445 G2 X-3.7209 Y0.941 I-0.0048 J-0.0116
N13450 G3 X-3.7943 Y0.8271 I0.0516 J-0.1139
N13455 G1 Y0.2485
N13460 G3 X-3.6693 Y0.1235 I0.125 J0.
N13465 G1 X-3.5814
N13470 G3 X-3.5421 Y0.1299 I0. J0.125
N13475 G1 X-3.5254 Y0.1354
N13480 X-3.5244 Y0.1357
N13485 X-3.5079 Y0.1414
N13490 X-3.5059 Y0.1421
N13495 X-3.4897 Y0.1479
N13500 X-3.4867 Y0.149
N13505 X-3.4709 Y0.1552
N13510 X-3.4668 Y0.1569
N13515 X-3.4515 Y0.1635
N13520 X-3.4462 Y0.1659
N13525 X-3.4316 Y0.173
N13530 X-3.4251 Y0.1764
N13535 X-3.4113 Y0.1841
N13540 X-3.4074 Y0.1864
N13545 X-3.4036 Y0.1888
N13550 X-3.3908 Y0.1973
N13555 G3 X-3.382 Y0.2036 I-0.0688 J0.1043
N13560 G1 X-3.3702 Y0.213
N13565 G3 X-3.3606 Y0.2214 I-0.0776 J0.098
N13570 G1 X-3.3501 Y0.2317
N13575 G3 X-3.3405 Y0.2422 I-0.0872 J0.0895
N13580 G1 X-3.3312 Y0.2535
N13585 G3 X-3.3231 Y0.2646 I-0.0969 J0.079
N13590 G1 X-3.3152 Y0.2769
N13595 G3 X-3.3089 Y0.2877 I-0.105 J0.0678
N13600 G1 X-3.3022 Y0.3009
N13605 G3 X-3.2975 Y0.311 I-0.1112 J0.057
N13610 G1 X-3.2919 Y0.325
N13615 X-3.2901 Y0.3295
N13620 X-3.2886 Y0.3341
N13625 X-3.2839 Y0.3489
N13630 X-3.2817 Y0.3568
N13635 X-3.2778 Y0.3722
N13640 X-3.2763 Y0.379
N13645 X-3.2733 Y0.3951
N13650 X-3.2724 Y0.4008
N13655 X-3.27 Y0.4174
N13660 X-3.2694 Y0.422
N13665 X-3.2677 Y0.4391
N13670 X-3.2673 Y0.4429
N13675 X-3.2661 Y0.4603
N13680 X-3.2659 Y0.4632
N13685 X-3.265 Y0.4809
N13690 X-3.2649 Y0.4831
N13695 X-3.2643 Y0.501
N13700 Y0.5024
N13705 X-3.2639 Y0.5206
N13710 Y0.5213
N13715 X-3.2636 Y0.5395
N13720 X-3.2637 Y0.5463
N13725 X-3.2644 Y0.5646
N13730 Y0.5653
N13735 X-3.2652 Y0.5835
N13740 X-3.2653 Y0.585
N13745 X-3.2663 Y0.6031
N13750 X-3.2664 Y0.6052
N13755 X-3.2677 Y0.6231
N13760 X-3.268 Y0.6261
N13765 X-3.2697 Y0.6436
N13770 X-3.2701 Y0.6475
N13775 X-3.2724 Y0.6646
N13780 X-3.2731 Y0.6695
N13785 X-3.2759 Y0.686
N13790 X-3.2771 Y0.692
N13795 X-3.2806 Y0.708
N13800 X-3.2824 Y0.7151
N13805 X-3.2867 Y0.7304
N13810 X-3.2894 Y0.7387
N13815 X-3.2946 Y0.7533
N13820 G3 X-3.2984 Y0.7627 I-0.1176 J-0.0423
N13825 G1 X-3.3047 Y0.7765
N13830 G3 X-3.31 Y0.7869 I-0.1138 J-0.0517
N13835 G1 X-3.3174 Y0.7998
N13840 G3 X-3.3246 Y0.8109 I-0.1085 J-0.0621
N13845 G1 X-3.3331 Y0.8227
N13850 G3 X-3.3422 Y0.8339 I-0.1013 J-0.0732
N13855 G1 X-3.3521 Y0.8447
N13860 G3 X-3.3623 Y0.8546 I-0.0922 J-0.0844
N13865 G1 X-3.3735 Y0.8644
N13870 G3 X-3.3832 Y0.872 I-0.082 J-0.0943
N13875 G1 X-3.3956 Y0.8808
N13880 G3 X-3.4044 Y0.8865 I-0.0723 J-0.102
N13885 G1 X-3.4178 Y0.8944
N13890 X-3.4255 Y0.8986
N13895 X-3.4398 Y0.9057
N13900 X-3.4462 Y0.9087
N13905 X-3.4613 Y0.9152
N13910 X-3.4665 Y0.9173
N13915 X-3.4823 Y0.9233
N13920 X-3.4863 Y0.9247
N13925 X-3.5026 Y0.9303
N13930 X-3.5055 Y0.9313
N13935 X-3.5222 Y0.9365
N13940 X-3.5241 Y0.9371
N13945 X-3.5411 Y0.9421
N13950 X-3.542 Y0.9424
N13955 X-3.5591 Y0.9473
N13960 G3 X-3.5936 Y0.9521 I-0.0345 J-0.1201
N13965 G1 X-3.6693
N13970 G3 X-3.7209 Y0.941 I0. J-0.125
N13975 G1 X-3.7231 Y0.9402
N13980 X-3.7255 Y0.9399
N13985 X-3.7875 Y0.9372
N13990 G3 X-3.7995 Y0.925 I0.0005 J-0.0125
N13995 G1 X-3.8183 Y0.1034
N14000 X-3.8182 Y0.1014
N14005 X-3.8177 Y0.0994
N14010 X-3.8169 Y0.0976
N14015 X-3.7588 Y-0.0185
N14020 G2 X-3.7609 Y-0.0326 I-0.0112 J-0.0056
N14025 G3 X-3.7943 Y-0.1177 I0.0915 J-0.0851
N14030 G1 Y-0.7622
N14035 G3 X-3.6693 Y-0.8872 I0.125 J0.
N14040 G1 X-3.5936
N14045 G3 X-3.555 Y-0.8811 I0. J0.125
N14050 G1 X-3.5348 Y-0.8745
N14055 X-3.5339 Y-0.8742
N14060 X-3.5139 Y-0.8676
N14065 X-3.5119 Y-0.8669
N14070 X-3.4923 Y-0.8599
N14075 X-3.4893 Y-0.8588
N14080 X-3.4701 Y-0.8515
N14085 X-3.4661 Y-0.8499
N14090 X-3.4476 Y-0.8421
N14095 X-3.4423 Y-0.8397
N14100 X-3.4246 Y-0.8313
N14105 X-3.4181 Y-0.8279
N14110 X-3.4014 Y-0.8187
N14115 X-3.3975 Y-0.8165
N14120 X-3.3937 Y-0.8141
N14125 X-3.3782 Y-0.804
N14130 G3 X-3.3694 Y-0.7977 I-0.0681 J0.1048
N14135 G1 X-3.3551 Y-0.7866
N14140 G3 X-3.3455 Y-0.7783 I-0.0769 J0.0986
N14145 G1 X-3.3327 Y-0.766
N14150 G3 X-3.3229 Y-0.7555 I-0.0865 J0.0902
N14155 G1 X-3.3117 Y-0.742
N14160 G3 X-3.3035 Y-0.7308 I-0.0962 J0.0798
N14165 G1 X-3.2938 Y-0.7161
N14170 G3 X-3.2874 Y-0.7052 I-0.1045 J0.0686
N14175 G1 X-3.2792 Y-0.6894
N14180 G3 X-3.2744 Y-0.6793 I-0.1109 J0.0578
N14185 G1 X-3.2675 Y-0.6624
N14190 X-3.2657 Y-0.6579
N14195 X-3.2642 Y-0.6533
N14200 X-3.2584 Y-0.6355
N14205 X-3.2561 Y-0.6276
N14210 X-3.2514 Y-0.609
N14215 X-3.2499 Y-0.6022
N14220 X-3.2462 Y-0.5828
N14225 X-3.2452 Y-0.5771
N14230 X-3.2423 Y-0.5571
N14235 X-3.2417 Y-0.5524
N14240 X-3.2395 Y-0.5319
N14245 X-3.2391 Y-0.5281
N14250 X-3.2375 Y-0.5071
N14255 X-3.2373 Y-0.5041
N14260 X-3.2362 Y-0.4828
N14265 X-3.2361 Y-0.4806
N14270 X-3.2353 Y-0.459
N14275 Y-0.4576
N14280 X-3.2347 Y-0.4357
N14285 Y-0.435
N14290 X-3.2343 Y-0.4131
N14295 G3 X-3.2346 Y-0.4017 I-0.125 J0.0024
N14300 G1 X-3.236 Y-0.382
N14305 X-3.2361 Y-0.3813
N14310 X-3.2376 Y-0.3617
N14315 X-3.2377 Y-0.3602
N14320 X-3.2395 Y-0.3409
N14325 X-3.2397 Y-0.3385
N14330 X-3.2418 Y-0.3195
N14335 X-3.2422 Y-0.3163
N14340 X-3.2447 Y-0.2976
N14345 X-3.2454 Y-0.2935
N14350 X-3.2485 Y-0.2753
N14355 X-3.2495 Y-0.2701
N14360 X-3.2532 Y-0.2525
N14365 X-3.2547 Y-0.2462
N14370 X-3.2593 Y-0.2293
N14375 X-3.2616 Y-0.2218
N14380 X-3.267 Y-0.2057
N14385 X-3.2686 Y-0.2013
N14390 X-3.2703 Y-0.197
N14395 X-3.2767 Y-0.1818
N14400 G3 X-3.2814 Y-0.1719 I-0.1151 J-0.0487
N14405 G1 X-3.289 Y-0.1577
N14410 G3 X-3.2955 Y-0.1468 I-0.1104 J-0.0586
N14415 G1 X-3.3042 Y-0.1337
N14420 G3 X-3.3127 Y-0.1224 I-0.104 J-0.0694
N14425 G1 X-3.3228 Y-0.1104
N14430 G3 X-3.3331 Y-0.0996 I-0.0955 J-0.0807
N14435 G1 X-3.3447 Y-0.0889
N14440 G3 X-3.3552 Y-0.0801 I-0.0852 J-0.0915
N14445 G1 X-3.368 Y-0.0705
N14450 G3 X-3.3778 Y-0.0639 I-0.0747 J-0.1002
N14455 G1 X-3.3919 Y-0.0554
N14460 G3 X-3.4006 Y-0.0506 I-0.0649 J-0.1068
N14465 G1 X-3.4157 Y-0.043
N14470 X-3.4231 Y-0.0395
N14475 X-3.4391 Y-0.0327
N14480 X-3.4453 Y-0.0303
N14485 X-3.4622 Y-0.0242
N14490 X-3.4671 Y-0.0225
N14495 X-3.4846 Y-0.017
N14500 X-3.4885 Y-0.0159
N14505 X-3.5065 Y-0.0108
N14510 X-3.5093 Y-0.0101
N14515 X-3.5277 Y-0.0054
N14520 X-3.5295 Y-0.0049
N14525 X-3.5482 Y-0.0005
N14530 X-3.5491 Y-0.0003
N14535 X-3.5679 Y0.0041
N14540 G3 X-3.5961 Y0.0073 I-0.0282 J-0.1218
N14545 G1 X-3.6693
N14550 G3 X-3.7609 Y-0.0326 I0. J-0.125
N14555 G1 X-3.7637 Y-0.0352 Z-0.1244 F10.
N14560 X-3.7669 Y-0.0373 Z-0.1238
N14565 X-3.7701 Y-0.0388 Z-0.122
N14570 X-3.7734 Y-0.0399 Z-0.1202
N14575 X-3.7761 Y-0.0404 Z-0.1175
N14580 X-3.7789 Y-0.0405 Z-0.1147
N14585 X-3.7824 Y-0.0403 Z-0.1077
N14590 X-3.7836 Y-0.0401 Z-0.1
N14595 Z0.2
N14600 G0 X1.5283 Y0.566
N14605 G1 Z0.0749 F10.
N14610 X1.5286 Y0.5649 Z0.0676 F5.
N14615 X1.5291 Y0.5618 Z0.0609
N14620 X1.5298 Y0.5569 Z0.0555
N14625 X1.5305 Y0.5505 Z0.0517
N14630 X1.5308 Y0.5434 Z0.05
N14635 G2 X1.2933 Y0.541 Z0.0174 I-0.1187 J-0.0012
N14640 X1.5308 Y0.5434 Z-0.0153 I0.1187 J0.0012
N14645 X1.2933 Y0.541 Z-0.0479 I-0.1187 J-0.0012
N14650 X1.5308 Y0.5434 Z-0.0806 I0.1187 J0.0012
N14655 X1.2933 Y0.541 Z-0.1132 I-0.1187 J-0.0012
N14660 X1.3609 Y0.6494 Z-0.125 I0.1187 J0.0012
N14665 X1.4941 Y0.6021 I0.043 J-0.0902
N14670 X1.4469 Y0.469 I-0.0902 J-0.043
N14675 G3 X1.4365 Y0.4638 I0.119 J-0.2498
N14680 X1.4243 Y0.4573 I0.8449 J-1.5967
N14685 G1 X1.4228 Y0.4568
N14690 X1.4213
N14695 X1.4199 Y0.4574
N14700 X1.4188 Y0.4584
N14705 X1.4181 Y0.4597
N14710 X1.4178 Y0.4612
N14715 X1.4181 Y0.4626
N14720 X1.4189 Y0.4639
N14725 G2 X1.4277 Y0.474 I0.6244 J-0.5373
N14730 X1.4368 Y0.4838 I0.205 J-0.1823
N14735 X1.4508 Y0.4817 I0.0062 J-0.0061
N14740 G1 X1.452 Y0.4793
N14745 G2 X1.4488 Y0.4699 I-0.0061 J-0.0032
N14750 G1 X1.4469 Y0.469
N14755 G3 X1.4504 Y0.4454 I0.0054 J-0.0113
N14760 G1 X1.7807 Y0.3957
N14765 X1.7834 Y0.3955
N14770 X1.7861 Y0.396
N14775 G3 X1.8265 Y0.4119 I-0.0648 J0.2236
N14780 G2 X1.8376 Y0.4051 I0.0035 J-0.0068
N14785 G1 Y0.231
N14790 X1.8374 Y0.2294
N14795 X1.8366 Y0.228
N14800 X1.8354 Y0.227
N14805 X1.834 Y0.2263
N14810 X1.8324 Y0.2262
N14815 X1.8308 Y0.2265
N14820 X1.8295 Y0.2274
N14825 X1.8285 Y0.2286
N14830 G2 X1.8117 Y0.2593 I1.6685 J0.9356
N14835 G3 X1.7943 Y0.2898 I-0.5955 J-0.3198
N14840 X1.762 Y0.3367 I-0.4214 J-0.2552
N14845 X1.722 Y0.3771 I-0.1881 J-0.1461
N14850 G2 X1.7253 Y0.3868 I0.0034 J0.0043
N14855 G3 X1.7861 Y0.396 I-0.004 J0.2328
N14860 G1 X1.7899 Y0.3968 Z-0.1244 F10.
N14865 X1.7937 Y0.397 Z-0.1238
N14870 X1.7972 Y0.3967 Z-0.122
N14875 X1.8006 Y0.3958 Z-0.1202
N14880 X1.8032 Y0.3949 Z-0.1175
N14885 X1.8056 Y0.3936 Z-0.1147
N14890 X1.8086 Y0.3916 Z-0.1077
N14895 X1.8095 Y0.3908 Z-0.1
N14900 Z0.2
N14905 G0 X2.0048 Y-1.1184
N14910 G1 Z0.0749 F10.
N14915 X2.0055 Y-1.1193 Z0.0676 F5.
N14920 X2.0073 Y-1.1219 Z0.0609
N14925 X2.0101 Y-1.126 Z0.0555
N14930 X2.0134 Y-1.1315 Z0.0517
N14935 X2.0167 Y-1.1379 Z0.05
N14940 G2 X1.8029 Y-1.2414 Z0.0174 I-0.1069 J-0.0517
N14945 X2.0167 Y-1.1379 Z-0.0153 I0.1069 J0.0517
N14950 X1.8029 Y-1.2414 Z-0.0479 I-0.1069 J-0.0517
N14955 X2.0167 Y-1.1379 Z-0.0806 I0.1069 J0.0517
N14960 X1.8029 Y-1.2414 Z-0.1132 I-0.1069 J-0.0517
N14965 X1.8179 Y-1.1145 Z-0.125 I0.1069 J0.0517
N14970 G3 X1.8322 Y-1.0961 I-0.4178 J0.3417
N14975 X1.8396 Y-1.0857 I-0.1781 J0.1332
N14980 G2 X1.8469 Y-1.0752 I0.2429 J-0.1608
N14985 X1.8602 Y-1.0758 I0.0065 J-0.0047
N14990 G3 X1.9428 Y-1.1601 I0.2102 J0.1232
N14995 G2 X1.9562 Y-1.1842 I-0.0148 J-0.024
N15000 G1 Y-1.2388
N15005 G2 X1.9459 Y-1.2434 I-0.0061 J0.
N15010 G3 X1.7712 Y-1.1805 I-0.1636 J-0.1805
N15015 G1 X1.7695 Y-1.1803
N15020 X1.7679 Y-1.1795
N15025 X1.7667 Y-1.1783
N15030 X1.766 Y-1.1767
N15035 X1.7658 Y-1.175
N15040 X1.7662 Y-1.1733
N15045 X1.7671 Y-1.1718
N15050 X1.8013 Y-1.1338
N15055 G3 X1.8179 Y-1.1145 I-0.4013 J0.361
N15060 X1.8014 Y-1.096 I-0.0097 J0.0079
N15065 G1 X1.4606 Y-1.3151
N15070 X1.4588 Y-1.3166
N15075 X1.4572 Y-1.3184
N15080 X1.457 Y-1.3187
N15085 G2 X1.4406 Y-1.3206 I-0.0091 J0.0064
N15090 X1.4234 Y-1.3046 I0.2981 J0.338
N15095 X1.4073 Y-1.2873 I0.1782 J0.1819
N15100 G1 X1.4065 Y-1.286
N15105 X1.4063 Y-1.2844
N15110 X1.4065 Y-1.2829
N15115 X1.4073 Y-1.2815
N15120 X1.4085 Y-1.2805
N15125 X1.41 Y-1.2799
N15130 X1.4116
N15135 X1.413 Y-1.2805
N15140 G3 X1.4335 Y-1.2918 I0.4676 J0.8193
N15145 X1.4545 Y-1.302 I0.1303 J0.242
N15150 G2 X1.4586 Y-1.3165 I-0.0039 J-0.0089
N15155 G1 X1.4574 Y-1.3182
N15160 X1.4572 Y-1.3184
N15165 G3 X1.45 Y-1.4126 I0.0753 J-0.0531
N15170 G2 X1.3778 Y-1.4735 I-0.0435 J-0.0216
N15175 G1 X1.3706 Y-1.4682
N15180 X1.3431 Y-1.4464
N15185 X1.3189 Y-1.4251
N15190 X1.2981 Y-1.4042
N15195 X1.2809 Y-1.3838
N15200 X1.2665 Y-1.3633
N15205 X1.254 Y-1.3414
N15210 X1.243 Y-1.3174
N15215 X1.2335 Y-1.2911
N15220 X1.2253 Y-1.2626
N15225 X1.2187 Y-1.2317
N15230 X1.2134 Y-1.1985
N15235 X1.2096 Y-1.1632
N15240 X1.2071 Y-1.126
N15245 X1.2059 Y-1.087
N15250 X1.2058 Y-1.0465
N15255 X1.2067 Y-1.0045
N15260 X1.2084 Y-0.9613
N15265 X1.2108 Y-0.9171
N15270 X1.2136 Y-0.8719
N15275 X1.2167 Y-0.8259
N15280 G3 X1.217 Y-0.8159 I-0.1497 J0.01
N15285 G1 Y-0.1104
N15290 G3 X1.2165 Y-0.0986 I-0.15 J0.
N15295 G1 X1.2126 Y-0.0489
N15300 X1.209 Y0.
N15305 X1.2058 Y0.0481
N15310 X1.2033 Y0.0952
N15315 X1.2017 Y0.1411
N15320 X1.201 Y0.1858
N15325 X1.2016 Y0.2289
N15330 X1.2035 Y0.2705
N15335 X1.2069 Y0.3103
N15340 X1.2118 Y0.3481
N15345 X1.2183 Y0.3838
N15350 X1.2265 Y0.4174
N15355 X1.2364 Y0.4488
N15360 X1.2481 Y0.478
N15365 X1.2615 Y0.5052
N15370 X1.2768 Y0.5307
N15375 X1.295 Y0.5555
N15380 X1.3166 Y0.5806
N15385 X1.3418 Y0.6063
N15390 X1.3702 Y0.6324
N15395 X1.4015 Y0.6589
N15400 X1.4353 Y0.6858
N15405 X1.4532 Y0.6995
N15410 X1.4618 Y0.6971
N15415 X1.473 Y0.6936
N15420 X1.4828 Y0.6902
N15425 X1.491 Y0.6868
N15430 X1.4977 Y0.6836
N15435 X1.5029 Y0.6807
N15440 X1.5069 Y0.678
N15445 X1.5107 Y0.6751
N15450 X1.5149 Y0.6713
N15455 X1.5197 Y0.6663
N15460 X1.525 Y0.6601
N15465 X1.5308 Y0.6526
N15470 X1.537 Y0.6438
N15475 X1.5434 Y0.6339
N15480 X1.5502 Y0.6227
N15485 X1.5571 Y0.6104
N15490 X1.5643 Y0.5972
N15495 X1.5717 Y0.583
N15500 X1.5794 Y0.5679
N15505 X1.5873 Y0.5522
N15510 G3 X1.8713 Y0.6196 I0.134 J0.0674
N15515 G1 Y1.1201
N15520 G3 X1.7297 Y1.2699 I-0.15 J0.
N15525 G1 Y1.5292
N15530 X1.9204
N15535 Y-0.9527
N15540 G3 X2.0498 Y-1.1012 I0.15 J0.
N15545 G1 Y-1.5033
N15550 X1.9323
N15555 Y-1.4239
N15560 G3 X1.6907 Y-1.3051 I-0.15 J0.
N15565 G1 X1.6864 Y-1.3084
N15570 X1.6818 Y-1.312
N15575 X1.6812 Y-1.3124
N15580 X1.6769 Y-1.3158
N15585 X1.6761 Y-1.3165
N15590 X1.6718 Y-1.3199
N15595 X1.6707 Y-1.3208
N15600 X1.6664 Y-1.3242
N15605 X1.6651 Y-1.3253
N15610 X1.6609 Y-1.3288
N15615 X1.6592 Y-1.3302
N15620 X1.6551 Y-1.3337
N15625 X1.6533 Y-1.3353
N15630 X1.6492 Y-1.3389
N15635 X1.647 Y-1.3409
N15640 X1.643 Y-1.3446
N15645 X1.6406 Y-1.3468
N15650 X1.6367 Y-1.3505
N15655 X1.6341 Y-1.3531
N15660 X1.6303 Y-1.357
N15665 X1.6276 Y-1.3597
N15670 X1.6239 Y-1.3637
N15675 X1.6211 Y-1.3667
N15680 X1.6175 Y-1.3707
N15685 X1.6151 Y-1.3735
N15690 X1.6116 Y-1.3776
N15695 X1.6095 Y-1.3802
N15700 X1.6061 Y-1.3844
N15705 X1.6042 Y-1.3868
N15710 X1.6008 Y-1.3911
N15715 X1.5993 Y-1.3931
N15720 X1.596 Y-1.3975
N15725 X1.5946 Y-1.3994
N15730 X1.5914 Y-1.4038
N15735 X1.5902 Y-1.4054
N15740 X1.5871 Y-1.4099
N15745 X1.5862 Y-1.4112
N15750 X1.5831 Y-1.4157
N15755 X1.5823 Y-1.4169
N15760 X1.5792 Y-1.4214
N15765 X1.5787 Y-1.4221
N15770 X1.5757 Y-1.4267
N15775 X1.5753 Y-1.4273
N15780 X1.5723 Y-1.4318
N15785 X1.5711 Y-1.4337
N15790 X1.5649 Y-1.4422
N15795 X1.557 Y-1.4529
N15800 X1.5495 Y-1.4629
N15805 X1.5424 Y-1.4721
N15810 X1.5356 Y-1.4805
N15815 X1.5293 Y-1.488
N15820 X1.5234 Y-1.4945
N15825 X1.518 Y-1.5001
N15830 X1.5131 Y-1.5047
N15835 X1.5089 Y-1.5084
N15840 X1.5052 Y-1.5112
N15845 X1.5023 Y-1.5132
N15850 X1.4995 Y-1.5148
N15855 X1.4961 Y-1.5164
N15860 X1.4917 Y-1.5183
N15865 X1.486 Y-1.5204
N15870 X1.4792 Y-1.5225
N15875 X1.4712 Y-1.5246
N15880 X1.462 Y-1.5267
N15885 X1.4565 Y-1.5278
N15890 X1.4336 Y-1.5127
N15895 X1.4008 Y-1.4903
N15900 X1.3778 Y-1.4735
N15905 G3 X1.3556 Y-1.4723 I-0.012 J-0.0164
N15910 G2 X1.3335 Y-1.4707 I-0.0099 J0.0171
N15915 G1 X1.3271 Y-1.4656
N15920 X1.3017 Y-1.4433
N15925 X1.2797 Y-1.4211
N15930 X1.2611 Y-1.3991
N15935 X1.2453 Y-1.3767
N15940 X1.2317 Y-1.3528
N15945 X1.2199 Y-1.3269
N15950 X1.2097 Y-1.2988
N15955 X1.2011 Y-1.2686
N15960 X1.1941 Y-1.2362
N15965 X1.1886 Y-1.2018
N15970 X1.1847 Y-1.1654
N15975 X1.1821 Y-1.1272
N15980 X1.1809 Y-1.0875
N15985 X1.1808 Y-1.0462
N15990 X1.1817 Y-1.0038
N15995 X1.1835 Y-0.9602
N16000 X1.1858 Y-0.9156
N16005 X1.1887 Y-0.8703
N16010 X1.1917 Y-0.8243
N16015 X1.192 Y-0.8159
N16020 Y-0.1104
N16025 X1.1919 Y-0.1055
N16030 X1.1916 Y-0.1006
N16035 X1.1877 Y-0.0508
N16040 X1.1841 Y-0.0017
N16045 X1.1809 Y0.0466
N16050 X1.1783 Y0.0941
N16055 X1.1767 Y0.1405
N16060 X1.176 Y0.1858
N16065 X1.1766 Y0.2297
N16070 X1.1786 Y0.2721
N16075 X1.182 Y0.3129
N16080 X1.1871 Y0.3519
N16085 X1.1939 Y0.389
N16090 X1.2025 Y0.4241
N16095 X1.2129 Y0.4572
N16100 X1.2252 Y0.4882
N16105 X1.2395 Y0.5172
N16110 X1.256 Y0.5446
N16115 X1.2754 Y0.571
N16120 X1.2982 Y0.5975
N16125 X1.3244 Y0.6242
N16130 X1.3537 Y0.6511
N16135 X1.3857 Y0.6782
N16140 X1.4199 Y0.7055
N16145 X1.4477 Y0.7268
N16150 X1.4557 Y0.7248
N16155 X1.4689 Y0.7211
N16160 X1.4809 Y0.7173
N16165 X1.4917 Y0.7135
N16170 X1.5011 Y0.7096
N16175 X1.5092 Y0.7058
N16180 X1.5159 Y0.702
N16185 X1.5215 Y0.6983
N16190 X1.5267 Y0.6942
N16195 X1.5323 Y0.6892
N16200 X1.5382 Y0.6831
N16205 X1.5444 Y0.6759
N16210 X1.5509 Y0.6674
N16215 X1.5577 Y0.6578
N16220 X1.5646 Y0.6471
N16225 X1.5718 Y0.6353
N16230 X1.579 Y0.6225
N16235 X1.5864 Y0.6089
N16240 X1.5939 Y0.5944
N16245 X1.6017 Y0.5792
N16250 X1.6096 Y0.5634
N16255 G3 X1.8463 Y0.6196 I0.1117 J0.0562
N16260 G1 Y1.1201
N16265 G3 X1.7213 Y1.2451 I-0.125 J0.
N16270 G1 X1.7047
N16275 Y1.5542
N16280 X1.9454
N16285 Y-0.9527
N16290 G3 X2.0704 Y-1.0777 I0.125 J0.
N16295 G1 X2.0748
N16300 Y-1.5283
N16305 X1.9073
N16310 Y-1.4239
N16315 G3 X1.706 Y-1.3249 I-0.125 J0.
N16320 G1 X1.7017 Y-1.3282
N16325 X1.6971 Y-1.3317
N16330 X1.6966 Y-1.3321
N16335 X1.6923 Y-1.3355
N16340 X1.6916 Y-1.3361
N16345 X1.6873 Y-1.3394
N16350 X1.6864 Y-1.3402
N16355 X1.6822 Y-1.3436
N16360 X1.681 Y-1.3446
N16365 X1.6768 Y-1.348
N16370 X1.6754 Y-1.3492
N16375 X1.6713 Y-1.3527
N16380 X1.6698 Y-1.354
N16385 X1.6657 Y-1.3576
N16390 X1.6639 Y-1.3593
N16395 X1.6599 Y-1.363
N16400 X1.6579 Y-1.3648
N16405 X1.654 Y-1.3686
N16410 X1.6518 Y-1.3707
N16415 X1.648 Y-1.3746
N16420 X1.6458 Y-1.3769
N16425 X1.6421 Y-1.3808
N16430 X1.6398 Y-1.3833
N16435 X1.6362 Y-1.3874
N16440 X1.6342 Y-1.3896
N16445 X1.6307 Y-1.3938
N16450 X1.6289 Y-1.396
N16455 X1.6255 Y-1.4002
N16460 X1.6239 Y-1.4022
N16465 X1.6206 Y-1.4064
N16470 X1.6193 Y-1.4081
N16475 X1.616 Y-1.4125
N16480 X1.6148 Y-1.4141
N16485 X1.6116 Y-1.4185
N16490 X1.6107 Y-1.4198
N16495 X1.6075 Y-1.4243
N16500 X1.6068 Y-1.4254
N16505 X1.6037 Y-1.4299
N16510 X1.603 Y-1.4309
N16515 X1.5999 Y-1.4354
N16520 X1.5995 Y-1.436
N16525 X1.5965 Y-1.4406
N16530 X1.5962 Y-1.441
N16535 X1.5931 Y-1.4456
N16540 X1.5916 Y-1.4479
N16545 X1.5851 Y-1.4569
N16550 X1.5771 Y-1.4678
N16555 X1.5694 Y-1.478
N16560 X1.562 Y-1.4876
N16565 X1.5549 Y-1.4964
N16570 X1.5481 Y-1.5044
N16575 X1.5417 Y-1.5116
N16580 X1.5356 Y-1.5179
N16585 X1.5299 Y-1.5233
N16590 X1.5246 Y-1.5278
N16595 X1.5198 Y-1.5315
N16600 X1.5155 Y-1.5344
N16605 X1.5113 Y-1.5368
N16610 X1.5065 Y-1.5392
N16615 X1.5007 Y-1.5416
N16620 X1.4939 Y-1.5441
N16625 X1.4861 Y-1.5465
N16630 X1.4772 Y-1.5489
N16635 X1.4673 Y-1.5511
N16640 X1.4565 Y-1.5533
N16645 X1.4512 Y-1.5542
N16650 X1.4196 Y-1.5335
N16655 X1.3864 Y-1.5107
N16660 X1.3554 Y-1.4881
N16665 X1.3335 Y-1.4707
N16670 G2 X1.3304 Y-1.4546 I0.0078 J0.0098
N16675 G1 X1.5006 Y-1.1609
N16680 G2 X1.5165 Y-1.1557 I0.0108 J-0.0063
N16685 G3 X1.6888 Y-1.1189 I0.0607 J0.1372
N16690 G1 X1.7041 Y-1.1019
N16695 X1.705 Y-1.1009
N16700 X1.7201 Y-1.0838
N16705 X1.7218 Y-1.0818
N16710 X1.7365 Y-1.0645
N16715 X1.7391 Y-1.0614
N16720 X1.7532 Y-1.0439
N16725 X1.7566 Y-1.0396
N16730 X1.77 Y-1.0217
N16735 X1.774 Y-1.016
N16740 X1.7864 Y-0.9978
N16745 X1.791 Y-0.9905
N16750 X1.8021 Y-0.9719
N16755 G3 X1.8071 Y-0.9629 I-0.1288 J0.0768
N16760 G1 X1.8168 Y-0.9437
N16765 G3 X1.8212 Y-0.9343 I-0.1338 J0.0679
N16770 G1 X1.8295 Y-0.9146
N16775 X1.8314 Y-0.9101
N16780 X1.833 Y-0.9055
N16785 X1.8401 Y-0.8852
N16790 X1.8428 Y-0.8766
N16795 X1.8487 Y-0.8559
N16800 X1.8507 Y-0.8477
N16805 X1.8554 Y-0.8266
N16810 X1.8569 Y-0.8191
N16815 X1.8605 Y-0.7976
N16820 X1.8615 Y-0.7908
N16825 X1.8643 Y-0.7689
N16830 X1.8649 Y-0.7629
N16835 X1.8667 Y-0.7406
N16840 X1.8671 Y-0.7353
N16845 X1.8681 Y-0.7127
N16850 X1.8683 Y-0.7081
N16855 X1.8686 Y-0.6852
N16860 X1.8687 Y-0.6812
N16865 X1.8684 Y-0.6581
N16870 X1.8683 Y-0.6548
N16875 X1.8676 Y-0.6315
N16880 X1.8675 Y-0.6288
N16885 X1.8663 Y-0.6053
N16890 X1.8662 Y-0.6032
N16895 X1.8646 Y-0.5796
N16900 X1.8645 Y-0.578
N16905 X1.8627 Y-0.5543
N16910 X1.8626 Y-0.5532
N16915 X1.8606 Y-0.5295
N16920 Y-0.5289
N16925 X1.8596 Y-0.5178
N16930 X1.8612 Y-0.4984
N16935 X1.8613 Y-0.498
N16940 X1.8638 Y-0.466
N16945 X1.8639 Y-0.4651
N16950 X1.8662 Y-0.4332
N16955 X1.8663 Y-0.4319
N16960 X1.8684 Y-0.4
N16965 X1.8685 Y-0.3983
N16970 X1.8702 Y-0.3666
N16975 X1.8703 Y-0.3644
N16980 X1.8716 Y-0.3328
N16985 X1.8717 Y-0.3302
N16990 X1.8724 Y-0.2987
N16995 Y-0.2956
N17000 X1.8725 Y-0.2643
N17005 X1.8724 Y-0.2608
N17010 X1.8718 Y-0.2297
N17015 X1.8716 Y-0.2256
N17020 X1.8701 Y-0.1948
N17025 X1.8698 Y-0.1903
N17030 X1.8674 Y-0.1597
N17035 X1.8669 Y-0.1546
N17040 X1.8634 Y-0.1243
N17045 X1.8627 Y-0.1187
N17050 X1.8582 Y-0.0888
N17055 X1.8571 Y-0.0827
N17060 X1.8514 Y-0.0531
N17065 X1.8499 Y-0.0466
N17070 X1.8429 Y-0.0173
N17075 X1.8411 Y-0.0104
N17080 X1.8326 Y0.0185
N17085 X1.8303 Y0.0258
N17090 X1.8204 Y0.0542
N17095 X1.8176 Y0.0616
N17100 X1.8062 Y0.0896
N17105 X1.8033 Y0.0962
N17110 X1.7904 Y0.1238
N17115 X1.7878 Y0.1291
N17120 X1.7738 Y0.1564
N17125 X1.7716 Y0.1605
N17130 X1.7566 Y0.1875
N17135 X1.7549 Y0.1905
N17140 X1.7392 Y0.2173
N17145 X1.7381 Y0.2193
N17150 X1.7219 Y0.2459
N17155 X1.7213 Y0.2469
N17160 X1.705 Y0.2735
N17165 G3 X1.5061 Y0.3268 I-0.1277 J-0.0787
N17170 G1 X1.4915 Y0.319
N17175 X1.4902 Y0.3183
N17180 X1.4758 Y0.3103
N17185 X1.4731 Y0.3088
N17190 X1.459 Y0.3007
N17195 X1.4551 Y0.2983
N17200 X1.4414 Y0.2899
N17205 X1.4361 Y0.2864
N17210 X1.4231 Y0.2775
N17215 X1.4164 Y0.2727
N17220 X1.4041 Y0.2633
N17225 G3 X1.3961 Y0.2567 I0.0911 J-0.1192
N17230 G1 X1.3848 Y0.2468
N17235 G3 X1.3756 Y0.2379 I0.0992 J-0.1125
N17240 G1 X1.3654 Y0.2273
N17245 G3 X1.3556 Y0.216 I0.1084 J-0.1037
N17250 G1 X1.3467 Y0.2046
N17255 G3 X1.3379 Y0.192 I0.1182 J-0.0924
N17260 G1 X1.3303 Y0.1798
N17265 G3 X1.3232 Y0.1673 I0.1271 J-0.0797
N17270 G1 X1.3168 Y0.1545
N17275 G3 X1.3114 Y0.1424 I0.1341 J-0.0672
N17280 G1 X1.306 Y0.1289
N17285 G3 X1.3021 Y0.1178 I0.1395 J-0.0552
N17290 G1 X1.2977 Y0.1036
N17295 G3 X1.295 Y0.0935 I0.1434 J-0.0441
N17300 G1 X1.2916 Y0.0788
N17305 X1.2898 Y0.0699
N17310 X1.2872 Y0.0547
N17315 X1.2861 Y0.0469
N17320 X1.2843 Y0.0312
N17325 X1.2836 Y0.0246
N17330 X1.2825 Y0.0085
N17335 X1.2822 Y0.0029
N17340 X1.2816 Y-0.0136
N17345 X1.2815 Y-0.0182
N17350 X1.2814 Y-0.035
N17355 X1.2815 Y-0.0387
N17360 X1.2818 Y-0.0558
N17365 X1.2819 Y-0.0586
N17370 X1.2826 Y-0.0759
N17375 X1.2827 Y-0.078
N17380 X1.2836 Y-0.0954
N17385 X1.2837 Y-0.0968
N17390 X1.2848 Y-0.1144
N17395 Y-0.115
N17400 X1.2856 Y-0.127
N17405 X1.2832 Y-0.4143
N17410 Y-0.4155
N17415 Y-0.6815
N17420 X1.2823 Y-0.6946
N17425 Y-0.6952
N17430 X1.2811 Y-0.7133
N17435 X1.281 Y-0.7147
N17440 X1.2801 Y-0.7327
N17445 X1.28 Y-0.7348
N17450 X1.2793 Y-0.7526
N17455 X1.2792 Y-0.7555
N17460 X1.2788 Y-0.7731
N17465 Y-0.7768
N17470 Y-0.7942
N17475 X1.2789 Y-0.7987
N17480 X1.2795 Y-0.8158
N17485 X1.2797 Y-0.8213
N17490 X1.2809 Y-0.838
N17495 X1.2815 Y-0.8445
N17500 X1.2834 Y-0.8608
N17505 X1.2844 Y-0.8684
N17510 X1.287 Y-0.8842
N17515 X1.2887 Y-0.8929
N17520 X1.2922 Y-0.9082
N17525 G3 X1.2948 Y-0.9181 I0.1463 J0.0331
N17530 G1 X1.2992 Y-0.9328
N17535 G3 X1.3029 Y-0.9437 I0.1437 J0.043
N17540 G1 X1.3084 Y-0.9579
N17545 G3 X1.3135 Y-0.9696 I0.14 J0.0539
N17550 G1 X1.32 Y-0.9831
N17555 G3 X1.3267 Y-0.9954 I0.1349 J0.0656
N17560 G1 X1.3345 Y-1.0082
N17565 G3 X1.3429 Y-1.0206 I0.1282 J0.0779
N17570 G1 X1.3519 Y-1.0326
N17575 G3 X1.3613 Y-1.0438 I0.1198 J0.0902
N17580 G1 X1.3717 Y-1.0551
N17585 G3 X1.3805 Y-1.064 I0.1104 J0.1015
N17590 G1 X1.392 Y-1.0745
N17595 G3 X1.3998 Y-1.0812 I0.1015 J0.1104
N17600 G1 X1.4123 Y-1.0912
N17605 X1.4188 Y-1.0961
N17610 X1.432 Y-1.1056
N17615 X1.4373 Y-1.1092
N17620 X1.4512 Y-1.1183
N17625 X1.455 Y-1.1207
N17630 X1.4695 Y-1.1295
N17635 X1.472 Y-1.131
N17640 X1.4867 Y-1.1396
N17645 X1.488 Y-1.1403
N17650 X1.5029 Y-1.1489
N17655 G3 X1.5165 Y-1.1557 I0.0743 J0.1303
N17660 X1.5401 Y-1.151 I0.0084 J0.019
N17665 G2 X1.5627 Y-1.1427 I0.0195 J-0.0183
N17670 G3 X1.6702 Y-1.1022 I0.0146 J0.1241
N17675 G1 X1.6855 Y-1.0852
N17680 X1.6862 Y-1.0843
N17685 X1.7014 Y-1.0672
N17690 X1.7028 Y-1.0656
N17695 X1.7175 Y-1.0483
N17700 X1.7197 Y-1.0457
N17705 X1.7338 Y-1.0282
N17710 X1.7366 Y-1.0246
N17715 X1.7499 Y-1.0068
N17720 X1.7533 Y-1.002
N17725 X1.7657 Y-0.9838
N17730 X1.7695 Y-0.9777
N17735 X1.7807 Y-0.9591
N17740 X1.7848 Y-0.9516
N17745 X1.7945 Y-0.9324
N17750 X1.7981 Y-0.9246
N17755 X1.8065 Y-0.9049
N17760 X1.8094 Y-0.8972
N17765 X1.8165 Y-0.877
N17770 X1.8188 Y-0.8698
N17775 X1.8246 Y-0.8491
N17780 X1.8263 Y-0.8423
N17785 X1.831 Y-0.8211
N17790 X1.8322 Y-0.815
N17795 X1.8359 Y-0.7934
N17800 X1.8367 Y-0.7878
N17805 X1.8394 Y-0.7658
N17810 X1.84 Y-0.7608
N17815 X1.8418 Y-0.7385
N17820 X1.8421 Y-0.7341
N17825 X1.8432 Y-0.7115
N17830 X1.8433 Y-0.7077
N17835 X1.8436 Y-0.6848
N17840 X1.8437 Y-0.6815
N17845 X1.8434 Y-0.6584
N17850 Y-0.6556
N17855 X1.8426 Y-0.6323
N17860 X1.8425 Y-0.6301
N17865 X1.8413 Y-0.6066
N17870 X1.8412 Y-0.6048
N17875 X1.8397 Y-0.5812
N17880 X1.8396 Y-0.5799
N17885 X1.8378 Y-0.5562
N17890 X1.8377 Y-0.5553
N17895 X1.8357 Y-0.5315
N17900 Y-0.5311
N17905 X1.8345 Y-0.5178
N17910 X1.8363 Y-0.4963
N17915 X1.8389 Y-0.464
N17920 Y-0.4633
N17925 X1.8413 Y-0.4313
N17930 X1.8414 Y-0.4303
N17935 X1.8435 Y-0.3984
N17940 X1.8436 Y-0.397
N17945 X1.8453 Y-0.3652
N17950 Y-0.3634
N17955 X1.8466 Y-0.3318
N17960 X1.8467 Y-0.3296
N17965 X1.8474 Y-0.2981
N17970 Y-0.2956
N17975 X1.8475 Y-0.2643
N17980 X1.8474 Y-0.2613
N17985 X1.8468 Y-0.2303
N17990 X1.8466 Y-0.2269
N17995 X1.8451 Y-0.196
N18000 X1.8449 Y-0.1922
N18005 X1.8425 Y-0.1617
N18010 X1.8421 Y-0.1574
N18015 X1.8386 Y-0.1271
N18020 X1.838 Y-0.1225
N18025 X1.8334 Y-0.0925
N18030 X1.8326 Y-0.0875
N18035 X1.8268 Y-0.0579
N18040 X1.8256 Y-0.0524
N18045 X1.8186 Y-0.0232
N18050 X1.8171 Y-0.0174
N18055 X1.8086 Y0.0115
N18060 X1.8067 Y0.0175
N18065 X1.7968 Y0.046
N18070 X1.7945 Y0.0522
N18075 X1.783 Y0.0802
N18080 X1.7806 Y0.0857
N18085 X1.7678 Y0.1133
N18090 X1.7656 Y0.1177
N18095 X1.7516 Y0.145
N18100 X1.7497 Y0.1484
N18105 X1.7348 Y0.1754
N18110 X1.7333 Y0.1779
N18115 X1.7177 Y0.2047
N18120 X1.7167 Y0.2063
N18125 X1.7006 Y0.233
N18130 X1.7001 Y0.2338
N18135 X1.6837 Y0.2604
N18140 G3 X1.5179 Y0.3048 I-0.1064 J-0.0656
N18145 G1 X1.5033 Y0.297
N18150 X1.5023 Y0.2964
N18155 X1.4878 Y0.2884
N18160 X1.4857 Y0.2872
N18165 X1.4715 Y0.279
N18170 X1.4683 Y0.2771
N18175 X1.4546 Y0.2686
N18180 X1.4502 Y0.2657
N18185 X1.4371 Y0.2569
N18190 X1.4315 Y0.2528
N18195 X1.4193 Y0.2435
N18200 X1.4126 Y0.2379
N18205 X1.4013 Y0.228
N18210 G3 X1.3936 Y0.2206 I0.0826 J-0.0938
N18215 G1 X1.3835 Y0.21
N18220 G3 X1.3753 Y0.2006 I0.0903 J-0.0864
N18225 G1 X1.3664 Y0.1892
N18230 G3 X1.3591 Y0.1787 I0.0985 J-0.077
N18235 G1 X1.3514 Y0.1665
N18240 G3 X1.3456 Y0.1561 I0.1059 J-0.0664
N18245 G1 X1.3391 Y0.1433
N18250 G3 X1.3346 Y0.1332 I0.1117 J-0.056
N18255 G1 X1.3293 Y0.1197
N18260 X1.3275 Y0.1151
N18265 X1.326 Y0.1104
N18270 X1.3216 Y0.0962
N18275 X1.3194 Y0.0878
N18280 X1.3159 Y0.0731
N18285 X1.3145 Y0.0657
N18290 X1.3119 Y0.0505
N18295 X1.3109 Y0.044
N18300 X1.3091 Y0.0283
N18305 X1.3086 Y0.0228
N18310 X1.3074 Y0.0067
N18315 X1.3072 Y0.002
N18320 X1.3066 Y-0.0145
N18325 X1.3065 Y-0.0183
N18330 X1.3064 Y-0.0351
N18335 X1.3065 Y-0.0382
N18340 X1.3068 Y-0.0553
N18345 X1.3069 Y-0.0576
N18350 X1.3075 Y-0.0749
N18355 X1.3076 Y-0.0767
N18360 X1.3086 Y-0.0941
N18365 Y-0.0953
N18370 X1.3097 Y-0.1128
N18375 X1.3098 Y-0.1134
N18380 X1.3106 Y-0.1263
N18385 X1.3082 Y-0.4145
N18390 Y-0.4155
N18395 Y-0.6823
N18400 X1.3073 Y-0.6962
N18405 X1.3072 Y-0.6968
N18410 X1.3061 Y-0.7149
N18415 X1.306 Y-0.7161
N18420 X1.305 Y-0.7341
N18425 Y-0.7358
N18430 X1.3042 Y-0.7537
N18435 Y-0.756
N18440 X1.3038 Y-0.7737
N18445 Y-0.7767
N18450 Y-0.7941
N18455 X1.3039 Y-0.7979
N18460 X1.3044 Y-0.8149
N18465 X1.3047 Y-0.8195
N18470 X1.3059 Y-0.8363
N18475 X1.3063 Y-0.8416
N18480 X1.3082 Y-0.858
N18485 X1.3091 Y-0.8643
N18490 X1.3117 Y-0.8801
N18495 X1.3131 Y-0.8874
N18500 X1.3166 Y-0.9027
N18505 X1.3187 Y-0.9109
N18510 X1.3232 Y-0.9257
N18515 X1.3246 Y-0.9302
N18520 X1.3263 Y-0.9347
N18525 X1.3317 Y-0.9489
N18530 G3 X1.3359 Y-0.9587 I0.1167 J0.0449
N18535 G1 X1.3425 Y-0.9722
N18540 G3 X1.3481 Y-0.9824 I0.1124 J0.0547
N18545 G1 X1.3559 Y-0.9952
N18550 G3 X1.3628 Y-1.0055 I0.1068 J0.0649
N18555 G1 X1.3719 Y-1.0175
N18560 G3 X1.3797 Y-1.0269 I0.0998 J0.0752
N18565 G1 X1.3901 Y-1.0382
N18570 G3 X1.3975 Y-1.0456 I0.092 J0.0846
N18575 G1 X1.4089 Y-1.0561
N18580 X1.4154 Y-1.0617
N18585 X1.4279 Y-1.0717
N18590 X1.4333 Y-1.0758
N18595 X1.4466 Y-1.0853
N18600 X1.4509 Y-1.0882
N18605 X1.4649 Y-1.0973
N18610 X1.4681 Y-1.0994
N18615 X1.4825 Y-1.1082
N18620 X1.4846 Y-1.1094
N18625 X1.4993 Y-1.118
N18630 X1.5004 Y-1.1186
N18635 X1.5153 Y-1.1271
N18640 G3 X1.5627 Y-1.1427 I0.062 J0.1086
N18645 G1 X1.5665 Y-1.1435 Z-0.1244 F10.
N18650 X1.5701 Y-1.1448 Z-0.1238
N18655 X1.5732 Y-1.1464 Z-0.122
N18660 X1.576 Y-1.1485 Z-0.1202
N18665 X1.578 Y-1.1504 Z-0.1175
N18670 X1.5797 Y-1.1525 Z-0.1147
N18675 X1.5817 Y-1.1555 Z-0.1077
N18680 X1.5822 Y-1.1566 Z-0.1
N18685 Z0.2
N18690 G0 X2.8836 Y0.4466
N18695 G1 Z0.0749 F10.
N18700 X2.8835 Y0.4455 Z0.0676 F5.
N18705 X2.883 Y0.4424 Z0.0609
N18710 X2.8821 Y0.4375 Z0.0555
N18715 X2.8807 Y0.4312 Z0.0517
N18720 X2.8787 Y0.4244 Z0.05
N18725 G2 X2.6528 Y0.4978 Z0.0174 I-0.1129 J0.0367
N18730 X2.8787 Y0.4244 Z-0.0153 I0.1129 J-0.0367
N18735 X2.6528 Y0.4978 Z-0.0479 I-0.1129 J0.0367
N18740 X2.8787 Y0.4244 Z-0.0806 I0.1129 J-0.0367
N18745 X2.6528 Y0.4978 Z-0.1132 I-0.1129 J0.0367
N18750 X2.7515 Y0.579 Z-0.125 I0.1129 J-0.0367
N18755 G1 X2.7573 Y0.5798
N18760 G2 X2.9493 Y0.5792 I0.0942 J-0.6281
N18765 X2.9781 Y0.5692 I-0.0134 J-0.0847
N18770 X3.0023 Y0.5506 I-0.0536 J-0.0949
N18775 X3.0153 Y0.5286 I-0.0384 J-0.0377
N18780 X3.0303 Y0.479 I-5.9781 J-1.8273
N18785 X3.0439 Y0.4289 I-1.1524 J-0.3418
N18790 X3.035 Y0.4213 I-0.0064 J-0.0016
N18795 G3 X2.9542 Y0.4528 I-0.4599 J-1.0596
N18800 X2.8691 Y0.4692 I-0.0989 J-0.2845
N18805 X2.7741 Y0.4565 I-0.0123 J-0.2691
N18810 X2.6893 Y0.4119 I0.0858 J-0.266
N18815 X2.6752 Y0.4002 I0.1603 J-0.208
N18820 G2 X2.661 Y0.3885 I-0.2367 J0.2715
N18825 G1 X2.6596 Y0.3877
N18830 X2.6581 Y0.3874
N18835 X2.6565 Y0.3876
N18840 X2.655 Y0.3882
N18845 X2.6538 Y0.3893
N18850 X2.653 Y0.3906
N18855 X2.6526 Y0.3922
N18860 X2.6527 Y0.3938
N18865 G2 X2.6704 Y0.4625 I1.5346 J-0.3566
N18870 X2.6905 Y0.5306 I2.5001 J-0.7011
N18875 X2.704 Y0.5529 I0.0514 J-0.0159
N18880 X2.7164 Y0.5646 I0.2454 J-0.2481
N18885 X2.7303 Y0.5743 I0.0469 J-0.0523
N18890 X2.7435 Y0.5782 I0.016 J-0.03
N18895 G1 X2.7515 Y0.579
N18900 X2.7554 Y0.5793 Z-0.1244 F10.
N18905 X2.7592 Y0.5791 Z-0.1238
N18910 X2.7626 Y0.5783 Z-0.122
N18915 X2.7659 Y0.5771 Z-0.1202
N18920 X2.7684 Y0.5759 Z-0.1175
N18925 X2.7707 Y0.5743 Z-0.1147
N18930 X2.7733 Y0.572 Z-0.1077
N18935 X2.7742 Y0.5711 Z-0.1
N18940 Z0.2
N18945 G0 X2.9882 Y-1.4113
N18950 G1 Z0.0749 F10.
N18955 X2.988 Y-1.4123 Z0.0676 F5.
N18960 X2.9873 Y-1.4154 Z0.0609
N18965 X2.9861 Y-1.4203 Z0.0555
N18970 X2.9842 Y-1.4264 Z0.0517
