%
(BRANDON5)
(T1  D=0.25 CR=0. - ZMIN=-0.29 - FLAT END MILL)
N10 G90 G94 G17 G91.1
N15 G20
N20 G53 G0 Z0.
(2D POCKET4)
N25 M9
N30 T1 M6
N35 S2000 M3
N40 G54
N45 M8
N50 G0 X0.5755 Y0.3577
N55 G43 Z0.6 H1
N60 G0 Z0.2
N65 G1 Z0.1249 F10.
N70 X0.5765 Y0.3583 Z0.1176 F5.
N75 X0.5792 Y0.36 Z0.1109
N80 X0.5833 Y0.3628 Z0.1055
N85 X0.5884 Y0.3666 Z0.1017
N90 X0.5938 Y0.3713 Z0.1
N95 G3 X0.4347 Y0.5475 Z0.0674 I-0.0796 J0.0881
N100 X0.5938 Y0.3713 Z0.0347 I0.0796 J-0.0881
N105 X0.4347 Y0.5475 Z0.0021 I-0.0796 J0.0881
N110 X0.5938 Y0.3713 Z-0.0306 I0.0796 J-0.0881
N115 X0.4347 Y0.5475 Z-0.0632 I-0.0796 J0.0881
N120 X0.5938 Y0.3713 Z-0.0958 I0.0796 J-0.0881
N125 X0.6219 Y0.4093 Z-0.1 I-0.0796 J0.0881
N130 X0.5653 Y0.5645 I-0.1059 J0.0492
N135 X0.4102 Y0.5078 I-0.0492 J-0.1059
N140 X0.4051 Y0.4968 I2.3654 J-1.0999
N145 G2 X0.3971 Y0.4804 I-0.4051 J0.1861
N150 G3 X0.3894 Y0.4639 I0.2509 J-0.1279
N155 X0.3964 Y0.4489 I0.0102 J-0.0044
N160 G2 X0.4542 Y0.4247 I-0.0861 J-0.2864
N165 X0.508 Y0.3924 I-0.4019 J-0.7318
N170 G3 X0.5189 Y0.3983 I0.0038 J0.0059
N175 X0.5181 Y0.4596 I-1.691 J0.01
N180 X0.5133 Y0.5206 I-0.6306 J-0.0191
N185 G2 X0.5121 Y0.5311 I0.3699 J0.0474
N190 G3 X0.5105 Y0.5414 I-0.1033 J-0.0103
N195 X0.4911 Y0.5684 I-0.0395 J-0.008
N200 G1 X0.4867 Y0.5708
N205 G3 X0.4378 Y0.5589 I-0.0175 J-0.0344
N210 X0.42 Y0.5286 I0.1603 J-0.115
N215 X0.4102 Y0.5078 I2.3556 J-1.1207
N220 G1 X0.4088 Y0.5042 Z-0.0994 F10.
N225 X0.408 Y0.5004 Z-0.0988
N230 X0.4078 Y0.497 Z-0.097
N235 X0.4081 Y0.4935 Z-0.0952
N240 X0.4086 Y0.4908 Z-0.0925
N245 X0.4095 Y0.4882 Z-0.0897
N250 X0.411 Y0.4849 Z-0.0827
N255 X0.4116 Y0.4839 Z-0.075
N260 Z0.2
N265 G0 X0.7526 Y-1.2697
N270 G1 Z0.1249 F10.
N275 X0.7532 Y-1.2688 Z0.1176 F5.
N280 X0.7549 Y-1.2662 Z0.1109
N285 X0.7575 Y-1.2619 Z0.1055
N290 X0.7605 Y-1.2562 Z0.1017
N295 X0.7635 Y-1.2497 Z0.1
N300 G3 X0.5448 Y-1.157 Z0.0674 I-0.1093 J0.0464
N305 X0.7635 Y-1.2497 Z0.0347 I0.1093 J-0.0464
N310 X0.5448 Y-1.157 Z0.0021 I-0.1093 J0.0464
N315 X0.7635 Y-1.2497 Z-0.0306 I0.1093 J-0.0464
N320 X0.5448 Y-1.157 Z-0.0632 I-0.1093 J0.0464
N325 X0.7635 Y-1.2497 Z-0.0958 I0.1093 J-0.0464
N330 X0.7729 Y-1.2034 Z-0.1 I-0.1093 J0.0464
N335 X0.5798 I-0.0966 J0.
N340 G1 Y-1.3929
N345 G3 X0.5925 Y-1.4057 I0.0128 J0.
N350 G1 X0.6626
N355 G3 X0.6753 Y-1.3929 I0. J0.0128
N360 G1 Y-1.1912
N365 G3 X0.6619 Y-1.1682 I-0.0264 J0.
N370 G2 X0.6186 Y-1.1371 I0.1219 J0.2156
N375 G3 X0.5999 I-0.0093 J-0.0104
N380 G2 X0.5883 Y-1.1468 I-0.1652 J0.1844
N385 G3 X0.5798 Y-1.1646 I0.014 J-0.0177
N390 G1 Y-1.2034
N395 X0.5801 Y-1.2072 Z-0.0994 F10.
N400 X0.5809 Y-1.211 Z-0.0988
N405 X0.5822 Y-1.2142 Z-0.097
N410 X0.584 Y-1.2172 Z-0.0952
N415 X0.5856 Y-1.2194 Z-0.0925
N420 X0.5875 Y-1.2215 Z-0.0897
N425 X0.5902 Y-1.2237 Z-0.0827
N430 X0.5913 Y-1.2244 Z-0.075
N435 Z0.2
N440 G0 X0.0812 Y-1.265
N445 G1 Z0.1249 F10.
N450 X0.0818 Y-1.2641 Z0.1176 F5.
N455 X0.0836 Y-1.2614 Z0.1109
N460 X0.0861 Y-1.2572 Z0.1055
N465 X0.0891 Y-1.2515 Z0.1017
N470 X0.0921 Y-1.245 Z0.1
N475 G3 X-0.1266 Y-1.1523 Z0.0674 I-0.1093 J0.0464
N480 X0.0921 Y-1.245 Z0.0347 I0.1093 J-0.0464
N485 X-0.1266 Y-1.1523 Z0.0021 I-0.1093 J0.0464
N490 X0.0921 Y-1.245 Z-0.0306 I0.1093 J-0.0464
N495 X-0.1266 Y-1.1523 Z-0.0632 I-0.1093 J0.0464
N500 X0.0921 Y-1.245 Z-0.0958 I0.1093 J-0.0464
N505 X0.1015 Y-1.1986 Z-0.1 I-0.1093 J0.0464
N510 X-0.0916 I-0.0966 J0.
N515 G1 Y-1.3929
N520 G3 X-0.0788 Y-1.4057 I0.0128 J0.
N525 G1 X-0.0088
N530 G3 X0.0039 Y-1.3929 I0. J0.0128
N535 G1 Y-1.1843
N540 G3 X-0.0095 Y-1.1592 I-0.03 J0.
N545 G2 X-0.0321 Y-1.1424 I0.1366 J0.2066
N550 G3 X-0.0483 I-0.0081 J-0.0097
N555 G2 X-0.0806 Y-1.1654 I-0.1591 J0.1897
N560 G3 X-0.0916 Y-1.1847 I0.0116 J-0.0194
N565 G1 Y-1.1985
N570 Y-1.1986
N575 G2 X-0.1404 Y-1.2719 I-0.0793 J0.
N580 G3 X-0.1892 Y-1.3451 I0.0305 J-0.0732
N585 G1 Y-1.5033
N590 X0.1016
N595 Y-1.1005
N600 G2 X-0.0229 Y-0.9527 I0.0255 J0.1478
N605 G1 Y-0.264
N610 X-0.0242 Y-0.2442
N615 Y-0.2436
N620 X-0.0256 Y-0.2192
N625 X-0.0257 Y-0.2178
N630 X-0.0269 Y-0.1936
N635 X-0.027 Y-0.1915
N640 X-0.0278 Y-0.1675
N645 X-0.0279 Y-0.1647
N650 X-0.0283 Y-0.1409
N655 Y-0.1373
N660 X-0.0281 Y-0.1139
N665 X-0.028 Y-0.1094
N670 X-0.0272 Y-0.0863
N675 X-0.0269 Y-0.081
N680 X-0.0252 Y-0.0584
N685 X-0.0246 Y-0.052
N690 X-0.0221 Y-0.0299
N695 X-0.021 Y-0.0226
N700 X-0.0175 Y-0.0011
N705 X-0.0158 Y0.0074
N710 X-0.0111 Y0.0282
N715 G2 X-0.0086 Y0.0378 I0.1463 J-0.0331
N720 G1 X-0.0026 Y0.0579
N725 G2 X0.001 Y0.0684 I0.1438 J-0.0427
N730 G1 X0.0083 Y0.0877
N735 G2 X0.0131 Y0.0991 I0.1402 J-0.0532
N740 G1 X0.0219 Y0.1176
N745 G2 X0.0283 Y0.1295 I0.1354 J-0.0646
N750 G1 X0.0387 Y0.147
N755 G2 X0.0466 Y0.159 I0.1291 J-0.0765
N760 G1 X0.0587 Y0.1756
N765 G2 X0.0675 Y0.1865 I0.1211 J-0.0885
N770 G1 X0.0812 Y0.2021
N775 G2 X0.0895 Y0.2107 I0.1124 J-0.0993
N780 G1 X0.1047 Y0.2254
N785 X0.1083 Y0.2288
N790 X0.112 Y0.232
N795 X0.1286 Y0.246
N800 X0.1347 Y0.2509
N805 X0.1523 Y0.2643
N810 X0.1572 Y0.2678
N815 X0.1756 Y0.2807
N820 X0.1792 Y0.2832
N825 X0.1984 Y0.2957
N830 X0.2008 Y0.2973
N835 X0.2203 Y0.3096
N840 X0.2215 Y0.3103
N845 X0.2412 Y0.3225
N850 G2 X0.3914 Y0.3267 I0.0787 J-0.1277
N855 G1 X0.4025 Y0.3207
N860 X0.4037 Y0.32
N865 X0.4147 Y0.3139
N870 X0.4171 Y0.3126
N875 X0.4278 Y0.3064
N880 X0.4315 Y0.3041
N885 X0.4419 Y0.2977
N890 X0.4469 Y0.2945
N895 X0.4569 Y0.2878
N900 X0.4632 Y0.2833
N905 X0.4725 Y0.2763
N910 X0.4801 Y0.2702
N915 X0.4888 Y0.2628
N920 G2 X0.4975 Y0.2547 I-0.0976 J-0.1139
N925 G1 X0.5054 Y0.2468
N930 G2 X0.5148 Y0.2364 I-0.1063 J-0.1059
N935 G1 X0.5218 Y0.2279
N940 G2 X0.5309 Y0.2156 I-0.1157 J-0.0955
N945 G1 X0.537 Y0.2065
N950 G2 X0.5444 Y0.1941 I-0.1248 J-0.0833
N955 G1 X0.5496 Y0.1845
N960 G2 X0.5554 Y0.1725 I-0.1322 J-0.0709
N965 G1 X0.5597 Y0.1624
N970 G2 X0.564 Y0.1512 I-0.1379 J-0.0589
N975 G1 X0.5675 Y0.1405
N980 G2 X0.5705 Y0.1304 I-0.1422 J-0.0477
N985 G1 X0.5734 Y0.1193
N990 X0.5754 Y0.1103
N995 X0.5777 Y0.0988
N1000 X0.579 Y0.091
N1005 X0.5806 Y0.0791
N1010 X0.5814 Y0.0724
N1015 X0.5826 Y0.0602
N1020 X0.583 Y0.0546
N1025 X0.5837 Y0.0421
N1030 X0.5839 Y0.0374
N1035 X0.5842 Y0.0247
N1040 Y0.021
N1045 Y0.0081
N1050 Y0.0051
N1055 X0.5839 Y-0.0079
N1060 X0.5838 Y-0.0101
N1065 X0.5834 Y-0.0232
N1070 X0.5833 Y-0.0246
N1075 X0.5827 Y-0.0379
N1080 Y-0.0386
N1085 X0.5823 Y-0.0465
N1090 X0.5846 Y-0.151
N1095 X0.5847 Y-0.1543
N1100 Y-0.9527
N1105 G2 X0.4821 Y-1.095 I-0.15 J0.
N1110 G1 Y-1.5033
N1115 X0.773
N1120 Y-1.1023
N1125 G2 X0.6338 Y-0.9527 I0.0108 J0.1496
N1130 G1 Y0.3462
N1135 Y0.3478
N1140 X0.6341 Y0.3781
N1145 X0.6343 Y0.4075
N1150 X0.6342 Y0.4358
N1155 X0.6336 Y0.463
N1160 X0.6325 Y0.4887
N1165 X0.6308 Y0.513
N1170 X0.6284 Y0.5354
N1175 X0.6254 Y0.5559
N1180 X0.6216 Y0.5742
N1185 X0.6174 Y0.5901
N1190 X0.6127 Y0.6037
N1195 X0.6078 Y0.6148
N1200 X0.6028 Y0.6238
N1205 X0.5978 Y0.631
N1210 X0.592 Y0.6375
N1215 X0.5843 Y0.6447
N1220 X0.5736 Y0.6529
N1225 X0.56 Y0.6618
N1230 X0.5436 Y0.6713
N1235 X0.5245 Y0.681
N1240 X0.503 Y0.6909
N1245 X0.4796 Y0.701
N1250 X0.4755 Y0.7027
N1255 X0.4647 Y0.6994
N1260 X0.4471 Y0.6936
N1265 X0.431 Y0.6878
N1270 X0.4164 Y0.6819
N1275 X0.4036 Y0.6761
N1280 X0.3925 Y0.6704
N1285 X0.3831 Y0.6648
N1290 X0.3753 Y0.6594
N1295 X0.3685 Y0.6538
N1300 X0.3615 Y0.6472
N1305 X0.3544 Y0.6394
N1310 X0.3469 Y0.6301
N1315 X0.3392 Y0.6194
N1320 X0.3314 Y0.6073
N1325 X0.3234 Y0.5937
N1330 X0.3154 Y0.5789
N1335 X0.3073 Y0.5627
N1340 X0.2992 Y0.5455
N1345 X0.291 Y0.5272
N1350 X0.2827 Y0.5079
N1355 X0.2743 Y0.4878
N1360 X0.2656 Y0.467
N1365 G2 X-0.0229 Y0.5244 I-0.1386 J0.0574
N1370 G1 Y0.6771
N1375 X-0.1892
N1380 Y0.3095
N1385 G2 X-0.0574 Y0.1606 I-0.0182 J-0.1489
N1390 G1 Y-0.9527
N1395 G2 X-0.1892 Y-1.1016 I-0.15 J0.
N1400 G1 Y-1.3451
N1405 G3 X-0.1649 Y-1.349 I0.0125 J0.
N1410 G1 X-0.1095 Y-1.1814
N1415 G3 X-0.1181 Y-1.1654 I-0.0119 J0.0039
N1420 X-0.1336 Y-1.175 I-0.0032 J-0.0121
N1425 X0.0991 Y-1.2223 Z-0.1326 I0.1164 J-0.0237
N1430 X-0.1336 Y-1.175 Z-0.1653 I-0.1164 J0.0237
N1435 X-0.0291 Y-1.3168 Z-0.1826 I0.1164 J-0.0237
N1440 X0.1015 Y-1.1986 Z-0.2 I0.0119 J0.1182
N1445 X-0.0916 I-0.0966 J0.
N1450 G1 Y-1.3929
N1455 G3 X-0.0788 Y-1.4057 I0.0128 J0.
N1460 G1 X-0.0088
N1465 G3 X0.0039 Y-1.3929 I0. J0.0128
N1470 G1 Y-1.1843
N1475 G3 X-0.0095 Y-1.1592 I-0.03 J0.
N1480 G2 X-0.0321 Y-1.1424 I0.1366 J0.2066
N1485 G3 X-0.0483 I-0.0081 J-0.0097
N1490 G2 X-0.0806 Y-1.1654 I-0.1591 J0.1897
N1495 G3 X-0.0916 Y-1.1847 I0.0116 J-0.0194
N1500 G1 Y-1.1986
N1505 X-0.0913 Y-1.2025 Z-0.1994 F10.
N1510 X-0.0904 Y-1.2062 Z-0.1988
N1515 X-0.0892 Y-1.2095 Z-0.197
N1520 X-0.0874 Y-1.2125 Z-0.1952
N1525 X-0.0858 Y-1.2147 Z-0.1925
N1530 X-0.0839 Y-1.2167 Z-0.1897
N1535 X-0.0811 Y-1.219 Z-0.1827
N1540 X-0.0801 Y-1.2197 Z-0.175
N1545 Z0.2
N1550 G0 X0.7526 Y-1.2697
N1555 G1 Z0.0249 F10.
N1560 X0.7532 Y-1.2688 Z0.0176 F5.
N1565 X0.7549 Y-1.2662 Z0.0109
N1570 X0.7575 Y-1.2619 Z0.0055
N1575 X0.7605 Y-1.2562 Z0.0017
N1580 X0.7635 Y-1.2497 Z0.
N1585 G3 X0.5448 Y-1.157 Z-0.0326 I-0.1093 J0.0464
N1590 X0.7635 Y-1.2497 Z-0.0653 I0.1093 J-0.0464
N1595 X0.5448 Y-1.157 Z-0.0979 I-0.1093 J0.0464
N1600 X0.7635 Y-1.2497 Z-0.1306 I0.1093 J-0.0464
N1605 X0.5448 Y-1.157 Z-0.1632 I-0.1093 J0.0464
N1610 X0.7635 Y-1.2497 Z-0.1958 I0.1093 J-0.0464
N1615 X0.7729 Y-1.2034 Z-0.2 I-0.1093 J0.0464
N1620 X0.5798 I-0.0966 J0.
N1625 G1 Y-1.3929
N1630 G3 X0.5925 Y-1.4057 I0.0128 J0.
N1635 G1 X0.6626
N1640 G3 X0.6753 Y-1.3929 I0. J0.0128
N1645 G1 Y-1.1912
N1650 G3 X0.6619 Y-1.1682 I-0.0264 J0.
N1655 G2 X0.6186 Y-1.1371 I0.1219 J0.2156
N1660 G3 X0.5999 I-0.0093 J-0.0104
N1665 G2 X0.5883 Y-1.1468 I-0.1652 J0.1844
N1670 G3 X0.5798 Y-1.1646 I0.014 J-0.0177
N1675 G1 Y-1.2034
N1680 X0.5801 Y-1.2072 Z-0.1994 F10.
N1685 X0.5809 Y-1.211 Z-0.1988
N1690 X0.5822 Y-1.2142 Z-0.197
N1695 X0.584 Y-1.2172 Z-0.1952
N1700 X0.5856 Y-1.2194 Z-0.1925
N1705 X0.5875 Y-1.2215 Z-0.1897
N1710 X0.5902 Y-1.2237 Z-0.1827
N1715 X0.5913 Y-1.2244 Z-0.175
N1720 Z0.2
N1725 G0 X0.5756 Y0.3577
N1730 G1 Z0.0249 F10.
N1735 X0.5765 Y0.3583 Z0.0176 F5.
N1740 X0.5792 Y0.36 Z0.0109
N1745 X0.5833 Y0.3628 Z0.0055
N1750 X0.5884 Y0.3667 Z0.0017
N1755 X0.5939 Y0.3713 Z0.
N1760 G3 X0.4347 Y0.5476 Z-0.0326 I-0.0796 J0.0881
N1765 X0.5939 Y0.3713 Z-0.0653 I0.0796 J-0.0881
N1770 X0.4347 Y0.5476 Z-0.0979 I-0.0796 J0.0881
N1775 X0.5939 Y0.3713 Z-0.1306 I0.0796 J-0.0881
N1780 X0.4347 Y0.5476 Z-0.1632 I-0.0796 J0.0881
N1785 X0.5939 Y0.3713 Z-0.1958 I0.0796 J-0.0881
N1790 X0.622 Y0.4094 Z-0.2 I-0.0796 J0.0881
N1795 X0.4102 Y0.5079 I-0.1059 J0.0492
N1800 X0.4051 Y0.4968 I2.3654 J-1.0999
N1805 G2 X0.3971 Y0.4804 I-0.4051 J0.1861
N1810 G3 X0.3894 Y0.4639 I0.2509 J-0.1279
N1815 X0.3964 Y0.4489 I0.0102 J-0.0044
N1820 G2 X0.4542 Y0.4247 I-0.0861 J-0.2864
N1825 X0.508 Y0.3924 I-0.4019 J-0.7318
N1830 G3 X0.5189 Y0.3983 I0.0038 J0.0059
N1835 X0.5181 Y0.4596 I-1.691 J0.01
N1840 X0.5133 Y0.5206 I-0.6306 J-0.0191
N1845 G2 X0.5121 Y0.5311 I0.3699 J0.0474
N1850 G3 X0.5105 Y0.5414 I-0.1033 J-0.0103
N1855 X0.4911 Y0.5684 I-0.0395 J-0.008
N1860 G1 X0.4867 Y0.5708
N1865 G3 X0.4378 Y0.5589 I-0.0175 J-0.0344
N1870 X0.42 Y0.5286 I0.1603 J-0.115
N1875 X0.4102 Y0.5079 I2.3556 J-1.1207
N1880 G2 X0.321 Y0.446 I-0.0974 J0.0453
N1885 G3 X0.2199 Y0.4066 I0.0143 J-0.1859
N1890 G2 X-0.0229 Y0.5244 I-0.0928 J0.1178
N1895 G1 Y0.6771
N1900 X-0.1892
N1905 Y0.3095
N1910 G2 X-0.0574 Y0.1606 I-0.0182 J-0.1489
N1915 G1 Y-0.9527
N1920 G2 X-0.1892 Y-1.1016 I-0.15 J0.
N1925 G1 Y-1.5033
N1930 X0.1016
N1935 Y-1.1005
N1940 G2 X-0.0229 Y-0.9527 I0.0255 J0.1478
N1945 G1 Y-0.264
N1950 X-0.0242 Y-0.2442
N1955 Y-0.2436
N1960 X-0.0256 Y-0.2192
N1965 X-0.0257 Y-0.2178
N1970 X-0.0269 Y-0.1936
N1975 X-0.027 Y-0.1915
N1980 X-0.0278 Y-0.1675
N1985 X-0.0279 Y-0.1647
N1990 X-0.0283 Y-0.1409
N1995 Y-0.1373
N2000 X-0.0281 Y-0.1139
N2005 X-0.028 Y-0.1094
N2010 X-0.0272 Y-0.0863
N2015 X-0.0269 Y-0.081
N2020 X-0.0252 Y-0.0584
N2025 X-0.0246 Y-0.052
N2030 X-0.0221 Y-0.0299
N2035 X-0.021 Y-0.0226
N2040 X-0.0175 Y-0.0011
N2045 X-0.0158 Y0.0074
N2050 X-0.0111 Y0.0282
N2055 G2 X-0.0086 Y0.0378 I0.1463 J-0.0331
N2060 G1 X-0.0026 Y0.0579
N2065 G2 X0.001 Y0.0684 I0.1438 J-0.0427
N2070 G1 X0.0083 Y0.0877
N2075 G2 X0.0131 Y0.0991 I0.1402 J-0.0532
N2080 G1 X0.0219 Y0.1176
N2085 G2 X0.0283 Y0.1295 I0.1354 J-0.0646
N2090 G1 X0.0387 Y0.147
N2095 G2 X0.0466 Y0.159 I0.1291 J-0.0765
N2100 G1 X0.0587 Y0.1756
N2105 G2 X0.0675 Y0.1865 I0.1211 J-0.0885
N2110 G1 X0.0812 Y0.2021
N2115 G2 X0.0895 Y0.2107 I0.1124 J-0.0993
N2120 G1 X0.1047 Y0.2254
N2125 X0.1083 Y0.2288
N2130 X0.112 Y0.232
N2135 X0.1286 Y0.246
N2140 X0.1347 Y0.2509
N2145 X0.1523 Y0.2643
N2150 X0.1572 Y0.2678
N2155 X0.1756 Y0.2807
N2160 X0.1792 Y0.2832
N2165 X0.1984 Y0.2957
N2170 X0.2008 Y0.2973
N2175 X0.2203 Y0.3096
N2180 X0.2215 Y0.3103
N2185 X0.2412 Y0.3225
N2190 G2 X0.3914 Y0.3267 I0.0787 J-0.1277
N2195 G1 X0.4025 Y0.3207
N2200 X0.4037 Y0.32
N2205 X0.4147 Y0.3139
N2210 X0.4171 Y0.3126
N2215 X0.4278 Y0.3064
N2220 X0.4315 Y0.3041
N2225 X0.4419 Y0.2977
N2230 X0.4469 Y0.2945
N2235 X0.4569 Y0.2878
N2240 X0.4632 Y0.2833
N2245 X0.4725 Y0.2763
N2250 X0.4801 Y0.2702
N2255 X0.4888 Y0.2628
N2260 G2 X0.4975 Y0.2547 I-0.0976 J-0.1139
N2265 G1 X0.5054 Y0.2468
N2270 G2 X0.5148 Y0.2364 I-0.1063 J-0.1059
N2275 G1 X0.5218 Y0.2279
N2280 G2 X0.5309 Y0.2156 I-0.1157 J-0.0955
N2285 G1 X0.537 Y0.2065
N2290 G2 X0.5444 Y0.1941 I-0.1248 J-0.0833
N2295 G1 X0.5496 Y0.1845
N2300 G2 X0.5554 Y0.1725 I-0.1322 J-0.0709
N2305 G1 X0.5597 Y0.1624
N2310 G2 X0.564 Y0.1512 I-0.1379 J-0.0589
N2315 G1 X0.5675 Y0.1405
N2320 G2 X0.5705 Y0.1304 I-0.1422 J-0.0477
N2325 G1 X0.5734 Y0.1193
N2330 X0.5754 Y0.1103
N2335 X0.5777 Y0.0988
N2340 X0.579 Y0.091
N2345 X0.5806 Y0.0791
N2350 X0.5814 Y0.0724
N2355 X0.5826 Y0.0602
N2360 X0.583 Y0.0546
N2365 X0.5837 Y0.0421
N2370 X0.5839 Y0.0374
N2375 X0.5842 Y0.0247
N2380 Y0.021
N2385 Y0.0081
N2390 Y0.0051
N2395 X0.5839 Y-0.0079
N2400 X0.5838 Y-0.0101
N2405 X0.5834 Y-0.0232
N2410 X0.5833 Y-0.0246
N2415 X0.5827 Y-0.0379
N2420 Y-0.0386
N2425 X0.5823 Y-0.0465
N2430 X0.5846 Y-0.151
N2435 X0.5847 Y-0.1543
N2440 Y-0.9527
N2445 G2 X0.4821 Y-1.095 I-0.15 J0.
N2450 G1 Y-1.5033
N2455 X0.773
N2460 Y-1.1023
N2465 G2 X0.6338 Y-0.9527 I0.0108 J0.1496
N2470 G1 Y0.3462
N2475 Y0.3478
N2480 X0.6341 Y0.3781
N2485 X0.6343 Y0.4075
N2490 X0.6342 Y0.4358
N2495 X0.6336 Y0.463
N2500 X0.6325 Y0.4887
N2505 X0.6308 Y0.513
N2510 X0.6284 Y0.5354
N2515 X0.6254 Y0.5559
N2520 X0.6216 Y0.5742
N2525 X0.6174 Y0.5901
N2530 X0.6127 Y0.6037
N2535 X0.6078 Y0.6148
N2540 X0.6028 Y0.6238
N2545 X0.5978 Y0.631
N2550 X0.592 Y0.6375
N2555 X0.5843 Y0.6447
N2560 X0.5736 Y0.6529
N2565 X0.56 Y0.6618
N2570 X0.5436 Y0.6713
N2575 X0.5245 Y0.681
N2580 X0.503 Y0.6909
N2585 X0.4796 Y0.701
N2590 X0.4755 Y0.7027
N2595 X0.4647 Y0.6994
N2600 X0.4471 Y0.6936
N2605 X0.431 Y0.6878
N2610 X0.4164 Y0.6819
N2615 X0.4036 Y0.6761
N2620 X0.3925 Y0.6704
N2625 X0.3831 Y0.6648
N2630 X0.3753 Y0.6594
N2635 X0.3685 Y0.6538
N2640 X0.3615 Y0.6472
N2645 X0.3544 Y0.6394
N2650 X0.3469 Y0.6301
N2655 X0.3392 Y0.6194
N2660 X0.3314 Y0.6073
N2665 X0.3234 Y0.5937
N2670 X0.3154 Y0.5789
N2675 X0.3073 Y0.5627
N2680 X0.2992 Y0.5455
N2685 X0.291 Y0.5272
N2690 X0.2827 Y0.5079
N2695 X0.2743 Y0.4878
N2700 X0.2656 Y0.467
N2705 G2 X0.2199 Y0.4066 I-0.1386 J0.0574
N2710 G3 X0.2252 Y0.3923 I0.005 J-0.0063
N2715 G1 X0.258 Y0.394
N2720 X0.6012 Y0.487
N2725 X0.6259 Y0.4892
N2730 X0.6274 Y0.4895
N2735 X0.6287 Y0.4903
N2740 X0.6298 Y0.4915
N2745 X0.6304 Y0.4928
N2750 X0.6306 Y0.4944
N2755 X0.6303 Y0.4959
N2760 G3 X0.4054 Y0.4196 Z-0.2326 I-0.1125 J-0.0381
N2765 X0.6303 Y0.4959 Z-0.2653 I0.1125 J0.0381
N2770 X0.4102 Y0.5078 Z-0.29 I-0.1125 J-0.0381
N2775 X0.4051 Y0.4968 I2.3654 J-1.0999
N2780 G2 X0.3971 Y0.4804 I-0.4051 J0.1861
N2785 G3 X0.3894 Y0.4639 I0.2509 J-0.1279
N2790 X0.3964 Y0.4489 I0.0102 J-0.0044
N2795 G2 X0.4542 Y0.4247 I-0.0861 J-0.2864
N2800 X0.508 Y0.3924 I-0.4019 J-0.7318
N2805 G3 X0.5189 Y0.3983 I0.0038 J0.0059
N2810 X0.5181 Y0.4596 I-1.691 J0.01
N2815 X0.5133 Y0.5206 I-0.6306 J-0.0191
N2820 G2 X0.5121 Y0.5311 I0.3699 J0.0474
N2825 G3 X0.5105 Y0.5414 I-0.1033 J-0.0103
N2830 X0.4911 Y0.5684 I-0.0395 J-0.008
N2835 G1 X0.4867 Y0.5708
N2840 G3 X0.4378 Y0.5589 I-0.0175 J-0.0344
N2845 X0.42 Y0.5286 I0.1603 J-0.115
N2850 X0.4102 Y0.5078 I2.3556 J-1.1207
N2855 G1 X0.4088 Y0.5042 Z-0.2894 F10.
N2860 X0.408 Y0.5004 Z-0.2888
N2865 X0.4078 Y0.497 Z-0.287
N2870 X0.4081 Y0.4935 Z-0.2852
N2875 X0.4086 Y0.4908 Z-0.2825
N2880 X0.4095 Y0.4882 Z-0.2797
N2885 X0.411 Y0.4849 Z-0.2727
N2890 X0.4116 Y0.4839 Z-0.265
N2895 Z0.2
N2900 G0 X0.7893 Y-1.1605
N2905 G1 Z-0.0751 F10.
N2910 X0.7889 Y-1.1595 Z-0.0824 F5.
N2915 X0.7877 Y-1.1565 Z-0.0891
N2920 X0.7856 Y-1.152 Z-0.0945
N2925 X0.7827 Y-1.1463 Z-0.0983
N2930 X0.7791 Y-1.1401 Z-0.1
N2935 G3 X0.578 Y-1.2666 Z-0.1326 I-0.1005 J-0.0632
N2940 X0.7791 Y-1.1401 Z-0.1653 I0.1005 J0.0632
N2945 X0.578 Y-1.2666 Z-0.1979 I-0.1005 J-0.0632
N2950 X0.7791 Y-1.1401 Z-0.2306 I0.1005 J0.0632
N2955 X0.578 Y-1.2666 Z-0.2632 I-0.1005 J-0.0632
N2960 X0.7973 Y-1.2034 Z-0.29 I0.1005 J0.0632
N2965 X0.5798 I-0.1088 J0.
N2970 G1 Y-1.3929
N2975 G3 X0.5925 Y-1.4057 I0.0128 J0.
N2980 G1 X0.6626
N2985 G3 X0.6753 Y-1.3929 I0. J0.0128
N2990 G1 Y-1.1912
N2995 G3 X0.6619 Y-1.1682 I-0.0264 J0.
N3000 G2 X0.6186 Y-1.1371 I0.1219 J0.2156
N3005 G3 X0.5999 I-0.0093 J-0.0104
N3010 G2 X0.5883 Y-1.1468 I-0.1652 J0.1844
N3015 G3 X0.5798 Y-1.1646 I0.014 J-0.0177
N3020 G1 Y-1.2034
N3025 X0.5801 Y-1.2072 Z-0.2894 F10.
N3030 X0.5809 Y-1.211 Z-0.2888
N3035 X0.5822 Y-1.2142 Z-0.287
N3040 X0.584 Y-1.2172 Z-0.2852
N3045 X0.5856 Y-1.2194 Z-0.2825
N3050 X0.5875 Y-1.2215 Z-0.2797
N3055 X0.5902 Y-1.2237 Z-0.2727
N3060 X0.5913 Y-1.2244 Z-0.265
N3065 Z0.2
N3070 G0 X0.1179 Y-1.1558
N3075 G1 Z-0.0751 F10.
N3080 X0.1175 Y-1.1548 Z-0.0824 F5.
N3085 X0.1163 Y-1.1518 Z-0.0891
N3090 X0.1142 Y-1.1473 Z-0.0945
N3095 X0.1113 Y-1.1416 Z-0.0983
N3100 X0.1077 Y-1.1354 Z-0.1
N3105 G3 X-0.0934 Y-1.2619 Z-0.1326 I-0.1005 J-0.0632
N3110 X0.1077 Y-1.1354 Z-0.1653 I0.1005 J0.0632
N3115 X-0.0934 Y-1.2619 Z-0.1979 I-0.1005 J-0.0632
N3120 X0.1077 Y-1.1354 Z-0.2306 I0.1005 J0.0632
N3125 X-0.0934 Y-1.2619 Z-0.2632 I-0.1005 J-0.0632
N3130 X0.1259 Y-1.1986 Z-0.29 I0.1005 J0.0632
N3135 X-0.0916 I-0.1088 J0.
N3140 G1 Y-1.3929
N3145 G3 X-0.0788 Y-1.4057 I0.0128 J0.
N3150 G1 X-0.0088
N3155 G3 X0.0039 Y-1.3929 I0. J0.0128
N3160 G1 Y-1.1843
N3165 G3 X-0.0095 Y-1.1592 I-0.03 J0.
N3170 G2 X-0.0321 Y-1.1424 I0.1366 J0.2066
N3175 G3 X-0.0483 I-0.0081 J-0.0097
N3180 G2 X-0.0806 Y-1.1654 I-0.1591 J0.1897
N3185 G3 X-0.0916 Y-1.1847 I0.0116 J-0.0194
N3190 G1 Y-1.1985
N3195 Y-1.1986
N3200 G2 X-0.1404 Y-1.2719 I-0.0793 J0.
N3205 G3 X-0.1892 Y-1.3451 I0.0305 J-0.0732
N3210 G1 Y-1.5033
N3215 X0.1016
N3220 Y-1.1005
N3225 G2 X-0.0229 Y-0.9527 I0.0255 J0.1478
N3230 G1 Y-0.264
N3235 X-0.0242 Y-0.2442
N3240 Y-0.2436
N3245 X-0.0256 Y-0.2192
N3250 X-0.0257 Y-0.2178
N3255 X-0.0269 Y-0.1936
N3260 X-0.027 Y-0.1915
N3265 X-0.0278 Y-0.1675
N3270 X-0.0279 Y-0.1647
N3275 X-0.0283 Y-0.1409
N3280 Y-0.1373
N3285 X-0.0281 Y-0.1139
N3290 X-0.028 Y-0.1094
N3295 X-0.0272 Y-0.0863
N3300 X-0.0269 Y-0.081
N3305 X-0.0252 Y-0.0584
N3310 X-0.0246 Y-0.052
N3315 X-0.0221 Y-0.0299
N3320 X-0.021 Y-0.0226
N3325 X-0.0175 Y-0.0011
N3330 X-0.0158 Y0.0074
N3335 X-0.0111 Y0.0282
N3340 G2 X-0.0086 Y0.0378 I0.1463 J-0.0331
N3345 G1 X-0.0026 Y0.0579
N3350 G2 X0.001 Y0.0684 I0.1438 J-0.0427
N3355 G1 X0.0083 Y0.0877
N3360 G2 X0.0131 Y0.0991 I0.1402 J-0.0532
N3365 G1 X0.0219 Y0.1176
N3370 G2 X0.0283 Y0.1295 I0.1354 J-0.0646
N3375 G1 X0.0387 Y0.147
N3380 G2 X0.0466 Y0.159 I0.1291 J-0.0765
N3385 G1 X0.0587 Y0.1756
N3390 G2 X0.0675 Y0.1865 I0.1211 J-0.0885
N3395 G1 X0.0812 Y0.2021
N3400 G2 X0.0895 Y0.2107 I0.1124 J-0.0993
N3405 G1 X0.1047 Y0.2254
N3410 X0.1083 Y0.2288
N3415 X0.112 Y0.232
N3420 X0.1286 Y0.246
N3425 X0.1347 Y0.2509
N3430 X0.1523 Y0.2643
N3435 X0.1572 Y0.2678
N3440 X0.1756 Y0.2807
N3445 X0.1792 Y0.2832
N3450 X0.1984 Y0.2957
N3455 X0.2008 Y0.2973
N3460 X0.2203 Y0.3096
N3465 X0.2215 Y0.3103
N3470 X0.2412 Y0.3225
N3475 G2 X0.3914 Y0.3267 I0.0787 J-0.1277
N3480 G1 X0.4025 Y0.3207
N3485 X0.4037 Y0.32
N3490 X0.4147 Y0.3139
N3495 X0.4171 Y0.3126
N3500 X0.4278 Y0.3064
N3505 X0.4315 Y0.3041
N3510 X0.4419 Y0.2977
N3515 X0.4469 Y0.2945
N3520 X0.4569 Y0.2878
N3525 X0.4632 Y0.2833
N3530 X0.4725 Y0.2763
N3535 X0.4801 Y0.2702
N3540 X0.4888 Y0.2628
N3545 G2 X0.4975 Y0.2547 I-0.0976 J-0.1139
N3550 G1 X0.5054 Y0.2468
N3555 G2 X0.5148 Y0.2364 I-0.1063 J-0.1059
N3560 G1 X0.5218 Y0.2279
N3565 G2 X0.5309 Y0.2156 I-0.1157 J-0.0955
N3570 G1 X0.537 Y0.2065
N3575 G2 X0.5444 Y0.1941 I-0.1248 J-0.0833
N3580 G1 X0.5496 Y0.1845
N3585 G2 X0.5554 Y0.1725 I-0.1322 J-0.0709
N3590 G1 X0.5597 Y0.1624
N3595 G2 X0.564 Y0.1512 I-0.1379 J-0.0589
N3600 G1 X0.5675 Y0.1405
N3605 G2 X0.5705 Y0.1304 I-0.1422 J-0.0477
N3610 G1 X0.5734 Y0.1193
N3615 X0.5754 Y0.1103
N3620 X0.5777 Y0.0988
N3625 X0.579 Y0.091
N3630 X0.5806 Y0.0791
N3635 X0.5814 Y0.0724
N3640 X0.5826 Y0.0602
N3645 X0.583 Y0.0546
N3650 X0.5837 Y0.0421
N3655 X0.5839 Y0.0374
N3660 X0.5842 Y0.0247
N3665 Y0.021
N3670 Y0.0081
N3675 Y0.0051
N3680 X0.5839 Y-0.0079
N3685 X0.5838 Y-0.0101
N3690 X0.5834 Y-0.0232
N3695 X0.5833 Y-0.0246
N3700 X0.5827 Y-0.0379
N3705 Y-0.0386
N3710 X0.5823 Y-0.0465
N3715 X0.5846 Y-0.151
N3720 X0.5847 Y-0.1543
N3725 Y-0.9527
N3730 G2 X0.4821 Y-1.095 I-0.15 J0.
N3735 G1 Y-1.5033
N3740 X0.773
N3745 Y-1.1023
N3750 G2 X0.6338 Y-0.9527 I0.0108 J0.1496
N3755 G1 Y0.3462
N3760 Y0.3478
N3765 X0.6341 Y0.3781
N3770 X0.6343 Y0.4075
N3775 X0.6342 Y0.4358
N3780 X0.6336 Y0.463
N3785 X0.6325 Y0.4887
N3790 X0.6308 Y0.513
N3795 X0.6284 Y0.5354
N3800 X0.6254 Y0.5559
N3805 X0.6216 Y0.5742
N3810 X0.6174 Y0.5901
N3815 X0.6127 Y0.6037
N3820 X0.6078 Y0.6148
N3825 X0.6028 Y0.6238
N3830 X0.5978 Y0.631
N3835 X0.592 Y0.6375
N3840 X0.5843 Y0.6447
N3845 X0.5736 Y0.6529
N3850 X0.56 Y0.6618
N3855 X0.5436 Y0.6713
N3860 X0.5245 Y0.681
N3865 X0.503 Y0.6909
N3870 X0.4796 Y0.701
N3875 X0.4755 Y0.7027
N3880 X0.4647 Y0.6994
N3885 X0.4471 Y0.6936
N3890 X0.431 Y0.6878
N3895 X0.4164 Y0.6819
N3900 X0.4036 Y0.6761
N3905 X0.3925 Y0.6704
N3910 X0.3831 Y0.6648
N3915 X0.3753 Y0.6594
N3920 X0.3685 Y0.6538
N3925 X0.3615 Y0.6472
N3930 X0.3544 Y0.6394
N3935 X0.3469 Y0.6301
N3940 X0.3392 Y0.6194
N3945 X0.3314 Y0.6073
N3950 X0.3234 Y0.5937
N3955 X0.3154 Y0.5789
N3960 X0.3073 Y0.5627
N3965 X0.2992 Y0.5455
N3970 X0.291 Y0.5272
N3975 X0.2827 Y0.5079
N3980 X0.2743 Y0.4878
N3985 X0.2656 Y0.467
N3990 G2 X-0.0229 Y0.5244 I-0.1386 J0.0574
N3995 G1 Y0.6771
N4000 X-0.1892
N4005 Y0.3095
N4010 G2 X-0.0574 Y0.1606 I-0.0182 J-0.1489
N4015 G1 Y-0.9527
N4020 G2 X-0.1892 Y-1.1016 I-0.15 J0.
N4025 G1 Y-1.3451
N4030 G2 X-0.2017 Y-1.3638 I-0.0203 J0.
N4035 G3 X-0.2142 Y-1.3826 I0.0078 J-0.0187
N4040 G1 Y-1.5283
N4045 X0.1266
N4050 Y-1.0777
N4055 G2 X0.0021 Y-0.9527 I0.0005 J0.125
N4060 G1 Y-0.2632
N4065 X0.0008 Y-0.2427
N4070 X0.0007 Y-0.2421
N4075 X-0.0007 Y-0.2177
N4080 Y-0.2166
N4085 X-0.0019 Y-0.1924
N4090 X-0.002 Y-0.1907
N4095 X-0.0028 Y-0.1666
N4100 X-0.0029 Y-0.1643
N4105 X-0.0033 Y-0.1405
N4110 Y-0.1375
N4115 X-0.0031 Y-0.114
N4120 Y-0.1103
N4125 X-0.0022 Y-0.0873
N4130 X-0.002 Y-0.0828
N4135 X-0.0003 Y-0.0602
N4140 X0.0002 Y-0.0549
N4145 X0.0028 Y-0.0328
N4150 X0.0036 Y-0.0267
N4155 X0.0072 Y-0.0052
N4160 X0.0086 Y0.0019
N4165 X0.0133 Y0.0227
N4170 X0.0154 Y0.0307
N4175 X0.0214 Y0.0508
N4180 X0.0228 Y0.0552
N4185 X0.0243 Y0.0596
N4190 X0.0317 Y0.0789
N4195 G2 X0.0357 Y0.0883 I0.1169 J-0.0443
N4200 G1 X0.0445 Y0.1068
N4205 G2 X0.0498 Y0.1167 I0.1128 J-0.0538
N4210 G1 X0.0602 Y0.1343
N4215 G2 X0.0668 Y0.1443 I0.1075 J-0.0637
N4220 G1 X0.0789 Y0.1609
N4225 G2 X0.0862 Y0.1699 I0.1009 J-0.0737
N4230 G1 X0.1 Y0.1855
N4235 G2 X0.1068 Y0.1927 I0.0937 J-0.0828
N4240 G1 X0.1221 Y0.2074
N4245 X0.1282 Y0.2129
N4250 X0.1447 Y0.2269
N4255 X0.1498 Y0.231
N4260 X0.1674 Y0.2444
N4265 X0.1715 Y0.2474
N4270 X0.1899 Y0.2603
N4275 X0.193 Y0.2623
N4280 X0.2121 Y0.2748
N4285 X0.2141 Y0.2761
N4290 X0.2336 Y0.2884
N4295 X0.2346 Y0.289
N4300 X0.2543 Y0.3012
N4305 G2 X0.3795 Y0.3047 I0.0656 J-0.1064
N4310 G1 X0.3906 Y0.2987
N4315 X0.3916 Y0.2982
N4320 X0.4025 Y0.2921
N4325 X0.4046 Y0.2909
N4330 X0.4153 Y0.2847
N4335 X0.4184 Y0.2829
N4340 X0.4288 Y0.2765
N4345 X0.4329 Y0.2738
N4350 X0.4429 Y0.2671
N4355 X0.4481 Y0.2633
N4360 X0.4575 Y0.2563
N4365 X0.4638 Y0.2512
N4370 X0.4725 Y0.2438
N4375 G2 X0.4798 Y0.2371 I-0.0813 J-0.0949
N4380 G1 X0.4877 Y0.2291
N4385 G2 X0.4955 Y0.2205 I-0.0886 J-0.0882
N4390 G1 X0.5026 Y0.2119
N4395 G2 X0.5101 Y0.2018 I-0.0964 J-0.0796
N4400 G1 X0.5162 Y0.1927
N4405 G2 X0.5224 Y0.1823 I-0.104 J-0.0694
N4410 G1 X0.5276 Y0.1727
N4415 G2 X0.5324 Y0.1627 I-0.1102 J-0.059
N4420 G1 X0.5367 Y0.1525
N4425 G2 X0.5403 Y0.1432 I-0.115 J-0.0491
N4430 G1 X0.5438 Y0.1326
N4435 X0.5463 Y0.1241
N4440 X0.5492 Y0.113
N4445 X0.5509 Y0.1056
N4450 X0.5531 Y0.0941
N4455 X0.5542 Y0.0875
N4460 X0.5559 Y0.0757
N4465 X0.5565 Y0.07
N4470 X0.5577 Y0.0579
N4475 X0.558 Y0.0532
N4480 X0.5587 Y0.0407
N4485 X0.5589 Y0.0368
N4490 X0.5592 Y0.0241
N4495 Y0.021
N4500 Y0.0081
N4505 Y0.0056
N4510 X0.5589 Y-0.0074
N4515 Y-0.0092
N4520 X0.5584 Y-0.0223
N4525 Y-0.0235
N4530 X0.5578 Y-0.0368
N4535 X0.5577 Y-0.0373
N4540 X0.5573 Y-0.0461
N4545 X0.5596 Y-0.1515
N4550 X0.5597 Y-0.1543
N4555 Y-0.9527
N4560 G2 X0.4571 Y-1.0756 I-0.125 J0.
N4565 G1 Y-1.5283
N4570 X0.798
N4575 Y-1.0777
N4580 X0.7838
N4585 G2 X0.6588 Y-0.9527 I0. J0.125
N4590 G1 Y0.3462
N4595 Y0.3475
N4600 X0.6591 Y0.3779
N4605 X0.6593 Y0.4075
N4610 X0.6592 Y0.4361
N4615 X0.6586 Y0.4638
N4620 X0.6575 Y0.4902
N4625 X0.6557 Y0.5152
N4630 X0.6532 Y0.5386
N4635 X0.65 Y0.5602
N4640 X0.646 Y0.5799
N4645 X0.6413 Y0.5974
N4650 X0.636 Y0.6128
N4655 X0.6302 Y0.626
N4660 X0.624 Y0.6371
N4665 X0.6175 Y0.6464
N4670 X0.61 Y0.655
N4675 X0.6004 Y0.6639
N4680 X0.5881 Y0.6733
N4685 X0.5731 Y0.6832
N4690 X0.5555 Y0.6933
N4695 X0.5354 Y0.7035
N4700 X0.5132 Y0.7138
N4705 X0.4893 Y0.7241
N4710 X0.4768 Y0.7292
N4715 X0.4571 Y0.7232
N4720 X0.439 Y0.7172
N4725 X0.4221 Y0.7111
N4730 X0.4067 Y0.7049
N4735 X0.3927 Y0.6986
N4740 X0.3803 Y0.6922
N4745 X0.3695 Y0.6858
N4750 X0.3603 Y0.6794
N4755 X0.3519 Y0.6726
N4760 X0.3437 Y0.6647
N4765 X0.3354 Y0.6557
N4770 X0.327 Y0.6453
N4775 X0.3186 Y0.6335
N4780 X0.3101 Y0.6204
N4785 X0.3017 Y0.606
N4790 X0.2932 Y0.5904
N4795 X0.2848 Y0.5737
N4800 X0.2765 Y0.5559
N4805 X0.2681 Y0.5372
N4810 X0.2597 Y0.5177
N4815 X0.2512 Y0.4974
N4820 X0.2425 Y0.4766
N4825 G2 X0.0021 Y0.5244 I-0.1155 J0.0478
N4830 G1 Y0.7021
N4835 X-0.2142
N4840 Y0.2856
N4845 X-0.2074
N4850 G2 X-0.0824 Y0.1606 I0. J-0.125
N4855 G1 Y-0.9527
N4860 G2 X-0.2074 Y-1.0777 I-0.125 J0.
N4865 G1 X-0.2142
N4870 Y-1.3826
N4875 X-0.214 Y-1.3864 Z-0.2894 F10.
N4880 X-0.2131 Y-1.3902 Z-0.2888
N4885 X-0.2118 Y-1.3934 Z-0.287
N4890 X-0.2101 Y-1.3964 Z-0.2852
N4895 X-0.2084 Y-1.3987 Z-0.2825
N4900 X-0.2065 Y-1.4007 Z-0.2797
N4905 X-0.2038 Y-1.4029 Z-0.2727
N4910 X-0.2028 Y-1.4036 Z-0.265
N4915 Z0.2
N4920 G0 X-2.2438 Y-1.2838
N4925 G1 Z0.1249 F10.
N4930 X-2.2432 Y-1.2829 Z0.1176 F5.
N4935 X-2.2415 Y-1.2802 Z0.1109
N4940 X-2.2389 Y-1.2759 Z0.1055
N4945 X-2.236 Y-1.2703 Z0.1017
N4950 X-2.2329 Y-1.2638 Z0.1
N4955 G3 X-2.4516 Y-1.1711 Z0.0674 I-0.1093 J0.0464
N4960 X-2.2329 Y-1.2638 Z0.0347 I0.1093 J-0.0464
N4965 X-2.4516 Y-1.1711 Z0.0021 I-0.1093 J0.0464
N4970 X-2.2329 Y-1.2638 Z-0.0306 I0.1093 J-0.0464
N4975 X-2.4516 Y-1.1711 Z-0.0632 I-0.1093 J0.0464
N4980 X-2.2329 Y-1.2638 Z-0.0958 I0.1093 J-0.0464
N4985 X-2.2235 Y-1.2174 Z-0.1 I-0.1093 J0.0464
N4990 X-2.4386 I-0.1075 J0.
N4995 G1 Y-1.3815
N5000 G3 X-2.4258 Y-1.3943 I0.0128 J0.
N5005 G1 X-2.3445
N5010 G3 X-2.3317 Y-1.3815 I0. J0.0128
N5015 G1 Y-1.2019
N5020 G3 X-2.3452 Y-1.179 I-0.0262 J0.
N5025 G2 X-2.3856 Y-1.1512 I0.126 J0.2264
N5030 G3 X-2.4018 I-0.0081 J-0.0097
N5035 G2 X-2.4251 Y-1.1686 I-0.1665 J0.1985
N5040 G3 X-2.4386 Y-1.1937 I0.0167 J-0.0251
N5045 G1 Y-1.2174
N5050 G2 X-2.4931 Y-1.2992 I-0.0886 J0.
N5055 G3 X-2.5476 Y-1.381 I0.0341 J-0.0818
N5060 G1 Y-1.5033
N5065 X-2.2226
N5070 Y-1.1026
N5075 G2 X-2.3691 Y-0.9527 I0.0035 J0.15
N5080 G1 Y-0.1295
N5085 X-2.3699 Y-0.1211
N5090 X-2.37 Y-0.1206
N5095 X-2.3713 Y-0.1054
N5100 X-2.3714 Y-0.1043
N5105 X-2.3726 Y-0.0891
N5110 X-2.3727 Y-0.0875
N5115 X-2.3738 Y-0.0724
N5120 X-2.3739 Y-0.0702
N5125 X-2.3748 Y-0.0552
N5130 X-2.3749 Y-0.0524
N5135 X-2.3755 Y-0.0375
N5140 Y-0.0341
N5145 X-2.3758 Y-0.0194
N5150 Y-0.0153
N5155 X-2.3756 Y-0.0007
N5160 X-2.3754 Y0.004
N5165 X-2.3748 Y0.0184
N5170 X-2.3744 Y0.0239
N5175 X-2.3733 Y0.0381
N5180 X-2.3727 Y0.0443
N5185 X-2.3709 Y0.0583
N5190 X-2.3699 Y0.0653
N5195 X-2.3675 Y0.079
N5200 X-2.366 Y0.0866
N5205 X-2.363 Y0.1001
N5210 X-2.3608 Y0.1085
N5215 X-2.3571 Y0.1216
N5220 X-2.3542 Y0.1306
N5225 X-2.3496 Y0.1434
N5230 G2 X-2.3459 Y0.1529 I0.1413 J-0.0504
N5235 G1 X-2.3404 Y0.1653
N5240 G2 X-2.3358 Y0.1751 I0.1375 J-0.0598
N5245 G1 X-2.3295 Y0.1872
N5250 G2 X-2.3242 Y0.1964 I0.1329 J-0.0696
N5255 G1 X-2.3169 Y0.2082
N5260 X-2.3119 Y0.2158
N5265 X-2.3038 Y0.2272
N5270 X-2.2994 Y0.2332
N5275 X-2.2907 Y0.2443
N5280 X-2.287 Y0.2488
N5285 X-2.2778 Y0.2597
N5290 X-2.275 Y0.2629
N5295 X-2.2653 Y0.2737
N5300 X-2.2634 Y0.2758
N5305 X-2.2535 Y0.2864
N5310 X-2.2526 Y0.2874
N5315 X-2.2425 Y0.298
N5320 G2 X-2.0385 Y0.3108 I0.1088 J-0.1032
N5325 G1 X-2.0256 Y0.3001
N5330 X-2.0245 Y0.2992
N5335 X-2.0117 Y0.2885
N5340 X-2.0095 Y0.2867
N5345 X-1.997 Y0.2758
N5350 X-1.9937 Y0.2728
N5355 X-1.9817 Y0.2617
N5360 X-1.9773 Y0.2575
N5365 X-1.9659 Y0.2461
N5370 X-1.9605 Y0.2405
N5375 X-1.9499 Y0.2287
N5380 X-1.9437 Y0.2213
N5385 X-1.934 Y0.2091
N5390 G2 X-1.9271 Y0.1997 I-0.1177 J-0.093
N5395 G1 X-1.9186 Y0.1869
N5400 G2 X-1.912 Y0.1761 I-0.1246 J-0.0836
N5405 G1 X-1.9046 Y0.1627
N5410 G2 X-1.8991 Y0.1519 I-0.1312 J-0.0727
N5415 G1 X-1.8928 Y0.138
N5420 G2 X-1.8886 Y0.1276 I-0.1366 J-0.0619
N5425 G1 X-1.8833 Y0.1132
N5430 G2 X-1.8801 Y0.1034 I-0.1409 J-0.0515
N5435 G1 X-1.8778 Y0.0955
N5440 X-1.8777 Y0.1009
N5445 X-1.8773 Y0.1271
N5450 X-1.877 Y0.1534
N5455 X-1.8767 Y0.1798
N5460 X-1.8765 Y0.2062
N5465 X-1.8763 Y0.2327
N5470 X-1.8761 Y0.2593
N5475 X-1.876 Y0.286
N5480 X-1.8757 Y0.294
N5485 X-1.8739 Y0.3249
N5490 X-1.8722 Y0.3551
N5495 X-1.8709 Y0.3843
N5500 X-1.87 Y0.4126
N5505 X-1.8697 Y0.4398
N5510 X-1.87 Y0.4656
N5515 X-1.871 Y0.4901
N5520 X-1.8728 Y0.513
N5525 X-1.8754 Y0.5341
N5530 X-1.8787 Y0.5534
N5535 X-1.8828 Y0.5708
N5540 X-1.8875 Y0.5861
N5545 X-1.8927 Y0.5994
N5550 X-1.8984 Y0.611
N5555 X-1.9046 Y0.6211
N5560 X-1.9117 Y0.6305
N5565 X-1.9209 Y0.6406
N5570 X-1.9328 Y0.6517
N5575 X-1.9474 Y0.6637
N5580 X-1.9647 Y0.6764
N5585 X-1.9842 Y0.6896
N5590 X-1.986 Y0.6908
N5595 X-1.9866 Y0.6904
N5600 X-1.9961 Y0.6847
N5605 X-2.0037 Y0.6796
N5610 X-2.0095 Y0.6751
N5615 X-2.0137 Y0.6713
N5620 X-2.0171 Y0.6678
N5625 X-2.0205 Y0.6635
N5630 X-2.0242 Y0.6581
N5635 X-2.0282 Y0.6514
N5640 X-2.0323 Y0.6434
N5645 X-2.0365 Y0.634
N5650 X-2.0407 Y0.6232
N5655 X-2.0449 Y0.6111
N5660 X-2.049 Y0.5978
N5665 X-2.053 Y0.5833
N5670 X-2.0569 Y0.5678
N5675 X-2.0607 Y0.5513
N5680 X-2.0645 Y0.5339
N5685 X-2.0683 Y0.5157
N5690 X-2.0722 Y0.4969
N5695 G2 X-2.3691 Y0.5268 I-0.147 J0.03
N5700 G1 Y0.6771
N5705 X-2.5476
N5710 Y0.3092
N5715 G2 X-2.4183 Y0.1606 I-0.0206 J-0.1486
N5720 G1 Y-0.9527
N5725 G2 X-2.5476 Y-1.1012 I-0.15 J0.
N5730 G1 Y-1.381
N5735 G3 X-2.5229 Y-1.3835 I0.0125 J0.
N5740 G1 X-2.4831 Y-1.1888
N5745 G2 X-2.4586 Y-1.1938 I0.0122 J-0.0025
N5750 G3 X-2.2259 Y-1.2411 Z-0.1326 I0.1164 J-0.0237
N5755 X-2.4586 Y-1.1938 Z-0.1653 I-0.1164 J0.0237
N5760 X-2.3542 Y-1.3356 Z-0.1826 I0.1164 J-0.0237
N5765 X-2.2235 Y-1.2174 Z-0.2 I0.0119 J0.1182
N5770 X-2.4386 I-0.1075 J0.
N5775 G1 Y-1.3815
N5780 G3 X-2.4258 Y-1.3943 I0.0128 J0.
N5785 G1 X-2.3445
N5790 G3 X-2.3317 Y-1.3815 I0. J0.0128
N5795 G1 Y-1.2019
N5800 G3 X-2.3452 Y-1.179 I-0.0262 J0.
N5805 G2 X-2.3856 Y-1.1512 I0.126 J0.2264
N5810 G3 X-2.4018 I-0.0081 J-0.0097
N5815 G2 X-2.4251 Y-1.1686 I-0.1665 J0.1985
N5820 G3 X-2.4386 Y-1.1937 I0.0167 J-0.0251
N5825 G1 Y-1.2174
N5830 G2 X-2.4931 Y-1.2992 I-0.0886 J0.
N5835 G3 X-2.5476 Y-1.381 I0.0341 J-0.0818
N5840 G1 Y-1.5033
N5845 X-2.2226
N5850 Y-1.1026
N5855 G2 X-2.3691 Y-0.9527 I0.0035 J0.15
N5860 G1 Y-0.1295
N5865 X-2.3699 Y-0.1211
N5870 X-2.37 Y-0.1206
N5875 X-2.3713 Y-0.1054
N5880 X-2.3714 Y-0.1043
N5885 X-2.3726 Y-0.0891
N5890 X-2.3727 Y-0.0875
N5895 X-2.3738 Y-0.0724
N5900 X-2.3739 Y-0.0702
N5905 X-2.3748 Y-0.0552
N5910 X-2.3749 Y-0.0524
N5915 X-2.3755 Y-0.0375
N5920 Y-0.0341
N5925 X-2.3758 Y-0.0194
N5930 Y-0.0153
N5935 X-2.3756 Y-0.0007
N5940 X-2.3754 Y0.004
N5945 X-2.3748 Y0.0184
N5950 X-2.3744 Y0.0239
N5955 X-2.3733 Y0.0381
N5960 X-2.3727 Y0.0443
N5965 X-2.3709 Y0.0583
N5970 X-2.3699 Y0.0653
N5975 X-2.3675 Y0.079
N5980 X-2.366 Y0.0866
N5985 X-2.363 Y0.1001
N5990 X-2.3608 Y0.1085
N5995 X-2.3571 Y0.1216
N6000 X-2.3542 Y0.1306
N6005 X-2.3496 Y0.1434
N6010 G2 X-2.3459 Y0.1529 I0.1413 J-0.0504
N6015 G1 X-2.3404 Y0.1653
N6020 G2 X-2.3358 Y0.1751 I0.1375 J-0.0598
N6025 G1 X-2.3295 Y0.1872
N6030 G2 X-2.3242 Y0.1964 I0.1329 J-0.0696
N6035 G1 X-2.3169 Y0.2082
N6040 X-2.3119 Y0.2158
N6045 X-2.3038 Y0.2272
N6050 X-2.2994 Y0.2332
N6055 X-2.2907 Y0.2443
N6060 X-2.287 Y0.2488
N6065 X-2.2778 Y0.2597
N6070 X-2.275 Y0.2629
N6075 X-2.2653 Y0.2737
N6080 X-2.2634 Y0.2758
N6085 X-2.2535 Y0.2864
N6090 X-2.2526 Y0.2874
N6095 X-2.2425 Y0.298
N6100 G2 X-2.0385 Y0.3108 I0.1088 J-0.1032
N6105 G1 X-2.0256 Y0.3001
N6110 X-2.0245 Y0.2992
N6115 X-2.0117 Y0.2885
N6120 X-2.0095 Y0.2867
N6125 X-1.997 Y0.2758
N6130 X-1.9937 Y0.2728
N6135 X-1.9817 Y0.2617
N6140 X-1.9773 Y0.2575
N6145 X-1.9659 Y0.2461
N6150 X-1.9605 Y0.2405
N6155 X-1.9499 Y0.2287
N6160 X-1.9437 Y0.2213
N6165 X-1.934 Y0.2091
N6170 G2 X-1.9271 Y0.1997 I-0.1177 J-0.093
N6175 G1 X-1.9186 Y0.1869
N6180 G2 X-1.912 Y0.1761 I-0.1246 J-0.0836
N6185 G1 X-1.9046 Y0.1627
N6190 G2 X-1.8991 Y0.1519 I-0.1312 J-0.0727
N6195 G1 X-1.8928 Y0.138
N6200 G2 X-1.8886 Y0.1276 I-0.1366 J-0.0619
N6205 G1 X-1.8833 Y0.1132
N6210 G2 X-1.8801 Y0.1034 I-0.1409 J-0.0515
N6215 G1 X-1.8778 Y0.0955
N6220 X-1.8777 Y0.1009
N6225 X-1.8773 Y0.1271
N6230 X-1.877 Y0.1534
N6235 X-1.8767 Y0.1798
N6240 X-1.8765 Y0.2062
N6245 X-1.8763 Y0.2327
N6250 X-1.8761 Y0.2593
N6255 X-1.876 Y0.286
N6260 X-1.8757 Y0.294
N6265 X-1.8739 Y0.3249
N6270 X-1.8722 Y0.3551
N6275 X-1.8709 Y0.3843
N6280 X-1.87 Y0.4126
N6285 X-1.8697 Y0.4398
N6290 X-1.87 Y0.4656
N6295 X-1.871 Y0.4901
N6300 X-1.8728 Y0.513
N6305 X-1.8754 Y0.5341
N6310 X-1.8787 Y0.5534
N6315 X-1.8828 Y0.5708
N6320 X-1.8875 Y0.5861
N6325 X-1.8927 Y0.5994
N6330 X-1.8984 Y0.611
N6335 X-1.9046 Y0.6211
N6340 X-1.9117 Y0.6305
N6345 X-1.9209 Y0.6406
N6350 X-1.9328 Y0.6517
N6355 X-1.9474 Y0.6637
N6360 X-1.9647 Y0.6764
N6365 X-1.9842 Y0.6896
N6370 X-1.986 Y0.6908
N6375 X-1.9866 Y0.6904
N6380 X-1.9961 Y0.6847
N6385 X-2.0037 Y0.6796
N6390 X-2.0095 Y0.6751
N6395 X-2.0137 Y0.6713
N6400 X-2.0171 Y0.6678
N6405 X-2.0205 Y0.6635
N6410 X-2.0242 Y0.6581
N6415 X-2.0282 Y0.6514
N6420 X-2.0323 Y0.6434
N6425 X-2.0365 Y0.634
N6430 X-2.0407 Y0.6232
N6435 X-2.0449 Y0.6111
N6440 X-2.049 Y0.5978
N6445 X-2.053 Y0.5833
N6450 X-2.0569 Y0.5678
N6455 X-2.0607 Y0.5513
N6460 X-2.0645 Y0.5339
N6465 X-2.0683 Y0.5157
N6470 X-2.0722 Y0.4969
N6475 G2 X-2.3691 Y0.5268 I-0.147 J0.03
N6480 G1 Y0.6771
N6485 X-2.5476
N6490 Y0.3092
N6495 G2 X-2.4183 Y0.1606 I-0.0206 J-0.1486
N6500 G1 Y-0.9527
N6505 G2 X-2.5476 Y-1.1012 I-0.15 J0.
N6510 G1 Y-1.381
N6515 X-2.5474 Y-1.3827
N6520 X-2.5466 Y-1.3842
N6525 X-2.5454 Y-1.3854
N6530 X-2.5439 Y-1.3862
N6535 X-2.5422 Y-1.3865
N6540 X-2.5405 Y-1.3862
N6545 X-2.539 Y-1.3854
N6550 X-2.5187 Y-1.3707
N6555 X-2.2757 Y-1.1723
N6560 X-2.2361 Y-1.15
N6565 G3 X-2.2339 Y-1.1354 I-0.0045 J0.0081
N6570 X-2.4057 Y-1.2994 Z-0.2326 I-0.0859 J-0.082
N6575 X-2.2339 Y-1.1354 Z-0.2653 I0.0859 J0.082
N6580 X-2.4386 Y-1.2174 Z-0.29 I-0.0859 J-0.082
N6585 G1 Y-1.3815
N6590 G3 X-2.4258 Y-1.3943 I0.0128 J0.
N6595 G1 X-2.3445
N6600 G3 X-2.3317 Y-1.3815 I0. J0.0128
N6605 G1 Y-1.2019
N6610 G3 X-2.3452 Y-1.179 I-0.0262 J0.
N6615 G2 X-2.3856 Y-1.1512 I0.126 J0.2264
N6620 G3 X-2.4018 I-0.0081 J-0.0097
N6625 G2 X-2.4251 Y-1.1686 I-0.1665 J0.1985
N6630 G3 X-2.4386 Y-1.1937 I0.0167 J-0.0251
N6635 G1 Y-1.2174
N6640 G2 X-2.4931 Y-1.2992 I-0.0886 J0.
N6645 G3 X-2.5476 Y-1.381 I0.0341 J-0.0818
N6650 G1 Y-1.5033
N6655 X-2.2226
N6660 Y-1.1026
N6665 G2 X-2.3691 Y-0.9527 I0.0035 J0.15
N6670 G1 Y-0.1295
N6675 X-2.3699 Y-0.1211
N6680 X-2.37 Y-0.1206
N6685 X-2.3713 Y-0.1054
N6690 X-2.3714 Y-0.1043
N6695 X-2.3726 Y-0.0891
N6700 X-2.3727 Y-0.0875
N6705 X-2.3738 Y-0.0724
N6710 X-2.3739 Y-0.0702
N6715 X-2.3748 Y-0.0552
N6720 X-2.3749 Y-0.0524
N6725 X-2.3755 Y-0.0375
N6730 Y-0.0341
N6735 X-2.3758 Y-0.0194
N6740 Y-0.0153
N6745 X-2.3756 Y-0.0007
N6750 X-2.3754 Y0.004
N6755 X-2.3748 Y0.0184
N6760 X-2.3744 Y0.0239
N6765 X-2.3733 Y0.0381
N6770 X-2.3727 Y0.0443
N6775 X-2.3709 Y0.0583
N6780 X-2.3699 Y0.0653
N6785 X-2.3675 Y0.079
N6790 X-2.366 Y0.0866
N6795 X-2.363 Y0.1001
N6800 X-2.3608 Y0.1085
N6805 X-2.3571 Y0.1216
N6810 X-2.3542 Y0.1306
N6815 X-2.3496 Y0.1434
N6820 G2 X-2.3459 Y0.1529 I0.1413 J-0.0504
N6825 G1 X-2.3404 Y0.1653
N6830 G2 X-2.3358 Y0.1751 I0.1375 J-0.0598
N6835 G1 X-2.3295 Y0.1872
N6840 G2 X-2.3242 Y0.1964 I0.1329 J-0.0696
N6845 G1 X-2.3169 Y0.2082
N6850 X-2.3119 Y0.2158
N6855 X-2.3038 Y0.2272
N6860 X-2.2994 Y0.2332
N6865 X-2.2907 Y0.2443
N6870 X-2.287 Y0.2488
N6875 X-2.2778 Y0.2597
N6880 X-2.275 Y0.2629
N6885 X-2.2653 Y0.2737
N6890 X-2.2634 Y0.2758
N6895 X-2.2535 Y0.2864
N6900 X-2.2526 Y0.2874
N6905 X-2.2425 Y0.298
N6910 G2 X-2.0385 Y0.3108 I0.1088 J-0.1032
N6915 G1 X-2.0256 Y0.3001
N6920 X-2.0245 Y0.2992
N6925 X-2.0117 Y0.2885
N6930 X-2.0095 Y0.2867
N6935 X-1.997 Y0.2758
N6940 X-1.9937 Y0.2728
N6945 X-1.9817 Y0.2617
N6950 X-1.9773 Y0.2575
N6955 X-1.9659 Y0.2461
N6960 X-1.9605 Y0.2405
N6965 X-1.9499 Y0.2287
N6970 X-1.9437 Y0.2213
N6975 X-1.934 Y0.2091
N6980 G2 X-1.9271 Y0.1997 I-0.1177 J-0.093
N6985 G1 X-1.9186 Y0.1869
N6990 G2 X-1.912 Y0.1761 I-0.1246 J-0.0836
N6995 G1 X-1.9046 Y0.1627
N7000 G2 X-1.8991 Y0.1519 I-0.1312 J-0.0727
N7005 G1 X-1.8928 Y0.138
N7010 G2 X-1.8886 Y0.1276 I-0.1366 J-0.0619
N7015 G1 X-1.8833 Y0.1132
N7020 G2 X-1.8801 Y0.1034 I-0.1409 J-0.0515
N7025 G1 X-1.8778 Y0.0955
N7030 X-1.8777 Y0.1009
N7035 X-1.8773 Y0.1271
N7040 X-1.877 Y0.1534
N7045 X-1.8767 Y0.1798
N7050 X-1.8765 Y0.2062
N7055 X-1.8763 Y0.2327
N7060 X-1.8761 Y0.2593
N7065 X-1.876 Y0.286
N7070 X-1.8757 Y0.294
N7075 X-1.8739 Y0.3249
N7080 X-1.8722 Y0.3551
N7085 X-1.8709 Y0.3843
N7090 X-1.87 Y0.4126
N7095 X-1.8697 Y0.4398
N7100 X-1.87 Y0.4656
N7105 X-1.871 Y0.4901
N7110 X-1.8728 Y0.513
N7115 X-1.8754 Y0.5341
N7120 X-1.8787 Y0.5534
N7125 X-1.8828 Y0.5708
N7130 X-1.8875 Y0.5861
N7135 X-1.8927 Y0.5994
N7140 X-1.8984 Y0.611
N7145 X-1.9046 Y0.6211
N7150 X-1.9117 Y0.6305
N7155 X-1.9209 Y0.6406
N7160 X-1.9328 Y0.6517
N7165 X-1.9474 Y0.6637
N7170 X-1.9647 Y0.6764
N7175 X-1.9842 Y0.6896
N7180 X-1.986 Y0.6908
N7185 X-1.9866 Y0.6904
N7190 X-1.9961 Y0.6847
N7195 X-2.0037 Y0.6796
N7200 X-2.0095 Y0.6751
N7205 X-2.0137 Y0.6713
N7210 X-2.0171 Y0.6678
N7215 X-2.0205 Y0.6635
N7220 X-2.0242 Y0.6581
N7225 X-2.0282 Y0.6514
N7230 X-2.0323 Y0.6434
N7235 X-2.0365 Y0.634
N7240 X-2.0407 Y0.6232
N7245 X-2.0449 Y0.6111
N7250 X-2.049 Y0.5978
N7255 X-2.053 Y0.5833
N7260 X-2.0569 Y0.5678
N7265 X-2.0607 Y0.5513
N7270 X-2.0645 Y0.5339
N7275 X-2.0683 Y0.5157
N7280 X-2.0722 Y0.4969
N7285 G2 X-2.3691 Y0.5268 I-0.147 J0.03
N7290 G1 Y0.6771
N7295 X-2.5476
N7300 Y0.3092
N7305 G2 X-2.4183 Y0.1606 I-0.0206 J-0.1486
N7310 G1 Y-0.9527
N7315 G2 X-2.5476 Y-1.1012 I-0.15 J0.
N7320 G1 Y-1.381
N7325 G2 X-2.5601 Y-1.3998 I-0.0203 J0.
N7330 G3 X-2.5726 Y-1.4185 I0.0078 J-0.0187
N7335 G1 Y-1.5283
N7340 X-2.1976
N7345 Y-1.0777
N7350 X-2.2191
N7355 G2 X-2.3441 Y-0.9527 I0. J0.125
N7360 G1 Y-0.1283
N7365 X-2.345 Y-0.1188
N7370 Y-0.1184
N7375 X-2.3464 Y-0.1032
N7380 X-2.3465 Y-0.1023
N7385 X-2.3477 Y-0.0871
N7390 X-2.3478 Y-0.0858
N7395 X-2.3489 Y-0.0707
N7400 X-2.349 Y-0.0688
N7405 X-2.3498 Y-0.0538
N7410 X-2.3499 Y-0.0515
N7415 X-2.3505 Y-0.0366
N7420 X-2.3506 Y-0.0338
N7425 X-2.3508 Y-0.019
N7430 Y-0.0156
N7435 X-2.3506 Y-0.001
N7440 X-2.3505 Y0.0029
N7445 X-2.3498 Y0.0173
N7450 X-2.3495 Y0.0219
N7455 X-2.3484 Y0.0361
N7460 X-2.3478 Y0.0413
N7465 X-2.3461 Y0.0552
N7470 X-2.3453 Y0.0611
N7475 X-2.3429 Y0.0748
N7480 X-2.3416 Y0.0811
N7485 X-2.3386 Y0.0946
N7490 X-2.3368 Y0.1016
N7495 X-2.333 Y0.1147
N7500 X-2.3306 Y0.1222
N7505 X-2.3261 Y0.135
N7510 X-2.3229 Y0.1429
N7515 X-2.3175 Y0.1554
N7520 X-2.3157 Y0.1594
N7525 X-2.3136 Y0.1635
N7530 X-2.3073 Y0.1756
N7535 X-2.3052 Y0.1795
N7540 X-2.3029 Y0.1833
N7545 X-2.2957 Y0.195
N7550 X-2.2914 Y0.2014
N7555 X-2.2834 Y0.2128
N7560 X-2.2797 Y0.2178
N7565 X-2.271 Y0.2289
N7570 X-2.2679 Y0.2327
N7575 X-2.2587 Y0.2436
N7580 X-2.2564 Y0.2462
N7585 X-2.2467 Y0.257
N7590 X-2.2451 Y0.2587
N7595 X-2.2352 Y0.2694
N7600 X-2.2344 Y0.2702
N7605 X-2.2244 Y0.2808
N7610 G2 X-2.0544 Y0.2914 I0.0907 J-0.086
N7615 G1 X-2.0414 Y0.2808
N7620 X-2.0405 Y0.28
N7625 X-2.0277 Y0.2693
N7630 X-2.0259 Y0.2678
N7635 X-2.0134 Y0.2569
N7640 X-2.0106 Y0.2544
N7645 X-1.9986 Y0.2434
N7650 X-1.995 Y0.2399
N7655 X-1.9836 Y0.2285
N7660 X-1.9791 Y0.2238
N7665 X-1.9685 Y0.212
N7670 X-1.9633 Y0.2058
N7675 X-1.9536 Y0.1936
N7680 X-1.9507 Y0.1897
N7685 X-1.9479 Y0.1857
N7690 X-1.9393 Y0.173
N7695 G2 X-1.9338 Y0.1639 I-0.1038 J-0.0697
N7700 G1 X-1.9264 Y0.1506
N7705 G2 X-1.9219 Y0.1416 I-0.1093 J-0.0606
N7710 G1 X-1.9156 Y0.1277
N7715 X-1.9137 Y0.1234
N7720 X-1.912 Y0.119
N7725 X-1.9068 Y0.1047
N7730 X-1.9041 Y0.0964
N7735 X-1.8998 Y0.0816
N7740 X-1.8979 Y0.0741
N7745 X-1.8945 Y0.0589
N7750 X-1.8932 Y0.052
N7755 X-1.8906 Y0.0364
N7760 X-1.8897 Y0.0303
N7765 X-1.8879 Y0.0143
N7770 X-1.8874 Y0.009
N7775 X-1.8862 Y-0.0073
N7780 X-1.886 Y-0.0119
N7785 X-1.8854 Y-0.0285
N7790 X-1.8853 Y-0.0324
N7795 X-1.8852 Y-0.0493
N7800 Y-0.0526
N7805 X-1.8856 Y-0.0696
N7810 X-1.8857 Y-0.0723
N7815 X-1.8864 Y-0.0895
N7820 X-1.8865 Y-0.0916
N7825 X-1.8876 Y-0.109
N7830 X-1.8877 Y-0.1105
N7835 X-1.8889 Y-0.1281
N7840 X-1.889 Y-0.129
N7845 X-1.8904 Y-0.1466
N7850 X-1.8905 Y-0.1472
N7855 X-1.8918 Y-0.1627
N7860 X-1.8921 Y-0.1689
N7865 X-1.8925 Y-0.1774
N7870 X-1.8929 Y-0.186
N7875 X-1.8934 Y-0.1946
N7880 Y-0.195
N7885 X-1.8939 Y-0.2034
N7890 X-1.894 Y-0.2039
N7895 X-1.8945 Y-0.2123
N7900 Y-0.2128
N7905 X-1.8951 Y-0.2212
N7910 Y-0.2219
N7915 X-1.8957 Y-0.2295
N7920 X-1.8684
N7925 X-1.8671 Y-0.2123
N7930 X-1.8652 Y-0.1861
N7935 X-1.8634 Y-0.1599
N7940 X-1.8617 Y-0.1338
N7945 X-1.8601 Y-0.1078
N7950 X-1.8587 Y-0.0819
N7955 X-1.8574 Y-0.0559
N7960 X-1.8563 Y-0.03
N7965 X-1.8554 Y-0.0041
N7970 X-1.8545 Y0.022
N7975 X-1.8538 Y0.0481
N7980 X-1.8532 Y0.0742
N7985 X-1.8527 Y0.1005
N7990 X-1.8523 Y0.1268
N7995 X-1.852 Y0.1531
N8000 X-1.8517 Y0.1796
N8005 X-1.8515 Y0.206
N8010 X-1.8513 Y0.2326
N8015 X-1.8511 Y0.2592
N8020 X-1.851 Y0.2858
N8025 X-1.8507 Y0.2925
N8030 X-1.8489 Y0.3235
N8035 X-1.8473 Y0.3538
N8040 X-1.8459 Y0.3834
N8045 X-1.845 Y0.4121
N8050 X-1.8447 Y0.4397
N8055 X-1.845 Y0.4663
N8060 X-1.846 Y0.4916
N8065 X-1.8479 Y0.5155
N8070 X-1.8506 Y0.5378
N8075 X-1.8542 Y0.5584
N8080 X-1.8586 Y0.5773
N8085 X-1.8639 Y0.5943
N8090 X-1.8698 Y0.6095
N8095 X-1.8765 Y0.6231
N8100 X-1.8839 Y0.6352
N8105 X-1.8925 Y0.6465
N8110 X-1.9031 Y0.6582
N8115 X-1.9163 Y0.6706
N8120 X-1.9321 Y0.6835
N8125 X-1.9502 Y0.6968
N8130 X-1.9705 Y0.7106
N8135 X-1.985 Y0.7197
N8140 X-1.9871 Y0.7187
N8145 X-1.9991 Y0.7121
N8150 X-2.0095 Y0.7058
N8155 X-2.0183 Y0.6998
N8160 X-2.0255 Y0.6943
N8165 X-2.0311 Y0.6893
N8170 X-2.0359 Y0.6842
N8175 X-2.0406 Y0.6784
N8180 X-2.0453 Y0.6716
N8185 X-2.0501 Y0.6635
N8190 X-2.0548 Y0.6542
N8195 X-2.0596 Y0.6437
N8200 X-2.0642 Y0.6319
N8205 X-2.0687 Y0.6189
N8210 X-2.073 Y0.6048
N8215 X-2.0772 Y0.5897
N8220 X-2.0812 Y0.5736
N8225 X-2.0851 Y0.5568
N8230 X-2.089 Y0.5391
N8235 X-2.0928 Y0.5208
N8240 X-2.0967 Y0.5019
N8245 G2 X-2.3441 Y0.5268 I-0.1225 J0.025
N8250 G1 Y0.7021
N8255 X-2.5726
N8260 Y0.2856
N8265 X-2.5683
N8270 G2 X-2.4433 Y0.1606 I0. J-0.125
N8275 G1 Y-0.9527
N8280 G2 X-2.5683 Y-1.0777 I-0.125 J0.
N8285 G1 X-2.5726
N8290 Y-1.4185
N8295 X-2.5723 Y-1.4224 Z-0.2894 F10.
N8300 X-2.5715 Y-1.4261 Z-0.2888
N8305 X-2.5702 Y-1.4294 Z-0.287
N8310 X-2.5685 Y-1.4324 Z-0.2852
N8315 X-2.5668 Y-1.4346 Z-0.2825
N8320 X-2.5649 Y-1.4366 Z-0.2797
N8325 X-2.5622 Y-1.4389 Z-0.2727
N8330 X-2.5612 Y-1.4396 Z-0.265
N8335 Z0.2
N8340 G0 X-3.3687 Y-1.1298
N8345 G1 Z0.1249 F10.
N8350 X-3.3698 Y-1.1295 Z0.1176 F5.
N8355 X-3.3729 Y-1.1288 Z0.1109
N8360 X-3.3778 Y-1.1279 Z0.1055
N8365 X-3.3841 Y-1.1271 Z0.1017
N8370 X-3.3913 Y-1.1265 Z0.1
N8375 G3 X-3.4024 Y-1.3638 Z0.0674 I-0.0056 J-0.1186
N8380 X-3.3913 Y-1.1265 Z0.0347 I0.0056 J0.1186
N8385 X-3.4024 Y-1.3638 Z0.0021 I-0.0056 J-0.1186
N8390 X-3.3913 Y-1.1265 Z-0.0306 I0.0056 J0.1186
N8395 X-3.4024 Y-1.3638 Z-0.0632 I-0.0056 J-0.1186
N8400 X-3.3913 Y-1.1265 Z-0.0958 I0.0056 J0.1186
N8405 X-3.438 Y-1.1338 Z-0.1 I-0.0056 J-0.1186
N8410 G1 X-3.4451 Y-1.1364
N8415 G2 X-3.5903 Y-1.1626 I-0.1489 J0.4087
N8420 G1 X-3.6693
N8425 G2 X-3.7846 Y-1.1447 I0. J0.3803
N8430 X-3.8897 Y-1.0943 I0.1275 J0.401
N8435 G3 X-3.9006 Y-1.1002 I-0.0039 J-0.0058
N8440 G1 Y-1.242
N8445 G3 X-3.8878 Y-1.2548 I0.0128 J0.
N8450 G1 X-3.662
N8455 G3 X-3.5027 Y-1.2508 I0. J3.2346
N8460 X-3.4284 Y-1.2428 I-0.0316 J0.6416
N8465 X-3.3585 Y-1.2159 I-0.0308 J0.184
N8470 X-3.3381 Y-1.1918 I-0.029 J0.0453
N8475 X-3.3001 Y-1.0868 I-0.8903 J0.3812
N8480 X-3.309 Y-1.0792 I-0.0061 J0.0018
N8485 G2 X-3.438 Y-1.1338 I-0.6595 J1.3801
N8490 X-3.5291 Y-1.1081 I-0.0279 J0.0754
N8495 G3 X-3.6141 Y-1.0668 I-0.0851 J-0.067
N8500 G1 X-3.6693
N8505 G2 X-3.7935 Y-1.0394 I0. J0.2948
N8510 X-3.8956 Y-0.9635 I0.1319 J0.284
N8515 G3 X-3.9094 I-0.0069 J-0.0061
N8520 G2 X-3.9852 Y-1.0251 I-0.2263 J0.2013
N8525 G3 X-3.9964 Y-1.0443 I0.011 J-0.0192
N8530 G1 Y-1.338
N8535 G3 X-3.9839 Y-1.3505 I0.0125 J0.
N8540 G1 X-3.785
N8545 G3 X-3.544 Y-1.348 I0. J11.6761
N8550 X-3.4182 Y-1.3372 I-0.0201 J0.9714
N8555 X-3.3003 Y-1.2919 I-0.0442 J0.2912
N8560 G1 X-3.2959 Y-1.2892
N8565 X-3.2915 Y-1.2864
N8570 G3 X-3.256 Y-1.2433 I-0.0557 J0.0821
N8575 X-3.2001 Y-1.063 I-0.8376 J0.3587
N8580 X-3.179 Y-0.8754 I-1.0897 J0.2175
N8585 X-3.1884 Y-0.8718 I-0.0053 J0.0001
N8590 G2 X-3.3094 Y-0.9715 I-0.3387 J0.2878
N8595 X-3.4522 Y-1.0362 I-0.4453 J0.7928
N8600 X-3.5216 Y-1.0575 I-0.2914 J0.8259
N8605 X-3.5936 Y-1.0668 I-0.072 J0.2749
N8610 G1 X-3.6141
N8615 X-3.618 Y-1.0671 Z-0.0994 F10.
N8620 X-3.6217 Y-1.068 Z-0.0988
N8625 X-3.625 Y-1.0693 Z-0.097
N8630 X-3.628 Y-1.071 Z-0.0952
N8635 X-3.6302 Y-1.0727 Z-0.0925
N8640 X-3.6322 Y-1.0746 Z-0.0897
N8645 X-3.6345 Y-1.0773 Z-0.0827
N8650 X-3.6352 Y-1.0783 Z-0.075
N8655 Z0.2
N8660 G0 X-3.5399 Y0.8009
N8665 G1 Z0.1249 F10.
N8670 X-3.5405 Y0.8 Z0.1176 F5.
N8675 X-3.5423 Y0.7974 Z0.1109
N8680 X-3.5449 Y0.7931 Z0.1055
N8685 X-3.5479 Y0.7875 Z0.1017
N8690 X-3.551 Y0.7811 Z0.1
N8695 G3 X-3.3337 Y0.6854 Z0.0674 I0.1087 J-0.0478
N8700 X-3.551 Y0.7811 Z0.0347 I-0.1087 J0.0478
N8705 X-3.3337 Y0.6854 Z0.0021 I0.1087 J-0.0478
N8710 X-3.551 Y0.7811 Z-0.0306 I-0.1087 J0.0478
N8715 X-3.3337 Y0.6854 Z-0.0632 I0.1087 J-0.0478
N8720 X-3.551 Y0.7811 Z-0.0958 I-0.1087 J0.0478
N8725 X-3.5611 Y0.7348 Z-0.1 I0.1087 J-0.0478
N8730 G2 X-3.5614 Y0.7162 I-6.8363 J0.0923
N8735 G3 X-3.5623 Y0.6053 I6.836 J-0.1109
N8740 X-3.5509 Y0.5979 I0.0081 J0.
N8745 G2 X-3.4956 Y0.6194 I0.2356 J-0.5227
N8750 G3 X-3.4806 Y0.639 I-0.0069 J0.0209
N8755 X-3.479 Y0.7393 I-1.1314 J0.0681
N8760 G2 X-3.4799 Y0.8396 I2.6106 J0.0742
N8765 G3 X-3.4796 Y0.9327 I-6.993 J0.0699
N8770 X-3.4842 Y1.0258 I-1.0178 J-0.0034
N8775 G1 X-3.4872 Y1.0577
N8780 G3 X-3.4919 Y1.0859 I-0.2078 J-0.0198
N8785 X-3.5114 Y1.1027 I-0.0214 J-0.0051
N8790 X-3.5666 Y1.1056 I-0.0679 J-0.7817
N8795 X-3.6218 Y1.106 I-0.0508 J-3.1444
N8800 X-3.6286 Y1.0948 I0. J-0.0076
N8805 G2 X-3.5782 Y0.9651 I-0.5356 J-0.2827
N8810 X-3.5605 Y0.8271 I-0.5283 J-0.138
N8815 X-3.5611 Y0.7348 I-6.8369 J0.
N8820 X-3.6042 Y0.6712 I-0.0699 J0.0009
N8825 G3 X-3.6472 Y0.6077 I0.0259 J-0.0639
N8830 G1 X-3.648 Y0.4457
N8835 G3 X-3.6377 Y0.4411 I0.0062 J0.
N8840 G2 X-3.4201 Y0.5514 I0.3223 J-0.3659
N8845 G3 X-3.4023 Y0.5697 I-0.005 J0.0227
N8850 X-3.3973 Y0.6128 I-0.2787 J0.0541
N8855 G1 X-3.3954 Y0.6607
N8860 G3 X-3.3935 Y0.7783 I-2.6664 J0.1027
N8865 G2 X-3.3939 Y0.8958 I22.1674 J0.1233
N8870 G3 X-3.3968 Y1.0255 I-2.8441 J-0.0007
N8875 X-3.4238 Y1.1525 I-0.3986 J-0.0183
N8880 X-3.4578 Y1.1815 I-0.0442 J-0.0173
N8885 X-3.5153 Y1.1884 I-0.0638 J-0.2901
N8890 G1 X-3.5681 Y1.1895
N8895 G3 X-3.7967 Y1.1916 I-0.2015 J-9.6159
N8900 X-3.8007 Y1.1815 I0. J-0.0058
N8905 G2 X-3.6869 Y1.0203 I-0.3426 J-0.3626
N8910 X-3.6462 Y0.8271 I-0.4379 J-0.1931
N8915 G1 X-3.6472 Y0.6077
N8920 G2 X-3.7289 Y0.486 I-0.1323 J0.0006
N8925 G3 X-3.8106 Y0.3644 I0.0503 J-0.122
N8930 G1 X-3.8111 Y0.1867
N8935 G3 X-3.7999 Y0.1794 I0.0079 J0.
N8940 G2 X-3.7361 Y0.2006 I0.1443 J-0.3282
N8945 X-3.6693 Y0.2082 I0.0668 J-0.29
N8950 X-3.6482 Y0.2075 I0. J-0.338
N8955 G3 X-3.6271 Y0.2069 I0.0211 J0.3374
N8960 X-3.6057 Y0.2201 I0. J0.0239
N8965 G2 X-3.5153 Y0.3319 I0.2987 J-0.149
N8970 X-3.3855 Y0.3938 I0.1981 J-0.2481
N8975 X-3.3454 Y0.4018 I0.2163 J-0.9822
N8980 G3 X-3.3057 Y0.4114 I-0.0603 J0.339
N8985 X-3.2643 Y0.4527 I-0.0181 J0.0595
N8990 X-3.2321 Y0.6643 I-0.7095 J0.2162
N8995 G1 X-3.2308 Y0.8669
N9000 G3 X-3.2366 Y1.0464 I-2.3592 J0.0145
N9005 X-3.2771 Y1.2213 I-0.5705 J-0.04
N9010 G2 X-3.285 Y1.2419 I0.6047 J0.2452
N9015 G3 X-3.2933 Y1.2623 I-0.307 J-0.1126
N9020 X-3.3274 Y1.3005 I-0.0766 J-0.0341
N9025 X-3.4427 Y1.3418 I-0.166 J-0.2819
N9030 X-3.5646 Y1.3526 I-0.141 J-0.8985
N9035 X-3.7621 Y1.3546 I-0.1975 J-9.4246
N9040 G1 X-3.9621
N9045 G3 X-3.9747 Y1.3421 I0. J-0.0125
N9050 G1 Y1.1252
N9055 G3 X-3.9613 Y1.1009 I0.0288 J0.
N9060 G2 X-3.8502 Y0.9835 I-0.1782 J-0.2799
N9065 X-3.8093 Y0.8271 I-0.2784 J-0.1564
N9070 G1 X-3.8106 Y0.3644
N9075 G2 X-3.8981 Y0.2334 I-0.1424 J0.0004
N9080 G3 X-3.9856 Y0.1023 I0.0543 J-0.131
N9085 G1 Y-0.7622
N9090 G2 X-4.1356 Y-0.9122 I-0.15 J0.
N9095 G1 X-4.1492
N9100 Y-1.5033
N9105 X-3.6209
N9110 X-3.5938 Y-1.5032
N9115 X-3.567 Y-1.503
N9120 X-3.5408 Y-1.5026
N9125 X-3.5153 Y-1.5019
N9130 X-3.4904 Y-1.5009
N9135 X-3.4663 Y-1.4995
N9140 X-3.443 Y-1.4976
N9145 X-3.4205 Y-1.4952
N9150 X-3.3989 Y-1.4923
N9155 X-3.3782 Y-1.4887
N9160 X-3.3584 Y-1.4845
N9165 X-3.3396 Y-1.4797
N9170 X-3.3218 Y-1.4742
N9175 X-3.3047 Y-1.4679
N9180 X-3.2879 Y-1.4608
N9185 X-3.2708 Y-1.4524
N9190 X-3.253 Y-1.4427
N9195 X-3.2348 Y-1.4318
N9200 X-3.216 Y-1.4198
N9205 X-3.1967 Y-1.4067
N9210 X-3.1768 Y-1.3926
N9215 X-3.1565 Y-1.3777
N9220 X-3.1443 Y-1.3686
N9225 X-3.1334 Y-1.3443
N9230 X-3.1207 Y-1.3156
N9235 X-3.1086 Y-1.2874
N9240 X-3.0972 Y-1.2596
N9245 X-3.0866 Y-1.2322
N9250 X-3.0769 Y-1.2053
N9255 X-3.0681 Y-1.1787
N9260 X-3.0604 Y-1.1526
N9265 X-3.0537 Y-1.1265
N9270 X-3.0478 Y-1.1001
N9275 X-3.0428 Y-1.073
N9280 X-3.0385 Y-1.0454
N9285 X-3.035 Y-1.0172
N9290 X-3.032 Y-0.9885
N9295 X-3.0297 Y-0.9592
N9300 X-3.028 Y-0.9293
N9305 X-3.0267 Y-0.899
N9310 X-3.0259 Y-0.8682
N9315 X-3.0254 Y-0.8369
N9320 X-3.0253 Y-0.8051
N9325 Y-0.773
N9330 X-3.0256 Y-0.7404
N9335 X-3.0259 Y-0.7075
N9340 Y-0.7042
N9345 X-3.0256 Y-0.6801
N9350 X-3.0253 Y-0.6563
N9355 X-3.0251 Y-0.6328
N9360 Y-0.6095
N9365 X-3.0252 Y-0.5865
N9370 X-3.0255 Y-0.5639
N9375 X-3.026 Y-0.5415
N9380 X-3.0268 Y-0.5195
N9385 X-3.0279 Y-0.4978
N9390 X-3.0293 Y-0.4764
N9395 X-3.0311 Y-0.4553
N9400 X-3.0332 Y-0.4346
N9405 X-3.0358 Y-0.4143
N9410 X-3.0388 Y-0.3942
N9415 X-3.0422 Y-0.3745
N9420 X-3.0462 Y-0.3547
N9425 X-3.0508 Y-0.3347
N9430 X-3.0558 Y-0.3142
N9435 X-3.0614 Y-0.2934
N9440 X-3.0674 Y-0.2722
N9445 X-3.0738 Y-0.2506
N9450 X-3.0805 Y-0.2286
N9455 X-3.0845 Y-0.2159
N9460 X-3.0853 Y-0.215
N9465 X-3.0967 Y-0.2031
N9470 X-3.1076 Y-0.1919
N9475 X-3.1182 Y-0.1814
N9480 X-3.1285 Y-0.1718
N9485 X-3.1385 Y-0.163
N9490 X-3.148 Y-0.155
N9495 X-3.1572 Y-0.1479
N9500 X-3.1662 Y-0.1416
N9505 X-3.1754 Y-0.1357
N9510 X-3.1853 Y-0.13
N9515 X-3.1958 Y-0.1244
N9520 X-3.2071 Y-0.1189
N9525 X-3.2191 Y-0.1136
N9530 X-3.2319 Y-0.1084
N9535 X-3.2453 Y-0.1033
N9540 X-3.2594 Y-0.0983
N9545 X-3.2741 Y-0.0934
N9550 X-3.2894 Y-0.0886
N9555 X-3.3053 Y-0.0838
N9560 X-3.3172 Y-0.0803
N9565 X-3.3161 Y-0.0813
N9570 G2 X-3.3037 Y-0.0943 I-0.1022 J-0.1098
N9575 G1 X-3.2936 Y-0.1063
N9580 G2 X-3.2834 Y-0.1198 I-0.1146 J-0.0968
N9585 G1 X-3.2747 Y-0.133
N9590 G2 X-3.2669 Y-0.1459 I-0.1248 J-0.0833
N9595 G1 X-3.2594 Y-0.1602
N9600 G2 X-3.2537 Y-0.172 I-0.1325 J-0.0703
N9605 G1 X-3.2473 Y-0.1872
N9610 G2 X-3.2433 Y-0.1977 I-0.1381 J-0.0585
N9615 G1 X-3.2379 Y-0.2139
N9620 X-3.2351 Y-0.2228
N9625 X-3.2306 Y-0.2397
N9630 X-3.2288 Y-0.2473
N9635 X-3.225 Y-0.2649
N9640 X-3.2238 Y-0.2711
N9645 X-3.2207 Y-0.2893
N9650 X-3.22 Y-0.2942
N9655 X-3.2174 Y-0.3129
N9660 X-3.217 Y-0.3167
N9665 X-3.2149 Y-0.3358
N9670 X-3.2146 Y-0.3386
N9675 X-3.2128 Y-0.358
N9680 X-3.2127 Y-0.3598
N9685 X-3.2111 Y-0.3793
N9690 Y-0.3802
N9695 X-3.2097 Y-0.3999
N9700 G2 X-3.2093 Y-0.4136 I-0.1496 J-0.0108
N9705 G1 X-3.2097 Y-0.4355
N9710 Y-0.4363
N9715 X-3.2103 Y-0.4582
N9720 Y-0.4599
N9725 X-3.2111 Y-0.4815
N9730 X-3.2112 Y-0.4841
N9735 X-3.2124 Y-0.5055
N9740 X-3.2126 Y-0.509
N9745 X-3.2142 Y-0.53
N9750 X-3.2146 Y-0.5345
N9755 X-3.2168 Y-0.5551
N9760 X-3.2175 Y-0.5607
N9765 X-3.2204 Y-0.5807
N9770 X-3.2216 Y-0.5876
N9775 X-3.2254 Y-0.6069
N9780 X-3.2272 Y-0.6151
N9785 X-3.2319 Y-0.6337
N9790 G2 X-3.2346 Y-0.6432 I-0.1454 J0.0367
N9795 G1 X-3.2404 Y-0.661
N9800 G2 X-3.2444 Y-0.672 I-0.1427 J0.0462
N9805 G1 X-3.2513 Y-0.6888
N9810 G2 X-3.257 Y-0.701 I-0.1387 J0.0571
N9815 G1 X-3.2652 Y-0.7168
N9820 G2 X-3.2729 Y-0.7298 I-0.133 J0.0693
N9825 G1 X-3.2826 Y-0.7446
N9830 G2 X-3.2925 Y-0.758 I-0.1254 J0.0823
N9835 G1 X-3.3037 Y-0.7715
N9840 G2 X-3.3154 Y-0.784 I-0.1155 J0.0958
N9845 G1 X-3.3282 Y-0.7963
N9850 G2 X-3.3397 Y-0.8063 I-0.1038 J0.1083
N9855 G1 X-3.354 Y-0.8174
N9860 G2 X-3.3645 Y-0.8249 I-0.0922 J0.1183
N9865 G1 X-3.3801 Y-0.8351
N9870 G2 X-3.3893 Y-0.8406 I-0.0817 J0.1258
N9875 G1 X-3.4061 Y-0.8498
N9880 X-3.4138 Y-0.8538
N9885 X-3.4315 Y-0.8623
N9890 X-3.4378 Y-0.8651
N9895 X-3.4563 Y-0.8729
N9900 X-3.4612 Y-0.8749
N9905 X-3.4804 Y-0.8822
N9910 X-3.484 Y-0.8835
N9915 X-3.5036 Y-0.8905
N9920 X-3.506 Y-0.8913
N9925 X-3.526 Y-0.8979
N9930 X-3.5271 Y-0.8983
N9935 X-3.5472 Y-0.9049
N9940 G2 X-3.5936 Y-0.9122 I-0.0464 J0.1426
N9945 G1 X-3.6693
N9950 G2 X-3.8193 Y-0.7622 I0. J0.15
N9955 G1 Y-0.1177
N9960 G2 X-3.6693 Y0.0323 I0.15 J0.
N9965 G1 X-3.5961
N9970 G2 X-3.5623 Y0.0284 I0. J-0.15
N9975 G1 X-3.5435 Y0.0241
N9980 X-3.5424 Y0.0238
N9985 X-3.5237 Y0.0194
N9990 X-3.5215 Y0.0188
N9995 X-3.5031 Y0.0141
N10000 X-3.4998 Y0.0132
N10005 X-3.4817 Y0.0082
N10010 X-3.4771 Y0.0068
N10015 X-3.4596 Y0.0013
N10020 X-3.4536 Y-0.0007
N10025 X-3.4422 Y-0.0049
N10030 G2 X-3.3476 Y0.2217 I0.1269 J0.08
N10035 G1 X-3.3315 Y0.2252
N10040 X-3.3159 Y0.2287
N10045 X-3.3009 Y0.2322
N10050 X-3.2866 Y0.2357
N10055 X-3.273 Y0.2392
N10060 X-3.2601 Y0.2428
N10065 X-3.248 Y0.2465
N10070 X-3.2366 Y0.2502
N10075 X-3.2261 Y0.2541
N10080 X-3.2165 Y0.2581
N10085 X-3.2077 Y0.2621
N10090 X-3.1997 Y0.2662
N10095 X-3.1925 Y0.2703
N10100 X-3.1858 Y0.2746
N10105 X-3.1789 Y0.2796
N10110 X-3.1716 Y0.2854
N10115 X-3.1638 Y0.2922
N10120 X-3.1556 Y0.2999
N10125 X-3.1469 Y0.3084
N10130 X-3.1378 Y0.3178
N10135 X-3.1284 Y0.3281
N10140 X-3.1185 Y0.339
N10145 X-3.1171 Y0.3407
N10150 X-3.1123 Y0.355
N10155 X-3.1055 Y0.3757
N10160 X-3.0991 Y0.396
N10165 X-3.093 Y0.416
N10170 X-3.0874 Y0.4355
N10175 X-3.0822 Y0.4547
N10180 X-3.0775 Y0.4735
N10185 X-3.0735 Y0.4919
N10190 X-3.0699 Y0.5103
N10195 X-3.0668 Y0.5288
N10200 X-3.0641 Y0.5477
N10205 X-3.0619 Y0.567
N10210 X-3.06 Y0.5866
N10215 X-3.0584 Y0.6066
N10220 X-3.0572 Y0.627
N10225 X-3.0563 Y0.6477
N10230 X-3.0556 Y0.6687
N10235 X-3.0552 Y0.6901
N10240 X-3.0549 Y0.7118
N10245 X-3.0548 Y0.7338
N10250 X-3.0549 Y0.7561
N10255 X-3.055 Y0.7787
N10260 X-3.0552 Y0.8016
N10265 Y0.8044
N10270 X-3.0548 Y0.8353
N10275 X-3.0545 Y0.8658
N10280 X-3.0544 Y0.8959
N10285 X-3.0546 Y0.9255
N10290 X-3.055 Y0.9547
N10295 X-3.0558 Y0.9834
N10300 X-3.057 Y1.0115
N10305 X-3.0587 Y1.0391
N10310 X-3.0609 Y1.0661
N10315 X-3.0638 Y1.0925
N10320 X-3.0672 Y1.1183
N10325 X-3.0714 Y1.1435
N10330 X-3.0763 Y1.168
N10335 X-3.0819 Y1.192
N10340 X-3.0884 Y1.2155
N10345 X-3.0959 Y1.239
N10350 X-3.1045 Y1.263
N10355 X-3.1141 Y1.2874
N10360 X-3.1245 Y1.3123
N10365 X-3.1358 Y1.3377
N10370 X-3.1478 Y1.3635
N10375 X-3.1605 Y1.3899
N10380 X-3.1692 Y1.4076
N10385 X-3.1803 Y1.4148
N10390 X-3.2019 Y1.4286
N10395 X-3.2231 Y1.4416
N10400 X-3.2437 Y1.4538
N10405 X-3.2638 Y1.4649
N10410 X-3.2834 Y1.475
N10415 X-3.3024 Y1.484
N10420 X-3.3209 Y1.4918
N10425 X-3.3391 Y1.4985
N10430 X-3.3578 Y1.5044
N10435 X-3.3772 Y1.5095
N10440 X-3.3975 Y1.5139
N10445 X-3.4185 Y1.5177
N10450 X-3.4404 Y1.5209
N10455 X-3.4631 Y1.5235
N10460 X-3.4865 Y1.5255
N10465 X-3.5106 Y1.5271
N10470 X-3.5355 Y1.5281
N10475 X-3.5609 Y1.5288
N10480 X-3.587 Y1.5292
N10485 X-3.6137 Y1.5293
N10490 X-3.6409
N10495 X-3.6686 Y1.5292
N10500 X-3.6693
N10505 X-4.1492
N10510 Y0.9771
N10515 X-4.1356
N10520 G2 X-3.9856 Y0.8271 I0. J-0.15
N10525 G1 Y0.1023
N10530 G3 X-3.8621 Y-0.0163 Z-0.1138 I0.1188 J0.
N10535 X-3.7485 Y0.1119 Z-0.1276 I-0.0048 J0.1187
N10540 G1 X-3.7982 Y0.7269 Z-0.1722
N10545 G2 X-3.6838 Y0.8551 Z-0.1861 I0.1184 J0.0096
N10550 X-3.5611 Y0.7348 Z-0.2 I0.004 J-0.1187
N10555 X-3.5614 Y0.7162 I-6.8363 J0.0923
N10560 G3 X-3.5623 Y0.6053 I6.836 J-0.1109
N10565 X-3.5509 Y0.5979 I0.0081 J0.
N10570 G2 X-3.4956 Y0.6194 I0.2356 J-0.5227
N10575 G3 X-3.4806 Y0.639 I-0.0069 J0.0209
N10580 X-3.479 Y0.7393 I-1.1314 J0.0681
N10585 G2 X-3.4799 Y0.8396 I2.6106 J0.0742
N10590 G3 X-3.4796 Y0.9327 I-6.993 J0.0699
N10595 X-3.4842 Y1.0258 I-1.0178 J-0.0034
N10600 G1 X-3.4872 Y1.0577
N10605 G3 X-3.4919 Y1.0859 I-0.2078 J-0.0198
N10610 X-3.5114 Y1.1027 I-0.0214 J-0.0051
N10615 X-3.5666 Y1.1056 I-0.0679 J-0.7817
N10620 X-3.6218 Y1.106 I-0.0508 J-3.1444
N10625 X-3.6286 Y1.0948 I0. J-0.0076
N10630 G2 X-3.5782 Y0.9651 I-0.5356 J-0.2827
N10635 X-3.5605 Y0.8271 I-0.5283 J-0.138
N10640 X-3.5611 Y0.7348 I-6.8369 J0.
N10645 X-3.6042 Y0.6712 I-0.0699 J0.0009
N10650 G3 X-3.6472 Y0.6077 I0.0259 J-0.0639
N10655 G1 X-3.648 Y0.4457
N10660 G3 X-3.6377 Y0.4411 I0.0062 J0.
N10665 G2 X-3.4201 Y0.5514 I0.3223 J-0.3659
N10670 G3 X-3.4023 Y0.5697 I-0.005 J0.0227
N10675 X-3.3973 Y0.6128 I-0.2787 J0.0541
N10680 G1 X-3.3954 Y0.6607
N10685 G3 X-3.3935 Y0.7783 I-2.6664 J0.1027
N10690 G2 X-3.3939 Y0.8958 I22.1674 J0.1233
N10695 G3 X-3.3968 Y1.0255 I-2.8441 J-0.0007
N10700 X-3.4238 Y1.1525 I-0.3986 J-0.0183
N10705 X-3.4578 Y1.1815 I-0.0442 J-0.0173
N10710 X-3.5153 Y1.1884 I-0.0638 J-0.2901
N10715 G1 X-3.5681 Y1.1895
N10720 G3 X-3.7967 Y1.1916 I-0.2015 J-9.6159
N10725 X-3.8007 Y1.1815 I0. J-0.0058
N10730 G2 X-3.6869 Y1.0203 I-0.3426 J-0.3626
N10735 X-3.6462 Y0.8271 I-0.4379 J-0.1931
N10740 G1 X-3.6472 Y0.6077
N10745 G2 X-3.7289 Y0.486 I-0.1323 J0.0006
N10750 G3 X-3.8106 Y0.3644 I0.0503 J-0.122
N10755 G1 X-3.8111 Y0.1867
N10760 G3 X-3.7999 Y0.1794 I0.0079 J0.
N10765 G2 X-3.7361 Y0.2006 I0.1443 J-0.3282
N10770 X-3.6693 Y0.2082 I0.0668 J-0.29
N10775 X-3.6482 Y0.2075 I0. J-0.338
N10780 G3 X-3.6271 Y0.2069 I0.0211 J0.3374
N10785 X-3.6057 Y0.2201 I0. J0.0239
N10790 G2 X-3.5153 Y0.3319 I0.2987 J-0.149
N10795 X-3.3855 Y0.3938 I0.1981 J-0.2481
N10800 X-3.3454 Y0.4018 I0.2163 J-0.9822
N10805 G3 X-3.3057 Y0.4114 I-0.0603 J0.339
N10810 X-3.2643 Y0.4527 I-0.0181 J0.0595
N10815 X-3.2321 Y0.6643 I-0.7095 J0.2162
N10820 G1 X-3.2308 Y0.8669
N10825 G3 X-3.2366 Y1.0464 I-2.3592 J0.0145
N10830 X-3.2771 Y1.2213 I-0.5705 J-0.04
N10835 G2 X-3.285 Y1.2419 I0.6047 J0.2452
N10840 G3 X-3.2933 Y1.2623 I-0.307 J-0.1126
N10845 X-3.3274 Y1.3005 I-0.0766 J-0.0341
N10850 X-3.4427 Y1.3418 I-0.166 J-0.2819
N10855 X-3.5646 Y1.3526 I-0.141 J-0.8985
N10860 X-3.7621 Y1.3546 I-0.1975 J-9.4246
N10865 G1 X-3.9621
N10870 G3 X-3.9747 Y1.3421 I0. J-0.0125
N10875 G1 Y1.1252
N10880 G3 X-3.9613 Y1.1009 I0.0288 J0.
N10885 G2 X-3.8502 Y0.9835 I-0.1782 J-0.2799
N10890 X-3.8093 Y0.8271 I-0.2784 J-0.1564
N10895 G1 X-3.8106 Y0.3644
N10900 X-3.8103 Y0.3606 Z-0.1994 F10.
N10905 X-3.8094 Y0.3568 Z-0.1988
N10910 X-3.8081 Y0.3536 Z-0.197
N10915 X-3.8064 Y0.3505 Z-0.1952
N10920 X-3.8047 Y0.3483 Z-0.1925
N10925 X-3.8028 Y0.3463 Z-0.1897
N10930 X-3.8001 Y0.3441 Z-0.1827
N10935 X-3.7991 Y0.3434 Z-0.175
N10940 Z0.2
N10945 G0 X-3.7604 Y-1.1776
N10950 G1 Z0.0249 F10.
N10955 X-3.761 Y-1.1767 Z0.0176 F5.
N10960 X-3.7629 Y-1.1741 Z0.0109
N10965 X-3.7659 Y-1.1702 Z0.0055
N10970 X-3.77 Y-1.1653 Z0.0017
N10975 X-3.7749 Y-1.1601 Z0.
N10980 G3 X-3.9427 Y-1.3282 Z-0.0326 I-0.0839 J-0.0841
N10985 X-3.7749 Y-1.1601 Z-0.0653 I0.0839 J0.0841
N10990 X-3.9427 Y-1.3282 Z-0.0979 I-0.0839 J-0.0841
N10995 X-3.7749 Y-1.1601 Z-0.1306 I0.0839 J0.0841
N11000 X-3.9427 Y-1.3282 Z-0.1632 I-0.0839 J-0.0841
N11005 X-3.7749 Y-1.1601 Z-0.1958 I0.0839 J0.0841
N11010 X-3.8144 Y-1.134 Z-0.2 I-0.0839 J-0.0841
N11015 G2 X-3.8897 Y-1.0943 I0.1574 J0.3903
N11020 G3 X-3.9006 Y-1.1002 I-0.0039 J-0.0058
N11025 G1 Y-1.1919
N11030 Y-1.242
N11035 G3 X-3.8878 Y-1.2548 I0.0128 J0.
N11040 G1 X-3.662
N11045 G3 X-3.5027 Y-1.2508 I0. J3.2346
N11050 X-3.4284 Y-1.2428 I-0.0316 J0.6416
N11055 X-3.3585 Y-1.2159 I-0.0308 J0.184
N11060 X-3.3381 Y-1.1918 I-0.029 J0.0453
N11065 X-3.3001 Y-1.0868 I-0.8903 J0.3812
N11070 X-3.309 Y-1.0792 I-0.0061 J0.0018
N11075 G2 X-3.4451 Y-1.1364 I-0.6595 J1.3801
N11080 X-3.5903 Y-1.1626 I-0.1489 J0.4087
N11085 G1 X-3.6693
N11090 G2 X-3.7846 Y-1.1447 I0. J0.3803
N11095 X-3.8144 Y-1.134 I0.1275 J0.401
N11100 X-3.8643 Y-1.0538 I0.0299 J0.0742
N11105 G3 X-3.8947 Y-0.9645 I-0.12 J0.009
N11110 G1 X-3.8956 Y-0.9635
N11115 G3 X-3.9094 I-0.0069 J-0.0061
N11120 G2 X-3.9852 Y-1.0251 I-0.2263 J0.2013
N11125 G3 X-3.9964 Y-1.0443 I0.011 J-0.0192
N11130 G1 Y-1.338
N11135 G3 X-3.9839 Y-1.3505 I0.0125 J0.
N11140 G1 X-3.785
N11145 G3 X-3.544 Y-1.348 I0. J11.6761
N11150 X-3.4182 Y-1.3372 I-0.0201 J0.9714
N11155 X-3.3003 Y-1.2919 I-0.0442 J0.2912
N11160 G1 X-3.2959 Y-1.2892
N11165 X-3.2915 Y-1.2864
N11170 G3 X-3.256 Y-1.2433 I-0.0557 J0.0821
N11175 X-3.2001 Y-1.063 I-0.8376 J0.3587
N11180 X-3.179 Y-0.8754 I-1.0897 J0.2175
N11185 X-3.1884 Y-0.8718 I-0.0053 J0.0001
N11190 G2 X-3.3094 Y-0.9715 I-0.3387 J0.2878
N11195 X-3.4522 Y-1.0362 I-0.4453 J0.7928
N11200 X-3.5216 Y-1.0575 I-0.2914 J0.8259
N11205 X-3.5936 Y-1.0668 I-0.072 J0.2749
N11210 G1 X-3.6693
N11215 G2 X-3.7935 Y-1.0394 I0. J0.2948
N11220 X-3.8947 Y-0.9645 I0.1319 J0.284
N11225 X-3.8868 Y-0.7966 I0.0891 J0.0799
N11230 G3 X-3.8193 Y-0.6427 I-0.142 J0.1539
N11235 G1 Y-0.1177
N11240 G2 X-3.6693 Y0.0323 I0.15 J0.
N11245 G1 X-3.5961
N11250 G2 X-3.5623 Y0.0284 I0. J-0.15
N11255 G1 X-3.5435 Y0.0241
N11260 X-3.5424 Y0.0238
N11265 X-3.5237 Y0.0194
N11270 X-3.5215 Y0.0188
N11275 X-3.5031 Y0.0141
N11280 X-3.4998 Y0.0132
N11285 X-3.4817 Y0.0082
N11290 X-3.4771 Y0.0068
N11295 X-3.4596 Y0.0013
N11300 X-3.4536 Y-0.0007
N11305 X-3.4422 Y-0.0049
N11310 G2 X-3.3476 Y0.2217 I0.1269 J0.08
N11315 G1 X-3.3315 Y0.2252
N11320 X-3.3159 Y0.2287
N11325 X-3.3009 Y0.2322
N11330 X-3.2866 Y0.2357
N11335 X-3.273 Y0.2392
N11340 X-3.2601 Y0.2428
N11345 X-3.248 Y0.2465
N11350 X-3.2366 Y0.2502
N11355 X-3.2261 Y0.2541
N11360 X-3.2165 Y0.2581
N11365 X-3.2077 Y0.2621
N11370 X-3.1997 Y0.2662
N11375 X-3.1925 Y0.2703
N11380 X-3.1858 Y0.2746
N11385 X-3.1789 Y0.2796
N11390 X-3.1716 Y0.2854
N11395 X-3.1638 Y0.2922
N11400 X-3.1556 Y0.2999
N11405 X-3.1469 Y0.3084
N11410 X-3.1378 Y0.3178
N11415 X-3.1284 Y0.3281
N11420 X-3.1185 Y0.339
N11425 X-3.1171 Y0.3407
N11430 X-3.1123 Y0.355
N11435 X-3.1055 Y0.3757
N11440 X-3.0991 Y0.396
N11445 X-3.093 Y0.416
N11450 X-3.0874 Y0.4355
N11455 X-3.0822 Y0.4547
N11460 X-3.0775 Y0.4735
N11465 X-3.0735 Y0.4919
N11470 X-3.0699 Y0.5103
N11475 X-3.0668 Y0.5288
N11480 X-3.0641 Y0.5477
N11485 X-3.0619 Y0.567
N11490 X-3.06 Y0.5866
N11495 X-3.0584 Y0.6066
N11500 X-3.0572 Y0.627
N11505 X-3.0563 Y0.6477
N11510 X-3.0556 Y0.6687
N11515 X-3.0552 Y0.6901
N11520 X-3.0549 Y0.7118
N11525 X-3.0548 Y0.7338
N11530 X-3.0549 Y0.7561
N11535 X-3.055 Y0.7787
N11540 X-3.0552 Y0.8016
N11545 Y0.8044
N11550 X-3.0548 Y0.8353
N11555 X-3.0545 Y0.8658
N11560 X-3.0544 Y0.8959
N11565 X-3.0546 Y0.9255
N11570 X-3.055 Y0.9547
N11575 X-3.0558 Y0.9834
N11580 X-3.057 Y1.0115
N11585 X-3.0587 Y1.0391
N11590 X-3.0609 Y1.0661
N11595 X-3.0638 Y1.0925
N11600 X-3.0672 Y1.1183
N11605 X-3.0714 Y1.1435
N11610 X-3.0763 Y1.168
N11615 X-3.0819 Y1.192
N11620 X-3.0884 Y1.2155
N11625 X-3.0959 Y1.239
N11630 X-3.1045 Y1.263
N11635 X-3.1141 Y1.2874
N11640 X-3.1245 Y1.3123
N11645 X-3.1358 Y1.3377
N11650 X-3.1478 Y1.3635
N11655 X-3.1605 Y1.3899
N11660 X-3.1692 Y1.4076
N11665 X-3.1803 Y1.4148
N11670 X-3.2019 Y1.4286
N11675 X-3.2231 Y1.4416
N11680 X-3.2437 Y1.4538
N11685 X-3.2638 Y1.4649
N11690 X-3.2834 Y1.475
N11695 X-3.3024 Y1.484
N11700 X-3.3209 Y1.4918
N11705 X-3.3391 Y1.4985
N11710 X-3.3578 Y1.5044
N11715 X-3.3772 Y1.5095
N11720 X-3.3975 Y1.5139
N11725 X-3.4185 Y1.5177
N11730 X-3.4404 Y1.5209
N11735 X-3.4631 Y1.5235
N11740 X-3.4865 Y1.5255
N11745 X-3.5106 Y1.5271
N11750 X-3.5355 Y1.5281
N11755 X-3.5609 Y1.5288
N11760 X-3.587 Y1.5292
N11765 X-3.6137 Y1.5293
N11770 X-3.6409
N11775 X-3.6686 Y1.5292
N11780 X-3.6693
N11785 X-4.1492
N11790 Y0.9771
N11795 X-4.1356
N11800 G2 X-3.9856 Y0.8271 I0. J-0.15
N11805 G1 Y-0.7622
N11810 G2 X-4.1356 Y-0.9122 I-0.15 J0.
N11815 G1 X-4.1492
N11820 Y-1.5033
N11825 X-3.6209
N11830 X-3.5938 Y-1.5032
N11835 X-3.567 Y-1.503
N11840 X-3.5408 Y-1.5026
N11845 X-3.5153 Y-1.5019
N11850 X-3.4904 Y-1.5009
N11855 X-3.4663 Y-1.4995
N11860 X-3.443 Y-1.4976
N11865 X-3.4205 Y-1.4952
N11870 X-3.3989 Y-1.4923
N11875 X-3.3782 Y-1.4887
N11880 X-3.3584 Y-1.4845
N11885 X-3.3396 Y-1.4797
N11890 X-3.3218 Y-1.4742
N11895 X-3.3047 Y-1.4679
N11900 X-3.2879 Y-1.4608
N11905 X-3.2708 Y-1.4524
N11910 X-3.253 Y-1.4427
N11915 X-3.2348 Y-1.4318
N11920 X-3.216 Y-1.4198
N11925 X-3.1967 Y-1.4067
N11930 X-3.1768 Y-1.3926
N11935 X-3.1565 Y-1.3777
N11940 X-3.1443 Y-1.3686
N11945 X-3.1334 Y-1.3443
N11950 X-3.1207 Y-1.3156
N11955 X-3.1086 Y-1.2874
N11960 X-3.0972 Y-1.2596
N11965 X-3.0866 Y-1.2322
N11970 X-3.0769 Y-1.2053
N11975 X-3.0681 Y-1.1787
N11980 X-3.0604 Y-1.1526
N11985 X-3.0537 Y-1.1265
N11990 X-3.0478 Y-1.1001
N11995 X-3.0428 Y-1.073
N12000 X-3.0385 Y-1.0454
N12005 X-3.035 Y-1.0172
N12010 X-3.032 Y-0.9885
N12015 X-3.0297 Y-0.9592
N12020 X-3.028 Y-0.9293
N12025 X-3.0267 Y-0.899
N12030 X-3.0259 Y-0.8682
N12035 X-3.0254 Y-0.8369
N12040 X-3.0253 Y-0.8051
N12045 Y-0.773
N12050 X-3.0256 Y-0.7404
N12055 X-3.0259 Y-0.7075
N12060 Y-0.7042
N12065 X-3.0256 Y-0.6801
N12070 X-3.0253 Y-0.6563
N12075 X-3.0251 Y-0.6328
N12080 Y-0.6095
N12085 X-3.0252 Y-0.5865
N12090 X-3.0255 Y-0.5639
N12095 X-3.026 Y-0.5415
N12100 X-3.0268 Y-0.5195
N12105 X-3.0279 Y-0.4978
N12110 X-3.0293 Y-0.4764
N12115 X-3.0311 Y-0.4553
N12120 X-3.0332 Y-0.4346
N12125 X-3.0358 Y-0.4143
N12130 X-3.0388 Y-0.3942
N12135 X-3.0422 Y-0.3745
N12140 X-3.0462 Y-0.3547
N12145 X-3.0508 Y-0.3347
N12150 X-3.0558 Y-0.3142
N12155 X-3.0614 Y-0.2934
N12160 X-3.0674 Y-0.2722
N12165 X-3.0738 Y-0.2506
N12170 X-3.0805 Y-0.2286
N12175 X-3.0845 Y-0.2159
N12180 X-3.0853 Y-0.215
N12185 X-3.0967 Y-0.2031
N12190 X-3.1076 Y-0.1919
N12195 X-3.1182 Y-0.1814
N12200 X-3.1285 Y-0.1718
N12205 X-3.1385 Y-0.163
N12210 X-3.148 Y-0.155
N12215 X-3.1572 Y-0.1479
N12220 X-3.1662 Y-0.1416
N12225 X-3.1754 Y-0.1357
N12230 X-3.1853 Y-0.13
N12235 X-3.1958 Y-0.1244
N12240 X-3.2071 Y-0.1189
N12245 X-3.2191 Y-0.1136
N12250 X-3.2319 Y-0.1084
N12255 X-3.2453 Y-0.1033
N12260 X-3.2594 Y-0.0983
N12265 X-3.2741 Y-0.0934
N12270 X-3.2894 Y-0.0886
N12275 X-3.3053 Y-0.0838
N12280 X-3.3172 Y-0.0803
N12285 X-3.3161 Y-0.0813
N12290 G2 X-3.3037 Y-0.0943 I-0.1022 J-0.1098
N12295 G1 X-3.2936 Y-0.1063
N12300 G2 X-3.2834 Y-0.1198 I-0.1146 J-0.0968
N12305 G1 X-3.2747 Y-0.133
N12310 G2 X-3.2669 Y-0.1459 I-0.1248 J-0.0833
N12315 G1 X-3.2594 Y-0.1602
N12320 G2 X-3.2537 Y-0.172 I-0.1325 J-0.0703
N12325 G1 X-3.2473 Y-0.1872
N12330 G2 X-3.2433 Y-0.1977 I-0.1381 J-0.0585
N12335 G1 X-3.2379 Y-0.2139
N12340 X-3.2351 Y-0.2228
N12345 X-3.2306 Y-0.2397
N12350 X-3.2288 Y-0.2473
N12355 X-3.225 Y-0.2649
N12360 X-3.2238 Y-0.2711
N12365 X-3.2207 Y-0.2893
N12370 X-3.22 Y-0.2942
N12375 X-3.2174 Y-0.3129
N12380 X-3.217 Y-0.3167
N12385 X-3.2149 Y-0.3358
N12390 X-3.2146 Y-0.3386
N12395 X-3.2128 Y-0.358
N12400 X-3.2127 Y-0.3598
N12405 X-3.2111 Y-0.3793
N12410 Y-0.3802
N12415 X-3.2097 Y-0.3999
N12420 G2 X-3.2093 Y-0.4136 I-0.1496 J-0.0108
N12425 G1 X-3.2097 Y-0.4355
N12430 Y-0.4363
N12435 X-3.2103 Y-0.4582
N12440 Y-0.4599
N12445 X-3.2111 Y-0.4815
N12450 X-3.2112 Y-0.4841
N12455 X-3.2124 Y-0.5055
N12460 X-3.2126 Y-0.509
N12465 X-3.2142 Y-0.53
N12470 X-3.2146 Y-0.5345
N12475 X-3.2168 Y-0.5551
N12480 X-3.2175 Y-0.5607
N12485 X-3.2204 Y-0.5807
N12490 X-3.2216 Y-0.5876
N12495 X-3.2254 Y-0.6069
N12500 X-3.2272 Y-0.6151
N12505 X-3.2319 Y-0.6337
N12510 G2 X-3.2346 Y-0.6432 I-0.1454 J0.0367
N12515 G1 X-3.2404 Y-0.661
N12520 G2 X-3.2444 Y-0.672 I-0.1427 J0.0462
N12525 G1 X-3.2513 Y-0.6888
N12530 G2 X-3.257 Y-0.701 I-0.1387 J0.0571
N12535 G1 X-3.2652 Y-0.7168
N12540 G2 X-3.2729 Y-0.7298 I-0.133 J0.0693
N12545 G1 X-3.2826 Y-0.7446
N12550 G2 X-3.2925 Y-0.758 I-0.1254 J0.0823
N12555 G1 X-3.3037 Y-0.7715
N12560 G2 X-3.3154 Y-0.784 I-0.1155 J0.0958
N12565 G1 X-3.3282 Y-0.7963
N12570 G2 X-3.3397 Y-0.8063 I-0.1038 J0.1083
N12575 G1 X-3.354 Y-0.8174
N12580 G2 X-3.3645 Y-0.8249 I-0.0922 J0.1183
N12585 G1 X-3.3801 Y-0.8351
N12590 G2 X-3.3893 Y-0.8406 I-0.0817 J0.1258
N12595 G1 X-3.4061 Y-0.8498
N12600 X-3.4138 Y-0.8538
N12605 X-3.4315 Y-0.8623
N12610 X-3.4378 Y-0.8651
N12615 X-3.4563 Y-0.8729
N12620 X-3.4612 Y-0.8749
N12625 X-3.4804 Y-0.8822
N12630 X-3.484 Y-0.8835
N12635 X-3.5036 Y-0.8905
N12640 X-3.506 Y-0.8913
N12645 X-3.526 Y-0.8979
N12650 X-3.5271 Y-0.8983
N12655 X-3.5472 Y-0.9049
N12660 G2 X-3.5936 Y-0.9122 I-0.0464 J0.1426
N12665 G1 X-3.6693
N12670 G2 X-3.8193 Y-0.7622 I0. J0.15
N12675 G1 Y-0.6427
N12680 G3 X-3.9066 Y-0.5597 Z-0.2102 I-0.0832 J0.
N12685 X-3.9852 Y-0.651 Z-0.2203 I0.0042 J-0.083
N12690 G1 X-3.9282 Y-1.2194 Z-0.2635
N12695 G3 X-3.7628 Y-1.2028 Z-0.2832 I0.0827 J0.0083
N12700 X-3.8144 Y-1.134 Z-0.29 I-0.0827 J-0.0083
N12705 G2 X-3.8897 Y-1.0943 I0.1574 J0.3903
N12710 G3 X-3.9006 Y-1.1002 I-0.0039 J-0.0058
N12715 G1 Y-1.242
N12720 G3 X-3.8878 Y-1.2548 I0.0128 J0.
N12725 G1 X-3.662
N12730 G3 X-3.5027 Y-1.2508 I0. J3.2346
N12735 X-3.4284 Y-1.2428 I-0.0316 J0.6416
N12740 X-3.3585 Y-1.2159 I-0.0308 J0.184
N12745 X-3.3381 Y-1.1918 I-0.029 J0.0453
N12750 X-3.3001 Y-1.0868 I-0.8903 J0.3812
N12755 X-3.309 Y-1.0792 I-0.0061 J0.0018
N12760 G2 X-3.367 Y-1.1058 I-0.8347 J1.7468
N12765 X-3.4266 Y-1.1287 I-0.284 J0.6484
N12770 X-3.5071 Y-1.1521 I-0.3321 J0.9936
N12775 X-3.5903 Y-1.1626 I-0.0862 J0.3483
N12780 G1 X-3.6693
N12785 G2 X-3.7846 Y-1.1447 I0. J0.3803
N12790 X-3.8144 Y-1.134 I0.1275 J0.401
N12795 X-3.8643 Y-1.0538 I0.0299 J0.0742
N12800 G3 X-3.8947 Y-0.9645 I-0.12 J0.009
N12805 G1 X-3.8956 Y-0.9635
N12810 G3 X-3.9094 I-0.0069 J-0.0061
N12815 G2 X-3.9852 Y-1.0251 I-0.2263 J0.2013
N12820 G3 X-3.9964 Y-1.0443 I0.011 J-0.0192
N12825 G1 Y-1.338
N12830 G3 X-3.9839 Y-1.3505 I0.0125 J0.
N12835 G1 X-3.785
N12840 G3 X-3.544 Y-1.348 I0. J11.6761
N12845 X-3.4182 Y-1.3372 I-0.0201 J0.9714
N12850 X-3.3003 Y-1.2919 I-0.0442 J0.2912
N12855 G1 X-3.2959 Y-1.2892
N12860 X-3.2915 Y-1.2864
N12865 G3 X-3.256 Y-1.2433 I-0.0557 J0.0821
N12870 X-3.2001 Y-1.063 I-0.8376 J0.3587
N12875 X-3.179 Y-0.8754 I-1.0897 J0.2175
N12880 X-3.1884 Y-0.8718 I-0.0053 J0.0001
N12885 G2 X-3.3094 Y-0.9715 I-0.3387 J0.2878
N12890 X-3.4522 Y-1.0362 I-0.4453 J0.7928
N12895 X-3.5216 Y-1.0575 I-0.2914 J0.8259
N12900 X-3.5936 Y-1.0668 I-0.072 J0.2749
N12905 G1 X-3.6693
N12910 G2 X-3.7935 Y-1.0394 I0. J0.2948
N12915 X-3.8947 Y-0.9645 I0.1319 J0.284
N12920 G1 X-3.8956 Y-0.9635 F10.
N12925 X-3.8971 Y-0.9621 Z-0.2895
N12930 X-3.899 Y-0.9611 Z-0.289
N12935 X-3.901 Y-0.9605 Z-0.2885
N12940 X-3.903 Y-0.9604 Z-0.288
N12945 X-3.9054 Y-0.9609 Z-0.2865
N12950 X-3.9076 Y-0.9619 Z-0.285
N12955 X-3.9094 Y-0.9635 Z-0.2834
N12960 X-3.9123 Y-0.9667 Z-0.2781
N12965 X-3.9142 Y-0.9688 Z-0.2718
N12970 X-3.9148 Y-0.9695 Z-0.265
N12975 Z0.2
N12980 G0 X-3.5537 Y0.6919
N12985 G1 Z-0.0751 F10.
N12990 X-3.5533 Y0.6908 Z-0.0824 F5.
N12995 X-3.5521 Y0.6879 Z-0.0891
N13000 X-3.5501 Y0.6833 Z-0.0945
N13005 X-3.5473 Y0.6776 Z-0.0983
N13010 X-3.5437 Y0.6714 Z-0.1
N13015 G3 X-3.341 Y0.7951 Z-0.1326 I0.1014 J0.0619
N13020 X-3.5437 Y0.6714 Z-0.1653 I-0.1014 J-0.0619
N13025 X-3.341 Y0.7951 Z-0.1979 I0.1014 J0.0619
N13030 X-3.5437 Y0.6714 Z-0.2306 I-0.1014 J-0.0619
N13035 X-3.341 Y0.7951 Z-0.2632 I0.1014 J0.0619
N13040 X-3.5611 Y0.7348 Z-0.29 I-0.1014 J-0.0619
N13045 G2 X-3.5614 Y0.7162 I-6.8363 J0.0923
N13050 G3 X-3.5623 Y0.6053 I6.836 J-0.1109
N13055 X-3.5509 Y0.5979 I0.0081 J0.
N13060 G2 X-3.4956 Y0.6194 I0.2356 J-0.5227
N13065 G3 X-3.4806 Y0.639 I-0.0069 J0.0209
N13070 X-3.479 Y0.7393 I-1.1314 J0.0681
N13075 G2 X-3.4799 Y0.8396 I2.6106 J0.0742
N13080 G3 X-3.4796 Y0.9327 I-6.993 J0.0699
N13085 X-3.4842 Y1.0258 I-1.0178 J-0.0034
N13090 G1 X-3.4872 Y1.0577
N13095 G3 X-3.4919 Y1.0859 I-0.2078 J-0.0198
N13100 X-3.5114 Y1.1027 I-0.0214 J-0.0051
N13105 X-3.5666 Y1.1056 I-0.0679 J-0.7817
N13110 X-3.6218 Y1.106 I-0.0508 J-3.1444
N13115 X-3.6286 Y1.0948 I0. J-0.0076
N13120 G2 X-3.5782 Y0.9651 I-0.5356 J-0.2827
N13125 X-3.5605 Y0.8271 I-0.5283 J-0.138
N13130 X-3.5611 Y0.7348 I-6.8369 J0.
N13135 X-3.6042 Y0.6712 I-0.0699 J0.0009
N13140 G3 X-3.6472 Y0.6077 I0.0259 J-0.0639
N13145 G1 X-3.648 Y0.4457
N13150 G3 X-3.6377 Y0.4411 I0.0062 J0.
N13155 G2 X-3.4201 Y0.5514 I0.3223 J-0.3659
N13160 G3 X-3.4023 Y0.5697 I-0.005 J0.0227
N13165 X-3.3973 Y0.6128 I-0.2787 J0.0541
N13170 G1 X-3.3954 Y0.6607
N13175 G3 X-3.3935 Y0.7783 I-2.6664 J0.1027
N13180 G2 X-3.3939 Y0.8958 I22.1674 J0.1233
N13185 G3 X-3.3968 Y1.0255 I-2.8441 J-0.0007
N13190 X-3.4238 Y1.1525 I-0.3986 J-0.0183
N13195 X-3.4578 Y1.1815 I-0.0442 J-0.0173
N13200 X-3.5153 Y1.1884 I-0.0638 J-0.2901
N13205 G1 X-3.5681 Y1.1895
N13210 G3 X-3.7967 Y1.1916 I-0.2015 J-9.6159
N13215 X-3.8007 Y1.1815 I0. J-0.0058
N13220 G2 X-3.6869 Y1.0203 I-0.3426 J-0.3626
N13225 X-3.6462 Y0.8271 I-0.4379 J-0.1931
N13230 G1 X-3.6472 Y0.6077
N13235 G2 X-3.7289 Y0.486 I-0.1323 J0.0006
N13240 G3 X-3.8106 Y0.3644 I0.0503 J-0.122
N13245 G1 X-3.8111 Y0.1867
N13250 G3 X-3.7999 Y0.1794 I0.0079 J0.
N13255 G2 X-3.7361 Y0.2006 I0.1443 J-0.3282
N13260 X-3.6693 Y0.2082 I0.0668 J-0.29
N13265 X-3.6482 Y0.2075 I0. J-0.338
N13270 G3 X-3.6271 Y0.2069 I0.0211 J0.3374
N13275 X-3.6057 Y0.2201 I0. J0.0239
N13280 G2 X-3.5153 Y0.3319 I0.2987 J-0.149
N13285 X-3.3855 Y0.3938 I0.1981 J-0.2481
N13290 X-3.3454 Y0.4018 I0.2163 J-0.9822
N13295 G3 X-3.3057 Y0.4114 I-0.0603 J0.339
N13300 X-3.2643 Y0.4527 I-0.0181 J0.0595
N13305 X-3.2321 Y0.6643 I-0.7095 J0.2162
N13310 G1 X-3.2308 Y0.8669
N13315 G3 X-3.2366 Y1.0464 I-2.3592 J0.0145
N13320 X-3.2771 Y1.2213 I-0.5705 J-0.04
N13325 G2 X-3.285 Y1.2419 I0.6047 J0.2452
N13330 G3 X-3.2933 Y1.2623 I-0.307 J-0.1126
N13335 X-3.3274 Y1.3005 I-0.0766 J-0.0341
N13340 X-3.4427 Y1.3418 I-0.166 J-0.2819
N13345 X-3.5646 Y1.3526 I-0.141 J-0.8985
N13350 X-3.7621 Y1.3546 I-0.1975 J-9.4246
N13355 G1 X-3.9621
N13360 G3 X-3.9747 Y1.3421 I0. J-0.0125
N13365 G1 Y1.1252
N13370 G3 X-3.9613 Y1.1009 I0.0288 J0.
N13375 G2 X-3.8502 Y0.9835 I-0.1782 J-0.2799
N13380 X-3.8093 Y0.8271 I-0.2784 J-0.1564
N13385 G1 X-3.8106 Y0.3644
N13390 G2 X-3.8981 Y0.2334 I-0.1424 J0.0004
N13395 G3 X-3.9856 Y0.1023 I0.0543 J-0.131
N13400 G1 Y-0.7622
N13405 G2 X-4.1356 Y-0.9122 I-0.15 J0.
N13410 G1 X-4.1492
N13415 Y-1.5033
N13420 X-3.6209
N13425 X-3.5938 Y-1.5032
N13430 X-3.567 Y-1.503
N13435 X-3.5408 Y-1.5026
N13440 X-3.5153 Y-1.5019
N13445 X-3.4904 Y-1.5009
N13450 X-3.4663 Y-1.4995
N13455 X-3.443 Y-1.4976
N13460 X-3.4205 Y-1.4952
N13465 X-3.3989 Y-1.4923
N13470 X-3.3782 Y-1.4887
N13475 X-3.3584 Y-1.4845
N13480 X-3.3396 Y-1.4797
N13485 X-3.3218 Y-1.4742
N13490 X-3.3047 Y-1.4679
N13495 X-3.2879 Y-1.4608
N13500 X-3.2708 Y-1.4524
N13505 X-3.253 Y-1.4427
N13510 X-3.2348 Y-1.4318
N13515 X-3.216 Y-1.4198
N13520 X-3.1967 Y-1.4067
N13525 X-3.1768 Y-1.3926
N13530 X-3.1565 Y-1.3777
N13535 X-3.1443 Y-1.3686
N13540 X-3.1334 Y-1.3443
N13545 X-3.1207 Y-1.3156
N13550 X-3.1086 Y-1.2874
N13555 X-3.0972 Y-1.2596
N13560 X-3.0866 Y-1.2322
N13565 X-3.0769 Y-1.2053
N13570 X-3.0681 Y-1.1787
N13575 X-3.0604 Y-1.1526
N13580 X-3.0537 Y-1.1265
N13585 X-3.0478 Y-1.1001
N13590 X-3.0428 Y-1.073
N13595 X-3.0385 Y-1.0454
N13600 X-3.035 Y-1.0172
N13605 X-3.032 Y-0.9885
N13610 X-3.0297 Y-0.9592
N13615 X-3.028 Y-0.9293
N13620 X-3.0267 Y-0.899
N13625 X-3.0259 Y-0.8682
N13630 X-3.0254 Y-0.8369
N13635 X-3.0253 Y-0.8051
N13640 Y-0.773
N13645 X-3.0256 Y-0.7404
N13650 X-3.0259 Y-0.7075
N13655 Y-0.7042
N13660 X-3.0256 Y-0.6801
N13665 X-3.0253 Y-0.6563
N13670 X-3.0251 Y-0.6328
N13675 Y-0.6095
N13680 X-3.0252 Y-0.5865
N13685 X-3.0255 Y-0.5639
N13690 X-3.026 Y-0.5415
N13695 X-3.0268 Y-0.5195
N13700 X-3.0279 Y-0.4978
N13705 X-3.0293 Y-0.4764
N13710 X-3.0311 Y-0.4553
N13715 X-3.0332 Y-0.4346
N13720 X-3.0358 Y-0.4143
N13725 X-3.0388 Y-0.3942
N13730 X-3.0422 Y-0.3745
N13735 X-3.0462 Y-0.3547
N13740 X-3.0508 Y-0.3347
N13745 X-3.0558 Y-0.3142
N13750 X-3.0614 Y-0.2934
N13755 X-3.0674 Y-0.2722
N13760 X-3.0738 Y-0.2506
N13765 X-3.0805 Y-0.2286
N13770 X-3.0845 Y-0.2159
N13775 X-3.0853 Y-0.215
N13780 X-3.0967 Y-0.2031
N13785 X-3.1076 Y-0.1919
N13790 X-3.1182 Y-0.1814
N13795 X-3.1285 Y-0.1718
N13800 X-3.1385 Y-0.163
N13805 X-3.148 Y-0.155
N13810 X-3.1572 Y-0.1479
N13815 X-3.1662 Y-0.1416
N13820 X-3.1754 Y-0.1357
N13825 X-3.1853 Y-0.13
N13830 X-3.1958 Y-0.1244
N13835 X-3.2071 Y-0.1189
N13840 X-3.2191 Y-0.1136
N13845 X-3.2319 Y-0.1084
N13850 X-3.2453 Y-0.1033
N13855 X-3.2594 Y-0.0983
N13860 X-3.2741 Y-0.0934
N13865 X-3.2894 Y-0.0886
N13870 X-3.3053 Y-0.0838
N13875 X-3.3172 Y-0.0803
N13880 X-3.3161 Y-0.0813
N13885 G2 X-3.3037 Y-0.0943 I-0.1022 J-0.1098
N13890 G1 X-3.2936 Y-0.1063
N13895 G2 X-3.2834 Y-0.1198 I-0.1146 J-0.0968
N13900 G1 X-3.2747 Y-0.133
N13905 G2 X-3.2669 Y-0.1459 I-0.1248 J-0.0833
N13910 G1 X-3.2594 Y-0.1602
N13915 G2 X-3.2537 Y-0.172 I-0.1325 J-0.0703
N13920 G1 X-3.2473 Y-0.1872
N13925 G2 X-3.2433 Y-0.1977 I-0.1381 J-0.0585
N13930 G1 X-3.2379 Y-0.2139
N13935 X-3.2351 Y-0.2228
N13940 X-3.2306 Y-0.2397
N13945 X-3.2288 Y-0.2473
N13950 X-3.225 Y-0.2649
N13955 X-3.2238 Y-0.2711
N13960 X-3.2207 Y-0.2893
N13965 X-3.22 Y-0.2942
N13970 X-3.2174 Y-0.3129
N13975 X-3.217 Y-0.3167
N13980 X-3.2149 Y-0.3358
N13985 X-3.2146 Y-0.3386
N13990 X-3.2128 Y-0.358
N13995 X-3.2127 Y-0.3598
N14000 X-3.2111 Y-0.3793
N14005 Y-0.3802
N14010 X-3.2097 Y-0.3999
N14015 G2 X-3.2093 Y-0.4136 I-0.1496 J-0.0108
N14020 G1 X-3.2097 Y-0.4355
N14025 Y-0.4363
N14030 X-3.2103 Y-0.4582
N14035 Y-0.4599
N14040 X-3.2111 Y-0.4815
N14045 X-3.2112 Y-0.4841
N14050 X-3.2124 Y-0.5055
N14055 X-3.2126 Y-0.509
N14060 X-3.2142 Y-0.53
N14065 X-3.2146 Y-0.5345
N14070 X-3.2168 Y-0.5551
N14075 X-3.2175 Y-0.5607
N14080 X-3.2204 Y-0.5807
N14085 X-3.2216 Y-0.5876
N14090 X-3.2254 Y-0.6069
N14095 X-3.2272 Y-0.6151
N14100 X-3.2319 Y-0.6337
N14105 G2 X-3.2346 Y-0.6432 I-0.1454 J0.0367
N14110 G1 X-3.2404 Y-0.661
N14115 G2 X-3.2444 Y-0.672 I-0.1427 J0.0462
N14120 G1 X-3.2513 Y-0.6888
N14125 G2 X-3.257 Y-0.701 I-0.1387 J0.0571
N14130 G1 X-3.2652 Y-0.7168
N14135 G2 X-3.2729 Y-0.7298 I-0.133 J0.0693
N14140 G1 X-3.2826 Y-0.7446
N14145 G2 X-3.2925 Y-0.758 I-0.1254 J0.0823
N14150 G1 X-3.3037 Y-0.7715
N14155 G2 X-3.3154 Y-0.784 I-0.1155 J0.0958
N14160 G1 X-3.3282 Y-0.7963
N14165 G2 X-3.3397 Y-0.8063 I-0.1038 J0.1083
N14170 G1 X-3.354 Y-0.8174
N14175 G2 X-3.3645 Y-0.8249 I-0.0922 J0.1183
N14180 G1 X-3.3801 Y-0.8351
N14185 G2 X-3.3893 Y-0.8406 I-0.0817 J0.1258
N14190 G1 X-3.4061 Y-0.8498
N14195 X-3.4138 Y-0.8538
N14200 X-3.4315 Y-0.8623
N14205 X-3.4378 Y-0.8651
N14210 X-3.4563 Y-0.8729
N14215 X-3.4612 Y-0.8749
N14220 X-3.4804 Y-0.8822
N14225 X-3.484 Y-0.8835
N14230 X-3.5036 Y-0.8905
N14235 X-3.506 Y-0.8913
N14240 X-3.526 Y-0.8979
N14245 X-3.5271 Y-0.8983
N14250 X-3.5472 Y-0.9049
N14255 G2 X-3.5936 Y-0.9122 I-0.0464 J0.1426
N14260 G1 X-3.6693
N14265 G2 X-3.8193 Y-0.7622 I0. J0.15
N14270 G1 Y-0.1177
N14275 G2 X-3.6693 Y0.0323 I0.15 J0.
N14280 G1 X-3.5961
N14285 G2 X-3.5623 Y0.0284 I0. J-0.15
N14290 G1 X-3.5435 Y0.0241
N14295 X-3.5424 Y0.0238
N14300 X-3.5237 Y0.0194
N14305 X-3.5215 Y0.0188
N14310 X-3.5031 Y0.0141
N14315 X-3.4998 Y0.0132
N14320 X-3.4817 Y0.0082
N14325 X-3.4771 Y0.0068
N14330 X-3.4596 Y0.0013
N14335 X-3.4536 Y-0.0007
N14340 X-3.4422 Y-0.0049
N14345 G2 X-3.3476 Y0.2217 I0.1269 J0.08
N14350 G1 X-3.3315 Y0.2252
N14355 X-3.3159 Y0.2287
N14360 X-3.3009 Y0.2322
N14365 X-3.2866 Y0.2357
N14370 X-3.273 Y0.2392
N14375 X-3.2601 Y0.2428
N14380 X-3.248 Y0.2465
N14385 X-3.2366 Y0.2502
N14390 X-3.2261 Y0.2541
N14395 X-3.2165 Y0.2581
N14400 X-3.2077 Y0.2621
N14405 X-3.1997 Y0.2662
N14410 X-3.1925 Y0.2703
N14415 X-3.1858 Y0.2746
N14420 X-3.1789 Y0.2796
N14425 X-3.1716 Y0.2854
N14430 X-3.1638 Y0.2922
N14435 X-3.1556 Y0.2999
N14440 X-3.1469 Y0.3084
N14445 X-3.1378 Y0.3178
N14450 X-3.1284 Y0.3281
N14455 X-3.1185 Y0.339
N14460 X-3.1171 Y0.3407
N14465 X-3.1123 Y0.355
N14470 X-3.1055 Y0.3757
N14475 X-3.0991 Y0.396
N14480 X-3.093 Y0.416
N14485 X-3.0874 Y0.4355
N14490 X-3.0822 Y0.4547
N14495 X-3.0775 Y0.4735
N14500 X-3.0735 Y0.4919
N14505 X-3.0699 Y0.5103
N14510 X-3.0668 Y0.5288
N14515 X-3.0641 Y0.5477
N14520 X-3.0619 Y0.567
N14525 X-3.06 Y0.5866
N14530 X-3.0584 Y0.6066
N14535 X-3.0572 Y0.627
N14540 X-3.0563 Y0.6477
N14545 X-3.0556 Y0.6687
N14550 X-3.0552 Y0.6901
N14555 X-3.0549 Y0.7118
N14560 X-3.0548 Y0.7338
N14565 X-3.0549 Y0.7561
N14570 X-3.055 Y0.7787
N14575 X-3.0552 Y0.8016
N14580 Y0.8044
N14585 X-3.0548 Y0.8353
N14590 X-3.0545 Y0.8658
N14595 X-3.0544 Y0.8959
N14600 X-3.0546 Y0.9255
N14605 X-3.055 Y0.9547
N14610 X-3.0558 Y0.9834
N14615 X-3.057 Y1.0115
N14620 X-3.0587 Y1.0391
N14625 X-3.0609 Y1.0661
N14630 X-3.0638 Y1.0925
N14635 X-3.0672 Y1.1183
N14640 X-3.0714 Y1.1435
N14645 X-3.0763 Y1.168
N14650 X-3.0819 Y1.192
N14655 X-3.0884 Y1.2155
N14660 X-3.0959 Y1.239
N14665 X-3.1045 Y1.263
N14670 X-3.1141 Y1.2874
N14675 X-3.1245 Y1.3123
N14680 X-3.1358 Y1.3377
N14685 X-3.1478 Y1.3635
N14690 X-3.1605 Y1.3899
N14695 X-3.1692 Y1.4076
N14700 X-3.1803 Y1.4148
N14705 X-3.2019 Y1.4286
N14710 X-3.2231 Y1.4416
N14715 X-3.2437 Y1.4538
N14720 X-3.2638 Y1.4649
N14725 X-3.2834 Y1.475
N14730 X-3.3024 Y1.484
N14735 X-3.3209 Y1.4918
N14740 X-3.3391 Y1.4985
N14745 X-3.3578 Y1.5044
N14750 X-3.3772 Y1.5095
N14755 X-3.3975 Y1.5139
N14760 X-3.4185 Y1.5177
N14765 X-3.4404 Y1.5209
N14770 X-3.4631 Y1.5235
N14775 X-3.4865 Y1.5255
N14780 X-3.5106 Y1.5271
N14785 X-3.5355 Y1.5281
N14790 X-3.5609 Y1.5288
N14795 X-3.587 Y1.5292
N14800 X-3.6137 Y1.5293
N14805 X-3.6409
N14810 X-3.6686 Y1.5292
N14815 X-3.6693
N14820 X-4.1492
N14825 Y0.9771
N14830 X-4.1356
N14835 G2 X-3.9856 Y0.8271 I0. J-0.15
N14840 G1 Y0.1023
N14845 G2 X-3.9981 Y0.0836 I-0.0203 J0.
N14850 G3 X-4.0106 Y0.0648 I0.0078 J-0.0187
N14855 G1 Y-0.7622
N14860 G2 X-4.1356 Y-0.8872 I-0.125 J0.
N14865 G1 X-4.1742
N14870 Y-1.5283
N14875 X-3.6208
N14880 X-3.5937 Y-1.5282
N14885 X-3.5667 Y-1.528
N14890 X-3.5403 Y-1.5276
N14895 X-3.5144 Y-1.5269
N14900 X-3.4892 Y-1.5259
N14905 X-3.4646 Y-1.5245
N14910 X-3.4407 Y-1.5225
N14915 X-3.4175 Y-1.5201
N14920 X-3.3951 Y-1.517
N14925 X-3.3735 Y-1.5133
N14930 X-3.3527 Y-1.5089
N14935 X-3.3328 Y-1.5038
N14940 X-3.3138 Y-1.4979
N14945 X-3.2955 Y-1.4912
N14950 X-3.2775 Y-1.4835
N14955 X-3.2593 Y-1.4746
N14960 X-3.2406 Y-1.4644
N14965 X-3.2216 Y-1.4531
N14970 X-3.2022 Y-1.4407
N14975 X-3.1824 Y-1.4272
N14980 X-3.1622 Y-1.4129
N14985 X-3.1416 Y-1.3978
N14990 X-3.1242 Y-1.3847
N14995 X-3.1238 Y-1.3838
N15000 X-3.1106 Y-1.3545
N15005 X-3.0978 Y-1.3256
N15010 X-3.0856 Y-1.297
N15015 X-3.074 Y-1.2688
N15020 X-3.0632 Y-1.241
N15025 X-3.0532 Y-1.2134
N15030 X-3.0442 Y-1.1862
N15035 X-3.0363 Y-1.1593
N15040 X-3.0293 Y-1.1323
N15045 X-3.0233 Y-1.1051
N15050 X-3.0182 Y-1.0772
N15055 X-3.0138 Y-1.0489
N15060 X-3.0101 Y-1.0201
N15065 X-3.0071 Y-0.9907
N15070 X-3.0048 Y-0.9609
N15075 X-3.003 Y-0.9306
N15080 X-3.0017 Y-0.8998
N15085 X-3.0009 Y-0.8687
N15090 X-3.0004 Y-0.8371
N15095 X-3.0003 Y-0.8052
N15100 Y-0.7729
N15105 X-3.0006 Y-0.7402
N15110 X-3.0009 Y-0.7072
N15115 Y-0.7045
N15120 X-3.0006 Y-0.6804
N15125 X-3.0003 Y-0.6565
N15130 X-3.0001 Y-0.6329
N15135 Y-0.6095
N15140 X-3.0002 Y-0.5863
N15145 X-3.0005 Y-0.5634
N15150 X-3.001 Y-0.5408
N15155 X-3.0018 Y-0.5184
N15160 X-3.0029 Y-0.4963
N15165 X-3.0044 Y-0.4745
N15170 X-3.0062 Y-0.453
N15175 X-3.0084 Y-0.4318
N15180 X-3.011 Y-0.4109
N15185 X-3.0141 Y-0.3902
N15190 X-3.0177 Y-0.3699
N15195 X-3.0218 Y-0.3495
N15200 X-3.0264 Y-0.3289
N15205 X-3.0316 Y-0.308
N15210 X-3.0373 Y-0.2868
N15215 X-3.0434 Y-0.2653
N15220 X-3.0498 Y-0.2434
N15225 X-3.0566 Y-0.2213
N15230 X-3.0623 Y-0.2029
N15235 X-3.0671 Y-0.1978
N15240 X-3.0787 Y-0.1857
N15245 X-3.0899 Y-0.1742
N15250 X-3.1009 Y-0.1634
N15255 X-3.1117 Y-0.1533
N15260 X-3.1221 Y-0.144
N15265 X-3.1324 Y-0.1355
N15270 X-3.1424 Y-0.1278
N15275 X-3.1523 Y-0.1208
N15280 X-3.1624 Y-0.1143
N15285 X-3.1732 Y-0.1081
N15290 X-3.1846 Y-0.1021
N15295 X-3.1966 Y-0.0963
N15300 X-3.2093 Y-0.0906
N15305 X-3.2227 Y-0.0852
N15310 X-3.2367 Y-0.0798
N15315 X-3.2512 Y-0.0747
N15320 X-3.2664 Y-0.0696
N15325 X-3.282 Y-0.0647
N15330 X-3.2982 Y-0.0598
N15335 X-3.3148 Y-0.0549
N15340 X-3.3319 Y-0.05
N15345 X-3.3493 Y-0.0451
N15350 G2 X-3.3422 Y0.1972 I0.034 J0.1203
N15355 G1 X-3.326 Y0.2008
N15360 X-3.3104 Y0.2043
N15365 X-3.2952 Y0.2078
N15370 X-3.2805 Y0.2114
N15375 X-3.2665 Y0.215
N15380 X-3.2531 Y0.2188
N15385 X-3.2404 Y0.2226
N15390 X-3.2284 Y0.2267
N15395 X-3.2171 Y0.2308
N15400 X-3.2066 Y0.2351
N15405 X-3.1968 Y0.2396
N15410 X-3.1878 Y0.2442
N15415 X-3.1795 Y0.2489
N15420 X-3.1717 Y0.254
N15425 X-3.1638 Y0.2597
N15430 X-3.1556 Y0.2662
N15435 X-3.1471 Y0.2736
N15440 X-3.1382 Y0.2818
N15445 X-3.1291 Y0.2909
N15450 X-3.1197 Y0.3007
N15455 X-3.1099 Y0.3112
N15460 X-3.0998 Y0.3224
N15465 X-3.095 Y0.3279
N15470 X-3.0886 Y0.3471
N15475 X-3.0818 Y0.368
N15480 X-3.0752 Y0.3886
N15485 X-3.069 Y0.4088
N15490 X-3.0633 Y0.4288
N15495 X-3.058 Y0.4484
N15500 X-3.0532 Y0.4678
N15505 X-3.049 Y0.4868
N15510 X-3.0453 Y0.5058
N15515 X-3.0421 Y0.525
N15520 X-3.0393 Y0.5445
N15525 X-3.037 Y0.5643
N15530 X-3.0351 Y0.5844
N15535 X-3.0335 Y0.6049
N15540 X-3.0322 Y0.6257
N15545 X-3.0313 Y0.6467
N15550 X-3.0306 Y0.6681
N15555 X-3.0302 Y0.6897
N15560 X-3.0299 Y0.7116
N15565 X-3.0298 Y0.7338
N15570 X-3.0299 Y0.7562
N15575 X-3.03 Y0.7789
N15580 X-3.0302 Y0.8018
N15585 Y0.8041
N15590 X-3.0298 Y0.8351
N15595 X-3.0295 Y0.8657
N15600 X-3.0294 Y0.8959
N15605 X-3.0296 Y0.9258
N15610 X-3.03 Y0.9552
N15615 X-3.0308 Y0.9842
N15620 X-3.032 Y1.0128
N15625 X-3.0338 Y1.0409
N15630 X-3.036 Y1.0684
N15635 X-3.0389 Y1.0955
N15640 X-3.0425 Y1.122
N15645 X-3.0468 Y1.1479
N15650 X-3.0519 Y1.1733
N15655 X-3.0577 Y1.1982
N15660 X-3.0645 Y1.2226
N15665 X-3.0723 Y1.247
N15670 X-3.0811 Y1.2718
N15675 X-3.0909 Y1.2968
N15680 X-3.1016 Y1.3223
N15685 X-3.1131 Y1.3481
N15690 X-3.1252 Y1.3742
N15695 X-3.138 Y1.4008
N15700 X-3.1498 Y1.4248
N15705 X-3.1667 Y1.4358
N15710 X-3.1887 Y1.4498
N15715 X-3.2102 Y1.463
N15720 X-3.2313 Y1.4755
N15725 X-3.252 Y1.487
N15730 X-3.2723 Y1.4974
N15735 X-3.2922 Y1.5068
N15740 X-3.3117 Y1.5151
N15745 X-3.3311 Y1.5222
N15750 X-3.3509 Y1.5284
N15755 X-3.3713 Y1.5338
N15760 X-3.3926 Y1.5385
N15765 X-3.4145 Y1.5424
N15770 X-3.4372 Y1.5457
N15775 X-3.4606 Y1.5484
N15780 X-3.4846 Y1.5504
N15785 X-3.5093 Y1.552
N15790 X-3.5346 Y1.5531
N15795 X-3.5604 Y1.5538
N15800 X-3.5868 Y1.5542
N15805 X-3.6137 Y1.5543
N15810 X-3.641
N15815 X-3.6687 Y1.5542
N15820 X-3.6693
N15825 X-4.1742
N15830 Y0.9521
N15835 X-4.1356
N15840 G2 X-4.0106 Y0.8271 I0. J-0.125
N15845 G1 Y0.0648
N15850 G3 X-3.9999 Y0.0525 I0.0125 J0.
N15855 G1 X-3.6758 Y0.0073
N15860 X-3.6736 Y0.0072
N15865 X-3.6693 Y0.0073
N15870 X-3.5961
N15875 G2 X-3.5679 Y0.0041 I0. J-0.125
N15880 G1 X-3.5491 Y-0.0003
N15885 X-3.5482 Y-0.0005
N15890 X-3.5295 Y-0.0049
N15895 X-3.5277 Y-0.0054
N15900 X-3.5093 Y-0.0101
N15905 X-3.5065 Y-0.0108
N15910 X-3.4885 Y-0.0159
N15915 X-3.4846 Y-0.017
N15920 X-3.4671 Y-0.0225
N15925 X-3.4622 Y-0.0242
N15930 X-3.4453 Y-0.0303
N15935 X-3.4391 Y-0.0327
N15940 X-3.4231 Y-0.0395
N15945 X-3.4157 Y-0.043
N15950 X-3.4006 Y-0.0506
N15955 G2 X-3.3919 Y-0.0554 I-0.0562 J-0.1117
N15960 G1 X-3.3778 Y-0.0639
N15965 G2 X-3.368 Y-0.0705 I-0.0649 J-0.1068
N15970 G1 X-3.3552 Y-0.0801
N15975 G2 X-3.3447 Y-0.0889 I-0.0747 J-0.1002
N15980 G1 X-3.3331 Y-0.0996
N15985 G2 X-3.3228 Y-0.1104 I-0.0852 J-0.0915
N15990 G1 X-3.3127 Y-0.1224
N15995 G2 X-3.3042 Y-0.1337 I-0.0955 J-0.0807
N16000 G1 X-3.2955 Y-0.1468
N16005 G2 X-3.289 Y-0.1577 I-0.104 J-0.0694
N16010 G1 X-3.2814 Y-0.1719
N16015 G2 X-3.2767 Y-0.1818 I-0.1104 J-0.0586
N16020 G1 X-3.2703 Y-0.197
N16025 X-3.2686 Y-0.2013
N16030 X-3.267 Y-0.2057
N16035 X-3.2616 Y-0.2218
N16040 X-3.2593 Y-0.2293
N16045 X-3.2547 Y-0.2462
N16050 X-3.2532 Y-0.2525
N16055 X-3.2495 Y-0.2701
N16060 X-3.2485 Y-0.2753
N16065 X-3.2454 Y-0.2935
N16070 X-3.2447 Y-0.2976
N16075 X-3.2422 Y-0.3163
N16080 X-3.2418 Y-0.3195
N16085 X-3.2397 Y-0.3385
N16090 X-3.2395 Y-0.3409
N16095 X-3.2377 Y-0.3602
N16100 X-3.2376 Y-0.3617
N16105 X-3.2361 Y-0.3813
N16110 X-3.236 Y-0.382
N16115 X-3.2346 Y-0.4017
N16120 G2 X-3.2343 Y-0.4131 I-0.1247 J-0.009
N16125 G1 X-3.2347 Y-0.435
N16130 Y-0.4357
N16135 X-3.2353 Y-0.4576
N16140 Y-0.459
N16145 X-3.2361 Y-0.4806
N16150 X-3.2362 Y-0.4828
N16155 X-3.2373 Y-0.5041
N16160 X-3.2375 Y-0.5071
N16165 X-3.2391 Y-0.5281
N16170 X-3.2395 Y-0.5319
N16175 X-3.2417 Y-0.5524
N16180 X-3.2423 Y-0.5571
N16185 X-3.2452 Y-0.5771
N16190 X-3.2462 Y-0.5828
N16195 X-3.2499 Y-0.6022
N16200 X-3.2514 Y-0.609
N16205 X-3.2561 Y-0.6276
N16210 X-3.2584 Y-0.6355
N16215 X-3.2642 Y-0.6533
N16220 X-3.2657 Y-0.6579
N16225 X-3.2675 Y-0.6624
N16230 X-3.2744 Y-0.6793
N16235 G2 X-3.2792 Y-0.6894 I-0.1156 J0.0476
N16240 G1 X-3.2874 Y-0.7052
N16245 G2 X-3.2938 Y-0.7161 I-0.1109 J0.0578
N16250 G1 X-3.3035 Y-0.7308
N16255 G2 X-3.3117 Y-0.742 I-0.1045 J0.0686
N16260 G1 X-3.3229 Y-0.7555
N16265 G2 X-3.3327 Y-0.766 I-0.0962 J0.0798
N16270 G1 X-3.3455 Y-0.7783
N16275 G2 X-3.3551 Y-0.7866 I-0.0865 J0.0902
N16280 G1 X-3.3694 Y-0.7977
N16285 G2 X-3.3782 Y-0.804 I-0.0769 J0.0986
N16290 G1 X-3.3937 Y-0.8141
N16295 X-3.3975 Y-0.8165
N16300 X-3.4014 Y-0.8187
N16305 X-3.4181 Y-0.8279
N16310 X-3.4246 Y-0.8313
N16315 X-3.4423 Y-0.8397
N16320 X-3.4476 Y-0.8421
N16325 X-3.4661 Y-0.8499
N16330 X-3.4701 Y-0.8515
N16335 X-3.4893 Y-0.8588
N16340 X-3.4923 Y-0.8599
N16345 X-3.5119 Y-0.8669
N16350 X-3.5139 Y-0.8676
N16355 X-3.5339 Y-0.8742
N16360 X-3.5348 Y-0.8745
N16365 X-3.555 Y-0.8811
N16370 G2 X-3.5936 Y-0.8872 I-0.0387 J0.1189
N16375 G1 X-3.6693
N16380 G2 X-3.7943 Y-0.7622 I0. J0.125
N16385 G1 Y-0.1177
N16390 G2 X-3.6736 Y0.0072 I0.125 J0.
N16395 G1 X-3.6698 Y0.0077 Z-0.2894 F10.
N16400 X-3.6661 Y0.0087 Z-0.2888
N16405 X-3.6629 Y0.0101 Z-0.287
N16410 X-3.6599 Y0.0119 Z-0.2852
N16415 X-3.6578 Y0.0136 Z-0.2825
N16420 X-3.6558 Y0.0156 Z-0.2797
N16425 X-3.6537 Y0.0184 Z-0.2727
N16430 X-3.653 Y0.0194 Z-0.265
N16435 Z0.2
N16440 G0 X-1.0266 Y0.6794
N16445 G1 Z0.1249 F10.
N16450 X-1.0275 Y0.6801 Z0.1176 F5.
N16455 X-1.0301 Y0.6819 Z0.1109
N16460 X-1.0343 Y0.6846 Z0.1055
N16465 X-1.0398 Y0.6878 Z0.1017
N16470 X-1.0462 Y0.6911 Z0.1
N16475 G3 X-1.1472 Y0.4761 Z0.0674 I-0.0505 J-0.1075
N16480 X-1.0462 Y0.6911 Z0.0347 I0.0505 J0.1075
N16485 X-1.1472 Y0.4761 Z0.0021 I-0.0505 J-0.1075
N16490 X-1.0462 Y0.6911 Z-0.0306 I0.0505 J0.1075
N16495 X-1.1472 Y0.4761 Z-0.0632 I-0.0505 J-0.1075
N16500 X-1.0462 Y0.6911 Z-0.0958 I0.0505 J0.1075
N16505 X-1.0922 Y0.7023 Z-0.1 I-0.0505 J-0.1075
N16510 X-1.0995 Y0.5118 I-0.0036 J-0.0953
N16515 G2 X-1.0202 Y0.5 I-0.0141 J-0.3681
N16520 X-1.0035 Y0.495 I-0.0626 J-0.2388
N16525 G3 X-0.9869 Y0.4896 I0.1794 J0.529
N16530 G1 X-0.9855 Y0.4895
N16535 X-0.9841 Y0.4899
N16540 X-0.983 Y0.4907
N16545 X-0.9822 Y0.4919
N16550 X-0.982 Y0.4933
N16555 X-0.9823 Y0.4947
N16560 X-0.9831 Y0.4959
N16565 X-0.9842 Y0.4968
N16570 G3 X-1.0396 Y0.518 I-0.1941 J-0.4225
N16575 X-1.0965 Y0.535 I-0.6458 J-2.0659
N16580 G1 X-1.0988 Y0.5353
N16585 X-1.1011 Y0.5351
N16590 G3 X-1.156 Y0.5215 I0.4832 J-2.0762
N16595 X-1.21 Y0.5046 I0.151 J-0.5786
N16600 G2 X-1.2194 Y0.5014 I-0.0775 J0.2124
N16605 G3 X-1.2287 Y0.4978 I0.0223 J-0.0707
N16610 G1 X-1.2298 Y0.497
N16615 X-1.2306 Y0.4958
N16620 X-1.2309 Y0.4944
N16625 X-1.2306 Y0.493
N16630 X-1.2298 Y0.4918
N16635 X-1.2287 Y0.491
N16640 X-1.2273 Y0.4906
N16645 X-1.2259 Y0.4908
N16650 G3 X-1.2161 Y0.4943 I-0.0612 J0.1887
N16655 G2 X-1.2062 Y0.4978 I0.0555 J-0.1414
N16660 X-1.1134 Y0.512 I0.0927 J-0.294
N16665 X-1.0995 Y0.5118 I-0.0002 J-0.3683
N16670 G1 X-1.0918 Y0.5114 Z-0.0988 F10.
N16675 X-1.0848 Y0.5109 Z-0.0952
N16680 X-1.0793 Y0.5104 Z-0.0897
N16685 X-1.0758 Y0.5101 Z-0.0827
N16690 X-1.0745 Y0.5099 Z-0.075
N16695 Z0.2
N16700 G0 X-0.9683 Y-1.2313
N16705 G1 Z0.1249 F10.
N16710 X-0.968 Y-1.2323 Z0.1176 F5.
N16715 X-0.9673 Y-1.2354 Z0.1109
N16720 X-0.966 Y-1.2402 Z0.1055
N16725 X-0.9641 Y-1.2463 Z0.1017
N16730 X-0.9615 Y-1.253 Z0.1
N16735 G3 X-0.7427 Y-1.1607 Z0.0674 I0.1094 J0.0462
N16740 X-0.9615 Y-1.253 Z0.0347 I-0.1094 J-0.0462
N16745 X-0.7427 Y-1.1607 Z0.0021 I0.1094 J0.0462
N16750 X-0.9615 Y-1.253 Z-0.0306 I-0.1094 J-0.0462
N16755 X-0.7427 Y-1.1607 Z-0.0632 I0.1094 J0.0462
N16760 X-0.9615 Y-1.253 Z-0.0958 I-0.1094 J-0.0462
N16765 X-0.9348 Y-1.2921 Z-0.1 I0.1094 J0.0462
N16770 X-0.7853 Y-1.1382 I0.0747 J0.0769
N16775 G2 X-0.7946 Y-1.1289 I0.2676 J0.2758
N16780 G3 X-0.8123 Y-1.1283 I-0.0092 J-0.0088
N16785 G2 X-0.8278 Y-1.142 I-0.4455 J0.4936
N16790 X-0.8439 Y-1.155 I-0.29 J0.3421
N16795 G3 X-0.8424 Y-1.1676 I0.0045 J-0.0058
N16800 G2 X-0.7794 Y-1.2053 I-0.1267 J-0.2832
N16805 G3 X-0.7691 Y-1.2002 I0.0039 J0.0051
N16810 G1 Y-1.1633
N16815 G3 X-0.7759 Y-1.1473 I-0.0221 J0.
N16820 G2 X-0.7853 Y-1.1382 I1.5616 J1.6281
N16825 G3 X-0.7963 Y-1.1349 I-0.0087 J-0.009
N16830 G1 X-1.2261 Y-1.2149
N16835 X-1.228 Y-1.2151
N16840 X-1.2299 Y-1.215
N16845 X-1.2318 Y-1.2146
N16850 G2 X-1.316 Y-1.1831 I0.143 J0.5092
N16855 G3 X-1.3259 Y-1.1902 I-0.003 J-0.0063
N16860 X-1.3137 Y-1.2571 I0.4999 J0.0565
N16865 X-1.2836 Y-1.3181 I0.1577 J0.0399
N16870 X-1.2628 Y-1.3417 I0.2279 J0.1803
N16875 X-1.2393 Y-1.3625 I0.1659 J0.1633
N16880 X-1.2245 Y-1.3587 I0.0059 J0.0076
N16885 G1 X-1.2216 Y-1.3513
N16890 X-1.2187 Y-1.3439
N16895 G2 X-1.1857 Y-1.2874 I0.242 J-0.1036
N16900 X-1.1401 Y-1.2404 I0.2221 J-0.1702
N16905 G3 X-1.1433 Y-1.2302 I-0.0036 J0.0045
N16910 G2 X-1.2318 Y-1.2146 I0.034 J0.4519
N16915 X-1.3095 Y-1.1192 I0.0289 J0.1029
N16920 G3 X-1.3539 Y-1.0043 I-0.209 J-0.0146
N16925 G1 X-1.3586 Y-0.9979
N16930 X-1.364 Y-0.9903
N16935 G2 X-1.3722 Y-0.9772 I0.1226 J0.0864
N16940 G1 X-1.3769 Y-0.9689
N16945 G2 X-1.3829 Y-0.9569 I0.1308 J0.0733
N16950 G1 X-1.3869 Y-0.9479
N16955 G2 X-1.3912 Y-0.9373 I0.1369 J0.0613
N16960 G1 X-1.3946 Y-0.9278
N16965 X-1.3976 Y-0.9186
N16970 X-1.4005 Y-0.9086
N16975 X-1.4025 Y-0.9009
N16980 X-1.4049 Y-0.8905
N16985 X-1.4062 Y-0.8842
N16990 X-1.4082 Y-0.8735
N16995 X-1.409 Y-0.8684
N17000 X-1.4107 Y-0.8573
N17005 X-1.4112 Y-0.8534
N17010 X-1.4126 Y-0.8422
N17015 X-1.4129 Y-0.8393
N17020 X-1.4141 Y-0.8278
N17025 X-1.4143 Y-0.826
N17030 X-1.4154 Y-0.8144
N17035 X-1.4155 Y-0.8135
N17040 X-1.4164 Y-0.8018
N17045 G2 X-1.4114 Y-0.7484 I0.1495 J0.0127
N17050 G1 X-1.4058 Y-0.7287
N17055 X-1.4056 Y-0.7278
N17060 X-1.3999 Y-0.7081
N17065 X-1.3993 Y-0.7063
N17070 X-1.3935 Y-0.6868
N17075 X-1.3926 Y-0.6841
N17080 X-1.3864 Y-0.6649
N17085 X-1.3852 Y-0.6613
N17090 X-1.3785 Y-0.6424
N17095 X-1.3768 Y-0.6378
N17100 X-1.3697 Y-0.6193
N17105 X-1.3674 Y-0.6137
N17110 X-1.3596 Y-0.5958
N17115 X-1.3565 Y-0.5893
N17120 X-1.348 Y-0.5719
N17125 X-1.344 Y-0.5645
N17130 X-1.3346 Y-0.5478
N17135 X-1.3296 Y-0.5396
N17140 X-1.3192 Y-0.5236
N17145 G2 X-1.3131 Y-0.515 I0.1256 J-0.082
N17150 G1 X-1.3016 Y-0.4999
N17155 G2 X-1.2952 Y-0.492 I0.1195 J-0.0907
N17160 G1 X-1.2827 Y-0.4777
N17165 X-1.2763 Y-0.4708
N17170 X-1.2629 Y-0.4572
N17175 X-1.2567 Y-0.4514
N17180 X-1.2425 Y-0.4385
N17185 X-1.2367 Y-0.4336
N17190 X-1.2216 Y-0.4213
N17195 X-1.2164 Y-0.4172
N17200 X-1.2006 Y-0.4055
N17205 X-1.1959 Y-0.4021
N17210 X-1.1795 Y-0.3909
N17215 X-1.1753 Y-0.3882
N17220 X-1.1584 Y-0.3774
N17225 X-1.1549 Y-0.3752
N17230 X-1.1375 Y-0.3648
N17235 X-1.1345 Y-0.3631
N17240 X-1.1167 Y-0.353
N17245 X-1.1144 Y-0.3517
N17250 X-1.0963 Y-0.3418
N17255 X-1.0945 Y-0.3409
N17260 X-1.0762 Y-0.3312
N17265 X-1.075 Y-0.3306
N17270 X-1.0565 Y-0.321
N17275 X-1.0559 Y-0.3207
N17280 X-1.0373 Y-0.3112
N17285 G2 X-0.8191 Y-0.4448 I0.0682 J-0.1336
N17290 G1 Y-0.657
N17295 X-0.8186 Y-0.6715
N17300 Y-0.6722
N17305 X-0.8181 Y-0.6893
N17310 X-0.818 Y-0.6908
N17315 X-0.8177 Y-0.7077
N17320 Y-0.71
N17325 X-0.8176 Y-0.7267
N17330 Y-0.7299
N17335 X-0.8178 Y-0.7464
N17340 X-0.8179 Y-0.7504
N17345 X-0.8186 Y-0.7667
N17350 X-0.8189 Y-0.7715
N17355 X-0.8201 Y-0.7875
N17360 X-0.8206 Y-0.7935
N17365 X-0.8224 Y-0.8091
N17370 X-0.8234 Y-0.8161
N17375 X-0.8259 Y-0.8312
N17380 X-0.8274 Y-0.8395
N17385 X-0.8307 Y-0.8541
N17390 X-0.8318 Y-0.8588
N17395 X-0.8331 Y-0.8635
N17400 X-0.8372 Y-0.8776
N17405 G2 X-0.8407 Y-0.8883 I-0.144 J0.0419
N17410 G1 X-0.8458 Y-0.9017
N17415 G2 X-0.8507 Y-0.9134 I-0.1405 J0.0526
N17420 G1 X-0.8567 Y-0.9261
N17425 G2 X-0.8634 Y-0.9386 I-0.1355 J0.0642
N17430 G1 X-0.8705 Y-0.9506
N17435 G2 X-0.879 Y-0.9634 I-0.1289 J0.0767
N17440 G1 X-0.8874 Y-0.9746
N17445 G2 X-0.8974 Y-0.9867 I-0.1204 J0.0894
N17450 G1 X-0.907 Y-0.9971
N17455 G2 X-0.9169 Y-1.0069 I-0.1104 J0.1015
N17460 G1 X-0.9276 Y-1.0166
N17465 G2 X-0.9365 Y-1.024 I-0.1005 J0.1113
N17470 G1 X-0.9482 Y-1.0331
N17475 X-0.9559 Y-1.0387
N17480 X-0.9685 Y-1.0471
N17485 X-0.9749 Y-1.0512
N17490 X-0.9881 Y-1.0592
N17495 X-0.9932 Y-1.0621
N17500 X-1.007 Y-1.0697
N17505 X-1.0107 Y-1.0717
N17510 X-1.025 Y-1.0791
N17515 X-1.0274 Y-1.0803
N17520 X-1.0419 Y-1.0874
N17525 X-1.0432 Y-1.0881
N17530 X-1.0579 Y-1.0951
N17535 G2 X-1.1541 Y-1.1067 I-0.0651 J0.1351
N17540 G1 X-1.1654 Y-1.1043
N17545 X-1.1665 Y-1.1041
N17550 X-1.1776 Y-1.1016
N17555 X-1.1798 Y-1.1011
N17560 X-1.1909 Y-1.0985
N17565 X-1.1941 Y-1.0977
N17570 X-1.2049 Y-1.0949
N17575 X-1.2095 Y-1.0936
N17580 X-1.22 Y-1.0905
N17585 X-1.2259 Y-1.0887
N17590 X-1.236 Y-1.0852
N17595 X-1.2433 Y-1.0825
N17600 X-1.2529 Y-1.0787
N17605 X-1.2618 Y-1.0748
N17610 X-1.2709 Y-1.0705
N17615 G2 X-1.2812 Y-1.0651 I0.0644 J0.1355
N17620 G1 X-1.2897 Y-1.0602
N17625 G2 X-1.3014 Y-1.0527 I0.0747 J0.1301
N17630 G1 X-1.3092 Y-1.0472
N17635 G2 X-1.3219 Y-1.0372 I0.0864 J0.1226
N17640 G1 X-1.3289 Y-1.031
N17645 G2 X-1.3416 Y-1.0184 I0.0991 J0.1126
N17650 G1 X-1.3478 Y-1.0115
N17655 X-1.3539 Y-1.0043
N17660 X-1.3556 Y-1.0025
N17665 X-1.3576 Y-1.0011
N17670 X-1.3599 Y-1.0001
N17675 X-1.3623 Y-0.9996
N17680 X-1.4002 Y-0.9953
N17685 G2 X-1.411 Y-0.9854 I0.0014 J0.0124
N17690 X-1.4225 Y-0.803 I0.6207 J0.1309
N17695 X-1.3833 Y-0.6245 I0.6766 J-0.0552
N17700 G1 X-1.3826 Y-0.6115
N17705 X-1.3829 Y-0.61
N17710 X-1.3836 Y-0.6088
N17715 X-1.3848 Y-0.608
N17720 X-1.3863 Y-0.6077
N17725 X-1.3877 Y-0.6079
N17730 X-1.3889 Y-0.6087
N17735 X-1.3897 Y-0.6099
N17740 X-1.3899 Y-0.6104
N17745 X-1.3981 Y-0.6342
N17750 X-1.4056 Y-0.6597
N17755 X-1.4123 Y-0.6868
N17760 X-1.4185 Y-0.7155
N17765 X-1.4241 Y-0.7455
N17770 X-1.4292 Y-0.7768
N17775 X-1.4339 Y-0.8092
N17780 X-1.4385 Y-0.8426
N17785 X-1.4423 Y-0.872
N17790 X-1.4448 Y-0.9111
N17795 X-1.4474 Y-0.9543
N17800 X-1.4496 Y-0.9966
N17805 X-1.4511 Y-1.0379
N17810 X-1.4518 Y-1.0779
N17815 X-1.4516 Y-1.1165
N17820 X-1.4503 Y-1.1535
N17825 X-1.4479 Y-1.1888
N17830 X-1.4441 Y-1.2221
N17835 X-1.439 Y-1.2533
N17840 X-1.4326 Y-1.2823
N17845 X-1.4248 Y-1.3089
N17850 X-1.4157 Y-1.3333
N17855 X-1.4053 Y-1.3554
N17860 X-1.3936 Y-1.3755
N17865 X-1.38 Y-1.3944
N17870 X-1.3637 Y-1.4132
N17875 X-1.3439 Y-1.4326
N17880 X-1.3207 Y-1.4525
N17885 X-1.2944 Y-1.4729
N17890 X-1.2653 Y-1.4935
N17895 X-1.2338 Y-1.5146
N17900 X-1.2174 Y-1.5251
N17905 X-1.2066 Y-1.5221
N17910 X-1.1966 Y-1.5189
N17915 X-1.1881 Y-1.5158
N17920 X-1.1813 Y-1.513
N17925 X-1.176 Y-1.5104
N17930 X-1.1724 Y-1.5083
N17935 X-1.17 Y-1.5066
N17940 X-1.1679 Y-1.5049
N17945 X-1.1652 Y-1.5023
N17950 X-1.1618 Y-1.4985
N17955 X-1.1578 Y-1.4934
N17960 X-1.1533 Y-1.487
N17965 X-1.1484 Y-1.4792
N17970 X-1.1432 Y-1.47
N17975 X-1.1377 Y-1.4596
N17980 X-1.1319 Y-1.448
N17985 X-1.126 Y-1.4353
N17990 X-1.1199 Y-1.4216
N17995 X-1.1136 Y-1.407
