%
(DOUBLE TENON TEMPLATE)
(T1  D=0.25 CR=0. - ZMIN=-0.499999993 - FLAT END MILL)
N10 G90 G94 G17 G91.1
N15 G20
N20 G53 G0 Z0.
(2D ADAPTIVE4)
N25 M9
N30 T1 M6
N35 S3000 M3
N40 G54
N45 G0 X-0.025776184 Y-0.288600884
N50 G43 Z0.599999991 H1
N55 G0 Z0.199999997
N60 Z-0.450000012
N65 G1 Z-0.474999983 F10.
N70 X-0.025699809 Y-0.28830272 Z-0.478910845
N75 X-0.025472564 Y-0.287415568 Z-0.482725408
N80 X-0.025100046 Y-0.285961271 Z-0.486349746
N85 X-0.024591426 Y-0.28397564 Z-0.489694616
N90 X-0.023959228 Y-0.281507568 Z-0.492677655
N95 X-0.02321902 Y-0.278617826 Z-0.495225412
N100 X-0.022389028 Y-0.27537757 Z-0.497275151
N105 X-0.021489688 Y-0.271866585 Z-0.498776402
N110 X-0.020543146 Y-0.268171324 Z-0.499692199
N115 X-0.019572708 Y-0.264382775 Z-0.499999992
N120 G3 X0. Y-0.128282956 I-0.618284173 J0.158373634
N125 G1 X-0.000000006 Y-0.122282956
N130 X-0.007798158 Y-0.084079964
N135 X-0.013197818 Y-0.045464893
N140 X-0.016918815 Y-0.006652081
N145 X-0.019474413 Y0.032254847
N150 X-0.0212255 Y0.071206276
N155 X-0.022423387 Y0.110178641
N160 X-0.023241918 Y0.149160811
N165 X-0.023800801 Y0.188147571
N170 X-0.024182196 Y0.227136481
N175 X-0.024442372 Y0.266126385
N180 X-0.024619816 Y0.305116759
N185 X-0.024823309 Y0.383097994
N190 X-0.02494403 Y0.500070241
N195 X-0.02499739 Y0.811996385
N200 X-0.025 Y1.864747175
N205 Y2.878507179
N210 X-0.024648332 Y2.888248474
N215 X-0.020710584 Y2.907342085
N220 X-0.000848675 Y2.9408949
N225 X0.029126504 Y2.965830105
N230 X0.063742723 Y2.983774501
N235 X0.100610266 Y2.996465428
N240 X0.138577486 Y3.005340756
N245 X0.177078773 Y3.01149954
N250 X0.215837167 Y3.015750074
N255 X0.254718262 Y3.018672372
N260 X0.293657498 Y3.02067644
N265 X0.332624143 Y3.022047929
N270 X0.371603628 Y3.022985383
N275 X0.410589158 Y3.023625772
N280 X0.449577467 Y3.02406281
N285 X0.488567089 Y3.024360777
N290 X0.527557351 Y3.024564127
N295 X0.566547874 Y3.024702898
N300 X0.644529223 Y3.024861794
N305 X0.800492294 Y3.024970227
N310 X0.878473792 Y3.024986147
N315 X2.867003013 Y3.024999964
N320 X4.387643168
N325 X4.406521414 Y3.020133672
N330 X4.440267668 Y3.000602722
N335 X4.465373482 Y2.970770288
N340 X4.48344914 Y2.936222347
N345 X4.496237086 Y2.899388291
N350 X4.505181801 Y2.86143746
N355 X4.511389545 Y2.82294386
N360 X4.515674321 Y2.784189239
N365 X4.518620348 Y2.745309965
N370 X4.520640636 Y2.706371518
N375 X4.522023539 Y2.667405436
N380 X4.522968803 Y2.628426139
N385 X4.523614298 Y2.589440533
N390 X4.52405494 Y2.550452225
N395 X4.524355611 Y2.511462715
N400 X4.524560763 Y2.472472454
N405 X4.524700435 Y2.433481892
N410 X4.524860833 Y2.355500619
N415 X4.524969867 Y2.199537623
N420 X4.524999904 Y1.224768331
N425 Y0.639906831
N430 Y0.113531407
N435 X4.520548723 Y0.094550979
N440 X4.51100387 Y0.077552068
N445 X4.485880334 Y0.047734422
N450 X4.453550624 Y0.025938475
N455 X4.417797299 Y0.010382641
N460 X4.380373917 Y-0.000561749
N465 X4.342136233 Y-0.008188141
N470 X4.303504463 Y-0.013467053
N475 X4.264683761 Y-0.017103963
N480 X4.225772948 Y-0.01960139
N485 X4.186819782 Y-0.021312415
N490 X4.147846793 Y-0.022482802
N495 X4.108864191 Y-0.023282499
N500 X4.069877084 Y-0.023828498
N505 X4.030888174 Y-0.024201093
N510 X3.991898364 Y-0.024455262
N515 X3.952907953 Y-0.024628606
N520 X3.87492653 Y-0.024827395
N525 X3.757954395 Y-0.024945325
N530 X3.40703739 Y-0.024998263
N535 X3.134102108 Y-0.024999882
N540 X1.145572813 Y-0.025
N545 X0.229289738
N550 X0.219546847 Y-0.024693611
N555 X0.200435195 Y-0.020844645
N560 X0.166102019 Y-0.002364578
N565 X0.140026348 Y0.026624034
N570 X0.120935825 Y0.060621561
N575 X0.107224598 Y0.097122005
N580 X0.097495749 Y0.13487952
N585 X0.090649456 Y0.173264526
N590 X0.085859533 Y0.211959955
N595 X0.082522114 Y0.250807634
N600 X0.080203569 Y0.289729392
N605 X0.078596233 Y0.328687007
N610 X0.07748364 Y0.367661912
N615 X0.07671435 Y0.406645114
N620 X0.07618286 Y0.445632259
N625 X0.075815883 Y0.484621281
N630 X0.075562615 Y0.523611241
N635 X0.07538788 Y0.562601615
N640 X0.075184266 Y0.640582888
N645 X0.07506027 Y0.757555098
N650 X0.075006429 Y0.991499743
N655 X0.074999999 Y2.746084318
N660 X0.076430083 Y2.76552726
N665 X0.081906891 Y2.784237599
N670 X0.09963764 Y2.818963659
N675 X0.12700874 Y2.846732252
N680 X0.159710073 Y2.8679669
N685 X0.195335572 Y2.883812912
N690 X0.232548376 Y2.895452845
N695 X0.270611057 Y2.903909458
N700 X0.309122547 Y2.910003962
N705 X0.347868101 Y2.914370439
N710 X0.386734347 Y2.917483773
N715 X0.425662319 Y2.919696297
N720 X0.464621566 Y2.921263627
N725 X0.503596584 Y2.922371692
N730 X0.542579523 Y2.923153254
N735 X0.581566405 Y2.923703832
N740 X0.620555239 Y2.924091309
N745 X0.659545087 Y2.924363444
N750 X0.698535348 Y2.924554479
N755 X0.73752591 Y2.924688444
N760 X0.815507258 Y2.924847941
N765 X0.971470255 Y2.924963884
N770 X1.634313328 Y2.924999928
N775 X2.219174903
N780 X4.207704199
N785 X4.24669491
N790 X4.266121932 Y2.923367418
N795 X4.284785113 Y2.917732779
N800 X4.319399736 Y2.89978568
N805 X4.347053288 Y2.872298233
N810 X4.368197524 Y2.839538094
N815 X4.383976253 Y2.803882689
N820 X4.395567226 Y2.766654848
N825 X4.403988996 Y2.72858447
N830 X4.41005917 Y2.690068943
N835 X4.414408226 Y2.651321531
N840 X4.417509845 Y2.612454272
N845 X4.419713959 Y2.573526037
N850 X4.421275882 Y2.534566564
N855 X4.422380042 Y2.495591321
N860 X4.423158901 Y2.456608269
N865 X4.423707677 Y2.417621462
N870 X4.424093952 Y2.378632553
N875 X4.424365186 Y2.339642742
N880 X4.424555621 Y2.300652331
N885 X4.4247827 Y2.222671208
N890 X4.424925977 Y2.105698923
N895 X4.424994161 Y1.832763642
N900 X4.424999868 Y1.052948208
N905 Y0.234142082
N910 X4.413224168 Y0.196972119
N915 X4.389557425 Y0.165985532
N920 X4.35896085 Y0.141816778
N925 X4.324516236 Y0.123544997
N930 X4.287954916 Y0.109996674
N935 X4.250245883 Y0.100082394
N940 X4.211923194 Y0.09289581
N945 X4.173277006 Y0.087723037
N950 X4.134462312 Y0.08401974
N955 X4.09556111 Y0.081379526
N960 X4.056615454 Y0.079503454
N965 X4.017647571 Y0.078173927
N970 X3.978667973 Y0.077233779
N975 X3.939682968 Y0.076570192
N980 X3.90069496 Y0.076102544
N985 X3.86170545 Y0.075773418
N990 X3.822715339 Y0.075542063
N995 X3.783724928 Y0.075379605
N1000 X3.705743805 Y0.075185754
N1005 X3.58877137 Y0.075063278
N1010 X3.315836088 Y0.075005035
N1015 X1.327306943 Y0.074999999
N1020 X0.352537688
N1025 X0.33319079 Y0.077401639
N1030 X0.296254515 Y0.089891314
N1035 X0.265616056 Y0.114006968
N1040 X0.241665746 Y0.144774848
N1045 X0.223552167 Y0.179302786
N1050 X0.210101436 Y0.215900038
N1055 X0.200237308 Y0.253622419
N1060 X0.193068174 Y0.291948431
N1065 X0.187892482 Y0.330594168
N1070 X0.184174879 Y0.369407286
N1075 X0.181515161 Y0.408307248
N1080 X0.179618175 Y0.447251853
N1085 X0.178268594 Y0.486219248
N1090 X0.177310414 Y0.525198246
N1095 X0.176631278 Y0.5641831
N1100 X0.176150611 Y0.603170921
N1105 X0.175810855 Y0.642160205
N1110 X0.175570935 Y0.681150241
N1115 X0.175401714 Y0.720140652
N1120 X0.175198457 Y0.798121925
N1125 X0.175068604 Y0.915094135
N1130 X0.175033686 Y0.993075634
N1135 X0.175000026 Y1.772891067
N1140 X0.175000007 Y2.630687924
N1145 X0.176451056 Y2.650129363
N1150 X0.186008431 Y2.68793061
N1155 X0.207392099 Y2.720534557
N1160 X0.236258357 Y2.746745432
N1165 X0.269533499 Y2.767069058
N1170 X0.30535116 Y2.78247593
N1175 X0.342605959 Y2.793980696
N1180 X0.380658953 Y2.802480863
N1185 X0.419148498 Y2.808712636
N1190 X0.457873795 Y2.813254829
N1195 X0.496724985 Y2.816551088
N1200 X0.535642857 Y2.818934523
N1205 X0.574595722 Y2.82065324
N1210 X0.613566872 Y2.821889562
N1215 X0.652547521 Y2.822777155
N1220 X0.691533126 Y2.823413338
N1225 X0.73052121 Y2.823868699
N1230 X0.769510645 Y2.8241943
N1235 X0.80850068 Y2.824426786
N1240 X0.847491167 Y2.82459229
N1245 X0.914422508 Y2.82477071
N1250 X0.921994307 Y2.825280738
N1255 X0.929435745 Y2.826769371
N1260 X0.936621043 Y2.829211378
N1265 X0.943399114 Y2.832018935
N1270 X0.952257397 Y2.835599644
N1275 X0.969974037 Y2.842240221
N1280 X0.97883232 Y2.844903901
N1285 X1.005407243 Y2.851472389
N1290 X1.058557165 Y2.864232702
N1295 X1.067415448 Y2.866155069
N1300 X1.085132088 Y2.869902483
N1305 X1.093990371 Y2.87103668
N1310 X1.113602195 Y2.872775821
N1315 X1.173715216 Y2.877527973
N1320 X1.200290139 Y2.87919833
N1325 X1.209148422 Y2.878923491
N1330 X1.226865063 Y2.877871896
N1335 X1.235723345 Y2.877237515
N1340 X1.288873267 Y2.873055466
N1345 X1.31544819 Y2.870755233
N1350 X1.324306548 Y2.869072261
N1355 X1.342023114 Y2.865395433
N1360 X1.348496535 Y2.863919115
N1365 X1.39517296 Y2.852713217
N1370 X1.433489041 Y2.845491424
N1375 X1.471910402 Y2.838851448
N1380 X1.510644898 Y2.834389454
N1385 X1.549519216 Y2.831376444
N1390 X1.588456462 Y2.82933543
N1395 X1.627422543 Y2.827950125
N1400 X1.666401991 Y2.827008766
N1405 X1.705387446 Y2.826368077
N1410 X1.744375905 Y2.82593194
N1415 X1.783365565 Y2.825635174
N1420 X1.822355676 Y2.825432725
N1425 X1.861346237 Y2.825294855
N1430 X1.939327661 Y2.825137161
N1435 X2.095290657 Y2.825029628
N1440 X2.946102713 Y2.824999892
N1445 X2.953717089 Y2.825499107
N1450 X2.961201105 Y2.82698774
N1455 X2.968426802 Y2.82944086
N1460 X2.980810751 Y2.834570577
N1465 X2.989668959 Y2.837804659
N1470 X3.007385674 Y2.84413195
N1475 X3.014856774 Y2.846206004
N1480 X3.08850356 Y2.863919115
N1485 X3.095968652 Y2.865711422
N1490 X3.122543575 Y2.870814706
N1495 X3.131402083 Y2.871690885
N1500 X3.166835214 Y2.874527879
N1505 X3.211126853 Y2.877999253
N1510 X3.237701776 Y2.879241583
N1515 X3.246559984 Y2.878690404
N1520 X3.2642767 Y2.877434257
N1525 X3.323685353 Y2.872775821
N1530 X3.335143262 Y2.871674966
N1535 X3.352859677 Y2.869918102
N1540 X3.379687512 Y2.863919115
N1545 X3.432584447 Y2.851234196
N1550 X3.470874997 Y2.843877837
N1555 X3.509384516 Y2.837769516
N1560 X3.54815806 Y2.833659855
N1565 X3.587049649 Y2.830882636
N1570 X3.625995005 Y2.829000518
N1575 X3.664964991 Y2.827722745
N1580 X3.703945791 Y2.826854075
N1585 X3.742932297 Y2.826262947
N1590 X3.781920906 Y2.825860452
N1595 X3.820910717 Y2.825586214
N1600 X3.859901128 Y2.825399384
N1605 X3.898891539 Y2.825272327
N1610 X3.976872962 Y2.825126348
N1615 X4.132836109 Y2.825027226
N1620 X4.152243006 Y2.823171541
N1625 X4.189846009 Y2.812861946
N1630 X4.222101827 Y2.790956572
N1635 X4.247975387 Y2.761787354
N1640 X4.268010057 Y2.728337566
N1645 X4.283184142 Y2.692420539
N1650 X4.294507184 Y2.655110096
N1655 X4.30286828 Y2.617026502
N1660 X4.308994924 Y2.578519986
N1665 X4.313459622 Y2.539785791
N1670 X4.316699111 Y2.500929795
N1675 X4.319041094 Y2.46200937
N1680 X4.320729774 Y2.423055153
N1685 X4.32194447 Y2.384083365
N1690 X4.322816744 Y2.345102265
N1695 X4.323441813 Y2.30611651
N1700 X4.323889064 Y2.267128351
N1705 X4.324208658 Y2.228138841
N1710 X4.324436939 Y2.18914888
N1715 X4.324599739 Y2.150158319
N1720 X4.324798284 Y2.072177046
N1725 X4.324928043 Y1.955204911
N1730 X4.324993824 Y1.682269479
N1735 X4.324995627 Y1.643278768
N1740 X4.325000132 Y0.356583332
N1745 X4.321499321 Y0.337404792
N1750 X4.307941527 Y0.30084717
N1755 X4.283792391 Y0.270235125
N1760 X4.253245376 Y0.246003725
N1765 X4.218982787 Y0.227393015
N1770 X4.182600487 Y0.213371468
N1775 X4.145029624 Y0.202944992
N1780 X4.106802753 Y0.195263915
N1785 X4.068219042 Y0.189644164
N1790 X4.029443395 Y0.185553934
N1795 X3.990565623 Y0.182588964
N1800 X3.951633784 Y0.180446595
N1805 X3.91267371 Y0.178902619
N1810 X3.873698618 Y0.17779232
N1815 X3.834716016 Y0.176995345
N1820 X3.795729509 Y0.176424192
N1825 X3.7567409 Y0.176015445
N1830 X3.71775109 Y0.175723297
N1835 X3.678760979 Y0.175514728
N1840 X3.639770568 Y0.17536597
N1845 X3.561789145 Y0.175184565
N1850 X3.522405549 Y0.175130517
N1855 X3.514810697 Y0.174626516
N1860 X3.507346206 Y0.173137939
N1865 X3.500139131 Y0.170690131
N1870 X3.485734294 Y0.164754578
N1875 X3.468017878 Y0.157900964
N1880 X3.45915937 Y0.155499573
N1885 X3.441442955 Y0.150933162
N1890 X3.42372624 Y0.146640314
N1895 X3.379434601 Y0.136025712
N1900 X3.352859677 Y0.130083439
N1905 X3.326284754 Y0.127455259
N1910 X3.317426546 Y0.12673271
N1915 X3.2642767 Y0.12256551
N1920 X3.246559984 Y0.121308837
N1925 X3.237701776 Y0.12075779
N1930 X3.211126853 Y0.122000129
N1935 X3.144801583 Y0.127224143
N1940 X3.131402083 Y0.128310496
N1945 X3.122543575 Y0.129186948
N1950 X3.095968652 Y0.134290034
N1955 X3.033960598 Y0.149182288
N1960 X2.995649022 Y0.156427716
N1965 X2.957123584 Y0.162435423
N1970 X2.918343131 Y0.166478382
N1975 X2.879448237 Y0.169210885
N1980 X2.84050138 Y0.17106289
N1985 X2.801531093 Y0.172320445
N1990 X2.762549693 Y0.173175429
N1995 X2.723563187 Y0.173757189
N2000 X2.684574277 Y0.174153264
N2005 X2.645584467 Y0.174423015
N2010 X2.606594356 Y0.174606785
N2015 X2.528612933 Y0.174817344
N2020 X2.411640798 Y0.174942167
N2025 X2.099714655 Y0.174997303
N2030 X1.490895429 Y0.174999988
N2035 X1.483281353 Y0.174500942
N2040 X1.475797488 Y0.173012309
N2045 X1.468572091 Y0.170559564
N2050 X1.457181165 Y0.165841279
N2055 X1.448322807 Y0.16249146
N2060 X1.439464599 Y0.159201791
N2065 X1.430606241 Y0.15596738
N2070 X1.404031318 Y0.149421373
N2075 X1.348490227 Y0.136080764
N2080 X1.342023114 Y0.134606061
N2085 X1.324306548 Y0.130929327
N2090 X1.31544819 Y0.129246421
N2095 X1.288873267 Y0.126945644
N2100 X1.235723345 Y0.12276182
N2105 X1.226865063 Y0.12212728
N2110 X1.209148422 Y0.121075431
N2115 X1.200290139 Y0.120800546
N2120 X1.173715216 Y0.122471353
N2125 X1.11361406 Y0.127224143
N2130 X1.093990371 Y0.128964833
N2135 X1.085132088 Y0.130099218
N2140 X1.067415448 Y0.13384652
N2145 X1.058557165 Y0.135768812
N2150 X1.005407243 Y0.14852888
N2155 X0.967118871 Y0.155896127
N2160 X0.928621367 Y0.162078696
N2165 X0.889853079 Y0.166237711
N2170 X0.850963668 Y0.169047953
N2175 X0.812019438 Y0.170952335
N2180 X0.773050128 Y0.172245315
N2185 X0.734069254 Y0.173124328
N2190 X0.695083123 Y0.173722402
N2195 X0.656094438 Y0.174129572
N2200 X0.617104666 Y0.17440687
N2205 X0.578114329 Y0.174595803
N2210 X0.539123805 Y0.17472453
N2215 X0.461142382 Y0.17487203
N2220 X0.422628283 Y0.180950221
N2225 X0.388449646 Y0.199714533
N2230 X0.360517577 Y0.226918956
N2235 X0.338625758 Y0.259183917
N2240 X0.321909762 Y0.294409681
N2245 X0.309363519 Y0.331326808
N2250 X0.300049181 Y0.369188692
N2255 X0.29318924 Y0.407571267
N2260 X0.288167338 Y0.446237279
N2265 X0.284508026 Y0.485055953
N2270 X0.281851348 Y0.523956104
N2275 X0.279928249 Y0.562899394
N2280 X0.278539545 Y0.601865438
N2285 X0.277538713 Y0.640843384
N2290 X0.276818688 Y0.679827487
N2295 X0.276301452 Y0.71881482
N2300 X0.275930382 Y0.757803804
N2305 X0.27566448 Y0.79679369
N2310 X0.275474158 Y0.835784026
N2315 X0.275240846 Y0.913765149
N2320 X0.2750867 Y1.030737359
N2325 X0.275011044 Y1.264681929
N2330 X0.275000981 Y1.537617361
N2335 X0.275000005 Y2.512386652
N2340 X0.27546128 Y2.551374661
N2345 X0.28753643 Y2.588448412
N2350 X0.31006539 Y2.620271698
N2355 X0.339429547 Y2.645923885
N2360 X0.372891126 Y2.665939031
N2365 X0.408756789 Y2.681233864
N2370 X0.446005769 Y2.692757554
N2375 X0.484037324 Y2.701352938
N2380 X0.522505129 Y2.707717475
N2385 X0.561213193 Y2.712404446
N2390 X0.60005218 Y2.715840978
N2395 X0.638961942 Y2.718352971
N2400 X0.677909701 Y2.720183725
N2405 X0.716877735 Y2.721515265
N2410 X0.724784971 Y2.721711407
N2415 X0.736451787 Y2.723186223
N2420 X0.747585747 Y2.726971484
N2425 X0.757734269 Y2.7329128
N2430 X0.767341824 Y2.739926436
N2435 X0.775091216 Y2.745403981
N2440 X0.828241063 Y2.777973085
N2445 X0.838624098 Y2.784209664
N2450 X0.854815986 Y2.793842526
N2455 X0.863674269 Y2.798512977
N2460 X0.872532627 Y2.802452928
N2465 X0.88139091 Y2.806333106
N2470 X0.936621043 Y2.829211378
N2475 X0.943399114 Y2.832018935
N2480 X0.952257397 Y2.835599644
N2485 X0.965394824 Y2.840523908
N2490 X0.969974037 Y2.842240221
N2495 X0.97883232 Y2.844903901
N2500 X0.996548961 Y2.849303418
N2505 X1.005407243 Y2.851472389
N2510 X1.058557165 Y2.864232702
N2515 X1.067415448 Y2.866155069
N2520 X1.085132088 Y2.869902483
N2525 X1.093990371 Y2.87103668
N2530 X1.113602195 Y2.872775821
N2535 X1.120565294 Y2.873346224
N2540 X1.173715216 Y2.877527973
N2545 X1.182573499 Y2.87809387
N2550 X1.200290139 Y2.87919833
N2555 X1.209148422 Y2.878923491
N2560 X1.226865063 Y2.877871896
N2565 X1.235723345 Y2.877237515
N2570 X1.288873267 Y2.873055466
N2575 X1.31544819 Y2.870755233
N2580 X1.324306548 Y2.869072261
N2585 X1.342023114 Y2.865395433
N2590 X1.348496535 Y2.863919115
N2595 X1.365106087 Y2.859931706
N2600 X1.39517296 Y2.852713217
N2605 X1.404031318 Y2.85057999
N2610 X1.430606241 Y2.844033729
N2615 X1.439464599 Y2.840799347
N2620 X1.448754138 Y2.837349298
N2625 X1.457181165 Y2.834159671
N2630 X1.519189369 Y2.808473842
N2635 X1.528047577 Y2.804759168
N2640 X1.536905934 Y2.800851657
N2645 X1.545764292 Y2.796832408
N2650 X1.567118337 Y2.784209664
N2655 X1.589110968 Y2.772652634
N2660 X1.609804799 Y2.763817855
N2665 X1.637337602 Y2.754597401
N2670 X1.675184655 Y2.745222858
N2675 X1.713653625 Y2.738865529
N2680 X1.752402388 Y2.734528189
N2685 X1.79127986 Y2.73155663
N2690 X1.830217106 Y2.729516217
N2695 X1.869182587 Y2.728112288
N2700 X1.908161434 Y2.727145698
N2705 X1.947146588 Y2.726479478
N2710 X1.986134597 Y2.726020212
N2715 X2.025124107 Y2.725703622
N2720 X2.064114218 Y2.725485254
N2725 X2.103104629 Y2.725334468
N2730 X2.181086052 Y2.725159052
N2735 X2.298058337 Y2.72505212
N2740 X2.648975342 Y2.725001958
N2745 X2.758930236 Y2.725000757
N2750 X2.770577078 Y2.726175203
N2755 X2.781755042 Y2.729651384
N2760 X2.792013874 Y2.735289326
N2765 X2.803644496 Y2.743298088
N2770 X2.811857809 Y2.748783142
N2775 X2.86565255 Y2.781747533
N2780 X2.869797053 Y2.784209664
N2785 X2.892227473 Y2.797101539
N2790 X2.901085981 Y2.801407942
N2795 X2.909944189 Y2.805206719
N2800 X2.968426802 Y2.82944086
N2805 G3 X2.982949385 Y2.854528052 I-0.010367566 J0.022748812
N2810 G1 X2.982583578 Y2.85842177 Z-0.499692205
N2815 X2.98222678 Y2.862219613 Z-0.498776413
N2820 X2.981887774 Y2.865828066 Z-0.497275165
N2825 X2.981574909 Y2.869158276 Z-0.495225429
N2830 X2.981295889 Y2.872128242 Z-0.492677674
N2835 X2.981057584 Y2.874664834 Z-0.489694634
N2840 X2.980865862 Y2.876705593 Z-0.486349763
N2845 X2.980725445 Y2.878200267 Z-0.482725421
N2850 X2.980639789 Y2.879112054 Z-0.478910852
N2855 X2.980611005 Y2.879418501 Z-0.474999983
N2860 G0 Z0.199999997
N2865 X1.534015625 Y2.828740999
N2870 Z-0.450000012
N2875 G1 Z-0.474999983 F10.
N2880 X1.53416333 Y2.828470941 Z-0.478910872
N2885 X1.534602803 Y2.827667456 Z-0.482725455
N2890 X1.535323222 Y2.82635033 Z-0.486349807
N2895 X1.536306847 Y2.824551994 Z-0.489694683
N2900 X1.537529459 Y2.822316731 Z-0.492677722
N2905 X1.538960951 Y2.81969958 Z-0.495225473
N2910 X1.540566076 Y2.816764985 Z-0.497275202
N2915 X1.542305309 Y2.813585206 Z-0.498776439
N2920 X1.544135824 Y2.810238539 Z-0.499692219
N2925 X1.546012548 Y2.80680739 Z-0.499999993
N2930 G3 X1.567118337 Y2.784209664 Z-0.499999992 I0.054663561 J0.029899417
N2935 G1 X1.572339216 Y2.781123664
N2940 X1.625489062 Y2.74857078
N2945 X1.63434742 Y2.742795569
N2950 X1.652063986 Y2.730023542
N2955 X1.660922343 Y2.723388972
N2960 X1.683038426 Y2.704500213
N2965 X1.696105416 Y2.694424907
N2970 X1.709127051 Y2.685958382
N2975 X1.725934697 Y2.676860179
N2980 X1.747171147 Y2.667483232
N2985 X1.775169072 Y2.657721812
N2990 X1.81289778 Y2.647881996
N2995 X1.851283096 Y2.641037168
N3000 X1.889979445 Y2.636254979
N3005 X1.928825979 Y2.632904653
N3010 X1.967745803 Y2.630553358
N3015 X2.006701522 Y2.628901925
N3020 X2.045675113 Y2.627740995
N3025 X2.084657264 Y2.626925191
N3030 X2.12364377 Y2.626351785
N3035 X2.162632529 Y2.625948688
N3040 X2.20162234 Y2.625665439
N3045 X2.240612601 Y2.625466595
N3050 X2.279603012 Y2.625327223
N3055 X2.357584435 Y2.625160518
N3060 X2.47455672 Y2.625055088
N3065 X2.644752142 Y2.625011534
N3070 X2.657196766 Y2.626353286
N3075 X2.669068584 Y2.630318769
N3080 X2.679821225 Y2.636725659
N3085 X2.688959377 Y2.64527869
N3090 X2.694196926 Y2.651360279
N3095 X2.697344802 Y2.654846071
N3100 X2.702700998 Y2.660216985
N3105 X2.70620301 Y2.663565508
N3110 X2.723919726 Y2.678842019
N3115 X2.777069572 Y2.724233913
N3120 X2.78592778 Y2.731098566
N3125 X2.792013874 Y2.735289326
N3130 G3 X2.800979314 Y2.76285577 I-0.014888433 J0.02008333
N3135 X2.776373015 Y2.780361326 I-0.023853873 J-0.007483114 F15.
N3140 G1 X1.699175647 Y2.74792078
N3145 G3 X1.676978464 Y2.732847319 I0.000752577 J-0.02498867
N3150 X1.683038426 Y2.704500213 I0.022949759 J-0.009915209 F10.
N3155 G1 X1.714147733 Y2.677930396
N3160 X1.731788755 Y2.662710655
N3165 X1.74271531 Y2.651360279
N3170 X1.750483325 Y2.642503874
N3175 X1.765611904 Y2.624790462
N3180 X1.77386817 Y2.616049399
N3185 X1.783189548 Y2.607647152
N3190 X1.794906226 Y2.598680211
N3195 X1.80928403 Y2.589405991
N3200 X1.827569646 Y2.579592607
N3205 X1.850824431 Y2.569424487
N3210 X1.880927199 Y2.559050913
N3215 X1.918691049 Y2.549346864
N3220 X1.957062999 Y2.542427844
N3225 X1.995738773 Y2.537481353
N3230 X2.034568336 Y2.533939392
N3235 X2.073476296 Y2.531400966
N3240 X2.112424655 Y2.529581325
N3245 X2.15139359 Y2.528277119
N3250 X2.190373188 Y2.527342669
N3255 X2.229358193 Y2.526673445
N3260 X2.268346051 Y2.526194655
N3265 X2.30733526 Y2.525852233
N3270 X2.346325221 Y2.525607432
N3275 X2.385315632 Y2.525432617
N3280 X2.463296905 Y2.525219054
N3285 X2.541278328 Y2.52511062
N3290 X2.565131 Y2.52535422
N3295 X2.576510812 Y2.526593546
N3300 X2.587429858 Y2.53003158
N3305 X2.597467017 Y2.535535857
N3310 X2.606235714 Y2.542894318
N3315 X2.613398935 Y2.551823413
N3320 X2.614777332 Y2.553937717
N3325 X2.626927293 Y2.571650828
N3330 X2.633572676 Y2.580507534
N3335 X2.679628087 Y2.634438342
N3340 X2.688959377 Y2.64527869
N3345 G3 X2.690629133 Y2.674218125 I-0.019501213 J0.015643262
N3350 X2.668876948 Y2.685915128 I-0.021170969 J-0.013296172 F15.
N3355 G1 X1.78459573 Y2.665346701
N3360 G3 X1.764060944 Y2.653736505 I0.000581366 J-0.024993176
N3365 X1.765611904 Y2.624790462 I0.021116152 J-0.013382979 F10.
N3370 G1 X1.803432224 Y2.580507534
N3375 X1.810072801 Y2.571650828
N3380 X1.822222612 Y2.553937717
N3385 X1.827997523 Y2.545081011
N3390 X1.832408004 Y2.538631169
N3395 X1.838782603 Y2.530750064
N3400 X1.847002525 Y2.522109925
N3405 X1.857647933 Y2.512583395
N3410 X1.87007859 Y2.503140667
N3415 X1.886293306 Y2.492763489
N3420 X1.905706961 Y2.48243437
N3425 X1.93083275 Y2.471555274
N3430 X1.96348716 Y2.460433329
N3435 X2.001285703 Y2.450865197
N3440 X2.03964684 Y2.443886554
N3445 X2.078302939 Y2.438788527
N3450 X2.117115231 Y2.435061688
N3455 X2.156010575 Y2.432336732
N3460 X2.194950524 Y2.43034513
N3465 X2.233914052 Y2.428890288
N3470 X2.272890346 Y2.427828481
N3475 X2.311873549 Y2.427054127
N3480 X2.350860205 Y2.426490333
N3485 X2.389848814 Y2.426080028
N3490 X2.428838475 Y2.425781761
N3495 X2.467828736 Y2.425598084
N3500 X2.506785355 Y2.426169388
N3505 X2.511356684 Y2.426605074
N3510 X2.523233309 Y2.429000674
N3515 X2.534359008 Y2.433798332
N3520 X2.544253792 Y2.440790642
N3525 X2.552490535 Y2.449676183
N3530 X2.558713898 Y2.460071684
N3535 X2.561179334 Y2.46537141
N3540 X2.573328394 Y2.48657602
N3545 X2.576439625 Y2.491941227
N3550 X2.609002421 Y2.545081011
N3555 X2.613398935 Y2.551823413
N3560 G3 X2.611211642 Y2.580728606 I-0.021405258 J0.012915604
N3565 X2.591746173 Y2.5897379 I-0.019217964 J-0.015989589 F15.
N3570 G1 X1.849509112 Y2.582389952
N3575 G3 X1.830994313 Y2.573913214 I0.000247505 J-0.024998883
N3580 X1.827997523 Y2.545081011 I0.018762303 J-0.016522145 F10.
N3585 G1 X1.86056032 Y2.491941227
N3590 X1.870746312 Y2.474227965
N3595 X1.875820761 Y2.46537141
N3600 X1.876499897 Y2.463897945
N3605 X1.879280721 Y2.458581249
N3610 X1.884327385 Y2.450655089
N3615 X1.890813722 Y2.442075174
N3620 X1.899476389 Y2.432349648
N3625 X1.909546139 Y2.422725347
N3630 X1.922290081 Y2.412368144
N3635 X1.93801174 Y2.40156384
N3640 X1.95747796 Y2.390372659
N3645 X1.981530527 Y2.379007565
N3650 X2.012608746 Y2.367271513
N3655 X2.050073278 Y2.356468711
N3660 X2.088224306 Y2.348420451
N3665 X2.126750495 Y2.342419362
N3670 X2.16548349 Y2.337944001
N3675 X2.204331375 Y2.334607642
N3680 X2.243242789 Y2.332122382
N3685 X2.282189647 Y2.330272855
N3690 X2.321156179 Y2.328898062
N3695 X2.360133674 Y2.32788176
N3700 X2.399118829 Y2.327216291
N3705 X2.438109541 Y2.32715066
N3710 X2.465280848 Y2.328916685
N3715 X2.474431766 Y2.330255283
N3720 X2.486647358 Y2.333421632
N3725 X2.497896209 Y2.339141125
N3730 X2.507651772 Y2.347145831
N3735 X2.515457634 Y2.357061341
N3740 X2.520948395 Y2.368423582
N3745 X2.523929866 Y2.376805253
N3750 X2.553279606 Y2.447658148
N3755 X2.557059461 Y2.456514854
N3760 X2.558713898 Y2.460071684
N3765 G3 X2.552446681 Y2.488373584 I-0.023021548 J0.009746852
N3770 X2.535839531 Y2.494818169 I-0.016754331 J-0.018555048 F15.
N3775 G1 X1.899702868 Y2.498563331
N3780 G3 X1.882866687 Y2.492177618 I-0.000147181 J-0.024999634
N3785 X1.876499897 Y2.463897945 I0.016689 J-0.01861392 F10.
N3790 G1 X1.879902787 Y2.456514854
N3795 X1.887386052 Y2.438801593
N3800 X1.90940136 Y2.385661809
N3805 X1.914813725 Y2.374246702
N3810 X1.920047219 Y2.365171027
N3815 X1.926315938 Y2.356075077
N3820 X1.934326052 Y2.346245473
N3825 X1.944907181 Y2.335204027
N3830 X1.956812641 Y2.324627704
N3835 X1.972418057 Y2.312862516
N3840 X1.990624375 Y2.301303984
N3845 X2.01399285 Y2.288979808
N3850 X2.043041319 Y2.276527675
N3855 X2.079995523 Y2.264091161
N3860 X2.117822902 Y2.25463747
N3865 X2.156145141 Y2.247448268
N3870 X2.194750778 Y2.241982137
N3875 X2.233519667 Y2.237828623
N3880 X2.272382871 Y2.234676842
N3885 X2.311301945 Y2.232313832
N3890 X2.350257964 Y2.230665853
N3895 X2.389245521 Y2.230171894
N3900 X2.419613065 Y2.231627186
N3905 X2.442812281 Y2.23461857
N3910 X2.452862657 Y2.236745639
N3915 X2.465307581 Y2.240886838
N3920 X2.476512729 Y2.247703883
N3925 X2.485911752 Y2.256851947
N3930 X2.493029166 Y2.267868613
N3935 X2.497505428 Y2.280197144
N3940 X2.512216193 Y2.34137873
N3945 X2.514491644 Y2.350235436
N3950 X2.520948395 Y2.368423582
N3955 G3 X2.512062403 Y2.396015558 I-0.023832246 J0.007551749
N3960 X2.497932704 Y2.400962049 I-0.014946254 J-0.020040227 F15.
N3965 G1 X1.9336346 Y2.419404158
N3970 G3 X1.916870658 Y2.413670547 I-0.000816555 J-0.024986718
N3975 X1.90940136 Y2.385661809 I0.015947387 J-0.019253108 F10.
N3980 G1 X1.91671777 Y2.367948547
N3985 X1.922563117 Y2.350235436
N3990 X1.924783752 Y2.34137873
N3995 X1.932354424 Y2.309937815
N4000 X1.934687847 Y2.301991981
N4005 X1.937780906 Y2.293921343
N4010 X1.941967611 Y2.28517232
N4015 X1.947815812 Y2.275114585
N4020 X1.95466004 Y2.26525945
N4025 X1.963693514 Y2.2542551
N4030 X1.975148419 Y2.242387336
N4035 X1.988291403 Y2.230795763
N4040 X2.005333788 Y2.218042959
N4045 X2.025171866 Y2.205548174
N4050 X2.050142814 Y2.192493349
N4055 X2.081564055 Y2.179157377
N4060 X2.118562713 Y2.166853627
N4065 X2.156365012 Y2.157300514
N4070 X2.194645048 Y2.149889938
N4075 X2.233212689 Y2.144161435
N4080 X2.27195935 Y2.13980442
N4085 X2.310828111 Y2.136723075
N4090 X2.349792991 Y2.135301275
N4095 X2.385152531 Y2.136136904
N4100 X2.409283345 Y2.138654754
N4105 X2.430335968 Y2.142579387
N4110 X2.442111068 Y2.145770666
N4115 X2.453232112 Y2.15004508
N4120 X2.463252601 Y2.156489815
N4125 X2.47175472 Y2.164836043
N4130 X2.478383733 Y2.174735632
N4135 X2.482863148 Y2.185775577
N4140 X2.485006137 Y2.197495408
N4145 X2.487307271 Y2.226242756
N4150 X2.488063452 Y2.235099312
N4155 X2.493090742 Y2.261669129
N4160 X2.493603624 Y2.263944881
N4165 X2.497505428 Y2.280197144
N4170 G3 X2.485746098 Y2.306692319 I-0.024498166 J0.004984187
N4175 X2.474445433 Y2.310139964 I-0.012738836 J-0.021510988 F15.
N4180 G1 X1.958290611 Y2.339880635
N4185 G3 X1.944113754 Y2.33643299 I-0.001438171 J-0.024958633
N4190 X1.932354424 Y2.309937815 I0.012738686 J-0.021510988 F10.
N4195 G1 X1.944388292 Y2.259813594
N4200 X1.945825712 Y2.252812573
N4205 X1.948955866 Y2.235099312
N4210 X1.949078417 Y2.233625848
N4215 X1.949874247 Y2.227678825
N4220 X1.951746002 Y2.21979757
N4225 X1.954371235 Y2.211699899
N4230 X1.958312087 Y2.202217072
N4235 X1.963303784 Y2.192491546
N4240 X1.969844338 Y2.181931443
N4245 X1.978534789 Y2.170133816
N4250 X1.988481987 Y2.158682515
N4255 X2.001824717 Y2.145608466
N4260 X2.016950142 Y2.133000291
N4265 X2.036576609 Y2.119149936
N4270 X2.059195211 Y2.10576936
N4275 X2.08792724 Y2.091753351
N4280 X2.124023137 Y2.077606982
N4285 X2.1613504 Y2.066339057
N4290 X2.199322107 Y2.057483253
N4295 X2.23771313 Y2.050670414
N4300 X2.276392058 Y2.045749905
N4305 X2.315273886 Y2.042836167
N4310 X2.354263095 Y2.042495097
N4315 X2.384163263 Y2.044583268
N4320 X2.406219873 Y2.047918275
N4325 X2.425270831 Y2.052387027
N4330 X2.44202336 Y2.057767252
N4335 X2.443654969 Y2.058439931
N4340 X2.453735982 Y2.063805888
N4345 X2.46257827 Y2.071033087
N4350 X2.469843166 Y2.079844587
N4355 X2.475251926 Y2.089902622
N4360 X2.478597446 Y2.100821668
N4365 X2.479751467 Y2.112183458
N4370 X2.479776247 Y2.119963338
N4375 X2.481037651 Y2.146533155
N4380 X2.481691706 Y2.155389711
N4385 X2.485006137 Y2.197495408
N4390 G3 X2.469247232 Y2.221825067 I-0.024976205 J0.001090943
N4395 G1 X2.465632468 Y2.222950427 F15.
N4400 X2.461889222 Y2.22351705
N4405 X1.975908655 Y2.259758777
N4410 G3 X1.964728889 Y2.258025492 I-0.001859139 J-0.024930849
N4415 X1.949078417 Y2.233625848 I0.009320627 J-0.023197565 F10.
N4420 G1 X1.951822446 Y2.199672789
N4425 X1.955308238 Y2.155389711
N4430 X1.956279334 Y2.147582948
N4435 X1.958072392 Y2.138918929
N4440 X1.960638151 Y2.130142873
N4445 X1.964509018 Y2.120006291
N4450 X1.969516033 Y2.109510317
N4455 X1.976108251 Y2.098141017
N4460 X1.984717151 Y2.085712763
N4465 X1.994890829 Y2.073288715
N4470 X2.008517558 Y2.059136638
N4475 X2.023603484 Y2.045798865
N4480 X2.04331766 Y2.031009404
N4485 X2.06608975 Y2.016628145
N4490 X2.094124471 Y2.001928044
N4495 X2.128507809 Y1.987285614
N4500 X2.16549145 Y1.974937109
N4505 X2.203259055 Y1.965247627
N4510 X2.241562971 Y1.957960805
N4515 X2.280238444 Y1.953012962
N4520 X2.31915932 Y1.950677436
N4525 X2.355226982 Y1.951341254
N4530 X2.383556066 Y1.954147759
N4535 X2.406143279 Y1.958236694
N4540 X2.424933066 Y1.963223735
N4545 X2.440613724 Y1.96876661
N4550 X2.44520683 Y1.970818287
N4555 X2.454922443 Y1.976329773
N4560 X2.463409544 Y1.983591966
N4565 X2.470356799 Y1.992338736
N4570 X2.475509493 Y2.00224944
N4575 X2.478678546 Y2.012960479
N4580 X2.479748013 Y2.02407927
N4585 X2.479751467 Y2.112183458
N4590 G3 X2.462205061 Y2.13525727 I-0.024987469 J-0.000793127
N4595 G1 X2.459690557 Y2.135900127 F15.
N4600 X2.457122953 Y2.136278828
N4605 X1.982648354 Y2.181248402
N4610 G3 X1.971184738 Y2.179643075 I-0.002358955 J-0.024888497
N4615 X1.955308238 Y2.155389711 I0.009104661 J-0.02328317 F10.
N4620 G1 X1.955962444 Y2.146533155
N4625 X1.957223847 Y2.119963338
N4630 X1.957251932 Y2.093393371
N4635 Y2.07568026
N4640 X1.957552001 Y2.069687731
N4645 X1.958694007 Y2.061523528
N4650 X1.960816871 Y2.052000902
N4655 X1.963791134 Y2.042374348
N4660 X1.968258685 Y2.031189626
N4665 X1.973855326 Y2.019903829
N4670 X1.981399266 Y2.007338606
N4675 X1.990757739 Y1.9942587
N4680 X2.002406834 Y1.980467368
N4685 X2.016928365 Y1.965838755
N4690 X2.034193625 Y1.951037129
N4695 X2.055023073 Y1.935901642
N4700 X2.080758613 Y1.920192448
N4705 X2.110132232 Y1.90535673
N4710 X2.144862648 Y1.891187983
N4715 X2.182030265 Y1.879404624
N4720 X2.219973286 Y1.870426418
N4725 X2.258452618 Y1.864131417
N4730 X2.297278727 Y1.860553111
N4735 X2.33488143 Y1.859950268
N4740 X2.367545601 Y1.862054059
N4745 X2.393735 Y1.865869207
N4750 X2.414482597 Y1.870617904
N4755 X2.432845258 Y1.876405731
N4760 X2.443359405 Y1.880674738
N4765 X2.45353894 Y1.886031984
N4770 X2.462469236 Y1.893282612
N4775 X2.469803067 Y1.902144875
N4780 X2.47525538 Y1.912273797
N4785 X2.478613816 Y1.923275895
N4790 X2.479748013 Y1.934722991
N4795 Y2.02407927
N4800 G3 X2.462128316 Y2.047097214 I-0.024984765 J-0.000872574
N4805 G1 X2.45982567 Y2.047688807 F15.
N4810 X2.457477239 Y2.048058998
N4815 X1.984950689 Y2.099659987
N4820 G3 X1.974871628 Y2.098698203 I-0.002713992 J-0.024852302
N4825 X1.957251932 Y2.07568026 I0.007365069 J-0.023890518 F10.
N4830 G1 Y1.995970658
N4835 X1.957844712 Y1.984130229
N4840 X1.959001586 Y1.975306714
N4845 X1.960973214 Y1.966088212
N4850 X1.964200087 Y1.955315748
N4855 X1.968402562 Y1.944525411
N4860 X1.974433238 Y1.932096256
N4865 X1.981874 Y1.919457293
N4870 X1.991610489 Y1.905597927
N4875 X2.003362611 Y1.891438642
N4880 X2.018145914 Y1.876287385
N4885 X2.035455629 Y1.861186591
N4890 X2.057263832 Y1.845050722
N4895 X2.081231846 Y1.830135105
N4900 X2.110397008 Y1.815087626
N4905 X2.144371393 Y1.800884337
N4910 X2.181435983 Y1.788780933
N4915 X2.219325389 Y1.779578952
N4920 X2.257794958 Y1.773225529
N4925 X2.296632031 Y1.769765719
N4930 X2.332917011 Y1.769364425
N4935 X2.366453756 Y1.77169154
N4940 X2.393801081 Y1.775814267
N4945 X2.414571957 Y1.780676804
N4950 X2.43301737 Y1.786591688
N4955 X2.443627485 Y1.790961168
N4960 X2.453740188 Y1.796342144
N4965 X2.462606205 Y1.803595626
N4970 X2.469883866 Y1.812441969
N4975 X2.475292476 Y1.822539803
N4980 X2.478623278 Y1.833499999
N4985 X2.479748013 Y1.844899786
N4990 Y1.934722991
N4995 G3 X2.462128316 Y1.957740934 I-0.024984765 J-0.000872424
N5000 G1 X2.460071735 Y1.958280363 F15.
N5005 X2.457976754 Y1.958643095
N5010 X1.985450354 Y2.019890763
N5015 G3 X1.974871628 Y2.018988602 I-0.003213657 J-0.024792679
N5020 X1.957251932 Y1.995970658 I0.007365069 J-0.023890518 F10.
N5025 G1 Y1.907404502
N5030 X1.95785162 Y1.895426653
N5035 X1.959039283 Y1.886367347
N5040 X1.961052512 Y1.876955107
N5045 X1.964367994 Y1.865886778
N5050 X1.968699177 Y1.854766185
N5055 X1.974858862 Y1.842070902
N5060 X1.982378321 Y1.829297974
N5065 X1.992339788 Y1.815118564
N5070 X2.004181569 Y1.800851296
N5075 X2.019347544 Y1.785307757
N5080 X2.036648998 Y1.770214171
N5085 X2.058756821 Y1.753856629
N5090 X2.082980599 Y1.738781967
N5095 X2.111894653 Y1.723863947
N5100 X2.145431699 Y1.709843433
N5105 X2.182496289 Y1.697740029
N5110 X2.220404017 Y1.688613892
N5115 X2.258897917 Y1.682409151
N5120 X2.297753612 Y1.679166358
N5125 X2.334048955 Y1.679002957
N5130 X2.367622345 Y1.681553998
N5135 X2.394913801 Y1.68585154
N5140 X2.415642926 Y1.690847892
N5145 X2.433985613 Y1.696862799
N5150 X2.44398072 Y1.701055962
N5155 X2.454005114 Y1.706467426
N5160 X2.462786427 Y1.713724061
N5165 X2.469990047 Y1.722548928
N5170 X2.475341136 Y1.732605611
N5175 X2.478635743 Y1.743510539
N5180 X2.479748013 Y1.754847699
N5185 Y1.844899786
N5190 G3 X2.462128316 Y1.867917879 I-0.024984765 J-0.000872424
N5195 G1 X2.460103698 Y1.868450308 F15.
N5200 X2.458041634 Y1.86881148
N5205 X1.985515084 Y1.931316045
N5210 G3 X1.974871628 Y1.930422445 I-0.003278387 J-0.024784118
N5215 X1.957251932 Y1.907404502 I0.007365069 J-0.023890518 F10.
N5220 G1 Y1.813967097
N5225 X1.957668094 Y1.805655412
N5230 X1.958877383 Y1.796431354
N5235 X1.960899023 Y1.786979165
N5240 X1.964231476 Y1.775854366
N5245 X1.968638503 Y1.764538833
N5250 X1.974798488 Y1.751842949
N5255 X1.982480447 Y1.738794282
N5260 X1.992441913 Y1.724614872
N5265 X2.004457309 Y1.710138396
N5270 X2.019623133 Y1.694594856
N5275 X2.0370563 Y1.679386529
N5280 X2.059246874 Y1.662967712
N5285 X2.083352307 Y1.64796679
N5290 X2.112188264 Y1.63308902
N5295 X2.145529019 Y1.619150657
N5300 X2.182593608 Y1.607047104
N5305 X2.220509747 Y1.597956259
N5310 X2.259017764 Y1.591839377
N5315 X2.297882471 Y1.58870697
N5320 X2.334255459 Y1.588632929
N5325 X2.367779739 Y1.591263418
N5330 X2.395147188 Y1.59564206
N5335 X2.415921369 Y1.600703743
N5340 X2.434309111 Y1.606783679
N5345 X2.444113333 Y1.610925029
N5350 X2.454104386 Y1.616347906
N5355 X2.46285401 Y1.623605443
N5360 X2.470029846 Y1.632422199
N5365 X2.475359459 Y1.642463264
N5370 X2.478640399 Y1.653347316
N5375 X2.479748013 Y1.664661047
N5380 Y1.754847699
N5385 G3 X2.462128316 Y1.777865793 I-0.024984765 J-0.000872424
N5390 G1 X2.460017647 Y1.778416904 F15.
N5395 X2.457866969 Y1.778781921
N5400 X1.985340419 Y1.837901168
N5405 G3 X1.974871628 Y1.83698504 I-0.003103722 J-0.024806496
N5410 X1.957251932 Y1.813967097 I0.007365069 J-0.023890368 F10.
N5415 G1 Y1.721415482
N5420 X1.95755921 Y1.715278025
N5425 X1.958775558 Y1.706000651
N5430 X1.960802304 Y1.696524432
N5435 X1.96413716 Y1.685391824
N5440 X1.968576326 Y1.673993689
N5445 X1.974736311 Y1.661297806
N5450 X1.982457319 Y1.648182907
N5455 X1.992418635 Y1.634003497
N5460 X2.004473529 Y1.619479412
N5465 X2.019639503 Y1.603936023
N5470 X2.037086036 Y1.588715681
N5475 X2.059284871 Y1.572290856
N5480 X2.083324372 Y1.557330935
N5485 X2.112064211 Y1.542502726
N5490 X2.145251176 Y1.528628642
N5495 X2.182101152 Y1.516595375
N5500 X2.220017591 Y1.507505582
N5505 X2.258528912 Y1.501409576
N5510 X2.297395721 Y1.498304202
N5515 X2.33390688 Y1.498244278
N5520 X2.367451435 Y1.500889635
N5525 X2.394976729 Y1.505304622
N5530 X2.415833811 Y1.51039514
N5535 X2.434288836 Y1.516505414
N5540 X2.444134509 Y1.520668991
N5545 X2.454120306 Y1.526093521
N5550 X2.462864823 Y1.533351207
N5555 X2.470036154 Y1.542166612
N5560 X2.475362312 Y1.552205273
N5565 X2.47864115 Y1.563086022
N5570 X2.479748013 Y1.574395998
N5575 Y1.664661047
N5580 G3 X2.462128316 Y1.687679141 I-0.024984765 J-0.000872424
N5585 G1 X2.459957344 Y1.688243067 F15.
N5590 X2.457744568 Y1.688610137
N5595 X1.985218018 Y1.745364572
N5600 G3 X1.974871628 Y1.744433426 I-0.002981321 J-0.024821664
N5605 X1.957251932 Y1.721415482 I0.007365069 J-0.023890518 F10.
N5610 G1 Y1.632849325
N5615 X1.957668094 Y1.624538392
N5620 X1.958883391 Y1.615268827
N5625 X1.960909235 Y1.605796514
N5630 X1.964243941 Y1.594664506
N5635 X1.968679203 Y1.583276433
N5640 X1.974839188 Y1.57058055
N5645 X1.982548331 Y1.557485625
N5650 X1.992509797 Y1.543306216
N5655 X2.004537808 Y1.528814421
N5660 X2.019703782 Y1.513271031
N5665 X2.037093095 Y1.498100701
N5670 X2.059229603 Y1.481721983
N5675 X2.083234862 Y1.466783238
N5680 X2.111859509 Y1.452014653
N5685 X2.144930832 Y1.438188928
N5690 X2.181670722 Y1.426191405
N5695 X2.219587161 Y1.417101612
N5700 X2.258099083 Y1.411010111
N5705 X2.296966493 Y1.407910294
N5710 X2.333575872 Y1.407851572
N5715 X2.367175095 Y1.410502637
N5720 X2.394818434 Y1.414937748
N5725 X2.41573559 Y1.420043735
N5730 X2.434232216 Y1.426168577
N5735 X2.444136612 Y1.430357385
N5740 X2.454121807 Y1.435782215
N5745 X2.462865875 Y1.443039902
N5750 X2.470036905 Y1.451855156
N5755 X2.475362613 Y1.461893517
N5760 X2.47864115 Y1.472773965
N5765 X2.479748013 Y1.484083641
N5770 Y1.574395998
N5775 G3 X2.462128316 Y1.597413942 I-0.024984765 J-0.000872424
N5780 G1 X2.460000633 Y1.597968734 F15.
N5785 X2.457832427 Y1.598334425
N5790 X1.985305876 Y1.656787602
N5795 G3 X1.974871628 Y1.655867269 I-0.003069179 J-0.024810851
N5800 X1.957251932 Y1.632849325 I0.007365069 J-0.023890518 F10.
N5805 G1 Y1.544283018
N5810 X1.957775026 Y1.533836154
N5815 X1.958988971 Y1.524576653
N5820 X1.961013764 Y1.515109445
N5825 X1.96434802 Y1.50397909
N5830 X1.96877427 Y1.492613995
N5835 X1.974934255 Y1.479918112
N5840 X1.982626877 Y1.466851272
N5845 X1.992588193 Y1.452671862
N5850 X2.004581061 Y1.43822257
N5855 X2.019747036 Y1.42267918
N5860 X2.037075373 Y1.407562166
N5865 X2.059157664 Y1.391223397
N5870 X2.083140095 Y1.376298919
N5875 X2.111683342 Y1.361572236
N5880 X2.14468543 Y1.347775497
N5885 X2.181373056 Y1.335795095
N5890 X2.219289494 Y1.326705302
N5895 X2.257801717 Y1.320615303
N5900 X2.296669277 Y1.317517438
N5905 X2.333345038 Y1.317458115
N5910 X2.366986012 Y1.320112033
N5915 X2.394708198 Y1.324559309
N5920 X2.415664853 Y1.329674758
N5925 X2.434188212 Y1.335808011
N5930 X2.444135861 Y1.340014991
N5935 X2.454121207 Y1.345439671
N5940 X2.462865424 Y1.352697508
N5945 X2.470036604 Y1.361512762
N5950 X2.475362613 Y1.371551273
N5955 X2.47864115 Y1.382431721
N5960 X2.479748013 Y1.393741548
N5965 Y1.484083641
N5970 G3 X2.462128316 Y1.507101585 I-0.024984765 J-0.000872574
N5975 G1 X2.460045096 Y1.507646766 F15.
N5980 X2.457922688 Y1.508010654
N5985 X1.985396137 Y1.568210181
N5990 G3 X1.974871628 Y1.567301112 I-0.00315944 J-0.024799587
N5995 X1.957251932 Y1.544283018 I0.007365069 J-0.023890518 F10.
N6000 G1 Y1.455716862
N6005 X1.957879104 Y1.443191288
N6010 X1.959091397 Y1.433944402
N6015 X1.961114989 Y1.424482751
N6020 X1.964448493 Y1.413354799
N6025 X1.968865282 Y1.402014034
N6030 X1.975025267 Y1.389318151
N6035 X1.982701069 Y1.376279846
N6040 X1.992662535 Y1.362100286
N6045 X2.004624164 Y1.34768854
N6050 X2.019790139 Y1.33214515
N6055 X2.037070117 Y1.317070338
N6060 X2.059112609 Y1.300761005
N6065 X2.083080772 Y1.285845389
N6070 X2.111568 Y1.27114769
N6075 X2.144524432 Y1.257370025
N6080 X2.181179167 Y1.245400361
N6085 X2.219095606 Y1.236310568
N6090 X2.257607978 Y1.230221245
N6095 X2.296475538 Y1.227124432
N6100 X2.333194402 Y1.227064508
N6105 X2.366863161 Y1.229720003
N6110 X2.394636109 Y1.234175014
N6115 X2.415618446 Y1.239296245
N6120 X2.434158626 Y1.245434829
N6125 X2.44413496 Y1.249653749
N6130 X2.454120606 Y1.255078353
N6135 X2.462864973 Y1.26233604
N6140 X2.470036304 Y1.271151445
N6145 X2.475362462 Y1.281190106
N6150 X2.47864115 Y1.292070704
N6155 X2.479748013 Y1.303380681
N6160 Y1.393741548
N6165 G3 X2.462128316 Y1.416759491 I-0.024984765 J-0.000872574
N6170 G1 X2.460090231 Y1.417294862 F15.
N6175 X2.4580143 Y1.417656696
N6180 X1.9854879 Y1.47963216
N6185 G3 X1.974871628 Y1.478734955 I-0.003251203 J-0.024787723
N6190 X1.957251932 Y1.455716862 I0.007365069 J-0.023890518 F10.
N6195 G1 Y1.358294149
N6200 X1.957552001 Y1.35230162
N6205 X1.958838335 Y1.342979341
N6210 X1.96095399 Y1.333405052
N6215 X1.964411548 Y1.32213998
N6220 X1.968932415 Y1.310760468
N6225 X1.975283585 Y1.297892923
N6230 X1.983072626 Y1.284864381
N6235 X1.993313136 Y1.270495437
N6240 X2.005395364 Y1.256137082
N6245 X2.020967288 Y1.240391919
N6250 X2.038370568 Y1.225415628
N6255 X2.060630378 Y1.209177408
N6260 X2.085220307 Y1.194104548
N6265 X2.113824529 Y1.179590526
N6270 X2.146969442 Y1.165996536
N6275 X2.183881144 Y1.154218584
N6280 X2.221858257 Y1.145385457
N6285 X2.26040337 Y1.139507219
N6290 X2.299286549 Y1.136613455
N6295 X2.335685219 Y1.136781437
N6300 X2.369334003 Y1.139647041
N6305 X2.396496149 Y1.144178345
N6310 X2.41715634 Y1.149357998
N6315 X2.435360255 Y1.155511751
N6320 X2.444470323 Y1.159431503
N6325 X2.454371715 Y1.164884042
N6330 X2.463035583 Y1.172143831
N6335 X2.470136778 Y1.180938285
N6340 X2.475408569 Y1.190937147
N6345 X2.478652864 Y1.20176503
N6350 X2.479748013 Y1.213015309
N6355 Y1.303380681
N6360 G3 X2.462128316 Y1.326398624 I-0.024984765 J-0.000872574
N6365 G1 X2.459910373 Y1.326972553 F15.
N6370 X2.457649201 Y1.327341035
N6375 X1.985122651 Y1.382254503
N6380 G3 X1.974871628 Y1.381312092 I-0.002885954 J-0.024832928
N6385 X1.957251932 Y1.358294149 I0.007365069 J-0.023890518 F10.
N6390 G1 Y1.269727992
N6395 X1.957623489 Y1.262305703
N6400 X1.958840738 Y1.253021721
N6405 X1.96086433 Y1.243560145
N6410 X1.964146622 Y1.232603178
N6415 X1.968638803 Y1.221068975
N6420 X1.974696963 Y1.208582901
N6425 X1.982525653 Y1.195284926
N6430 X1.992310201 Y1.181357376
N6435 X2.004460012 Y1.166718926
N6440 X2.019324565 Y1.151484242
N6445 X2.03684574 Y1.136199095
N6450 X2.058802177 Y1.119953441
N6455 X2.082551521 Y1.105174042
N6460 X2.111293462 Y1.090344857
N6465 X2.144438376 Y1.076488345
N6470 X2.180901625 Y1.064581233
N6475 X2.218818064 Y1.055491515
N6480 X2.257335993 Y1.049438462
N6485 X2.296206106 Y1.046373037
N6490 X2.333289319 Y1.04630688
N6495 X2.366719133 Y1.048938496
N6500 X2.39447406 Y1.053386298
N6505 X2.415531489 Y1.058522547
N6510 X2.434128438 Y1.064676901
N6515 X2.44412685 Y1.06890333
N6520 X2.454114599 Y1.074327259
N6525 X2.462860918 Y1.081584945
N6530 X2.470033901 Y1.090400801
N6535 X2.475361261 Y1.100440288
N6540 X2.478640849 Y1.111322238
N6545 X2.479748013 Y1.122633641
N6550 Y1.213015309
N6555 G3 X2.462128316 Y1.236033327 I-0.024984765 J-0.000872424
N6560 G1 X2.459956238 Y1.236597541 F15.
N6565 X2.457742316 Y1.236964699
N6570 X1.985215915 Y1.293677232
N6575 G3 X1.974871628 Y1.292745936 I-0.002979218 J-0.024821815
N6580 X1.957251932 Y1.269727992 I0.007365069 J-0.023890518 F10.
N6585 G1 Y1.18116176
N6590 X1.957722461 Y1.171764464
N6595 X1.958933703 Y1.162525237
N6600 X1.960956694 Y1.15306689
N6605 X1.964289147 Y1.141942392
N6610 X1.968695423 Y1.130628511
N6615 X1.974855558 Y1.117932628
N6620 X1.982493663 Y1.104958226
N6625 X1.99245513 Y1.090778816
N6630 X2.004394081 Y1.076394404
N6635 X2.019560055 Y1.060850939
N6640 X2.03683718 Y1.045778605
N6645 X2.058846331 Y1.029494053
N6650 X2.082803982 Y1.014584969
N6655 X2.111204853 Y0.999931726
N6660 X2.144056606 Y0.986197764
N6665 X2.180620929 Y0.974257612
N6670 X2.218537368 Y0.965167894
N6675 X2.257048689 Y0.959072263
N6680 X2.295915048 Y0.95595908
N6685 X2.332734987 Y0.955876553
N6690 X2.366457661 Y0.958515603
N6695 X2.394356615 Y0.962973392
N6700 X2.415410139 Y0.968098453
N6705 X2.434001983 Y0.974241542
N6710 X2.44410222 Y0.978505593
N6715 X2.454096126 Y0.983927494
N6720 X2.462848303 Y0.991184956
N6725 X2.470026542 Y1.000002388
N6730 X2.475357957 Y1.010044729
N6735 X2.478639948 Y1.020930583
N6740 X2.479748013 Y1.032246267
N6745 Y1.122633641
N6750 G3 X2.462128316 Y1.145651585 I-0.024984765 J-0.000872499
N6755 G1 X2.460002555 Y1.146205943 F15.
N6760 X2.457836331 Y1.146571542
N6765 X1.985309781 Y1.205099662
N6770 G3 X1.974871628 Y1.204179704 I-0.003073084 J-0.024810401
N6775 X1.957251932 Y1.18116176 I0.007365069 J-0.023890443 F10.
N6780 G1 Y1.092595528
N6785 X1.957819931 Y1.081251535
N6790 X1.959029671 Y1.072023497
N6795 X1.961051761 Y1.062569806
N6800 X1.964383764 Y1.051446284
N6805 X1.968787486 Y1.040139236
N6810 X1.974947471 Y1.027443353
N6815 X1.982600145 Y1.014444471
N6820 X1.992561611 Y1.000265061
N6825 X2.004476232 Y0.98590986
N6830 X2.019642207 Y0.970366395
N6835 X2.036841535 Y0.955361944
N6840 X2.058809836 Y0.93910758
N6845 X2.082756223 Y0.924205555
N6850 X2.111152439 Y0.909554789
N6855 X2.144047144 Y0.895802806
N6860 X2.180688362 Y0.883837572
N6865 X2.218604801 Y0.874747779
N6870 X2.257116273 Y0.868653125
N6875 X2.295983232 Y0.865547976
N6880 X2.33279431 Y0.865476188
N6885 X2.36653756 Y0.868126877
N6890 X2.394429304 Y0.872591875
N6895 X2.415469913 Y0.877720315
N6900 X2.434049291 Y0.883865356
N6905 X2.444117989 Y0.88811957
N6910 X2.45410784 Y0.893542748
N6915 X2.462856413 Y0.90080036
N6920 X2.470031198 Y0.909616816
N6925 X2.475360059 Y0.919657279
N6930 X2.478640549 Y0.930540656
N6935 X2.479748013 Y0.941853561
N6940 Y1.032246267
N6945 G3 X2.462128316 Y1.055264285 I-0.024984765 J-0.000872424
N6950 G1 X2.460048944 Y1.055808645 F15.
N6955 X2.457930497 Y1.056172378
N6960 X1.985403947 Y1.11652164
N6965 G3 X1.974871628 Y1.115613547 I-0.00316725 J-0.024798611
N6970 X1.957251932 Y1.092595528 I0.007365069 J-0.023890518 F10.
N6975 G1 Y0.999158198
N6980 X1.957661486 Y0.990976799
N6985 X1.958873629 Y0.981731565
N6990 X1.96089722 Y0.97227074
N6995 X1.964229974 Y0.961144965
N7000 X1.968639854 Y0.949821998
N7005 X1.97479984 Y0.937126115
N7010 X1.982461374 Y0.92411199
N7015 X1.99242284 Y0.909932504
N7020 X2.004348274 Y0.895564462
N7025 X2.019514249 Y0.880020998
N7030 X2.036733402 Y0.864999125
N7035 X2.058727084 Y0.848726137
N7040 X2.082680229 Y0.833819832
N7045 X2.111107984 Y0.819152772
N7050 X2.144023715 Y0.805392078
N7055 X2.180661479 Y0.79342797
N7060 X2.218577918 Y0.784338178
N7065 X2.25708969 Y0.778245926
N7070 X2.29595695 Y0.775143856
N7075 X2.3327862 Y0.775073044
N7080 X2.366522842 Y0.777724183
N7085 X2.394420143 Y0.782190834
N7090 X2.415466459 Y0.787321226
N7095 X2.434049892 Y0.79346822
N7100 X2.445412884 Y0.798269557
N7105 X2.455783303 Y0.80395293
N7110 X2.464794399 Y0.811610935
N7115 X2.472075965 Y0.820929009
N7120 X2.477328533 Y0.831524106
N7125 X2.480336287 Y0.842960913
N7130 X2.480975774 Y0.854769279
N7135 X2.479776247 Y0.880036692
N7140 X2.479748013 Y0.906606584
N7145 Y0.941853561
N7150 G3 X2.462128316 Y0.964871579 I-0.024984765 J-0.000872424
N7155 G1 X2.459971406 Y0.965432586 F15.
N7160 X2.457773103 Y0.965799272
N7165 X1.985246553 Y1.023103909
N7170 G3 X1.974871628 Y1.022176217 I-0.003009856 J-0.024818135
N7175 X1.957251932 Y0.999158198 I0.007365069 J-0.023890443 F10.
N7180 G1 Y0.906606584
N7185 X1.957552001 Y0.900614055
N7190 X1.958764294 Y0.891368596
N7195 X1.960787886 Y0.881907546
N7200 X1.96412109 Y0.87078102
N7205 X1.968532622 Y0.859454448
N7210 X1.974692908 Y0.846758189
N7215 X1.982357596 Y0.833739258
N7220 X1.992319513 Y0.819559473
N7225 X2.004252606 Y0.805182419
N7230 X2.019419332 Y0.789638579
N7235 X2.036651251 Y0.774606119
N7240 X2.058653494 Y0.758327049
N7245 X2.082610093 Y0.743419092
N7250 X2.111046108 Y0.728748201
N7255 X2.143965744 Y0.714986381
N7260 X2.180603057 Y0.703022949
N7265 X2.218519646 Y0.693933682
N7270 X2.257031568 Y0.68784143
N7275 X2.295898678 Y0.68473876
N7280 X2.332741895 Y0.684666221
N7285 X2.366483193 Y0.687316008
N7290 X2.394853277 Y0.691857
N7295 X2.4162309 Y0.697067141
N7300 X2.435122512 Y0.703315134
N7305 X2.450622949 Y0.709863948
N7310 X2.456480612 Y0.712914054
N7315 X2.466040033 Y0.719150859
N7320 X2.474201833 Y0.727129733
N7325 X2.480653778 Y0.736545277
N7330 X2.485148813 Y0.747036896
N7335 X2.487514676 Y0.758202996
N7340 X2.487660806 Y0.769616074
N7345 X2.485177648 Y0.800327166
N7350 X2.481691706 Y0.844610244
N7355 X2.481037651 Y0.853466875
N7360 X2.480975774 Y0.854769279
N7365 G3 X2.462284358 Y0.876925836 I-0.02491538 J-0.002056332
N7370 G1 X2.458840618 Y0.87755789 F15.
N7375 X1.98501692 Y0.930579028
N7380 G3 X1.974871628 Y0.929624527 I-0.002780223 J-0.024844943
N7385 X1.957251932 Y0.906606584 I0.007365069 J-0.023890443 F10.
N7390 G1 X1.957223847 Y0.880036692
N7395 X1.955962444 Y0.853466875
N7400 X1.955308238 Y0.844610244
N7405 X1.953913921 Y0.826896983
N7410 X1.953742711 Y0.820899423
N7415 X1.954162928 Y0.812876243
N7420 X1.955434093 Y0.803351815
N7425 X1.957538785 Y0.793620658
N7430 X1.960918096 Y0.782433607
N7435 X1.965549649 Y0.770621938
N7440 X1.971774064 Y0.757868234
N7445 X1.979744678 Y0.74440025
N7450 X1.98980001 Y0.730157086
N7455 X2.002113973 Y0.715390228
N7460 X2.017420371 Y0.69977505
N7465 X2.035093082 Y0.684429154
N7470 X2.057459674 Y0.667959874
N7475 X2.081700122 Y0.652952119
N7480 X2.1105529 Y0.638149967
N7485 X2.143832079 Y0.624327322
N7490 X2.180791239 Y0.612352439
N7495 X2.218728554 Y0.603350129
N7500 X2.257249937 Y0.597318514
N7505 X2.296120801 Y0.59426135
N7510 X2.333242161 Y0.59422065
N7515 X2.36723622 Y0.596920224
N7520 X2.397280115 Y0.601756066
N7525 X2.421079921 Y0.607578548
N7530 X2.439878869 Y0.613814039
N7535 X2.456346947 Y0.620788664
N7540 X2.47098322 Y0.628426319
N7545 X2.477641519 Y0.632612874
N7550 X2.487149877 Y0.640069706
N7555 X2.494917742 Y0.649325679
N7560 X2.500612004 Y0.659983477
N7565 X2.503988311 Y0.671585789
N7570 X2.504901586 Y0.683634826
N7575 X2.503312779 Y0.695613576
N7580 X2.493603624 Y0.736055149
N7585 X2.493090742 Y0.738330826
N7590 X2.488063452 Y0.764900643
N7595 X2.487660806 Y0.769616074
N7600 G3 X2.468146827 Y0.791051594 I-0.024819862 J-0.002994988
N7605 G1 X2.465786971 Y0.791446956 F15.
N7610 X1.981699185 Y0.848892317
N7615 X1.978884355 Y0.849066164
N7620 X1.976067854 Y0.848921875
N7625 X1.973285525 Y0.848461286
N7630 G3 X1.953913921 Y0.826896983 I0.005467633 J-0.024394764 F10.
N7635 G1 X1.950407103 Y0.782613904
N7640 X1.948955866 Y0.764900643
N7645 X1.947390789 Y0.756044087
N7650 X1.946154016 Y0.746192482
N7655 X1.945813998 Y0.738563613
N7660 X1.946123679 Y0.729920245
N7665 X1.947195699 Y0.720732081
N7670 X1.949310903 Y0.710105596
N7675 X1.952379632 Y0.699304821
N7680 X1.957082824 Y0.686702052
N7685 X1.962949648 Y0.674159283
N7690 X1.971093125 Y0.659865582
N7695 X1.980603286 Y0.645910849
N7700 X1.993316741 Y0.630142407
N7705 X2.007630566 Y0.615048822
N7710 X2.025961989 Y0.598591895
N7715 X2.047112232 Y0.582472546
N7720 X2.071711923 Y0.566674293
N7725 X2.101076381 Y0.550991344
N7730 X2.134230756 Y0.53657374
N7735 X2.169672448 Y0.524439962
N7740 X2.207455823 Y0.514812019
N7745 X2.245871927 Y0.508142531
N7750 X2.284678662 Y0.50435911
N7755 X2.323659912 Y0.50349213
N7760 X2.360531814 Y0.505537611
N7765 X2.39263084 Y0.509922411
N7770 X2.421981781 Y0.516365907
N7775 X2.445738635 Y0.523622393
N7780 X2.464420739 Y0.531014758
N7785 X2.481282452 Y0.539308758
N7790 X2.494895665 Y0.547422274
N7795 X2.503989663 Y0.553884656
N7800 X2.513640246 Y0.56252044
N7805 X2.521128617 Y0.573086326
N7810 X2.526079313 Y0.585052986
N7815 X2.528244679 Y0.597821033
N7820 X2.527515982 Y0.610750829
N7825 X2.523929866 Y0.623194777
N7830 X2.514491644 Y0.649764594
N7835 X2.512216193 Y0.658621225
N7840 X2.503312779 Y0.695613576
N7845 G3 X2.482249793 Y0.713748481 I-0.024090714 J-0.006681052
N7850 G1 X2.480810871 Y0.713924123
N7855 X1.974870276 Y0.775653208 F15.
N7860 X1.971808421 Y0.775837179
N7865 X1.968747086 Y0.775644798
N7870 G3 X1.947390789 Y0.756044087 I0.003095462 J-0.024807622 F10.
N7875 G1 X1.945825712 Y0.747187457
N7880 X1.944388292 Y0.740186361
N7885 X1.931184934 Y0.685191117
N7890 X1.929486342 Y0.676161248
N7895 X1.928638398 Y0.668160371
N7900 X1.928426938 Y0.659787186
N7905 X1.928971208 Y0.649918984
N7910 X1.930347953 Y0.639815744
N7915 X1.932939695 Y0.627991834
N7920 X1.936587987 Y0.616033847
N7925 X1.942008462 Y0.602322263
N7930 X1.948717373 Y0.588671542
N7935 X1.957940079 Y0.573185898
N7940 X1.968637451 Y0.558122012
N7945 X1.982780366 Y0.541257032
N7950 X1.998945371 Y0.524856913
N7955 X2.018802823 Y0.507710111
N7960 X2.042876116 Y0.490086661
N7965 X2.068863816 Y0.474096621
N7970 X2.09958099 Y0.458445098
N7975 X2.134626193 Y0.444002564
N7980 X2.171751758 Y0.432087267
N7985 X2.190713807 Y0.427558366
N7990 X2.200269474 Y0.425632807
N7995 X2.205060824 Y0.424740371
N8000 X2.243439532 Y0.417858559
N8005 X2.282225992 Y0.41387175
N8010 X2.321200033 Y0.412732335
N8015 X2.360149894 Y0.414520286
N8020 X2.395561999 Y0.418938239
N8025 X2.42750318 Y0.425561469
N8030 X2.456317361 Y0.433997169
N8035 X2.479769038 Y0.442962459
N8040 X2.498078985 Y0.451705512
N8045 X2.514372548 Y0.461161118
N8050 X2.527367299 Y0.470169548
N8055 X2.539683665 Y0.480262764
N8060 X2.542150903 Y0.482640116
N8065 X2.549728033 Y0.491575369
N8070 X2.555367177 Y0.501844564
N8075 X2.558840654 Y0.513033491
N8080 X2.560007891 Y0.524690771
N8085 X2.558822632 Y0.536346248
N8090 X2.555331733 Y0.547529769
N8095 X2.553279606 Y0.552341844
N8100 X2.523929866 Y0.623194777
N8105 G3 X2.504167181 Y0.637648049 I-0.022748812 J-0.010367716
N8110 G1 X2.498870159 Y0.638285284
N8115 X1.958259522 Y0.703323094 F15.
N8120 X1.955981393 Y0.703492037
N8125 X1.953697355 Y0.703452328
N8130 G3 X1.931184934 Y0.685191117 I0.001576041 J-0.024950298 F10.
N8135 G1 X1.924783752 Y0.658621225
N8140 X1.922563117 Y0.649764594
N8145 X1.91671777 Y0.632051408
N8150 X1.913070078 Y0.623194777
N8155 X1.910191784 Y0.615127218
N8160 X1.908471716 Y0.608722018
N8165 X1.90704556 Y0.600973039
N8170 X1.90621729 Y0.592854718
N8175 X1.906010936 Y0.583173684
N8180 X1.906606719 Y0.573088804
N8185 X1.908235775 Y0.561475754
N8190 X1.910915675 Y0.549474513
N8195 X1.915126861 Y0.535863028
N8200 X1.920679648 Y0.521976666
N8205 X1.928458326 Y0.506305169
N8210 X1.937817701 Y0.490729264
N8215 X1.950235742 Y0.473386847
N8220 X1.964451647 Y0.456569326
N8225 X1.982277097 Y0.438625981
N8230 X1.993107833 Y0.429347631
N8235 X1.998884396 Y0.424833823
N8240 X2.022092023 Y0.407187432
N8245 X2.050065769 Y0.389266465
N8250 X2.079602039 Y0.373534067
N8255 X2.088545401 Y0.369656781
N8260 X2.093054253 Y0.367806164
N8265 G3 X2.121038662 Y0.375366211 I0.008679638 J0.023444919
N8270 X2.121745432 Y0.406235635 I-0.019304771 J0.015884872 F15.
N8275 G1 X1.955830582 Y0.627811612
N8280 G3 X1.93815742 Y0.637717435 I-0.020011692 J-0.014984551
N8285 X1.913070078 Y0.623194777 I-0.00233853 J-0.024890374 F10.
N8290 G1 X1.887386052 Y0.561198437
N8295 X1.883644344 Y0.552341844
N8300 X1.881588613 Y0.546704991
N8305 X1.879603168 Y0.541043019
N8310 X1.877994087 Y0.535262814
N8315 X1.876751006 Y0.529392986
N8320 X1.875857406 Y0.523459893
N8325 X1.875273787 Y0.517488352
N8330 X1.874985282 Y0.511495297
N8335 X1.874993692 Y0.505495297
N8340 X1.875270183 Y0.499501679
N8345 X1.875790123 Y0.493524244
N8350 X1.876554714 Y0.487573166
N8355 X1.877559301 Y0.481657869
N8360 X1.878781206 Y0.475783611
N8365 X1.880201805 Y0.469954183
N8370 X1.881812839 Y0.464174541
N8375 X1.883621666 Y0.458453659
N8380 X1.88561417 Y0.452794203
N8385 X1.887779837 Y0.447198688
N8390 X1.890117165 Y0.441672671
N8395 X1.892616392 Y0.436217916
N8400 X1.895264753 Y0.430834049
N8405 X1.898050383 Y0.425519868
N8410 X1.900962319 Y0.420273871
N8415 X1.903994252 Y0.415096321
N8420 X1.907153993 Y0.40999574
N8425 X1.911409183 Y0.401225803
N8430 X1.914144351 Y0.391869733
N8435 X1.915283503 Y0.38218885
N8440 X1.914794802 Y0.372453412
N8445 X1.912691612 Y0.362935329
N8450 X1.909032957 Y0.353900279
N8455 X1.903920812 Y0.345600684
N8460 X1.897498003 Y0.338268167
N8465 X1.889944001 Y0.332107581
N8470 X1.856046061 Y0.312840788
N8475 X1.818093277 Y0.303903921
N8480 X1.779598026 Y0.297707798
N8485 X1.740842954 Y0.293426927
N8490 X1.70196398 Y0.29047645
N8495 X1.69474399 Y0.29010003
N8500 X1.682571501 Y0.288120442
N8505 X1.671116446 Y0.283552211
N8510 X1.660922343 Y0.276612034
N8515 X1.652063986 Y0.269977671
N8520 X1.63434742 Y0.257205588
N8525 X1.625140633 Y0.251216795
N8530 X1.572339216 Y0.218876366
N8535 X1.545764292 Y0.203167266
N8540 X1.536905934 Y0.199147904
N8545 X1.528047577 Y0.195240712
N8550 X1.513623215 Y0.189220474
N8555 X1.468572091 Y0.170559564
N8560 G3 X1.454049058 Y0.145472504 I0.010367266 J-0.022749
N8565 G1 X1.454414798 Y0.141578781 Z-0.499692199
N8570 X1.454771532 Y0.137780934 Z-0.498776401
N8575 X1.455110476 Y0.13417248 Z-0.497275149
N8580 X1.455423283 Y0.130842271 Z-0.495225409
N8585 X1.45570225 Y0.127872307 Z-0.492677652
N8590 X1.455940509 Y0.125335718 Z-0.489694613
N8595 X1.456132193 Y0.123294964 Z-0.486349744
N8600 X1.45627258 Y0.121800295 Z-0.482725406
N8605 X1.456358214 Y0.120888515 Z-0.478910844
N8610 X1.456386987 Y0.120582073 Z-0.474999983
N8615 G0 Y0.120582074 Z0.199999997
N8620 X3.078643919 Y0.116285048
N8625 Z-0.450000012
N8630 G1 Z-0.474999983 F10.
N8635 X3.078423657 Y0.116500053 Z-0.47891086
N8640 X3.077768324 Y0.117139774 Z-0.482725435
N8645 X3.076694056 Y0.118188459 Z-0.486349781
N8650 X3.075227305 Y0.119620285 Z-0.489694654
N8655 X3.073404187 Y0.121399996 Z-0.492677694
N8660 X3.071269595 Y0.123483768 Z-0.495225447
N8665 X3.068876088 Y0.125820292 Z-0.497275181
N8670 X3.066282603 Y0.128352035 Z-0.498776424
N8675 X3.063553 Y0.131016656 Z-0.499692211
N8680 X3.060754491 Y0.133748543 Z-0.499999993
N8685 G3 X3.033960598 Y0.149182288 Z-0.499999992 I-0.043523293 J-0.044584575
N8690 G1 X3.01486188 Y0.153793998
N8695 X3.007385674 Y0.155869319
N8700 X2.988397493 Y0.162650619
N8705 X2.980810751 Y0.165430448
N8710 X2.909944189 Y0.194792954
N8715 X2.901085981 Y0.198591732
N8720 X2.892227473 Y0.202898172
N8725 X2.869796753 Y0.215790328
N8730 X2.848331722 Y0.227131506
N8735 X2.827773808 Y0.235962417
N8740 X2.800505931 Y0.245161995
N8745 X2.762680054 Y0.25462113
N8750 X2.724220096 Y0.261033445
N8755 X2.685475387 Y0.265406342
N8760 X2.670894833 Y0.266499782
N8765 X2.631994232 Y0.269151072
N8770 X2.593046173 Y0.270972158
N8775 X2.57356088 Y0.271598504
N8780 X2.558944282 Y0.271985118
N8785 G3 X2.535492604 Y0.254947201 I0.000246904 J-0.024998789
N8790 G1 X2.534247238 Y0.251239922 Z-0.499692204
N8795 X2.533032535 Y0.247623927 Z-0.498776411
N8800 X2.531878407 Y0.244188256 Z-0.497275163
N8805 X2.530813271 Y0.241017505 Z-0.495225426
N8810 X2.529863355 Y0.238189748 Z-0.492677671
N8815 X2.529052047 Y0.235774616 Z-0.489694632
N8820 X2.528399325 Y0.233831576 Z-0.486349761
N8825 X2.527921261 Y0.232408474 Z-0.482725419
N8830 X2.527629626 Y0.23154035 Z-0.478910851
N8835 X2.527531601 Y0.231248581 Z-0.474999983
N8840 G0 Y0.231248582 Z0.199999997
N8845 X2.902799892 Y0.171185216
N8850 Z-0.450000012
N8855 G1 Z-0.474999983 F10.
N8860 X2.9026528 Y0.171455581 Z-0.478910841
N8865 X2.902215135 Y0.17226002 Z-0.482725402
N8870 X2.901497672 Y0.173578725 Z-0.486349738
N8875 X2.900518079 Y0.175379227 Z-0.489694606
N8880 X2.899300475 Y0.177617189 Z-0.492677645
N8885 X2.897874843 Y0.180237508 Z-0.495225403
N8890 X2.896276286 Y0.183175662 Z-0.497275144
N8895 X2.894544167 Y0.186359303 Z-0.498776397
N8900 X2.892721135 Y0.189710041 Z-0.499692197
N8905 X2.89085208 Y0.193145369 Z-0.499999992
N8910 G3 X2.869796753 Y0.215790328 I-0.054730092 J-0.029777091
N8915 G1 X2.86565255 Y0.218252497
N8920 X2.811859311 Y0.251216795
N8925 X2.803644496 Y0.256702844
N8930 X2.785887831 Y0.268930037
N8935 X2.777069572 Y0.275767281
N8940 X2.753962419 Y0.295499892
N8945 X2.741186487 Y0.305350484
N8950 X2.727889714 Y0.313995523
N8955 X2.719317459 Y0.318635768
N8960 X2.711637302 Y0.324638697
N8965 X2.705064308 Y0.331836685
N8970 X2.696510675 Y0.345100643
N8975 X2.695002819 Y0.347324732
N8980 X2.693394038 Y0.349477032
N8985 X2.691687937 Y0.351552963
N8990 G3 X2.663316201 Y0.357496457 I-0.018362511 J-0.016965303
N8995 X2.654963216 Y0.317622357 I0.010009225 J-0.022908796 F15.
N9000 X2.738590391 Y0.279704454 I0.086751622 J0.080150995
N9005 G1 X2.743486891 Y0.279676424 F10.
N9010 X2.748380346 Y0.279851373
N9015 G3 X2.753962419 Y0.295499892 I-0.000508827 J0.009001353
N9020 G1 X2.722860922 Y0.322069746
N9025 X2.70620301 Y0.336434484
N9030 X2.702700998 Y0.33978297
N9035 X2.697344802 Y0.345154034
N9040 X2.694196926 Y0.348639601
N9045 X2.678952555 Y0.366352825
N9050 X2.633572676 Y0.419492571
N9055 X2.626927293 Y0.428349165
N9060 X2.614777332 Y0.446062426
N9065 X2.608761525 Y0.455312203
N9070 X2.576439625 Y0.508058728
N9075 X2.57132793 Y0.516915359
N9080 X2.561179334 Y0.534628583
N9085 X2.557059461 Y0.543485213
N9090 X2.555331733 Y0.547529769
N9095 G3 X2.532887196 Y0.561924994 I-0.022639477 J-0.010604032
N9100 G1 X2.530090152 Y0.561946809
N9105 X1.908836965 Y0.566796093 F15.
N9110 X1.906515106 Y0.566814227 F10.
N9115 G3 X1.883644344 Y0.552341844 I-0.00019509 J-0.024999258
N9120 G1 X1.879902787 Y0.543485213
N9125 X1.875820761 Y0.534628583
N9130 X1.864663522 Y0.515155041
N9135 X1.86056032 Y0.508058728
N9140 X1.827997523 Y0.454919019
N9145 X1.822222612 Y0.446062426
N9150 X1.810072801 Y0.428349165
N9155 X1.803432224 Y0.419492571
N9160 X1.749505471 Y0.356351222
N9165 X1.74271531 Y0.348639601
N9170 X1.731788755 Y0.3372893
N9175 X1.71407219 Y0.322005392
N9180 X1.660922343 Y0.276612034
N9185 G3 X1.654862081 Y0.248265022 I0.016889497 J-0.018432084
N9190 G1 X1.656413115 Y0.244674878 Z-0.499692199
N9195 X1.657925958 Y0.241173135 Z-0.498776401
N9200 X1.659363357 Y0.237846018 Z-0.497275149
N9205 X1.66068992 Y0.234775453 Z-0.495225409
N9210 X1.661872982 Y0.232037045 Z-0.492677652
N9215 X1.662883413 Y0.229698225 Z-0.489694613
N9220 X1.663696331 Y0.227816582 Z-0.486349744
N9225 X1.664291721 Y0.226438447 Z-0.482725406
N9230 X1.664654921 Y0.225597755 Z-0.478910844
N9235 X1.66477699 Y0.225315207 Z-0.474999983
N9240 G0 Z0.199999997
N9245 X1.049985735 Y0.115489678
N9250 Z-0.450000012
N9255 G1 Z-0.474999983 F10.
N9260 X1.049766175 Y0.115705382 Z-0.478910845
N9265 X1.049112898 Y0.116347183 Z-0.482725408
N9270 X1.048041989 Y0.117399277 Z-0.486349746
N9275 X1.046579819 Y0.118835759 Z-0.489694615
N9280 X1.044762389 Y0.120621257 Z-0.492677655
N9285 X1.042634453 Y0.122711807 Z-0.495225411
N9290 X1.040248405 Y0.125055933 Z-0.497275151
N9295 X1.037663 Y0.127595914 Z-0.498776402
N9300 X1.034941898 Y0.130269208 Z-0.499692199
N9305 X1.032152101 Y0.133009989 Z-0.499999992
N9310 G3 X1.005407243 Y0.14852888 I-0.043664992 J-0.044445916
N9315 G1 X0.97883232 Y0.155097171
N9320 X0.969974037 Y0.157760823
N9325 X0.952257397 Y0.164401306
N9330 X0.943399114 Y0.167981846
N9335 X0.88139091 Y0.193666661
N9340 X0.871340083 Y0.198077085
N9345 X0.863674269 Y0.201486753
N9350 X0.854815986 Y0.20615711
N9355 X0.838623948 Y0.215790328
N9360 X0.817313983 Y0.227065668
N9365 X0.796803527 Y0.235890648
N9370 X0.769574623 Y0.245095088
N9375 X0.731754303 Y0.254576638
N9380 X0.693296598 Y0.261002169
N9385 X0.654552865 Y0.265384359
N9390 X0.615677721 Y0.268384979
N9395 X0.576741414 Y0.270444971
N9400 X0.537933778 Y0.274219513
N9405 X0.502296996 Y0.290040369
N9410 X0.472347718 Y0.315006737
N9415 X0.448363822 Y0.345748466
N9420 X0.429767136 Y0.38001864
N9425 X0.415600491 Y0.416344733
N9430 X0.404940177 Y0.45384989
N9435 X0.396988974 Y0.492021343
N9440 X0.391097294 Y0.530564428
N9445 X0.386753533 Y0.569312479
N9450 X0.383563455 Y0.608172529
N9455 X0.381227929 Y0.647093255
N9460 X0.379522279 Y0.68604672
N9465 X0.378279273 Y0.725017683
N9470 X0.377375009 Y0.763997957
N9475 X0.376718176 Y0.802983186
N9480 X0.376241714 Y0.841971044
N9485 X0.375896514 Y0.880960254
N9490 X0.375646719 Y0.91995029
N9495 X0.375466084 Y0.958940626
N9500 X0.37524152 Y1.036921824
N9505 X0.37508957 Y1.153894034
N9510 X0.375012112 Y1.387838679
N9515 X0.375000135 Y1.894718681
N9520 X0.374999985 Y2.401598683
N9525 X0.375046692 Y2.440589394
N9530 X0.384345806 Y2.47845492
N9535 X0.404890804 Y2.511593826
N9540 X0.432863911 Y2.538756123
N9545 X0.465469398 Y2.560137351
N9550 X0.500812193 Y2.576604528
N9555 X0.537745671 Y2.589102317
N9560 X0.575589308 Y2.598490677
N9565 X0.605036292 Y2.603864595
N9570 X0.61464137 Y2.606481117
N9575 X0.623661702 Y2.610692602
N9580 X0.631834616 Y2.616376501
N9585 X0.638921993 Y2.62336731
N9590 X0.659933165 Y2.647969704
N9595 X0.671588717 Y2.660216985
N9600 X0.677649731 Y2.66590629
N9605 X0.686508089 Y2.673571129
N9610 X0.743449129 Y2.722213325
N9615 X0.748516218 Y2.726183013
N9620 X0.757734269 Y2.7329128
N9625 G3 X0.765936018 Y2.760715635 I-0.015436608 J0.019664915
N9630 G1 X0.764662954 Y2.764413495 Z-0.499692212
N9635 X0.763421237 Y2.768020306 Z-0.498776426
N9640 X0.762241441 Y2.771447254 Z-0.497275184
N9645 X0.761152617 Y2.774609957 Z-0.495225452
N9650 X0.760181577 Y2.777430539 Z-0.492677699
N9655 X0.759352231 Y2.779839548 Z-0.489694659
N9660 X0.758685001 Y2.781777665 Z-0.486349785
N9665 X0.758196315 Y2.783197166 Z-0.482725439
N9670 X0.757898209 Y2.7840631 Z-0.478910862
N9675 X0.757798022 Y2.784354143 Z-0.474999983
N9680 G0 Y2.784354142 Z0.199999997
N9685 X0.871600654 Y0.171165654
N9690 Z-0.450000012
N9695 G1 Z-0.474999983 F10.
N9700 X0.87145372 Y0.171436106 Z-0.478910843
N9705 X0.871016528 Y0.172240805 Z-0.482725405
N9710 X0.870299844 Y0.173559935 Z-0.486349742
N9715 X0.869321315 Y0.175361017 Z-0.489694611
N9720 X0.868105035 Y0.177599702 Z-0.492677651
N9725 X0.866680954 Y0.180220865 Z-0.495225408
N9730 X0.865084136 Y0.183159966 Z-0.497275148
N9735 X0.863353901 Y0.186344633 Z-0.4987764
N9740 X0.861532854 Y0.18969645 Z-0.499692199
N9745 X0.859665833 Y0.193132885 Z-0.499999993
N9750 G3 X0.838623948 Y0.215790328 Z-0.499999992 I-0.054747889 J-0.029744633
N9755 G1 X0.828241063 Y0.222027077
N9760 X0.775091216 Y0.254597119
N9765 X0.766232858 Y0.260884086
N9770 X0.748516218 Y0.273817994
N9775 X0.743450405 Y0.277786649
N9780 X0.722710467 Y0.295499892
N9785 X0.70963379 Y0.305582426
N9790 X0.696595184 Y0.314059577
N9795 X0.678819521 Y0.323681606
N9800 X0.64315105 Y0.339430786
N9805 X0.609303497 Y0.358786057
N9810 X0.579969752 Y0.384472824
N9815 X0.555839839 Y0.415100038
N9820 X0.53656747 Y0.448994824
N9825 X0.521494723 Y0.484954428
N9830 X0.509884001 Y0.522176337
N9835 X0.50103946 Y0.560150747
N9840 X0.494358371 Y0.598564824
N9845 X0.491354447 Y0.621728109
N9850 X0.490712669 Y0.625633105
N9855 X0.489807617 Y0.629485611
N9860 X0.488643421 Y0.633267906
N9865 X0.486004897 Y0.640908039
N9870 X0.483170645 Y0.649764594
N9875 X0.48276691 Y0.651162515
N9880 X0.461809466 Y0.738330826
N9885 X0.459708004 Y0.747187457
N9890 X0.458215015 Y0.756044087
N9895 X0.456778384 Y0.764900643
N9900 X0.453929563 Y0.800327166
N9905 X0.450443658 Y0.844610244
N9910 X0.449789565 Y0.853466875
N9915 X0.448528162 Y0.880036692
N9920 X0.448500002 Y0.906606584
N9925 Y2.111106632
N9930 X0.448528162 Y2.119963338
N9935 X0.449789565 Y2.146533155
N9940 X0.450443658 Y2.155389711
N9945 X0.455344906 Y2.21738605
N9950 X0.456778384 Y2.235099312
N9955 X0.458215015 Y2.243956018
N9960 X0.462765806 Y2.282680301
N9965 X0.466701478 Y2.321471868
N9970 X0.472449843 Y2.360036505
N9975 X0.489018283 Y2.395332066
N9980 X0.505290895 Y2.414532309
N9985 X0.508947936 Y2.419329816
N9990 X0.512089955 Y2.424479207
N9995 X0.514683423 Y2.429925663
N10000 G3 X0.507212999 Y2.457934102 I-0.023416985 J0.00875458
N10005 X0.467342767 Y2.445936879 I-0.015946561 J-0.019253858 F15.
N10010 G1 X0.409799185 Y2.256225976
N10015 G3 X0.437014309 Y2.224187025 I0.023923671 J-0.007256485
N10020 X0.458215015 Y2.243956018 I-0.003291453 J0.024782466 F10.
N10025 G1 X0.459708004 Y2.252812573
N10030 X0.470314439 Y2.297095652
N10035 X0.48276691 Y2.348837515
N10040 X0.483170645 Y2.350235436
N10045 X0.486004897 Y2.359091992
N10050 X0.489063526 Y2.367948547
N10055 X0.492681518 Y2.376805253
N10060 X0.518382666 Y2.438801593
N10065 X0.527058474 Y2.459376778
N10070 X0.529927419 Y2.46537141
N10075 X0.544775114 Y2.491266746
N10080 X0.580208358 Y2.549086143
N10085 X0.597924961 Y2.57492516
N10090 X0.602318659 Y2.580507534
N10095 X0.638921993 Y2.62336731
N10100 G3 X0.640471977 Y2.652313353 I-0.01956568 J0.015562163
N10105 G1 X0.63837828 Y2.655616576 Z-0.4996922
N10110 X0.636336138 Y2.658838463 Z-0.498776404
N10115 X0.634395834 Y2.66189968 Z-0.497275153
N10120 X0.632605145 Y2.664724849 Z-0.495225413
N10125 X0.631008164 Y2.667244407 Z-0.492677657
N10130 X0.629644214 Y2.669396312 Z-0.489694617
N10135 X0.62854688 Y2.671127579 Z-0.486349748
N10140 X0.627743181 Y2.672395576 Z-0.482725409
N10145 X0.627252909 Y2.673169083 Z-0.478910845
N10150 X0.627088134 Y2.673429053 Z-0.474999983
N10155 G0 Y2.673429054 Z0.199999997
N10160 X0.747654081 Y0.245935372
N10165 Z-0.450000012
N10170 G1 Z-0.474999983 F10.
N10175 X0.74755506 Y0.246226802 Z-0.478910848
N10180 X0.747260444 Y0.247093915 Z-0.482725413
N10185 X0.746777487 Y0.248515361 Z-0.486349753
N10190 X0.746118081 Y0.250456139 Z-0.489694623
N10195 X0.745298462 Y0.25286846 Z-0.492677663
N10200 X0.744338813 Y0.255692925 Z-0.495225419
N10205 X0.743262763 Y0.258859986 Z-0.497275157
N10210 X0.742096808 Y0.26229166 Z-0.498776407
N10215 X0.740869658 Y0.265903447 Z-0.499692202
N10220 X0.739611528 Y0.269606414 Z-0.499999993
N10225 G3 X0.722710467 Y0.295499892 Z-0.499999992 I-0.058994143 J-0.020043944
N10230 G1 X0.686508089 Y0.326428939
N10235 X0.677649731 Y0.33409389
N10240 X0.671588717 Y0.33978297
N10245 X0.659933165 Y0.352030289
N10250 X0.602318659 Y0.419492571
N10255 X0.597924961 Y0.425074908
N10260 X0.580208358 Y0.450913775
N10265 X0.544775114 Y0.508733246
N10270 X0.529927419 Y0.534628583
N10275 X0.527058474 Y0.540623214
N10280 X0.518200153 Y0.56163127
N10285 X0.49162523 Y0.625773565
N10290 X0.489063526 Y0.632051408
N10295 X0.488643421 Y0.633267906
N10300 G3 X0.464475136 Y0.649273339 I-0.023331342 J-0.008980533
N10305 G1 X0.460566466 Y0.649142416 Z-0.499692198
N10310 X0.45675404 Y0.649014717 Z-0.498776399
N10315 X0.453131735 Y0.648893386 Z-0.497275147
N10320 X0.449788743 Y0.648781411 Z-0.495225406
N10325 X0.446807379 Y0.64868155 Z-0.492677649
N10330 X0.444261055 Y0.64859626 Z-0.489694609
N10335 X0.442212469 Y0.648527644 Z-0.48634974
N10340 X0.440712064 Y0.648477389 Z-0.482725404
N10345 X0.439796785 Y0.648446734 Z-0.478910842
N10350 X0.439489169 Y0.648436434 Z-0.474999983
N10355 G0 Z0.199999997
N10360 X3.387996944 Y2.884261064
N10365 Z-0.450000012
N10370 G1 Z-0.474999983 F10.
N10375 X3.388216548 Y2.884045408 Z-0.478910842
N10380 X3.388869988 Y2.883403776 Z-0.482725403
N10385 X3.389941174 Y2.882351968 Z-0.48634974
N10390 X3.391403729 Y2.880915881 Z-0.489694609
N10395 X3.393221641 Y2.879130877 Z-0.492677648
N10400 X3.395350145 Y2.877040908 Z-0.495225406
N10405 X3.39773683 Y2.874697435 Z-0.497275146
N10410 X3.400322929 Y2.872158161 Z-0.498776399
N10415 X3.403044762 Y2.869485613 Z-0.499692198
N10420 X3.405835309 Y2.866745596 Z-0.499999993
N10425 G3 X3.432584447 Y2.851234196 Z-0.499999992 I0.043652752 J0.044458344
N10430 G1 X3.441442955 Y2.849068229
N10435 X3.45915937 Y2.844501706
N10440 X3.468017878 Y2.842100249
N10445 X3.485734294 Y2.835246409
N10450 X3.512309217 Y2.824269392
N10455 X3.556600856 Y2.8059222
N10460 X3.574317572 Y2.797832339
N10465 X3.583175779 Y2.793461056
N10470 X3.598453492 Y2.784209664
N10475 X3.617819238 Y2.773768508
N10480 X3.637817863 Y2.764977883
N10485 X3.664223979 Y2.755821108
N10490 X3.700860091 Y2.746331523
N10495 X3.739268085 Y2.739615253
N10500 X3.777989065 Y2.735037015
N10505 X3.816853921 Y2.731903256
N10510 X3.85578516 Y2.729752608
N10515 X3.894747937 Y2.728273887
N10520 X3.933725432 Y2.727256234
N10525 X3.972709836 Y2.726555171
N10530 X4.011697544 Y2.726072176
N10535 X4.050680746 Y2.725301127
N10540 X4.087784835 Y2.713319373
N10545 X4.119703638 Y2.690925598
N10550 X4.14544924 Y2.661643441
N10555 X4.165550592 Y2.628233602
N10560 X4.18092172 Y2.592400678
N10565 X4.192510289 Y2.555171937
N10570 X4.20115974 Y2.517152471
N10575 X4.207568431 Y2.478692062
N10580 X4.212290246 Y2.439988204
N10585 X4.215754411 Y2.401151582
N10590 X4.218287731 Y2.362243172
N10595 X4.220134705 Y2.323296314
N10600 X4.22147886 Y2.284328581
N10605 X4.222454762 Y2.245350034
N10610 X4.223162433 Y2.206365781
N10615 X4.223674564 Y2.167378373
N10620 X4.22404522 Y2.128389313
N10625 X4.22431285 Y2.089399503
N10630 X4.224505687 Y2.050409242
N10635 X4.224745082 Y1.972427969
N10640 X4.22490608 Y1.855455834
N10645 X4.224987481 Y1.621511264
N10650 X4.224999495 Y1.270594259
N10655 X4.225000096 Y0.490778938
N10660 X4.224893465 Y0.451788302
N10665 X4.21398313 Y0.414355083
N10670 X4.192109296 Y0.382077938
N10675 X4.163220924 Y0.355891393
N10680 X4.130017438 Y0.335450923
N10685 X4.094295652 Y0.319822942
N10690 X4.057127585 Y0.308041028
N10695 X4.01914131 Y0.299246856
N10700 X3.980699074 Y0.292730744
N10705 X3.942004827 Y0.287929182
N10710 X3.903173612 Y0.284406106
N10715 X3.864268205 Y0.281829796
N10720 X3.825322549 Y0.279950927
N10725 X3.786355867 Y0.278583737
N10730 X3.747377771 Y0.27759077
N10735 X3.710855499 Y0.276916215
N10740 X3.698664087 Y0.275397057
N10745 X3.6870611 Y0.271358227
N10750 X3.676561671 Y0.264978841
N10755 X3.67012865 Y0.260073425
N10760 X3.662900549 Y0.255205012
N10765 X3.609750703 Y0.222634856
N10770 X3.583175779 Y0.206538448
N10775 X3.574317572 Y0.202167335
N10780 X3.556600856 Y0.194077473
N10785 X3.500139131 Y0.170690131
N10790 G3 X3.485616248 Y0.145603062 I0.010367566 J-0.022749009
N10795 G1 X3.485982004 Y0.14170934 Z-0.499692199
N10800 X3.486338753 Y0.137911494 Z-0.498776402
N10805 X3.486677711 Y0.134303041 Z-0.49727515
N10810 X3.486990533 Y0.130972833 Z-0.495225411
N10815 X3.487269516 Y0.12800287 Z-0.492677654
N10820 X3.48750779 Y0.125466282 Z-0.489694615
N10825 X3.487699488 Y0.123425529 Z-0.486349745
N10830 X3.487839891 Y0.121930861 Z-0.482725407
N10835 X3.48792554 Y0.121019081 Z-0.478910844
N10840 X3.487954328 Y0.12071264 Z-0.474999983
N10845 G0 X3.487954327 Y0.120712641 Z0.199999997
N10850 X3.565826416 Y2.829090629
N10855 Z-0.450000012
N10860 G1 Z-0.474999983 F10.
N10865 X3.565971232 Y2.828819044 Z-0.478910835
N10870 X3.566402121 Y2.828010962 Z-0.48272539
N10875 X3.567108473 Y2.826686279 Z-0.486349723
N10880 X3.568072896 Y2.824877613 Z-0.48969459
N10885 X3.569271642 Y2.8226295 Z-0.49267763
N10890 X3.570675196 Y2.819997296 Z-0.495225388
N10895 X3.572248996 Y2.817045812 Z-0.497275132
N10900 X3.573954291 Y2.813847726 Z-0.498776389
N10905 X3.57574909 Y2.810481783 Z-0.499692193
N10910 X3.5775892 Y2.807030866 Z-0.499999992
N10915 G3 X3.598453492 Y2.784209664 I0.054978498 J0.029315798
N10920 G1 X3.613034346 Y2.775352959
N10925 X3.662900549 Y2.744796032
N10930 X3.670130151 Y2.739926436
N10935 X3.693359255 Y2.722213325
N10940 X3.698333981 Y2.718128294
N10945 X3.714290529 Y2.704500213
N10950 X3.727313665 Y2.694458548
N10955 X3.740429916 Y2.685930748
N10960 X3.757153909 Y2.6768779
N10965 X3.778517716 Y2.667444484
N10970 X3.80644971 Y2.657706193
N10975 X3.844178267 Y2.647866377
N10980 X3.882563734 Y2.641022449
N10985 X3.921260383 Y2.636241763
N10990 X3.959834482 Y2.630557864
N10995 X3.995199128 Y2.614137544
N11000 X4.025115066 Y2.589131153
N11005 X4.049188809 Y2.558459785
N11010 X4.068025003 Y2.524320647
N11015 X4.082489614 Y2.488112262
N11020 X4.093453715 Y2.450694737
N11025 X4.101687454 Y2.412583208
N11030 X4.107827915 Y2.374079096
N11035 X4.112384225 Y2.335355413
N11040 X4.115751372 Y2.296510381
N11045 X4.118232126 Y2.257598517
N11050 X4.120055071 Y2.218650457
N11055 X4.121391717 Y2.179682574
N11060 X4.122370322 Y2.140704027
N11065 X4.123085503 Y2.101719924
N11070 X4.123607846 Y2.062732516
N11075 X4.123988414 Y2.023743607
N11080 X4.124265656 Y1.984753947
N11085 X4.124467504 Y1.945763686
N11090 X4.124614085 Y1.906773124
N11095 X4.124797911 Y1.828791851
N11100 X4.124923766 Y1.711819566
N11105 X4.12499225 Y1.438884285
N11110 X4.12499976 Y0.970994994
N11115 X4.12500006 Y0.581087315
N11120 X4.122566764 Y0.54217256
N11125 X4.107823109 Y0.5060767
N11130 X4.083520784 Y0.47558623
N11135 X4.053178021 Y0.451099516
N11140 X4.019183362 Y0.432003614
N11145 X3.983033248 Y0.417394225
N11150 X3.945635398 Y0.406362541
N11155 X3.907528374 Y0.398108978
N11160 X3.86902306 Y0.391975087
N11165 X3.830296974 Y0.387439465
N11170 X3.829300347 Y0.387353559
N11175 X3.818162633 Y0.38528938
N11180 X3.807633768 Y0.381111573
N11185 X3.798110842 Y0.374977607
N11190 X3.789952796 Y0.367118843
N11195 X3.781734977 Y0.357496232
N11200 X3.77805875 Y0.353450813
N11205 X3.765331779 Y0.33978297
N11210 X3.760342035 Y0.334936915
N11215 X3.751483827 Y0.327266107
N11220 X3.698333981 Y0.281872731
N11225 X3.693358053 Y0.277786649
N11230 X3.676561671 Y0.264978841
N11235 G3 X3.668941888 Y0.23701067 I0.015843609 J-0.019338582
N11240 G1 X3.670291858 Y0.233340189 Z-0.499692201
N11245 X3.671608586 Y0.229760087 Z-0.498776404
N11250 X3.672859652 Y0.226358519 Z-0.497275154
N11255 X3.67401425 Y0.223219243 Z-0.495225415
N11260 X3.67504395 Y0.220419557 Z-0.492677658
N11265 X3.675923396 Y0.218028399 Z-0.489694619
N11270 X3.676630936 Y0.216104649 Z-0.486349749
N11275 X3.677149146 Y0.214695674 Z-0.482725411
N11280 X3.677465267 Y0.213836169 Z-0.478910846
N11285 X3.677571515 Y0.213547297 Z-0.474999983
N11290 G0 X3.677571514 Z0.199999997
N11295 X3.689347215 Y2.754064845
N11300 Z-0.450000012
N11305 G1 Z-0.474999983 F10.
N11310 X3.689446241 Y2.7537734 Z-0.478910868
N11315 X3.689740857 Y2.752906267 Z-0.482725449
N11320 X3.69022381 Y2.751484799 Z-0.486349799
N11325 X3.690883207 Y2.749543996 Z-0.489694675
N11330 X3.691702811 Y2.74713165 Z-0.492677714
N11335 X3.692662442 Y2.74430716 Z-0.495225466
N11340 X3.693738469 Y2.741140076 Z-0.497275196
N11345 X3.694904398 Y2.737708381 Z-0.498776434
N11350 X3.696131519 Y2.734096577 Z-0.499692216
N11355 X3.697389618 Y2.730393597 Z-0.499999992
N11360 G3 X3.714290529 Y2.704500213 I0.058994143 J0.020043381
N11365 G1 X3.751483827 Y2.672733998
N11370 X3.760342035 Y2.665063152
N11375 X3.765331779 Y2.660216985
N11380 X3.77805875 Y2.646549255
N11385 X3.781734977 Y2.642503874
N11390 X3.795775166 Y2.626063429
N11395 X3.805256941 Y2.616024468
N11400 X3.814576517 Y2.607623423
N11405 X3.827164417 Y2.59798906
N11410 X3.859929062 Y2.576852633
N11415 X3.891936175 Y2.554585915
N11420 X3.919948968 Y2.527464318
N11425 X3.943333063 Y2.496264
N11430 X3.962218217 Y2.462151895
N11435 X3.977154409 Y2.426135296
N11440 X3.98878503 Y2.38891977
N11445 X3.997736953 Y2.350970441
N11450 X4.004565862 Y2.312582421
N11455 X4.009739433 Y2.273936384
N11460 X4.013637032 Y2.235140913
N11465 X4.016561133 Y2.196259987
N11470 X4.018746323 Y2.1573304
N11475 X4.020374629 Y2.118373631
N11480 X4.021585119 Y2.079401692
N11485 X4.022482624 Y2.040421193
N11490 X4.023146742 Y2.001436188
N11495 X4.023637546 Y1.962448481
N11500 X4.023999492 Y1.923459421
N11505 X4.02426622 Y1.88446946
N11510 X4.024462362 Y1.845479199
N11515 X4.02471227 Y1.767498076
N11520 X4.024888286 Y1.650525942
N11525 X4.024977196 Y1.455572083
N11530 X4.025000024 Y0.714747511
N11535 Y0.675756725
N11540 X4.020341287 Y0.637045282
N11545 X4.003677068 Y0.601795076
N11550 X3.978204202 Y0.572275289
N11555 X3.947175094 Y0.548664378
N11560 X3.915744391 Y0.531855756
N11565 X3.906973891 Y0.526091508
N11570 X3.899382343 Y0.518844822
N11575 X3.893216651 Y0.510351714
N11580 X3.85778352 Y0.452532205
N11585 X3.853501748 Y0.446062426
N11590 X3.840066805 Y0.426308039
N11595 X3.834673964 Y0.419492571
N11600 X3.789952796 Y0.367118843
N11605 G3 X3.788402888 Y0.338172725 I0.019565793 J-0.015562275
N11610 G1 X3.790496587 Y0.334869503 Z-0.499692202
N11615 X3.792538732 Y0.331647617 Z-0.498776407
N11620 X3.79447904 Y0.3285864 Z-0.497275158
N11625 X3.796269732 Y0.325761231 Z-0.49522542
N11630 X3.797866717 Y0.323241673 Z-0.492677664
N11635 X3.799230671 Y0.321089767 Z-0.489694625
N11640 X3.80032801 Y0.3193585 Z-0.486349754
N11645 X3.801131712 Y0.318090502 Z-0.482725414
N11650 X3.801621989 Y0.317316994 Z-0.478910848
N11655 X3.801786768 Y0.317057024 Z-0.474999983
N11660 G0 Z0.199999997
N11665 X3.77889468 Y2.678920415
N11670 Z-0.450000012
N11675 G1 Z-0.474999983 F10.
N11680 X3.778946867 Y2.678617091 Z-0.478910833
N11685 X3.77910216 Y2.67771457 Z-0.482725388
N11690 X3.779356733 Y2.676235075 Z-0.48634972
N11695 X3.779704319 Y2.674215035 Z-0.489694587
N11700 X3.780136359 Y2.67170419 Z-0.492677627
N11705 X3.780642214 Y2.668764366 Z-0.495225386
N11710 X3.781209429 Y2.66546795 Z-0.49727513
N11715 X3.781824037 Y2.66189611 Z-0.498776388
N11720 X3.782470903 Y2.658136797 Z-0.499692192
N11725 X3.7831341 Y2.654282577 Z-0.499999993
N11730 G3 X3.795775166 Y2.626063429 Z-0.499999992 I0.06140371 J0.01056581
N11735 G1 X3.834673964 Y2.580507534
N11740 X3.840066805 Y2.573691841
N11745 X3.853501748 Y2.553937717
N11750 X3.85778352 Y2.54746775
N11755 X3.893216651 Y2.489648353
N11760 X3.897129569 Y2.483084671
N11765 X3.907106655 Y2.46537141
N11770 X3.91114693 Y2.456514854
N11775 X3.919791575 Y2.436005149
N11780 X3.944318576 Y2.376805253
N11785 X3.95096486 Y2.359091992
N11790 X3.95387995 Y2.350235436
N11795 X3.9645593 Y2.305952207
N11800 X3.973064573 Y2.270525835
N11805 X3.97515725 Y2.261669129
N11810 X3.98018454 Y2.235099312
N11815 X3.980973311 Y2.226242756
N11820 X3.986556286 Y2.155389711
N11825 X3.987210492 Y2.146533155
N11830 X3.988471745 Y2.119963338
N11835 X3.988499979 Y2.093393371
N11840 Y0.888893323
N11845 X3.988471745 Y0.880036692
N11850 X3.987210492 Y0.853466875
N11855 X3.986556286 Y0.844610244
N11860 X3.980973311 Y0.773757274
N11865 X3.98018454 Y0.764900643
N11870 X3.97515725 Y0.738330826
N11875 X3.970938255 Y0.720617565
N11880 X3.955225006 Y0.655275255
N11885 X3.95387995 Y0.649764594
N11890 X3.95096486 Y0.640908039
N11895 X3.944318576 Y0.623194777
N11900 X3.919791575 Y0.563994843
N11905 X3.910933367 Y0.542978414
N11910 X3.907106655 Y0.534628583
N11915 X3.897129569 Y0.516915359
N11920 X3.893216651 Y0.510351714
N11925 G3 X3.896564574 Y0.481558109 I0.021907476 J-0.012044193
N11930 G1 X3.899184767 Y0.478654759 Z-0.499692207
N11935 X3.901740444 Y0.475822897 Z-0.498776417
N11940 X3.904168676 Y0.473132254 Z-0.497275171
N11945 X3.906409671 Y0.470649083 Z-0.495225436
N11950 X3.908408249 Y0.468434528 Z-0.492677682
N11955 X3.910115197 Y0.466543118 Z-0.489694642
N11960 X3.911488487 Y0.465021427 Z-0.48634977
N11965 X3.912494301 Y0.463906925 Z-0.482725427
N11970 X3.913107874 Y0.463227054 Z-0.478910855
N11975 X3.913314099 Y0.462998555 Z-0.474999983
N11980 G0 X3.913314098 Z0.599999991
(BORE1)
N11985 G0 X1.181000011 Y1.484375
N11990 Z0.599999991
N11995 Z0.080000003
N12000 G1 Z0.025 F10.
N12005 G18 G2 X1.20600002 Z0. I0.025000009 K0.
N12010 G1 X1.218499987
N12015 G17 G3 X1.234125002 Y1.49999994 I0. J0.01562494
N12020 X1.171624948 Z-0.019685039 I-0.03125003 J0.
N12025 X1.23412499 Z-0.039370078 I0.031250024 J0.
N12030 X1.171624961 Z-0.059055117 I-0.031250018 J0.
N12035 X1.234124978 Z-0.078740156 I0.031250012 J0.
N12040 X1.171624973 Z-0.098425195 I-0.031250005 J0.
N12045 X1.234124965 Z-0.118110234 I0.031249999 J0.
N12050 X1.171624985 Z-0.137795273 I-0.031249993 J0.
N12055 X1.234124953 Z-0.157480313 I0.031249987 J0.
N12060 X1.171624997 Z-0.177165352 I-0.031249981 J0.
N12065 X1.234124941 Z-0.196850391 I0.031249975 J0.
N12070 X1.17162501 Z-0.21653543 I-0.031249969 J0.
N12075 X1.234124928 Z-0.236220469 I0.031249962 J0.
N12080 X1.171625022 Z-0.255905508 I-0.031249956 J0.
N12085 X1.234124916 Z-0.275590547 I0.03124995 J0.
N12090 X1.171625034 Z-0.295275586 I-0.031249944 J0.
N12095 X1.234124904 Z-0.314960625 I0.031249938 J0.
N12100 X1.171625047 Z-0.334645664 I-0.031249932 J0.
N12105 X1.234124891 Z-0.354330703 I0.031249925 J0.
N12110 X1.171625059 Z-0.374015742 I-0.031249919 J0.
N12115 X1.234124879 Z-0.393700781 I0.031249913 J0.
N12120 X1.171625071 Z-0.41338582 I-0.031249907 J0.
N12125 X1.234124867 Z-0.433070859 I0.031249901 J0.
N12130 X1.171625084 Z-0.452755898 I-0.031249895 J0.
N12135 X1.234124855 Z-0.472440938 I0.031249889 J0.
N12140 X1.171625096 Z-0.492125977 I-0.031249882 J0.
N12145 X1.193218231 Y1.470279543 Z-0.499999992 I0.031249876 J0.
N12150 X1.212531713 Y1.529720336 I0.009656741 J0.029720397
N12155 X1.193218231 Y1.470279543 I-0.009656741 J-0.029720397
N12160 X1.212906875 Y1.480311296 I0.00482837 J0.014860198
N12165 G1 X1.216769556 Y1.492199485
N12170 X1.217978078 Y1.495918939 Z-0.499692211
N12175 X1.219156842 Y1.499546811 Z-0.498776425
N12180 X1.220276825 Y1.50299377 Z-0.497275182
N12185 X1.221310448 Y1.506174941 Z-0.495225449
N12190 X1.222232259 Y1.509011993 Z-0.492677696
N12195 X1.223019561 Y1.511435067 Z-0.489694657
N12200 X1.223652968 Y1.513384499 Z-0.486349783
N12205 X1.224116882 Y1.514812287 Z-0.482725437
N12210 X1.22439988 Y1.515683274 Z-0.478910861
N12215 X1.224494994 Y1.515976013 Z-0.474999983
N12220 G0 Y1.515976012 Z0.199999997
N12225 X3.212249936 Y1.484375
N12230 Z0.080000003
N12235 G1 Z0.025 F10.
N12240 G18 G2 X3.23725002 Z0. I0.025000084 K0.
N12245 G1 X3.249749912
N12250 G17 G3 X3.265374852 Y1.49999994 I0. J0.01562494
N12255 X3.202875091 Z-0.01968504 I-0.03124988 J0.
N12260 X3.265374855 Z-0.03937008 I0.031249881 J0.
N12265 X3.202875088 Z-0.059055121 I-0.031249883 J0.
N12270 X3.265374858 Z-0.078740161 I0.031249885 J0.
N12275 X3.202875084 Z-0.098425201 I-0.031249886 J0.
N12280 X3.265374862 Z-0.118110241 I0.031249888 J0.
N12285 X3.202875081 Z-0.137795281 I-0.031249889 J0.
N12290 X3.265374865 Z-0.157480322 I0.031249891 J0.
N12295 X3.202875078 Z-0.177165362 I-0.031249893 J0.
N12300 X3.265374868 Z-0.196850402 I0.031249894 J0.
N12305 X3.202875075 Z-0.216535442 I-0.031249896 J0.
N12310 X3.265374871 Z-0.236220482 I0.031249897 J0.
N12315 X3.202875072 Z-0.255905523 I-0.031249899 J0.
N12320 X3.265374874 Z-0.275590563 I0.031249901 J0.
N12325 X3.202875068 Z-0.295275603 I-0.031249902 J0.
N12330 X3.265374877 Z-0.314960643 I0.031249904 J0.
N12335 X3.202875065 Z-0.334645683 I-0.031249905 J0.
N12340 X3.265374881 Z-0.354330723 I0.031249907 J0.
N12345 X3.202875062 Z-0.374015764 I-0.031249908 J0.
N12350 X3.265374884 Z-0.393700804 I0.03124991 J0.
N12355 X3.202875059 Z-0.413385844 I-0.031249912 J0.
N12360 X3.265374887 Z-0.433070884 I0.031249913 J0.
N12365 X3.202875056 Z-0.452755924 I-0.031249915 J0.
N12370 X3.26537489 Z-0.472440965 I0.031249916 J0.
N12375 X3.202875053 Z-0.492126005 I-0.031249918 J0.
N12380 X3.224468081 Y1.470279543 Z-0.499999992 I0.03124992 J0.
N12385 X3.243781863 Y1.529720336 I0.009656891 J0.029720397
N12390 X3.224468081 Y1.470279543 I-0.009656891 J-0.029720397
N12395 X3.244156725 Y1.480311296 I0.004828446 J0.014860198
N12400 G1 X3.248019481 Y1.492199485
N12405 X3.24922801 Y1.495918937 Z-0.499692213
N12410 X3.250406781 Y1.499546808 Z-0.498776429
N12415 X3.251526771 Y1.502993766 Z-0.497275189
N12420 X3.252560401 Y1.506174937 Z-0.495225457
N12425 X3.253482221 Y1.509011989 Z-0.492677704
N12430 X3.25426953 Y1.511435064 Z-0.489694665
N12435 X3.254902945 Y1.513384497 Z-0.48634979
N12440 X3.255366866 Y1.514812286 Z-0.482725443
N12445 X3.255649873 Y1.515683274 Z-0.478910864
N12450 X3.255744994 Y1.515976013 Z-0.474999983
N12455 G0 Y1.515976012 Z0.599999991
(DRILL1)
N12460 G0 X3.234124972 Y2.5
N12465 Z0.599999991
N12470 Z0.199999997
N12475 G98 G81 X3.234124972 Y2.5 Z-0.099999998 R0.199999997 F10.123
N12480 X1.202874972
N12485 Y0.499999992
N12490 X3.234124972
N12495 G80
N12500 G0 Z0.599999991
(2D CONTOUR1)
N12505 G0 X2.012251907 Y2.122209804
N12510 Z0.599999991
N12515 Z0.199999997
N12520 G1 Z0.039370079 F10.123
N12525 Z-0.475000021
N12530 G18 G3 X1.987251973 Z-0.499999992 I-0.024999934 K0.000000038
N12535 G1 X1.962252039 F10.
N12540 G17 G3 X1.937251955 Y2.09720987 I0. J-0.024999934
N12545 G1 Y0.875000165
N12550 G2 X1.202875948 Y0.140622094 I-0.734376006 J-0.000002103
N12555 X0.468500017 Y0.875000165 I0. J0.734375969
N12560 G1 Y2.12499979
N12565 G2 X1.202875948 Y2.859378011 I0.734375931 J0.000002253
N12570 X1.937251955 Y2.12499979 I0. J-0.734375969
N12575 G1 Y2.09720987
N12580 G3 X1.962252039 Y2.072209786 I0.025000084 J0.
N12585 G1 X1.987251973
N12590 G18 G2 X2.012251907 Z-0.475000021 I0. K0.025000009
N12595 G0 Z0.199999997
N12600 X2.424748038 Y0.877790151
N12605 G1 Z0.039370079 F10.123
N12610 Z-0.475000021
N12615 G2 X2.449747972 Z-0.499999992 I0.024999934 K0.000000038
N12620 G1 X2.474748056 F10.
N12625 G17 G3 X2.49974799 Y0.90279016 I0. J0.025000009
N12630 G1 Y2.12499979
N12635 G2 X3.234124071 Y2.859377974 I0.734376081 J0.000002253
N12640 X3.968499852 Y2.12499979 I0. J-0.734375931
N12645 G1 Y0.875000165
N12650 G2 X3.807230071 Y0.415798623 I-0.734377884 J-0.000008335
N12655 X3.234126474 Y0.140622047 I-0.573101494 J0.459201618
N12660 X2.49974799 Y0.875000165 I-0.000002403 J0.734376016
N12665 G1 Y0.90279016
N12670 G3 X2.474748056 Y0.927790169 I-0.024999934 J0.
N12675 G1 X2.449747972
N12680 G18 G3 X2.424748038 Z-0.475000021 I0. K0.025000009
N12685 G0 Z0.599999991
N12690 G17
N12695 G53 G0 Z0.
N12700 M30
%
