%
(DOUBLE MORTISE TEMPLATE)
(T1  D=0.25 CR=0. - ZMIN=-0.499999992 - FLAT END MILL)
N10 G90 G94 G17 G91.1
N15 G20
N20 G53 G0 Z0.
(2D ADAPTIVE4)
N25 M9
N30 T1 M6
N35 S3000 M3
N40 G54
N45 G0 X0.938245818 Y0.818954303
N50 G43 Z0.599999991 H1
N55 G0 Z0.199999997
N60 Z0.102000002
N65 G3 X1.061758057 Y1.021811343 Z0.088972315 I0.061756119 J0.10142852 F15.
N70 X0.938245818 Y0.818954302 Z0.075944628 I-0.061756119 J-0.10142852
N75 X1.061758057 Y1.021811344 Z0.062916941 I0.06175612 J0.101428521
N80 X0.938245817 Y0.818954301 Z0.049889255 I-0.06175612 J-0.101428521
N85 X1.061758058 Y1.021811345 Z0.036861568 I0.06175612 J0.101428522
N90 X0.938245817 Y0.8189543 Z0.023833881 I-0.06175612 J-0.101428522
N95 X1.061758058 Y1.021811346 Z0.010806194 I0.061756121 J0.101428523
N100 X0.938245816 Y0.818954299 Z-0.002221493 I-0.061756121 J-0.101428523
N105 X1.061758059 Y1.021811346 Z-0.015249179 I0.061756121 J0.101428523
N110 X0.938245816 Y0.818954298 Z-0.028276866 I-0.061756121 J-0.101428524
N115 X1.061758059 Y1.021811347 Z-0.041304553 I0.061756122 J0.101428524
N120 X0.938245815 Y0.818954297 Z-0.05433224 I-0.061756122 J-0.101428525
N125 X1.06175806 Y1.021811348 Z-0.067359927 I0.061756122 J0.101428525
N130 X0.938245815 Y0.818954297 Z-0.080387613 I-0.061756122 J-0.101428526
N135 X1.06175806 Y1.021811349 Z-0.0934153 I0.061756123 J0.101428526
N140 X0.938245814 Y0.818954296 Z-0.106442987 I-0.061756123 J-0.101428526
N145 X1.061758061 Y1.02181135 Z-0.119470674 I0.061756123 J0.101428527
N150 X0.938245814 Y0.818954295 Z-0.132498361 I-0.061756123 J-0.101428527
N155 X1.061758061 Y1.021811351 Z-0.145526047 I0.061756124 J0.101428528
N160 X0.938245813 Y0.818954294 Z-0.158553734 I-0.061756124 J-0.101428528
N165 X1.061758062 Y1.021811352 Z-0.171581421 I0.061756124 J0.101428529
N170 X0.938245813 Y0.818954293 Z-0.184609108 I-0.061756124 J-0.101428529
N175 X1.061758062 Y1.021811352 Z-0.197636795 I0.061756125 J0.101428529
N180 X0.938245812 Y0.818954292 Z-0.210664481 I-0.061756125 J-0.10142853
N185 X1.061758063 Y1.021811353 Z-0.223692168 I0.061756125 J0.10142853
N190 X0.938245812 Y0.818954291 Z-0.236719855 I-0.061756126 J-0.101428531
N195 X1.061758063 Y1.021811354 Z-0.249747542 I0.061756126 J0.101428531
N200 X0.938245811 Y0.818954291 Z-0.262775229 I-0.061756126 J-0.101428532
N205 X1.061758064 Y1.021811355 Z-0.275802915 I0.061756126 J0.101428532
N210 X0.938245811 Y0.81895429 Z-0.288830602 I-0.061756127 J-0.101428532
N215 X1.061758064 Y1.021811356 Z-0.301858289 I0.061756127 J0.101428533
N220 X0.93824581 Y0.818954289 Z-0.314885976 I-0.061756127 J-0.101428533
N225 X1.061758065 Y1.021811357 Z-0.327913663 I0.061756127 J0.101428534
N230 X0.93824581 Y0.818954288 Z-0.34094135 I-0.061756128 J-0.101428534
N235 X1.061758065 Y1.021811358 Z-0.353969036 I0.061756128 J0.101428535
N240 X0.938245809 Y0.818954287 Z-0.366996723 I-0.061756128 J-0.101428535
N245 X1.061758066 Y1.021811358 Z-0.38002441 I0.061756128 J0.101428535
N250 X0.938245809 Y0.818954286 Z-0.393052097 I-0.061756129 J-0.101428536
N255 X1.061758067 Y1.021811359 Z-0.406079784 I0.061756129 J0.101428536
N260 X0.938245808 Y0.818954286 Z-0.41910747 I-0.061756129 J-0.101428537
N265 X1.061758067 Y1.02181136 Z-0.432135157 I0.061756129 J0.101428537
N270 X0.938245807 Y0.818954285 Z-0.445162844 I-0.06175613 J-0.101428538
N275 X1.061758068 Y1.021811361 Z-0.458190531 I0.06175613 J0.101428538
N280 X0.938245807 Y0.818954284 Z-0.471218218 I-0.06175613 J-0.101428538
N285 X1.118751961 Y0.920382823 Z-0.480000015 I0.06175613 J0.101428539
N290 X0.881251913 I-0.118750024 J0.
N295 X1.118751961 I0.118750024 J0.
N300 G1 X1.118914987 Y0.930129149
N305 X1.126049673 Y0.9684616
N310 X1.1277976 Y0.974201368
N315 X1.128915501 Y0.980096276
N320 X1.129465554 Y0.986071008
N325 X1.129497543 Y0.992131196
N330 X1.129008691 Y0.998632326
N335 X1.127928336 Y1.005528067
N340 X1.126190621 Y1.012762175
N345 X1.123735548 Y1.020268868
N350 X1.120510402 Y1.027973581
N355 X1.116471403 Y1.035793334
N360 X1.111584461 Y1.043638244
N365 X1.105826896 Y1.051412492
N370 X1.099187746 Y1.05901583
N375 X1.091669038 Y1.066345305
N380 X1.083285565 Y1.07329699
N385 X1.074065636 Y1.079768008
N390 X1.064050254 Y1.085658111
N395 X1.053292808 Y1.090871556
N400 X1.041858478 Y1.095318832
N405 X1.029822657 Y1.098918314
N410 X1.017270201 Y1.101597088
N415 X1.004293847 Y1.103292375
N420 X0.990992569 Y1.103952213
N425 X0.977470218 Y1.1035359
N430 X0.963834102 Y1.102014452
N435 X0.950193405 Y1.099370371
N440 X0.936657763 Y1.09559795
N445 X0.923336359 Y1.090702823
N450 X0.910336051 Y1.084701433
N455 X0.897761142 Y1.077620664
N460 X0.88571173 Y1.069497386
N465 X0.874283408 Y1.060377632
N470 X0.863566136 Y1.050315917
N475 X0.853644018 Y1.039374719
N480 X0.84459425 Y1.027623499
N485 X0.836487042 Y1.015138176
N490 X0.829385247 Y1.002000223
N495 X0.823343682 Y0.988295998
N500 X0.818409281 Y0.974116138
N505 X0.814620641 Y0.959554432
N510 X0.812007949 Y0.944707525
N515 X0.810592832 Y0.929673938
N520 X0.81038858 Y0.914553319
N525 X0.811399775 Y0.899445917
N530 X0.813622662 Y0.884451829
N535 X0.817045002 Y0.869670177
N540 X0.821646593 Y0.855198733
N545 X0.827398976 Y0.841132787
N550 X0.834266107 Y0.827565231
N555 X0.842204432 Y0.814585198
N560 X0.851163263 Y0.802278143
N565 X0.861085156 Y0.790724792
N570 X0.871906281 Y0.780001062
N575 X0.883557027 Y0.770177165
N580 X0.895962152 Y0.761317456
N585 X0.909041457 Y0.753480055
N590 X0.922710614 Y0.746716101
N595 X0.936881163 Y0.741069899
N600 X0.951461567 Y0.736578543
N605 X0.966357509 Y0.733271321
N610 X0.981472796 Y0.731170009
N615 X0.996709508 Y0.730288423
N620 X1.011969349 Y0.730632647
N625 X1.027153571 Y0.732200502
N630 X1.042164104 Y0.734982228
N635 X1.056903929 Y0.738959876
N640 X1.071277678 Y0.744107915
N645 X1.085192613 Y0.750393229
N650 X1.098558771 Y0.757775419
N655 X1.111289798 Y0.766206726
N660 X1.123303466 Y0.775632933
N665 X1.134522205 Y0.785993216
N670 X1.144873551 Y0.797220666
N675 X1.154290597 Y0.809242969
N680 X1.162712593 Y0.821982406
N685 X1.177270994 Y0.848393177
N690 X1.189679273 Y0.875923502
N695 X1.19755835 Y0.897979211
N700 X1.202899302 Y0.917835686
N705 X1.206321266 Y0.936386003
N710 X1.20816013 Y0.954338059
N715 X1.208537845 Y0.971714605
N720 X1.207547676 Y0.988588859
N725 X1.20524444 Y1.005057763
N730 X1.201657047 Y1.021153608
N735 X1.196802094 Y1.036868358
N740 X1.190692121 Y1.052166571
N745 X1.183340043 Y1.066993803
N750 X1.17476238 Y1.081281872
N755 X1.164981737 Y1.094952831
N760 X1.154027774 Y1.107922201
N765 X1.141938562 Y1.120101298
N770 X1.128753977 Y1.131405342
N775 X1.114507435 Y1.14175819
N780 X1.099261862 Y1.151065
N785 X1.083093703 Y1.159231757
N790 X1.066091492 Y1.166168724
N795 X1.048354802 Y1.171792548
N800 X1.029993568 Y1.176027839
N805 X1.011127036 Y1.178809038
N810 X0.991882039 Y1.180081405
N815 X0.972391864 Y1.179802136
N820 X0.952794683 Y1.177941345
N825 X0.933238052 Y1.174483337
N830 X0.913870203 Y1.169427286
N835 X0.894830058 Y1.162784156
N840 X0.876256237 Y1.154577601
N845 X0.858285258 Y1.144844265
N850 X0.841050636 Y1.133633186
N855 X0.82468153 Y1.121005787
N860 X0.809301166 Y1.107034909
N865 X0.795026013 Y1.091804805
N870 X0.781964655 Y1.075409641
N875 X0.770216889 Y1.057953121
N880 X0.759872827 Y1.039547432
N885 X0.751012141 Y1.020312197
N890 X0.743703842 Y1.00037327
N895 X0.740880741 Y0.990211532
N900 X0.739701264 Y0.985077911
N905 X0.738989762 Y0.979858759
N910 X0.738751945 Y0.974596729
N915 Y0.911533701
N920 X0.740677766 Y0.878565105
N925 X0.743261097 Y0.860057816
N930 X0.747420018 Y0.841374435
N935 X0.753178709 Y0.822716811
N940 X0.76053747 Y0.80427778
N945 X0.769475727 Y0.786239819
N950 X0.779949699 Y0.768782473
N955 X0.791898037 Y0.752072372
N960 X0.805254358 Y0.736250089
N965 X0.819938915 Y0.721448613
N970 X0.835859494 Y0.707791396
N975 X0.852912993 Y0.695391903
N980 X0.870986698 Y0.684352109
N985 X0.889959636 Y0.67476235
N990 X0.909704223 Y0.666700423
N995 X0.930087172 Y0.660231583
N1000 X0.950970988 Y0.655408544
N1005 X0.972215097 Y0.652271181
N1010 X0.993676749 Y0.650846601
N1015 X1.015212142 Y0.651149449
N1020 X1.036677774 Y0.653181977
N1025 X1.057930669 Y0.656934122
N1030 X1.078830028 Y0.662384108
N1035 X1.099237682 Y0.669498293
N1040 X1.119019065 Y0.678232148
N1045 X1.138044117 Y0.688529878
N1050 X1.156188109 Y0.700325703
N1055 X1.173388338 Y0.713587033
N1060 X1.191627773 Y0.730146048
N1065 X1.210035039 Y0.749774392
N1070 X1.227133143 Y0.771225081
N1075 X1.242648673 Y0.794267054
N1080 X1.247813382 Y0.803451163
N1085 X1.249790567 Y0.807293644
N1090 X1.251477895 Y0.811271968
N1095 X1.252866054 Y0.815364282
N1100 X1.255157275 Y0.823042562
N1105 X1.256303787 Y0.831891683
N1110 X1.260662229 Y0.876137215
N1115 X1.260986028 Y0.884986337
N1120 X1.261252005 Y0.911533701
N1125 Y1.017723083
N1130 X1.260152802 Y1.039677943
N1135 X1.258181024 Y1.054717837
N1140 X1.254777082 Y1.070632784
N1145 X1.249929713 Y1.086814685
N1150 X1.243613311 Y1.103032931
N1155 X1.235597866 Y1.119552898
N1160 X1.225820601 Y1.136160873
N1165 X1.214274234 Y1.152596286
N1170 X1.201039787 Y1.16854157
N1175 X1.18624537 Y1.183704241
N1180 X1.169932358 Y1.197935465
N1185 X1.152065082 Y1.211155493
N1190 X1.132671176 Y1.22322443
N1195 X1.111885882 Y1.23394846
N1200 X1.089857432 Y1.24315765
N1205 X1.066745473 Y1.250704893
N1210 X1.042719338 Y1.25646471
N1215 X1.017957672 Y1.260332573
N1220 X0.992646255 Y1.262224453
N1225 X0.966974919 Y1.262077121
N1230 X0.941135452 Y1.259847326
N1235 X0.915322416 Y1.255511336
N1240 X0.889740291 Y1.249067276
N1245 X0.864577106 Y1.240529413
N1250 X0.840015862 Y1.22992876
N1255 X0.816236856 Y1.217312625
N1260 X0.793415881 Y1.202744987
N1265 X0.771722718 Y1.186305744
N1270 X0.758235886 Y1.174264668
N1275 X0.750001322 Y1.16518689
N1280 X0.743845316 Y1.15458894
N1285 X0.74003948 Y1.142938644
N1290 X0.738751945 Y1.130750311
N1295 Y0.974596729
N1300 G3 X0.766008933 Y0.950572697 I0.024984765 J0.000872499
N1305 G1 X1.238539388 Y0.993699051
N1310 G3 X1.261252005 Y1.017723083 I-0.002272223 J0.024896532
N1315 G1 Y1.141610784
N1320 X1.260722904 Y1.152178772
N1325 X1.259470737 Y1.161729332
N1330 X1.257128603 Y1.172680141
N1335 X1.253785111 Y1.183841585
N1340 X1.248946978 Y1.196264207
N1345 X1.242786918 Y1.20896009
N1350 X1.234931195 Y1.222304096
N1355 X1.225031229 Y1.236396024
N1360 X1.213729588 Y1.25001254
N1365 X1.199969494 Y1.264115131
N1370 X1.183840609 Y1.278185807
N1375 X1.166215656 Y1.291226515
N1380 X1.146260584 Y1.303644706
N1385 X1.123897222 Y1.315182964
N1390 X1.099381409 Y1.325431884
N1395 X1.073112263 Y1.334010147
N1400 X1.045616105 Y1.340601914
N1405 X1.016973886 Y1.345075773
N1410 X0.987086484 Y1.347309773
N1415 X0.956274919 Y1.347133006
N1420 X0.924895204 Y1.344425021
N1425 X0.893279173 Y1.339114332
N1430 X0.861737935 Y1.331169098
N1435 X0.830563973 Y1.320591874
N1440 X0.800033179 Y1.307414648
N1445 X0.773518179 Y1.293346976
N1450 X0.765698425 Y1.288355279
N1455 X0.75653324 Y1.281118017
N1460 X0.748993355 Y1.272200036
N1465 X0.743380945 Y1.261958926
N1470 X0.739920909 Y1.250805141
N1475 X0.738751945 Y1.239185709
N1480 Y1.130750311
N1485 G3 X0.764311167 Y1.106629409 I0.024984765 J0.000872499
N1490 G1 X1.236841622 Y1.117489807
N1495 G3 X1.261252005 Y1.141610784 I-0.000574457 J0.024993401
N1500 G1 Y1.238951045
N1505 X1.260951936 Y1.244943499
N1510 X1.259720494 Y1.253940552
N1515 X1.257628043 Y1.263459874
N1520 X1.254370006 Y1.274116246
N1525 X1.25003244 Y1.285069683
N1530 X1.244104641 Y1.297112713
N1535 X1.23677479 Y1.309403697
N1540 X1.227548029 Y1.322380426
N1545 X1.216235574 Y1.335853967
N1550 X1.20320628 Y1.349057175
N1555 X1.187148657 Y1.362906178
N1560 X1.16931247 Y1.375947487
N1565 X1.14900176 Y1.388428005
N1570 X1.125584099 Y1.400342776
N1575 X1.099442309 Y1.41109797
N1580 X1.071880446 Y1.41992599
N1585 X1.041948288 Y1.426922505
N1590 X1.009585238 Y1.431790149
N1595 X0.975301322 Y1.434157364
N1600 X0.939586519 Y1.433750213
N1605 X0.902907679 Y1.430375707
N1610 X0.865706722 Y1.423909946
N1615 X0.829282295 Y1.414514977
N1620 X0.799833959 Y1.404336794
N1625 X0.778321844 Y1.394907283
N1630 X0.7694544 Y1.39013801
N1635 X0.759109287 Y1.383042373
N1640 X0.750520436 Y1.373899114
N1645 X0.744085087 Y1.363130855
N1650 X0.740100831 Y1.351235607
N1655 X0.738751945 Y1.33876365
N1660 Y1.239185709
N1665 G3 X0.76372432 Y1.215058199 I0.024984765 J0.000872499
N1670 G1 X1.236267165 Y1.214823535
N1675 G3 X1.261252005 Y1.238951045 I0. J0.025000009
N1680 G1 Y1.323460106
N1685 X1.260819172 Y1.332104
N1690 X1.259710582 Y1.340560162
N1695 X1.257725663 Y1.34984054
N1700 X1.254681339 Y1.360003404
N1705 X1.25051949 Y1.370689362
N1710 X1.244874489 Y1.382323888
N1715 X1.23781467 Y1.394315855
N1720 X1.228845701 Y1.407082625
N1725 X1.217943402 Y1.4202181
N1730 X1.204993931 Y1.433489942
N1735 X1.189072001 Y1.447379946
N1740 X1.171676005 Y1.460251245
N1745 X1.150827107 Y1.473225721
N1750 X1.126573142 Y1.48573928
N1755 X1.100813873 Y1.49650814
N1760 X1.071420054 Y1.50610676
N1765 X1.038500718 Y1.513998677
N1770 X1.002585719 Y1.519608535
N1775 X0.964999762 Y1.522417894
N1780 X0.926185893 Y1.52219517
N1785 X0.887339509 Y1.518843043
N1790 X0.848864082 Y1.512524462
N1795 X0.817886713 Y1.504884705
N1800 X0.793567492 Y1.49676766
N1805 X0.77462294 Y1.488702429
N1810 X0.7700019 Y1.486279946
N1815 X0.759487077 Y1.479214946
N1820 X0.750745413 Y1.470046456
N1825 X0.744189165 Y1.459207159
N1830 X0.740127488 Y1.447207984
N1835 X0.738751945 Y1.434614977
N1840 Y1.33876365
N1845 G3 X0.762927513 Y1.314649206 I0.024984765 J0.000872574
N1850 G1 X1.235457969 Y1.299345662
N1855 G3 X1.261252005 Y1.323460106 I0.000809196 J0.024986868
N1860 G1 Y1.407084277
N1865 X1.260688662 Y1.418336883
N1870 X1.259611385 Y1.426553801
N1875 X1.257599808 Y1.435958682
N1880 X1.254648749 Y1.445810213
N1885 X1.250430655 Y1.456640649
N1890 X1.244885077 Y1.468070173
N1895 X1.237726061 Y1.480230797
N1900 X1.228800571 Y1.492935541
N1905 X1.217733293 Y1.50626971
N1910 X1.204884146 Y1.519438676
N1915 X1.188736187 Y1.533526023
N1920 X1.171093738 Y1.546579646
N1925 X1.149508484 Y1.560012337
N1930 X1.124492555 Y1.57291908
N1935 X1.097505975 Y1.584201122
N1940 X1.066008966 Y1.594486387
N1945 X1.030649425 Y1.602963275
N1950 X0.992698519 Y1.608891224
N1955 X0.953816166 Y1.611797453
N1960 X0.914825755 Y1.61164066
N1965 X0.875955492 Y1.608577488
N1970 X0.84010342 Y1.602963125
N1975 X0.812620178 Y1.596363248
N1980 X0.791388459 Y1.589420949
N1985 X0.773171402 Y1.581796811
N1990 X0.77031879 Y1.580323647
N1995 X0.759706047 Y1.573277271
N2000 X0.750875924 Y1.564095264
N2005 X0.744249539 Y1.553215417
N2010 X0.740142957 Y1.541156468
N2015 X0.738751945 Y1.528493626
N2020 Y1.434614977
N2025 G3 X0.762282619 Y1.41052982 I0.024984765 J0.000872424
N2030 G1 X1.234813074 Y1.38299912
N2035 G3 X1.261252005 Y1.407084277 I0.001454091 J0.024957582
N2040 G1 Y1.495575492
N2045 X1.260826081 Y1.504082717
N2050 X1.25974152 Y1.512354903
N2055 X1.257730018 Y1.521759934
N2060 X1.254748022 Y1.531714342
N2065 X1.250529928 Y1.542544928
N2070 X1.244886804 Y1.55417555
N2075 X1.237727713 Y1.566336174
N2080 X1.228599548 Y1.579329573
N2085 X1.217532195 Y1.592663742
N2090 X1.204276047 Y1.606249922
N2095 X1.187913549 Y1.620524399
N2100 X1.169708733 Y1.633994035
N2105 X1.146964651 Y1.648147913
N2110 X1.12194249 Y1.66105796
N2115 X1.093221649 Y1.673064945
N2120 X1.060020267 Y1.683906795
N2125 X1.023210766 Y1.692731212
N2130 X0.984687129 Y1.698748671
N2135 X0.945810784 Y1.701733146
N2140 X0.906819997 Y1.701775198
N2145 X0.868546193 Y1.698973047
N2150 X0.834727175 Y1.693743308
N2155 X0.80941358 Y1.687715636
N2160 X0.789825485 Y1.681352
N2165 X0.772076404 Y1.673963652
N2170 X0.770417912 Y1.673111202
N2175 X0.759774531 Y1.666070833
N2180 X0.750916774 Y1.656884772
N2185 X0.744268462 Y1.645992159
N2190 X0.740147763 Y1.633914737
N2195 X0.738751945 Y1.621230118
N2200 Y1.528493626
N2205 G3 X0.761999371 Y1.504426641 I0.024984765 J0.000872574
N2210 G1 X1.234529826 Y1.471508357
N2215 G3 X1.261252005 Y1.495575492 I0.001737339 J0.02493956
N2220 G1 Y1.584066556
N2225 X1.260941122 Y1.590275952
N2230 X1.259840417 Y1.59867144
N2235 X1.25782884 Y1.608076321
N2240 X1.254782714 Y1.618245343
N2245 X1.250564545 Y1.629075929
N2250 X1.244743903 Y1.641072401
N2255 X1.237584888 Y1.653233025
N2260 X1.228222284 Y1.666559985
N2265 X1.217155006 Y1.679894154
N2270 X1.203386802 Y1.69400508
N2275 X1.187022352 Y1.708281209
N2280 X1.167934898 Y1.722403999
N2285 X1.144354738 Y1.737078119
N2290 X1.119100466 Y1.750107863
N2295 X1.089072115 Y1.762661521
N2300 X1.054733682 Y1.773874778
N2305 X1.016817243 Y1.782964571
N2310 X0.978293832 Y1.788983232
N2315 X0.939423869 Y1.79205076
N2320 X0.900433383 Y1.792191933
N2325 X0.864027429 Y1.789560693
N2330 X0.831629986 Y1.784581462
N2335 X0.807458547 Y1.778849504
N2340 X0.788696619 Y1.772773773
N2345 X0.771330811 Y1.765563695
N2350 X0.770466121 Y1.765120349
N2355 X0.759807872 Y1.758082983
N2360 X0.750936673 Y1.748894819
N2365 X0.744277699 Y1.737996349
N2370 X0.740150166 Y1.725909766
N2375 X0.738751945 Y1.713214634
N2380 Y1.621230118
N2385 G3 X0.761776571 Y1.597179653 I0.024984765 J0.000872574
N2390 G1 X1.234307026 Y1.560016091
N2395 G3 X1.261252005 Y1.584066556 I0.001960139 J0.024923039
N2400 G1 Y1.668575617
N2405 X1.260811813 Y1.677368945
N2410 X1.259696465 Y1.68587542
N2415 X1.257684963 Y1.6952803
N2420 X1.254568175 Y1.705684962
N2425 X1.250350081 Y1.716515398
N2430 X1.244381281 Y1.728817196
N2435 X1.237200339 Y1.741015066
N2440 X1.227607276 Y1.754670181
N2445 X1.216528735 Y1.768017866
N2450 X1.202298938 Y1.782601875
N2455 X1.185934412 Y1.796878154
N2460 X1.166118186 Y1.811540108
N2465 X1.142226767 Y1.826407966
N2470 X1.116310705 Y1.83977908
N2475 X1.085371108 Y1.852713758
N2480 X1.050204179 Y1.864197498
N2485 X1.012287741 Y1.873287291
N2490 X0.973774167 Y1.879368429
N2495 X0.93490961 Y1.882503089
N2500 X0.895919274 Y1.88269908
N2505 X0.86054434 Y1.880111995
N2510 X0.829361818 Y1.87529241
N2515 X0.805871768 Y1.869700875
N2520 X0.787628504 Y1.863775779
N2525 X0.770421892 Y1.856599042
N2530 X0.759777309 Y1.849559123
N2535 X0.750918426 Y1.840372761
N2540 X0.744269213 Y1.829479698
N2545 X0.740147989 Y1.817401375
N2550 X0.738751945 Y1.804716005
N2555 Y1.713214634
N2560 G3 X0.76138549 Y1.689197961 I0.024984765 J0.000872424
N2565 G1 X1.233915945 Y1.644558944
N2570 G3 X1.261252005 Y1.668575617 I0.00235122 J0.024889248
N2575 G1 Y1.757066832
N2580 X1.260855968 Y1.764978274
N2585 X1.259718842 Y1.773650853
N2590 X1.257707341 Y1.783055734
N2595 X1.254514409 Y1.793714508
N2600 X1.250291434 Y1.80455756
N2605 X1.244226516 Y1.817057452
N2610 X1.236985049 Y1.829358048
N2615 X1.227202678 Y1.843282594
N2620 X1.216045815 Y1.856724747
N2625 X1.20140699 Y1.871727921
N2630 X1.185026244 Y1.886018318
N2635 X1.164581344 Y1.901145394
N2640 X1.140676033 Y1.916021963
N2645 X1.113986293 Y1.929792269
N2650 X1.082409686 Y1.942993224
N2655 X1.046716435 Y1.954648776
N2660 X1.008799996 Y1.963738569
N2665 X0.970291378 Y1.969851246
N2670 X0.931428699 Y1.973008584
N2675 X0.892438438 Y1.97320863
N2680 X0.857660414 Y1.970595863
N2685 X0.827503955 Y1.965873748
N2690 X0.80448834 Y1.960346943
N2695 X0.786592228 Y1.954495438
N2700 X0.774565194 Y1.94946199
N2705 X0.764529386 Y1.944054431
N2710 X0.755736959 Y1.936798246
N2715 X0.748523727 Y1.927970526
N2720 X0.743165129 Y1.917908436
N2725 X0.739865866 Y1.906996299
N2730 X0.738751945 Y1.895650879
N2735 Y1.804716005
N2740 G3 X0.761228471 Y1.780714651 I0.024984765 J0.000872424
N2745 G1 X1.233758926 Y1.733065478
N2750 G3 X1.261252005 Y1.757066832 I0.002508239 J0.024873929
N2755 G1 Y1.845558046
N2760 X1.260863477 Y1.853319604
N2765 X1.25970878 Y1.862126448
N2770 X1.257697203 Y1.871531479
N2775 X1.254452232 Y1.882364168
N2780 X1.250209733 Y1.893257231
N2785 X1.24409578 Y1.905858198
N2790 X1.236786204 Y1.918274587
N2795 X1.2268957 Y1.932352922
N2800 X1.215612532 Y1.945947212
N2805 X1.200719518 Y1.961210957
N2810 X1.184240101 Y1.975587409
N2815 X1.163326324 Y1.991061413
N2820 X1.139420937 Y2.005937982
N2825 X1.112175288 Y2.019995141
N2830 X1.080153232 Y2.033382326
N2835 X1.044116658 Y2.045150066
N2840 X1.00620022 Y2.054239859
N2845 X0.967693404 Y2.06036395
N2850 X0.928830575 Y2.063519485
N2855 X0.890311369 Y2.063699707
N2860 X0.855931335 Y2.061093248
N2865 X0.826608252 Y2.056481219
N2870 X0.804728561 Y2.05121138
N2875 X0.785653798 Y2.044960082
N2880 X0.774528624 Y2.040295338
N2885 X0.764501977 Y2.034884626
N2890 X0.755718336 Y2.02762814
N2895 X0.748512764 Y2.018802673
N2900 X0.743160098 Y2.008744788
N2905 X0.73986459 Y1.997838508
N2910 X0.738751945 Y1.986499546
N2915 Y1.895650879
N2920 G3 X0.761101265 Y1.871662741 I0.024984765 J0.000872574
N2925 G1 X1.23363172 Y1.821569758
N2930 G3 X1.261252005 Y1.845558046 I0.002635445 J0.024860712
N2935 G1 Y1.934049261
N2940 X1.260842902 Y1.942220823
N2945 X1.259673487 Y1.951140006
N2950 X1.257661985 Y1.960545037
N2955 X1.254383373 Y1.971489764
N2960 X1.250114065 Y1.982451912
N2965 X1.243973454 Y1.995107696
N2970 X1.236594418 Y2.00764198
N2975 X1.226653527 Y2.021792104
N2980 X1.21523324 Y2.035551597
N2985 X1.200201155 Y2.050957867
N2990 X1.183585069 Y2.065453567
N2995 X1.162333676 Y2.081177479
N3000 X1.13842829 Y2.096054047
N3005 X1.110802448 Y2.110307348
N3010 X1.078481449 Y2.123819336
N3015 X1.042230786 Y2.135657063
N3020 X1.004314348 Y2.144746855
N3025 X0.965806931 Y2.150867642
N3030 X0.926943576 Y2.15401687
N3035 X0.889156672 Y2.154173363
N3040 X0.854838138 Y2.151553086
N3045 X0.825910869 Y2.146987314
N3050 X0.804283938 Y2.141766135
N3055 X0.785344492 Y2.135548028
N3060 X0.774499713 Y2.130993821
N3065 X0.764480351 Y2.125580705
N3070 X0.755703618 Y2.118323919
N3075 X0.748504053 Y2.109500254
N3080 X0.743156118 Y2.099445824
N3085 X0.739863613 Y2.08854405
N3090 X0.738751945 Y2.077210194
N3095 Y1.986499546
N3100 G3 X0.760978714 Y1.962524624 I0.024984765 J0.000872424
N3105 G1 X1.233509169 Y1.910074339
N3110 G3 X1.261252005 Y1.934049261 I0.002757996 J0.024847346
N3115 G1 Y2.022540325
N3120 X1.26080085 Y2.031552322
N3125 X1.259619946 Y2.040559063
N3130 X1.257607918 Y2.049966497
N3135 X1.254308505 Y2.060980609
N3140 X1.250011414 Y2.072013945
N3145 X1.243857962 Y2.084696312
N3150 X1.236415698 Y2.097337978
N3155 X1.22645686 Y2.111513784
N3160 X1.214911018 Y2.125424513
N3165 X1.19980767 Y2.140903923
N3170 X1.183056493 Y2.155517368
N3175 X1.161569535 Y2.171415494
N3180 X1.137664149 Y2.186292063
N3185 X1.109789 Y2.200674072
N3190 X1.077275314 Y2.214266709
N3195 X1.040878897 Y2.226151894
N3200 X1.002962458 Y2.235241687
N3205 X0.964453765 Y2.241353763
N3210 X0.925589058 Y2.244487222
N3215 X0.888113487 Y2.24461578
N3220 X0.853957454 Y2.241983489
N3225 X0.825334309 Y2.2374449
N3230 X0.803896236 Y2.232253157
N3235 X0.785066049 Y2.226055926
N3240 X0.781227022 Y2.224440537
N3245 X0.770062649 Y2.218224533
N3250 X0.760519523 Y2.209726619
N3255 X0.753055783 Y2.199354848
N3260 X0.748029393 Y2.187606631
N3265 X0.74484277 Y2.176957468
N3270 X0.743697309 Y2.168108422
N3275 X0.739341045 Y2.12386274
N3280 X0.739017396 Y2.115013693
N3285 X0.738751945 Y2.088466254
N3290 Y2.077210194
N3295 G3 X0.760863522 Y2.053248338 I0.024984765 J0.000872574
N3300 G1 X1.233393977 Y1.99857847
N3305 G3 X1.261252005 Y2.022540325 I0.002873188 J0.02483443
N3310 G1 Y2.088466254
N3315 X1.260986028 Y2.115013693
N3320 X1.260073504 Y2.125524836
N3325 X1.258556261 Y2.134528873
N3330 X1.255990577 Y2.144691738
N3335 X1.252193376 Y2.155863995
N3340 X1.247160979 Y2.167507232
N3345 X1.24025052 Y2.1805158
N3350 X1.231921564 Y2.193548698
N3355 X1.220923747 Y2.208045599
N3360 X1.208167264 Y2.222318875
N3365 X1.191985588 Y2.237733105
N3370 X1.17309285 Y2.253034997
N3375 X1.150836419 Y2.268275464
N3380 X1.123787737 Y2.283765387
N3385 X1.094318675 Y2.297629559
N3390 X1.061011938 Y2.310143418
N3395 X1.023607029 Y2.320861216
N3400 X0.985383537 Y2.328558193
N3405 X0.946685536 Y2.333327166
N3410 X0.907737477 Y2.335153114
N3415 X0.87123578 Y2.333970408
N3420 X0.858970927 Y2.332581798
N3425 X0.848059542 Y2.330273456
N3430 X0.837786967 Y2.325930708
N3435 X0.828528592 Y2.319712301
N3440 X0.823055553 Y2.315221171
N3445 X0.816451846 Y2.309694215
N3450 X0.814206356 Y2.307337663
N3455 X0.787091593 Y2.274297729
N3460 X0.783613385 Y2.269873131
N3465 X0.781061818 Y2.265448683
N3470 X0.761111177 Y2.228124874
N3475 X0.759420095 Y2.224664012
N3480 X0.758220943 Y2.221203001
N3485 X0.748029393 Y2.187606631
N3490 G3 X0.768691761 Y2.156434848 I0.024162127 J-0.006417853
N3495 G1 X1.232493468 Y2.090861103
N3500 G3 X1.260986028 Y2.115013693 I0.003499835 J0.024753781
N3505 G1 X1.260662229 Y2.12386274
N3510 X1.256303787 Y2.168108422
N3515 X1.255157275 Y2.176957468
N3520 X1.252516649 Y2.185806515
N3525 X1.241779027 Y2.221203001
N3530 X1.240613742 Y2.224589671
N3535 X1.238968241 Y2.227976341
N3540 X1.218938227 Y2.265448683
N3545 X1.216384933 Y2.269873131
N3550 X1.212420651 Y2.274892161
N3555 X1.185873062 Y2.307242897
N3560 X1.183558036 Y2.309694215
N3565 X1.177023865 Y2.31515599
N3570 X1.146051602 Y2.3405425
N3575 X1.141627004 Y2.343308306
N3580 X1.101281774 Y2.364860144
N3585 X1.097380946 Y2.366418163
N3590 X1.053134963 Y2.379835084
N3595 X1.050450633 Y2.380487187
N3600 X1.044285767 Y2.381186748
N3605 X1.008888905 Y2.384671789
N3610 X1.000039709 Y2.38541115
N3615 X0.991190512 Y2.384679599
N3620 X0.955793651 Y2.381194558
N3625 X0.949606482 Y2.380487187
N3630 X0.946944455 Y2.379866472
N3635 X0.902698472 Y2.366445797
N3640 X0.89875792 Y2.364869606
N3645 X0.867301611 Y2.348081033
N3650 X0.858452414 Y2.343350808
N3655 X0.854027816 Y2.340601673
N3660 X0.840754021 Y2.329744805
N3665 X0.828528592 Y2.319712301
N3670 G3 X0.821912195 Y2.291489999 I0.016523872 J-0.018760501
N3675 G1 X0.823392346 Y2.287870054 Z-0.479692225
N3680 X0.824836051 Y2.284339243 Z-0.478776431
N3685 X0.826207761 Y2.280984508 Z-0.477275181
N3690 X0.8274737 Y2.277888452 Z-0.475225443
N3695 X0.828602697 Y2.27512731 Z-0.472677688
N3700 X0.829566951 Y2.272769073 Z-0.469694648
N3705 X0.83034272 Y2.270871806 Z-0.466349778
N3710 X0.830910901 Y2.269482228 Z-0.462725438
N3715 X0.831257505 Y2.268634553 Z-0.458910871
N3720 X0.831373995 Y2.268349656 Z-0.455000006
N3725 G0 X0.831373996 Y2.268349655 Z0.199999997
N3730 X0.760242057 Y0.962690368
N3735 Z-0.429999997
N3740 G1 Z-0.455000006 F15.
N3745 X0.760084757 Y0.962425803 Z-0.458910874
N3750 X0.759616727 Y0.961638632 Z-0.462725442
N3755 X0.758849492 Y0.960348239 Z-0.466349783
N3760 X0.757801944 Y0.958586396 Z-0.469694654
N3765 X0.756499876 Y0.956396486 Z-0.472677694
N3770 X0.754975351 Y0.953832433 Z-0.475225449
N3775 X0.753265908 Y0.950957371 Z-0.477275186
N3780 X0.751413638 Y0.947842095 Z-0.478776434
N3785 X0.749464151 Y0.944563312 Z-0.479692227
N3790 X0.747465449 Y0.941201758 Z-0.480000015
N3795 G3 X0.738751945 Y0.911533701 I0.05355482 J-0.03184251
N3800 G1 X0.739017396 Y0.884986337
N3805 X0.739341045 Y0.876137215
N3810 X0.743697309 Y0.831891683
N3815 X0.74484277 Y0.823042562
N3820 X0.747483321 Y0.81419344
N3825 X0.758220943 Y0.778796954
N3830 X0.759420095 Y0.775336018
N3835 X0.761111177 Y0.771875081
N3840 X0.781061818 Y0.734551347
N3845 X0.783613385 Y0.730126824
N3850 X0.787658766 Y0.725011075
N3855 X0.814206356 Y0.692662292
N3860 X0.816451846 Y0.69030574
N3865 X0.823055553 Y0.684778859
N3870 X0.849603217 Y0.662993409
N3875 X0.854027816 Y0.659398282
N3880 X0.858452414 Y0.656649222
N3885 X0.894817367 Y0.637211086
N3890 X0.89875792 Y0.635130499
N3895 X0.902698472 Y0.633554158
N3900 X0.946944455 Y0.620133633
N3905 X0.94961249 Y0.619512843
N3910 X0.955793651 Y0.618804346
N3915 X0.991190512 Y0.615317577
N3920 X1.000039709 Y0.614585726
N3925 X1.008888905 Y0.615325425
N3930 X1.044285767 Y0.618812156
N3935 X1.050458818 Y0.619512843
N3940 X1.053134963 Y0.62016367
N3945 X1.097380946 Y0.633581792
N3950 X1.101281774 Y0.635139811
N3955 X1.141627004 Y0.656691649
N3960 X1.146051602 Y0.659457455
N3965 X1.177023865 Y0.68484404
N3970 X1.183558036 Y0.69030574
N3975 X1.185873062 Y0.692757133
N3980 X1.212908452 Y0.725702226
N3985 X1.216384933 Y0.730126824
N3990 X1.218938227 Y0.734551347
N3995 X1.238968241 Y0.772023689
N4000 X1.240613742 Y0.775410284
N4005 X1.241779027 Y0.778796954
N4010 X1.252866054 Y0.815364282
N4015 X1.253441901 Y0.818266556
N4020 X1.25367082 Y0.821216538
N4025 X1.25367495 Y0.821672349 Z-0.479995848
N4030 X1.253148177 Y0.824621304 Z-0.479754737
N4035 X1.252630298 Y0.827520471 Z-0.479155919
N4040 X1.252128796 Y0.830327958 Z-0.478208046
N4045 X1.250506413 Y0.833094926 Z-0.476635925
N4050 X1.249013819 Y0.835640539 Z-0.474623009
N4055 X1.247681445 Y0.837912898 Z-0.472210336
N4060 X1.245896473 Y0.839498664 Z-0.469269915
N4065 X1.24446385 Y0.840771402 Z-0.466002717
N4070 X1.243416421 Y0.841701932 Z-0.462483646
N4075 X1.2427782 Y0.842268922 Z-0.458793381
N4080 X1.242563818 Y0.842459371 Z-0.455016527
N4085 G0 Z0.199999997
N4090 X2.938243836 Y0.818954303
N4095 Z0.102000002
N4100 G3 X3.061755924 Y1.021811344 Z0.088972315 I0.061756044 J0.10142852 F15.
N4105 X2.938243835 Y0.8189543 Z0.075944628 I-0.061756045 J-0.101428521
N4110 X3.061755926 Y1.021811346 Z0.062916941 I0.061756045 J0.101428522
N4115 X2.938243833 Y0.818954298 Z0.049889254 I-0.061756046 J-0.101428524
N4120 X3.061755927 Y1.021811348 Z0.036861568 I0.061756047 J0.101428525
N4125 X2.938243832 Y0.818954296 Z0.023833881 I-0.061756047 J-0.101428526
N4130 X3.061755929 Y1.021811351 Z0.010806194 I0.061756048 J0.101428527
N4135 X2.93824383 Y0.818954293 Z-0.002221493 I-0.061756049 J-0.101428528
N4140 X3.06175593 Y1.021811353 Z-0.01524918 I0.06175605 J0.101428529
N4145 X2.938243829 Y0.818954291 Z-0.028276867 I-0.06175605 J-0.101428531
N4150 X3.061755932 Y1.021811356 Z-0.041304554 I0.061756051 J0.101428532
N4155 X2.938243827 Y0.818954288 Z-0.05433224 I-0.061756052 J-0.101428533
N4160 X3.061755933 Y1.021811358 Z-0.067359927 I0.061756052 J0.101428534
N4165 X2.938243826 Y0.818954286 Z-0.080387614 I-0.061756053 J-0.101428535
N4170 X3.061755934 Y1.02181136 Z-0.093415301 I0.061756054 J0.101428536
N4175 X2.938243825 Y0.818954284 Z-0.106442988 I-0.061756055 J-0.101428538
N4180 X3.061755936 Y1.021811363 Z-0.119470675 I0.061756055 J0.101428539
N4185 X2.938243823 Y0.818954281 Z-0.132498362 I-0.061756056 J-0.10142854
N4190 X3.061755937 Y1.021811365 Z-0.145526048 I0.061756057 J0.101428541
N4195 X2.938243822 Y0.818954279 Z-0.158553735 I-0.061756057 J-0.101428542
N4200 X3.061755939 Y1.021811367 Z-0.171581422 I0.061756058 J0.101428543
N4205 X2.93824382 Y0.818954277 Z-0.184609109 I-0.061756059 J-0.101428545
N4210 X3.06175594 Y1.02181137 Z-0.197636796 I0.06175606 J0.101428546
N4215 X2.938243819 Y0.818954274 Z-0.210664483 I-0.06175606 J-0.101428547
N4220 X3.061755942 Y1.021811372 Z-0.22369217 I0.061756061 J0.101428548
N4225 X2.938243817 Y0.818954272 Z-0.236719856 I-0.061756062 J-0.101428549
N4230 X3.061755943 Y1.021811374 Z-0.249747543 I0.061756062 J0.101428551
N4235 X2.938243816 Y0.81895427 Z-0.26277523 I-0.061756063 J-0.101428552
N4240 X3.061755944 Y1.021811377 Z-0.275802917 I0.061756064 J0.101428553
N4245 X2.938243815 Y0.818954267 Z-0.288830604 I-0.061756065 J-0.101428554
N4250 X3.061755946 Y1.021811379 Z-0.301858291 I0.061756065 J0.101428555
N4255 X2.938243813 Y0.818954265 Z-0.314885978 I-0.061756066 J-0.101428556
N4260 X3.061755947 Y1.021811381 Z-0.327913664 I0.061756067 J0.101428558
N4265 X2.938243812 Y0.818954263 Z-0.340941351 I-0.061756067 J-0.101428559
N4270 X3.061755949 Y1.021811384 Z-0.353969038 I0.061756068 J0.10142856
N4275 X2.93824381 Y0.81895426 Z-0.366996725 I-0.061756069 J-0.101428561
N4280 X3.06175595 Y1.021811386 Z-0.380024412 I0.06175607 J0.101428562
N4285 X2.938243809 Y0.818954258 Z-0.393052099 I-0.06175607 J-0.101428563
N4290 X3.061755952 Y1.021811388 Z-0.406079785 I0.061756071 J0.101428565
N4295 X2.938243807 Y0.818954256 Z-0.419107472 I-0.061756072 J-0.101428566
N4300 X3.061755953 Y1.021811391 Z-0.432135159 I0.061756072 J0.101428567
N4305 X2.938243806 Y0.818954253 Z-0.445162846 I-0.061756073 J-0.101428568
N4310 X3.061755954 Y1.021811393 Z-0.458190533 I0.061756074 J0.101428569
N4315 X2.938243805 Y0.818954251 Z-0.47121822 I-0.061756075 J-0.10142857
N4320 X3.118749904 Y0.920382823 Z-0.480000015 I0.061756075 J0.101428572
N4325 X2.881249856 I-0.118750024 J0.
N4330 X3.118749904 I0.118750024 J0.
N4335 G1 X3.118913005 Y0.930129149
N4340 X3.12604769 Y0.9684616
N4345 X3.127795542 Y0.974201368
N4350 X3.128913519 Y0.980096276
N4355 X3.129463496 Y0.986071008
N4360 X3.129495636 Y0.992131196
N4365 X3.129006634 Y0.998632326
N4370 X3.127926504 Y1.005528067
N4375 X3.126188564 Y1.012762175
N4380 X3.123733641 Y1.020268868
N4385 X3.120508569 Y1.027973581
N4390 X3.116469496 Y1.035793334
N4395 X3.111582478 Y1.043638244
N4400 X3.105824989 Y1.051412492
N4405 X3.099185914 Y1.05901583
N4410 X3.091667055 Y1.066345305
N4415 X3.083283732 Y1.07329699
N4420 X3.074063579 Y1.079768008
N4425 X3.064048347 Y1.085658111
N4430 X3.0532909 Y1.090871556
N4435 X3.04185642 Y1.095318832
N4440 X3.0298206 Y1.098918314
N4445 X3.017268143 Y1.101597088
N4450 X3.004291865 Y1.103292375
N4455 X2.990990586 Y1.103952213
N4460 X2.977468235 Y1.1035359
N4465 X2.963832044 Y1.102014452
N4470 X2.950191348 Y1.099370371
N4475 X2.93665578 Y1.09559795
N4480 X2.923334377 Y1.090702823
N4485 X2.910334069 Y1.084701433
N4490 X2.897759085 Y1.077620664
N4495 X2.885709748 Y1.069497386
N4500 X2.874281275 Y1.060377632
N4505 X2.863564078 Y1.050315917
N4510 X2.853641961 Y1.039374719
N4515 X2.844592117 Y1.027623499
N4520 X2.836485134 Y1.015138176
N4525 X2.829383189 Y1.002000223
N4530 X2.82334185 Y0.988295998
N4535 X2.818407374 Y0.974116138
N4540 X2.814618809 Y0.959554432
N4545 X2.812005892 Y0.944707525
N4550 X2.810590849 Y0.929673938
N4555 X2.810386598 Y0.914553319
N4560 X2.811397943 Y0.899445917
N4565 X2.81362068 Y0.884451829
N4570 X2.817043094 Y0.869670177
N4575 X2.82164476 Y0.855198733
N4580 X2.827396843 Y0.841132787
N4585 X2.8342642 Y0.827565231
N4590 X2.842202374 Y0.814585198
N4595 X2.851161206 Y0.802278143
N4600 X2.861083324 Y0.790724792
N4605 X2.871904448 Y0.780001062
N4610 X2.883555195 Y0.770177165
N4615 X2.89596017 Y0.761317456
N4620 X2.909039475 Y0.753480055
N4625 X2.922708707 Y0.746716101
N4630 X2.936879256 Y0.741069899
N4635 X2.951459509 Y0.736578543
N4640 X2.966355451 Y0.733271321
N4645 X2.981470664 Y0.731170009
N4650 X2.996707526 Y0.730288423
N4655 X3.011967516 Y0.730632647
N4660 X3.027151513 Y0.732200502
N4665 X3.042162197 Y0.734982228
N4670 X3.056901947 Y0.738959876
N4675 X3.071275846 Y0.744107915
N4680 X3.085190781 Y0.750393229
N4685 X3.098556939 Y0.757775419
N4690 X3.111287815 Y0.766206726
N4695 X3.123301408 Y0.775632933
N4700 X3.134520223 Y0.785993216
N4705 X3.144871569 Y0.797220666
N4710 X3.154288765 Y0.809242969
N4715 X3.162710535 Y0.821982406
N4720 X3.177269162 Y0.848393177
N4725 X3.189677441 Y0.875923502
N4730 X3.197556443 Y0.897979211
N4735 X3.20289732 Y0.917835686
N4740 X3.206319433 Y0.936386003
N4745 X3.208158298 Y0.954338059
N4750 X3.208535863 Y0.971714605
N4755 X3.207545844 Y0.988588859
N4760 X3.205242608 Y1.005057763
N4765 X3.20165499 Y1.021153608
N4770 X3.196800112 Y1.036868358
N4775 X3.190690288 Y1.052166571
N4780 X3.183338135 Y1.066993803
N4785 X3.174760473 Y1.081281872
N4790 X3.16497983 Y1.094952831
N4795 X3.154025941 Y1.107922201
N4800 X3.141936655 Y1.120101298
N4805 X3.12875192 Y1.131405342
N4810 X3.114505377 Y1.14175819
N4815 X3.099259805 Y1.151065
N4820 X3.083091796 Y1.159231757
N4825 X3.06608966 Y1.166168724
N4830 X3.04835282 Y1.171792548
N4835 X3.02999151 Y1.176027839
N4840 X3.011124979 Y1.178809038
N4845 X2.991879981 Y1.180081405
N4850 X2.972389882 Y1.179802136
N4855 X2.952792851 Y1.177941345
N4860 X2.93323607 Y1.174483337
N4865 X2.913868221 Y1.169427286
N4870 X2.894828075 Y1.162784156
N4875 X2.876254104 Y1.154577601
N4880 X2.858283276 Y1.144844265
N4885 X2.841048654 Y1.133633186
N4890 X2.824679698 Y1.121005787
N4895 X2.809299259 Y1.107034909
N4900 X2.795024181 Y1.091804805
N4905 X2.781962597 Y1.075409641
N4910 X2.770214832 Y1.057953121
N4915 X2.759870694 Y1.039547432
N4920 X2.751010084 Y1.020312197
N4925 X2.743701785 Y1.00037327
N4930 X2.740876806 Y0.990204473
N4935 X2.739697254 Y0.985070777
N4940 X2.738985978 Y0.9798517
N4945 X2.738748085 Y0.974589671
N4950 Y0.911533701
N4955 X2.740674357 Y0.878564579
N4960 X2.743258138 Y0.860056764
N4965 X2.74741736 Y0.841372933
N4970 X2.753176351 Y0.822715083
N4975 X2.760535713 Y0.804275678
N4980 X2.76947412 Y0.786237566
N4985 X2.779948618 Y0.768780145
N4990 X2.791897331 Y0.752069969
N4995 X2.805254178 Y0.736247761
N5000 X2.81993896 Y0.721446285
N5005 X2.835860065 Y0.707789218
N5010 X2.852913864 Y0.695389875
N5015 X2.870987719 Y0.684350307
N5020 X2.889960882 Y0.674760698
N5025 X2.909705695 Y0.666698996
N5030 X2.930088794 Y0.660230531
N5035 X2.95097291 Y0.655407793
N5040 X2.972216869 Y0.652270655
N5045 X2.993678596 Y0.650846451
N5050 X3.015214214 Y0.6511496
N5055 X3.036679546 Y0.653182428
N5060 X3.057932516 Y0.656934873
N5065 X3.078831951 Y0.66238516
N5070 X3.099239379 Y0.66949972
N5075 X3.119020537 Y0.6782338
N5080 X3.138045664 Y0.688531831
N5085 X3.156189506 Y0.700327956
N5090 X3.173389585 Y0.713589661
N5095 X3.191628944 Y0.730149051
N5100 X3.21003621 Y0.749777997
N5105 X3.227134164 Y0.771229286
N5110 X3.242649469 Y0.794271409
N5115 X3.247815831 Y0.803459047
N5120 X3.249792865 Y0.807301304
N5125 X3.251480042 Y0.811279327
N5130 X3.252868052 Y0.815371416
N5135 X3.25515717 Y0.823042562
N5140 X3.256303682 Y0.831891683
N5145 X3.260662349 Y0.876137215
N5150 X3.260986148 Y0.884986337
N5155 X3.261251975 Y0.911533701
N5160 Y1.017723083
N5165 X3.260152922 Y1.039675014
N5170 X3.258180994 Y1.054715434
N5175 X3.254777202 Y1.070630832
N5180 X3.249929533 Y1.086812883
N5185 X3.243613055 Y1.103031429
N5190 X3.235597385 Y1.119551696
N5195 X3.225820046 Y1.136159972
N5200 X3.214273528 Y1.15259561
N5205 X3.201038931 Y1.168541045
N5210 X3.186244514 Y1.18370379
N5215 X3.169931427 Y1.197935164
N5220 X3.152063925 Y1.211155268
N5225 X3.132669944 Y1.223224355
N5230 X3.11188435 Y1.23394846
N5235 X3.089855825 Y1.24315765
N5240 X3.066743866 Y1.250704893
N5245 X3.042717581 Y1.256464785
N5250 X3.01795599 Y1.260332573
N5255 X2.992644423 Y1.262224453
N5260 X2.966973012 Y1.262077121
N5265 X2.941133694 Y1.259847326
N5270 X2.915320509 Y1.255511412
N5275 X2.889738308 Y1.249067276
N5280 X2.864575123 Y1.240529488
N5285 X2.840013879 Y1.22992876
N5290 X2.816234799 Y1.217312625
N5295 X2.793413898 Y1.202744987
N5300 X2.771720886 Y1.18630582
N5305 X2.758231876 Y1.17426294
N5310 X2.749997537 Y1.165185162
N5315 X2.743841457 Y1.154587213
N5320 X2.74003547 Y1.142936917
N5325 X2.738748085 Y1.130748584
N5330 Y0.974589671
N5335 G3 X2.766005448 Y0.950565639 I0.024984765 J0.000872499
N5340 G1 X3.238539808 Y0.993699126
N5345 G3 X3.261251975 Y1.017723083 I-0.002272598 J0.024896457
N5350 G1 Y1.141610784
N5355 X3.260723024 Y1.152177495
N5360 X3.259470782 Y1.161728131
N5365 X3.257128498 Y1.17267909
N5370 X3.253785081 Y1.183840459
N5375 X3.248947023 Y1.196263306
N5380 X3.242786738 Y1.208959189
N5385 X3.234930864 Y1.222303421
N5390 X3.225030974 Y1.236395348
N5395 X3.213729258 Y1.250012015
N5400 X3.199969014 Y1.26411483
N5405 X3.183840053 Y1.278185507
N5410 X3.16621495 Y1.291226214
N5415 X3.146259879 Y1.303644556
N5420 X3.123896141 Y1.315182964
N5425 X3.099380253 Y1.325432034
N5430 X3.073111106 Y1.334010297
N5435 X3.045614648 Y1.340601914
N5440 X3.016972579 Y1.345075923
N5445 X2.987084877 Y1.347309773
N5450 X2.956273237 Y1.347133006
N5455 X2.924893597 Y1.344425171
N5460 X2.893277566 Y1.339114482
N5465 X2.861736027 Y1.331169249
N5470 X2.830562141 Y1.320592024
N5475 X2.800031347 Y1.307414798
N5480 X2.773515596 Y1.293346675
N5485 X2.765694566 Y1.288354078
N5490 X2.75652938 Y1.281116816
N5495 X2.748989496 Y1.272198835
N5500 X2.743377085 Y1.261957874
N5505 X2.739917124 Y1.250804015
N5510 X2.738748085 Y1.239184582
N5515 Y1.130748584
N5520 G3 X2.764307458 Y1.106627607 I0.024984765 J0.000872424
N5525 G1 X3.236841818 Y1.117489807
N5530 G3 X3.261251975 Y1.141610784 I-0.000574608 J0.024993401
N5535 G1 Y1.238951045
N5540 X3.260951906 Y1.244943499
N5545 X3.259720389 Y1.253940627
N5550 X3.257628013 Y1.263460174
N5555 X3.254369601 Y1.274116546
N5560 X3.250031959 Y1.285070134
N5565 X3.24410416 Y1.297113313
N5570 X3.236773934 Y1.309404448
N5575 X3.227546872 Y1.322381327
N5580 X3.216234342 Y1.335855018
N5585 X3.203204598 Y1.349058226
N5590 X3.187146825 Y1.362907229
N5595 X3.169310262 Y1.375948688
N5600 X3.148999252 Y1.388429206
N5605 X3.125581216 Y1.400343827
N5610 X3.099439125 Y1.411099021
N5615 X3.071876586 Y1.419926891
N5620 X3.041944128 Y1.426923406
N5625 X3.009581078 Y1.4317906
N5630 X2.975296862 Y1.434157664
N5635 X2.939581984 Y1.433750213
N5640 X2.902902919 Y1.430375407
N5645 X2.865701811 Y1.423909345
N5650 X2.829277159 Y1.414514076
N5655 X2.799828597 Y1.404335593
N5660 X2.778316708 Y1.394905931
N5665 X2.76945009 Y1.390136959
N5670 X2.759105052 Y1.383041472
N5675 X2.750516276 Y1.373898063
N5680 X2.744081152 Y1.363129804
N5685 X2.740096746 Y1.351234857
N5690 X2.738748085 Y1.338762899
N5695 Y1.239184582
N5700 G3 X2.763720535 Y1.215057073 I0.024984765 J0.000872424
N5705 G1 X3.23626721 Y1.214823535
N5710 G3 X3.261251975 Y1.238951045 I0. J0.025000009
N5715 G1 Y1.323460106
N5720 X3.260819142 Y1.332103399
N5725 X3.259710477 Y1.340559862
N5730 X3.257725633 Y1.349840089
N5735 X3.254681384 Y1.360003254
N5740 X3.25051946 Y1.370689062
N5745 X3.244874308 Y1.382323888
N5750 X3.237814716 Y1.394315554
N5755 X3.228845371 Y1.407082625
N5760 X3.217943447 Y1.420217799
N5765 X3.204993601 Y1.433489792
N5770 X3.189071896 Y1.447379946
N5775 X3.171675675 Y1.460251245
N5780 X3.150826402 Y1.473225871
N5785 X3.126572737 Y1.48573943
N5790 X3.100813317 Y1.49650829
N5795 X3.071419123 Y1.50610706
N5800 X3.038499487 Y1.513998978
N5805 X3.002584262 Y1.519608836
N5810 X2.964999282 Y1.522418195
N5815 X2.926185187 Y1.522195471
N5820 X2.887338954 Y1.518843343
N5825 X2.848863376 Y1.512524913
N5830 X2.817885031 Y1.504884855
N5835 X2.793564984 Y1.49676766
N5840 X2.774620357 Y1.488702429
N5845 X2.769998265 Y1.486279495
N5850 X2.759483217 Y1.479214496
N5855 X2.750741553 Y1.470046006
N5860 X2.74418538 Y1.459206709
N5865 X2.740123478 Y1.447207533
N5870 X2.738748085 Y1.434614377
N5875 Y1.338762899
N5880 G3 X2.762923654 Y1.314648456 I0.024984765 J0.000872574
N5885 G1 X3.235458014 Y1.299345662
N5890 G3 X3.261251975 Y1.323460106 I0.000809196 J0.024986868
N5895 G1 Y1.407084277
N5900 X3.260688782 Y1.418336733
N5905 X3.259611355 Y1.426553501
N5910 X3.257599778 Y1.435958382
N5915 X3.254648644 Y1.445810063
N5920 X3.25043055 Y1.456640499
N5925 X3.244885122 Y1.468070023
N5930 X3.237726106 Y1.480230647
N5935 X3.228800616 Y1.492935541
N5940 X3.217733188 Y1.50626971
N5945 X3.204883966 Y1.519438676
N5950 X3.188736082 Y1.533526023
N5955 X3.171093558 Y1.546579646
N5960 X3.149508078 Y1.560012487
N5965 X3.124492075 Y1.57291923
N5970 X3.097505344 Y1.584201272
N5975 X3.06600826 Y1.594486687
N5980 X3.03064872 Y1.602963575
N5985 X2.992697888 Y1.608891525
N5990 X2.95381561 Y1.611797753
N5995 X2.914825199 Y1.61164096
N6000 X2.875954936 Y1.608577788
N6005 X2.840101888 Y1.602963425
N6010 X2.812618045 Y1.596363398
N6015 X2.7913855 Y1.589420949
N6020 X2.773168369 Y1.581796962
N6025 X2.770315155 Y1.580323347
N6030 X2.759702187 Y1.573277121
N6035 X2.750871914 Y1.564094964
N6040 X2.744245754 Y1.553215117
N6045 X2.740139098 Y1.541156168
N6050 X2.738748085 Y1.528493326
N6055 Y1.434614377
N6060 G3 X2.76227876 Y1.410529219 I0.024984765 J0.000872574
N6065 G1 X3.234813119 Y1.38299912
N6070 G3 X3.261251975 Y1.407084277 I0.001454091 J0.024957582
N6075 G1 Y1.495575492
N6080 X3.260826051 Y1.504082567
N6085 X3.259741415 Y1.512354903
N6090 X3.257730139 Y1.521759784
N6095 X3.254748067 Y1.531714342
N6100 X3.250529973 Y1.542544928
N6105 X3.244886624 Y1.55417555
N6110 X3.237727608 Y1.566336174
N6115 X3.228599368 Y1.579329573
N6120 X3.21753224 Y1.592663742
N6125 X3.204276017 Y1.606250072
N6130 X3.187913369 Y1.620524549
N6135 X3.169708552 Y1.633994185
N6140 X3.146964246 Y1.648148214
N6145 X3.121942235 Y1.661058111
N6150 X3.093221169 Y1.673065095
N6155 X3.060019786 Y1.683907096
N6160 X3.02321036 Y1.692731512
N6165 X2.984686724 Y1.698748972
N6170 X2.945810153 Y1.701733446
N6175 X2.906819441 Y1.701775498
N6180 X2.868544811 Y1.698973498
N6185 X2.834725267 Y1.693743608
N6190 X2.809410996 Y1.687715936
N6195 X2.789822376 Y1.6813523
N6200 X2.77207322 Y1.673963802
N6205 X2.770413977 Y1.673111052
N6210 X2.759770671 Y1.666070833
N6215 X2.750912764 Y1.656884621
N6220 X2.744264678 Y1.645992159
N6225 X2.740143904 Y1.633914587
N6230 X2.738748085 Y1.621229968
N6235 Y1.528493326
N6240 G3 X2.761995511 Y1.50442619 I0.024984765 J0.000872424
N6245 G1 X3.234529871 Y1.471508357
N6250 G3 X3.261251975 Y1.495575492 I0.001737339 J0.02493956
N6255 G1 Y1.584066556
N6260 X3.260941092 Y1.590275952
N6265 X3.259840537 Y1.59867144
N6270 X3.25782896 Y1.608076471
N6275 X3.254782609 Y1.618245493
N6280 X3.250564515 Y1.629075929
N6285 X3.244743948 Y1.641072551
N6290 X3.237584933 Y1.653233025
N6295 X3.228222104 Y1.666560135
N6300 X3.217154976 Y1.679894305
N6305 X3.203386622 Y1.69400523
N6310 X3.187022172 Y1.708281359
N6315 X3.167934568 Y1.7224043
N6320 X3.144354633 Y1.737078419
N6325 X3.119100135 Y1.750108163
N6330 X3.08907186 Y1.762661821
N6335 X3.054733276 Y1.773875079
N6340 X3.016816687 Y1.782964872
N6345 X2.978293351 Y1.788983683
N6350 X2.939423388 Y1.79205121
N6355 X2.900432977 Y1.792192384
N6360 X2.864026347 Y1.789561144
N6365 X2.831628154 Y1.784582063
N6370 X2.807456189 Y1.778850105
N6375 X2.788693886 Y1.772774223
N6380 X2.771327702 Y1.765564295
N6385 X2.770462337 Y1.765120499
N6390 X2.759804012 Y1.758083133
N6395 X2.750932889 Y1.748894969
N6400 X2.744273689 Y1.737996349
N6405 X2.740146307 Y1.725909766
N6410 X2.738748085 Y1.713214634
N6415 Y1.621229968
N6420 G3 X2.761772636 Y1.597179503 I0.024984765 J0.000872574
N6425 G1 X3.234306996 Y1.560016091
N6430 G3 X3.261251975 Y1.584066556 I0.001960214 J0.024923039
N6435 G1 Y1.668575617
N6440 X3.260811633 Y1.677369095
N6445 X3.25969636 Y1.68587557
N6450 X3.257685083 Y1.695280451
N6455 X3.254568145 Y1.705685112
N6460 X3.250350051 Y1.716515549
N6465 X3.244381401 Y1.728817347
N6470 X3.237200159 Y1.741015216
N6475 X3.227607246 Y1.754670331
N6480 X3.216528705 Y1.768018017
N6485 X3.202298983 Y1.782602175
N6490 X3.185934232 Y1.796878304
N6495 X3.166117931 Y1.811540408
N6500 X3.142226512 Y1.826408266
N6505 X3.1163106 Y1.839779381
N6510 X3.085370702 Y1.852714058
N6515 X3.050203699 Y1.864197949
N6520 X3.01228741 Y1.873287591
N6525 X2.973773686 Y1.879368729
N6530 X2.93490913 Y1.88250354
N6535 X2.895918718 Y1.882699681
N6540 X2.860543259 Y1.880112746
N6545 X2.829360061 Y1.875293161
N6550 X2.805869335 Y1.869701626
N6555 X2.787625771 Y1.86377653
N6560 X2.770418182 Y1.856599342
N6565 X2.759773675 Y1.849559273
N6570 X2.750914566 Y1.840372912
N6575 X2.744265278 Y1.829479998
N6580 X2.740144204 Y1.817401676
N6585 X2.738748085 Y1.804716155
N6590 Y1.713214634
N6595 G3 X2.761381555 Y1.689197961 I0.024984765 J0.000872424
N6600 G1 X3.233915915 Y1.644558944
N6605 G3 X3.261251975 Y1.668575617 I0.002351295 J0.024889248
N6610 G1 Y1.757066832
N6615 X3.260855787 Y1.764978424
N6620 X3.259718887 Y1.773651003
N6625 X3.25770731 Y1.783055884
N6630 X3.254514379 Y1.793714658
N6635 X3.250291479 Y1.80455771
N6640 X3.244226411 Y1.817057602
N6645 X3.236985094 Y1.829358199
N6650 X3.227202648 Y1.843282745
N6655 X3.21604571 Y1.856724897
N6660 X3.201406884 Y1.871728221
N6665 X3.185026214 Y1.886018618
N6670 X3.164581239 Y1.901145695
N6675 X3.140676003 Y1.916022263
N6680 X3.113986038 Y1.929792569
N6685 X3.082409356 Y1.942993525
N6690 X3.046715804 Y1.954649227
N6695 X3.008799515 Y1.96373902
N6700 X2.970290897 Y1.969851697
N6705 X2.931428143 Y1.973009185
N6710 X2.892437732 Y1.973209381
N6715 X2.857659407 Y1.970596764
N6720 X2.827501973 Y1.965874649
N6725 X2.804486132 Y1.960347694
N6730 X2.786589495 Y1.954496188
N6735 X2.774561484 Y1.94946244
N6740 X2.764525526 Y1.944054881
N6745 X2.7557331 Y1.936798696
N6750 X2.748520018 Y1.927970976
N6755 X2.743161119 Y1.917908886
N6760 X2.739861856 Y1.90699675
N6765 X2.738748085 Y1.895651329
N6770 Y1.804716155
N6775 G3 X2.761224461 Y1.780714801 I0.024984765 J0.000872424
N6780 G1 X3.233759122 Y1.733065478
N6785 G3 X3.261251975 Y1.757066832 I0.002508088 J0.024873929
N6790 G1 Y1.845558046
N6795 X3.260863297 Y1.853319754
N6800 X3.259708675 Y1.862126748
N6805 X3.257697098 Y1.871531629
N6810 X3.254452202 Y1.882364318
N6815 X3.250209778 Y1.893257532
N6820 X3.24409575 Y1.905858498
N6825 X3.236786249 Y1.918274737
N6830 X3.22689567 Y1.932353222
N6835 X3.215612577 Y1.945947512
N6840 X3.200719338 Y1.961211257
N6845 X3.184240146 Y1.97558771
N6850 X3.163326293 Y1.991061864
N6855 X3.139420757 Y2.005938432
N6860 X3.112174808 Y2.019995742
N6865 X3.080152677 Y2.033382776
N6870 X3.044116103 Y2.045150667
N6875 X3.006199514 Y2.05424046
N6880 X2.967692698 Y2.06036455
N6885 X2.928829944 Y2.063520236
N6890 X2.890310212 Y2.063700458
N6895 X2.855929577 Y2.061094149
N6900 X2.826605669 Y2.05648197
N6905 X2.804725827 Y2.051212281
N6910 X2.785650539 Y2.044960983
N6915 X2.774524839 Y2.040295789
N6920 X2.764498192 Y2.034885226
N6925 X2.755714477 Y2.027628591
N6930 X2.748508904 Y2.018803123
N6935 X2.743156313 Y2.008745389
N6940 X2.739860655 Y1.997838959
N6945 X2.738748085 Y1.986499997
N6950 Y1.895651329
N6955 G3 X2.761097405 Y1.871663041 I0.024984765 J0.000872424
N6960 G1 X3.233631765 Y1.821569758
N6965 G3 X3.261251975 Y1.845558046 I0.002635445 J0.024860712
N6970 G1 Y1.934049261
N6975 X3.260842871 Y1.942221123
N6980 X3.259673532 Y1.951140306
N6985 X3.257661955 Y1.960545187
N6990 X3.254383418 Y1.971490064
N6995 X3.25011396 Y1.982452212
N7000 X3.243973499 Y1.995107996
N7005 X3.236594313 Y2.00764228
N7010 X3.226653572 Y2.021792404
N7015 X3.21523321 Y2.035552047
N7020 X3.2002012 Y2.050958318
N7025 X3.183585039 Y2.065454017
N7030 X3.162333571 Y2.081177929
N7035 X3.138428035 Y2.096054498
N7040 X3.110802117 Y2.110307949
N7045 X3.078480818 Y2.123820087
N7050 X3.04223008 Y2.135657814
N7055 X3.004313491 Y2.144747606
N7060 X2.965806075 Y2.150868393
N7065 X2.92694272 Y2.154017771
N7070 X2.88915529 Y2.154174264
N7075 X2.854836231 Y2.151554138
N7080 X2.825908511 Y2.146988366
N7085 X2.804280979 Y2.141767036
N7090 X2.785341458 Y2.13554893
N7095 X2.774496003 Y2.130994571
N7100 X2.764476566 Y2.125581456
N7105 X2.755699758 Y2.11832467
N7110 X2.748500193 Y2.109501005
N7115 X2.743152108 Y2.099446575
N7120 X2.739859754 Y2.08854465
N7125 X2.738748085 Y2.077210794
N7130 Y1.986499997
N7135 G3 X2.760974854 Y1.962525075 I0.024984765 J0.000872574
N7140 G1 X3.233509214 Y1.910074339
N7145 G3 X3.261251975 Y1.934049261 I0.002757996 J0.024847346
N7150 G1 Y2.022540325
N7155 X3.26080082 Y2.031552623
N7160 X3.259620066 Y2.040559513
N7165 X3.257607888 Y2.049966797
N7170 X3.254308625 Y2.06098106
N7175 X3.250011534 Y2.072014396
N7180 X3.243857857 Y2.084696762
N7185 X3.236415593 Y2.097338429
N7190 X3.22645683 Y2.111514234
N7195 X3.214910913 Y2.125424963
N7200 X3.199807415 Y2.140904374
N7205 X3.183056388 Y2.155517818
N7210 X3.16156913 Y2.171416095
N7215 X3.137663894 Y2.186292663
N7220 X3.109788669 Y2.200674673
N7225 X3.077274833 Y2.21426746
N7230 X3.040878116 Y2.226152796
N7235 X3.002961527 Y2.235242588
N7240 X2.964452909 Y2.241354664
N7245 X2.925588352 Y2.244488123
N7250 X2.888112106 Y2.244616831
N7255 X2.853955547 Y2.24198454
N7260 X2.825331801 Y2.237445951
N7265 X2.803893202 Y2.232254209
N7270 X2.785063015 Y2.226057128
N7275 X2.781227893 Y2.224443391
N7280 X2.770063445 Y2.218227386
N7285 X2.760520394 Y2.209729472
N7290 X2.753056504 Y2.199357551
N7295 X2.748030114 Y2.187609485
N7300 X2.74484289 Y2.176957468
N7305 X2.743696078 Y2.168108422
N7310 X2.739337711 Y2.12386274
N7315 X2.739013912 Y2.115013693
N7320 X2.738748085 Y2.088466254
N7325 Y2.077210794
N7330 G3 X2.760859512 Y2.053248939 I0.024984765 J0.000872574
N7335 G1 X3.233393872 Y1.99857847
N7340 G3 X3.261251975 Y2.022540325 I0.002873338 J0.02483443
N7345 G1 Y2.088466254
N7350 X3.260986148 Y2.115013693
N7355 X3.260073324 Y2.125525287
N7360 X3.258556156 Y2.134529324
N7365 X3.255990697 Y2.144692188
N7370 X3.252193421 Y2.155864445
N7375 X3.247161024 Y2.167507682
N7380 X3.240250415 Y2.18051625
N7385 X3.231921459 Y2.193549149
N7390 X3.220923717 Y2.2080462
N7395 X3.208167009 Y2.222319475
N7400 X3.191985483 Y2.237733706
N7405 X3.173092519 Y2.253035598
N7410 X3.150836013 Y2.268276064
N7415 X3.123787407 Y2.283766138
N7420 X3.09431812 Y2.29763046
N7425 X3.061011307 Y2.310144319
N7430 X3.023605947 Y2.320862117
N7435 X2.98538238 Y2.328559245
N7440 X2.946684529 Y2.333328217
N7445 X2.90773647 Y2.335154316
N7450 X2.871234323 Y2.333971609
N7455 X2.858973225 Y2.33258345
N7460 X2.848061689 Y2.330275108
N7465 X2.83778904 Y2.32593236
N7470 X2.82853074 Y2.319713953
N7475 X2.8229763 Y2.31515599
N7480 X2.816442054 Y2.309694215
N7485 X2.814127104 Y2.307242897
N7490 X2.787091413 Y2.274297729
N7495 X2.783614932 Y2.269873131
N7500 X2.781061788 Y2.265448683
N7505 X2.761031624 Y2.227976341
N7510 X2.759386198 Y2.224589671
N7515 X2.758221063 Y2.221203001
N7520 X2.748030114 Y2.187609485
N7525 G3 X2.768692557 Y2.156437701 I0.024162353 J-0.006418003
N7530 G1 X3.232493363 Y2.090861103
N7535 G3 X3.260986148 Y2.115013693 I0.00349991 J0.024753781
N7540 G1 X3.260662349 Y2.12386274
N7545 X3.256303682 Y2.168108422
N7550 X3.25515717 Y2.176957468
N7555 X3.252516619 Y2.185806515
N7560 X3.241778997 Y2.221203001
N7565 X3.24057992 Y2.224664012
N7570 X3.238888838 Y2.228124874
N7575 X3.218938272 Y2.265448683
N7580 X3.21638663 Y2.269873131
N7585 X3.212341249 Y2.27498888
N7590 X3.185793659 Y2.307337663
N7595 X3.183548094 Y2.309694215
N7600 X3.176944462 Y2.315221171
N7605 X3.150396873 Y2.337006546
N7610 X3.145972124 Y2.340601673
N7615 X3.141547676 Y2.343350808
N7620 X3.105182498 Y2.362788944
N7625 X3.101241945 Y2.364869606
N7630 X3.097301693 Y2.366445797
N7635 X3.05305541 Y2.379866472
N7640 X3.050393533 Y2.380487187
N7645 X3.044206214 Y2.381194558
N7650 X3.008809428 Y2.384679599
N7655 X2.999960231 Y2.38541115
N7660 X2.991111034 Y2.384671789
N7665 X2.955714248 Y2.381186748
N7670 X2.949549457 Y2.380487187
N7675 X2.946865052 Y2.379835084
N7680 X2.902619069 Y2.366418163
N7685 X2.898718166 Y2.364860144
N7690 X2.858373086 Y2.343308306
N7695 X2.853948338 Y2.3405425
N7700 X2.82853074 Y2.319713953
N7705 G3 X2.821914192 Y2.291491651 I0.016523647 J-0.018760501
N7710 G1 X2.823394357 Y2.28787171 Z-0.479692231
N7715 X2.824838075 Y2.284340903 Z-0.478776441
N7720 X2.8262098 Y2.280986168 Z-0.477275197
N7725 X2.827475754 Y2.277890112 Z-0.475225462
N7730 X2.828604766 Y2.27512897 Z-0.472677708
N7735 X2.829569036 Y2.272770731 Z-0.469694668
N7740 X2.830344821 Y2.270873462 Z-0.466349796
N7745 X2.830913018 Y2.269483882 Z-0.462725452
N7750 X2.831259637 Y2.268636206 Z-0.458910879
N7755 X2.831376143 Y2.268351308 Z-0.455000006
N7760 G0 Y2.268351307 Z0.199999997
N7765 X2.760238047 Y0.962690368
N7770 Z-0.429999997
N7775 G1 Z-0.455000006 F15.
N7780 X2.760080755 Y0.962425804 Z-0.458910868
N7785 X2.759612733 Y0.961638634 Z-0.462725432
N7790 X2.758845506 Y0.960348241 Z-0.466349771
N7795 X2.757797966 Y0.958586399 Z-0.469694641
N7800 X2.756495907 Y0.956396491 Z-0.47267768
N7805 X2.75497139 Y0.953832438 Z-0.475225436
N7810 X2.753261954 Y0.950957376 Z-0.477275176
N7815 X2.751409691 Y0.947842099 Z-0.478776427
N7820 X2.74946021 Y0.944563315 Z-0.479692223
N7825 X2.747461514 Y0.941201758 Z-0.480000015
N7830 G3 X2.738748085 Y0.911533701 I0.053554745 J-0.03184251
N7835 G1 X2.739013912 Y0.884986337
N7840 X2.739337711 Y0.876137215
N7845 X2.743696078 Y0.831891683
N7850 X2.74484289 Y0.823042562
N7855 X2.747483441 Y0.81419344
N7860 X2.758221063 Y0.778796954
N7865 X2.759386198 Y0.775410284
N7870 X2.761031624 Y0.772023689
N7875 X2.781061788 Y0.734551347
N7880 X2.783614932 Y0.730126824
N7885 X2.787579214 Y0.725107794
N7890 X2.814127104 Y0.692757133
N7895 X2.816442054 Y0.69030574
N7900 X2.8229763 Y0.68484404
N7905 X2.853948338 Y0.659457455
N7910 X2.858373086 Y0.656691649
N7915 X2.898718166 Y0.635139811
N7920 X2.902619069 Y0.633581792
N7925 X2.946865052 Y0.62016367
N7930 X2.949541047 Y0.619512843
N7935 X2.955714248 Y0.618812156
N7940 X2.991111034 Y0.615325425
N7945 X2.999960231 Y0.614585726
N7950 X3.008809428 Y0.615317577
N7955 X3.044206214 Y0.618804346
N7960 X3.050387525 Y0.619512843
N7965 X3.05305541 Y0.620133633
N7970 X3.097301693 Y0.633554158
N7975 X3.101241945 Y0.635130499
N7980 X3.13269848 Y0.651919072
N7985 X3.141547676 Y0.656649222
N7990 X3.145972124 Y0.659398282
N7995 X3.159246069 Y0.670255225
N8000 X3.176944462 Y0.684778859
N8005 X3.183548094 Y0.69030574
N8010 X3.185793659 Y0.692662292
N8015 X3.212908347 Y0.725702226
N8020 X3.21638663 Y0.730126824
N8025 X3.218938272 Y0.734551347
N8030 X3.238888838 Y0.771875081
N8035 X3.24057992 Y0.775336018
N8040 X3.241778997 Y0.778796954
N8045 X3.252868052 Y0.815371416
N8050 G3 X3.242565966 Y0.842466505 I-0.024190888 J0.006308068
N8055 G1 X3.239314158 Y0.8446392 Z-0.479692231
N8060 X3.236142419 Y0.846758398 Z-0.478776442
N8065 X3.233128846 Y0.848771916 Z-0.477275198
N8070 X3.230347645 Y0.850630175 Z-0.475225463
N8075 X3.227867298 Y0.852287418 Z-0.472677709
N8080 X3.225748878 Y0.853702838 Z-0.46969467
N8085 X3.22404455 Y0.854841582 Z-0.466349797
N8090 X3.222796279 Y0.85567561 Z-0.462725453
N8095 X3.222034802 Y0.856184386 Z-0.45891088
N8100 X3.221778869 Y0.856355382 Z-0.455000006
N8105 G0 X3.22177887 Z0.599999991
(2D CONTOUR1)
N8110 G0 X3.20625185 Y2.100000006
N8115 Z0.599999991
N8120 Z0.199999997
N8125 G1 Z0.039370079 F10.123
N8130 Z-0.475000021
N8135 G18 G2 X3.231251934 Z-0.499999992 I0.025000084 K0.000000038
N8140 G1 X3.256252018 F15.
N8145 G17 G3 X3.281252103 Y2.12499994 I0. J0.024999934
N8150 X2.718747957 I-0.281252223 J0.
N8155 G1 Y0.875000015
N8160 G3 X3.281252103 I0.281251922 J0.
N8165 G1 Y2.12499994
N8170 G3 X3.256252018 Y2.150000024 I-0.025000084 J0.
N8175 G1 X3.231251934
N8180 G18 G3 X3.20625185 Z-0.475000021 I0. K0.025000009
N8185 G0 Z0.199999997
N8190 X1.206251955 Y0.850001958
N8195 G1 Z0.039370079 F10.123
N8200 Z-0.475000021
N8205 G2 X1.231251964 Z-0.499999992 I0.025000009 K0.000000038
N8210 G1 X1.256251973 F15.
N8215 G17 G3 X1.281251982 Y0.875001967 I0. J0.025000009
N8220 G1 Y2.12499964
N8225 G3 X0.718751967 I-0.281250045 J-0.000001652
N8230 G1 Y0.875000315
N8235 G3 X1.281251982 I0.28124997 J0.000001652
N8240 G1 Y0.875001967
N8245 G3 X1.256251973 Y0.900001976 I-0.025000009 J0.
N8250 G1 X1.231251964
N8255 G18 G3 X1.206251955 Z-0.475000021 I0. K0.025000009
N8260 G0 Z0.599999991
N8265 G17
(BORE2)
N8270 G0 X1.984249926 Y1.521750022
N8275 Z0.599999991
N8280 Z0.080000003
N8285 G1 Z0.025 F15.
N8290 G19 G2 Y1.496749938 Z0. J-0.025000084 K0.
N8295 G1 Y1.484250046
N8300 G17 G3 X1.99999997 Y1.468500002 I0.015750044 J0.
N8305 Y1.531499881 Z-0.019685039 I0. J0.031499938
N8310 Y1.468499995 Z-0.039370079 I0. J-0.031499941
N8315 Y1.531499888 Z-0.059055118 I0. J0.031499945
N8320 Y1.468499989 Z-0.078740158 I0. J-0.031499948
N8325 Y1.531499895 Z-0.098425197 I0. J0.031499951
N8330 Y1.468499982 Z-0.118110237 I0. J-0.031499955
N8335 Y1.531499902 Z-0.137795276 I0. J0.031499958
N8340 Y1.468499975 Z-0.157480315 I0. J-0.031499962
N8345 Y1.531499908 Z-0.177165355 I0. J0.031499965
N8350 Y1.468499968 Z-0.196850394 I0. J-0.031499968
N8355 Y1.531499915 Z-0.216535434 I0. J0.031499972
N8360 Y1.468499961 Z-0.236220473 I0. J-0.031499975
N8365 Y1.531499922 Z-0.255905513 I0. J0.031499979
N8370 Y1.468499954 Z-0.275590552 I0. J-0.031499982
N8375 Y1.531499929 Z-0.295275591 I0. J0.031499986
N8380 Y1.468499948 Z-0.314960631 I0. J-0.031499989
N8385 Y1.531499936 Z-0.33464567 I0. J0.031499992
N8390 Y1.468499941 Z-0.35433071 I0. J-0.031499996
N8395 Y1.531499943 Z-0.374015749 I0. J0.031499999
N8400 Y1.468499934 Z-0.393700789 I0. J-0.031500003
N8405 Y1.531499949 Z-0.413385828 I0. J0.031500006
N8410 Y1.468499927 Z-0.433070867 I0. J-0.031500009
N8415 Y1.531499956 Z-0.452755907 I0. J0.031500013
N8420 Y1.46849992 Z-0.472440946 I0. J-0.031500016
N8425 Y1.531499963 Z-0.492125986 I0. J0.03150002
N8430 X1.970041681 Y1.509734026 Z-0.499999992 I0. J-0.031500023
N8435 X2.029958259 Y1.490265854 I0.029958289 J-0.009734086
N8440 X1.970041681 Y1.509734026 I-0.029958289 J0.009734086
N8445 X1.980153782 Y1.489887838 I0.014979145 J-0.004867043
N8450 G1 X1.992042121 Y1.486025232
N8455 X1.99576157 Y1.4848167 Z-0.499692199
N8460 X1.999389433 Y1.483637926 Z-0.498776402
N8465 X2.00283638 Y1.482517935 Z-0.49727515
N8470 X2.006017536 Y1.481484305 Z-0.495225411
N8475 X2.00885457 Y1.480562486 Z-0.492677654
N8480 X2.011277626 Y1.479775178 Z-0.489694615
N8485 X2.013227038 Y1.479141765 Z-0.486349745
N8490 X2.014654807 Y1.478677845 Z-0.482725407
N8495 X2.015525776 Y1.47839484 Z-0.478910844
N8500 X2.015818499 Y1.478299719 Z-0.474999983
N8505 G0 X2.015818498 Z0.599999991
N8510 G53 Z0.
N8515 M30
%
