%
(DUAL MORTISE CENTERED)
(T1  D=0.5 CR=0. - ZMIN=-0.8 - FLAT END MILL)
N10 G90 G94 G17 G91.1
N15 G20
N20 G53 G0 Z0.
(SLOT1 13)
N25 T1 M6
N30 S3000 M3
N35 G54
N40 G0 X-0.3125 Y-0.5
N45 G43 Z0.75 H1
N50 G0 Z0.1
N55 G1 X0.3125 Z0.0813 F15.
N60 X-0.3125 Z0.0625
N65 X0.3125 Z0.0438
N70 X-0.3125 Z0.025
N75 X0.3125 Z0.0062
N80 X-0.3125 Z-0.0125
N85 X0.3125 Z-0.0312
N90 X-0.3125 Z-0.05
N95 X0.3125
N100 X-0.3125
N105 X0.3125 Z-0.0708
N110 X-0.3125 Z-0.0917
N115 X0.3125 Z-0.1125
N120 X-0.3125 Z-0.1333
N125 X0.3125 Z-0.1542
N130 X-0.3125 Z-0.175
N135 X0.3125 Z-0.1958
N140 X-0.3125 Z-0.2167
N145 X0.3125 Z-0.2375
N150 X-0.3125 Z-0.2583
N155 X0.3125 Z-0.2792
N160 X-0.3125 Z-0.3
N165 X0.3125
N170 X-0.3125
N175 X0.3125 Z-0.3208
N180 X-0.3125 Z-0.3417
N185 X0.3125 Z-0.3625
N190 X-0.3125 Z-0.3833
N195 X0.3125 Z-0.4042
N200 X-0.3125 Z-0.425
N205 X0.3125 Z-0.4458
N210 X-0.3125 Z-0.4667
N215 X0.3125 Z-0.4875
N220 X-0.3125 Z-0.5083
N225 X0.3125 Z-0.5292
N230 X-0.3125 Z-0.55
N235 X0.3125
N240 X-0.3125
N245 X0.3125 Z-0.5708
N250 X-0.3125 Z-0.5917
N255 X0.3125 Z-0.6125
N260 X-0.3125 Z-0.6333
N265 X0.3125 Z-0.6542
N270 X-0.3125 Z-0.675
N275 X0.3125 Z-0.6958
N280 X-0.3125 Z-0.7167
N285 X0.3125 Z-0.7375
N290 X-0.3125 Z-0.7583
N295 X0.3125 Z-0.7792
N300 X-0.3125 Z-0.8
N305 X0.3125
N310 X-0.3125
N315 G0 Z0.75
N320 Y0.5
N325 Z0.1
N330 G1 X0.3125 Z0.0813 F15.
N335 X-0.3125 Z0.0625
N340 X0.3125 Z0.0438
N345 X-0.3125 Z0.025
N350 X0.3125 Z0.0062
N355 X-0.3125 Z-0.0125
N360 X0.3125 Z-0.0312
N365 X-0.3125 Z-0.05
N370 X0.3125
N375 X-0.3125
N380 X0.3125 Z-0.0708
N385 X-0.3125 Z-0.0917
N390 X0.3125 Z-0.1125
N395 X-0.3125 Z-0.1333
N400 X0.3125 Z-0.1542
N405 X-0.3125 Z-0.175
N410 X0.3125 Z-0.1958
N415 X-0.3125 Z-0.2167
N420 X0.3125 Z-0.2375
N425 X-0.3125 Z-0.2583
N430 X0.3125 Z-0.2792
N435 X-0.3125 Z-0.3
N440 X0.3125
N445 X-0.3125
N450 X0.3125 Z-0.3208
N455 X-0.3125 Z-0.3417
N460 X0.3125 Z-0.3625
N465 X-0.3125 Z-0.3833
N470 X0.3125 Z-0.4042
N475 X-0.3125 Z-0.425
N480 X0.3125 Z-0.4458
N485 X-0.3125 Z-0.4667
N490 X0.3125 Z-0.4875
N495 X-0.3125 Z-0.5083
N500 X0.3125 Z-0.5292
N505 X-0.3125 Z-0.55
N510 X0.3125
N515 X-0.3125
N520 X0.3125 Z-0.5708
N525 X-0.3125 Z-0.5917
N530 X0.3125 Z-0.6125
N535 X-0.3125 Z-0.6333
N540 X0.3125 Z-0.6542
N545 X-0.3125 Z-0.675
N550 X0.3125 Z-0.6958
N555 X-0.3125 Z-0.7167
N560 X0.3125 Z-0.7375
N565 X-0.3125 Z-0.7583
N570 X0.3125 Z-0.7792
N575 X-0.3125 Z-0.8
N580 X0.3125
N585 X-0.3125
N590 G0 Z0.75
N595 G53 Z0.
N600 M30
%
