%
(END TENON PARALLEL)
(T1  D=0.5 CR=0. - ZMIN=-0.780000011 - FLAT END MILL)
N10 G90 G94 G17 G91.1
N15 G20
N20 G53 G0 Z0.
(ADAPTIVE1 2)
N25 M9
N30 T1 M6
N35 S3000 M3
N40 G54
N45 G0 X0.169073184 Y-1.170124745
N50 G43 Z0.120094996 H1
N55 G0 Z-0.199999997
N60 G1 Z-0.249999996 F15.
N65 X0.168823234 Y-1.169934043 Z-0.255598222
N70 X0.168076531 Y-1.16936434 Z-0.261126046
N75 X0.166842464 Y-1.168422799 Z-0.266513954
N80 X0.165136553 Y-1.167121261 Z-0.271694188
N85 X0.162980249 Y-1.165476093 Z-0.276601606
N90 X0.160400671 Y-1.163507984 Z-0.281174492
N95 X0.157430258 Y-1.161241685 Z-0.285355341
N100 X0.154106365 Y-1.158705695 Z-0.289091575
N105 X0.150470791 Y-1.155931907 Z-0.29233621
N110 X0.146569256 Y-1.152955201 Z-0.295048443
N115 X0.142450824 Y-1.149813012 Z-0.297194165
N120 X0.138167286 Y-1.146544855 Z-0.298746393
N125 X0.133772512 Y-1.143191829 Z-0.299685606
N130 X0.129321767 Y-1.139796099 Z-0.299999994
N135 G3 X-0.106006889 Y-0.997509694 Z-0.299999995 I-0.774284648 J-1.014846441
N140 G1 X-0.114727321 Y-0.993812591 F5.
N145 X-0.128889976 Y-0.98713582
N150 X-0.129724966 Y-0.98668564
N155 X-0.144722621 Y-0.977495824
N160 X-0.153054928 Y-0.972179278
N165 X-0.159720267 Y-0.967283775
N170 X-0.174717922 Y-0.955268079
N175 X-0.189479054 Y-0.942266044
N180 X-0.198655654 Y-0.934183091
N185 X-0.217319004 Y-0.920235716
N190 X-0.241266405 Y-0.905174045
N195 X-0.272069015 Y-0.889095096
N200 X-0.312176126 Y-0.872102647
N205 X-0.362755332 Y-0.85531843
N210 X-0.414461113 Y-0.842415742
N215 X-0.466812727 Y-0.832451948
N220 X-0.519542131 Y-0.824733118
N225 X-0.545535538 Y-0.818873578
N230 X-0.593999314 Y-0.796709887
N235 X-0.634471863 Y-0.762040822
N240 X-0.667585538 Y-0.720286182
N245 X-0.694375376 Y-0.67421808
N250 X-0.715885763 Y-0.625460805
N255 X-0.733061362 Y-0.575013123
N260 X-0.746717453 Y-0.523501193
N265 X-0.757539103 Y-0.47132019
N270 X-0.76609206 Y-0.418719645
N275 X-0.772837691 Y-0.365856952
N280 X-0.778149057 Y-0.31283097
N285 X-0.782325624 Y-0.259703539
N290 X-0.785606339 Y-0.206513273
N295 X-0.78818126 Y-0.153284167
N300 X-0.790200797 Y-0.100031096
N305 X-0.791784046 Y-0.046763275
N310 X-0.793024649 Y0.00651363
N315 X-0.793996496 Y0.059796112
N320 X-0.794757633 Y0.113082026
N325 X-0.795353567 Y0.166370043
N330 X-0.795820116 Y0.219659336
N335 X-0.796185366 Y0.272949437
N340 X-0.796471243 Y0.326240006
N345 X-0.796694943 Y0.379530914
N350 X-0.797007028 Y0.486113143
N355 X-0.797060644 Y0.512758766
N360 X-0.79507197 Y0.525932312
N365 X-0.78811668 Y0.551654222
N370 X-0.76401275 Y0.599182835
N375 X-0.728302978 Y0.638740119
N380 X-0.685925071 Y0.671052332
N385 X-0.639470769 Y0.697166863
N390 X-0.590471208 Y0.718119388
N395 X-0.539870976 Y0.734840153
N400 X-0.48826304 Y0.748128891
N405 X-0.436021775 Y0.758655803
N410 X-0.383383533 Y0.76697342
N415 X-0.346684869 Y0.771524625
N420 X-0.329094233 Y0.775097524
N425 X-0.312259873 Y0.781326594
N430 X-0.296580285 Y0.790064279
N435 X-0.282426669 Y0.801103847
N440 X-0.270134013 Y0.814183903
N445 X-0.259993358 Y0.828994766
N450 X-0.252244698 Y0.845185978
N455 G3 X-0.251476802 Y0.875607063 I-0.047229575 J0.016412435 F15.
N460 G1 X-0.253045279 Y0.880981073 Z-0.299685606
N465 X-0.254594032 Y0.886287502 Z-0.29874639
N470 X-0.256103584 Y0.891459618 Z-0.297194161
N475 X-0.257554951 Y0.896432379 Z-0.295048437
N480 X-0.258929882 Y0.90114325 Z-0.292336204
N485 X-0.260211086 Y0.905532988 Z-0.289091568
N490 X-0.261382452 Y0.90954639 Z-0.285355332
N495 X-0.262429248 Y0.913132985 Z-0.281174483
N500 X-0.263338311 Y0.91624767 Z-0.276601597
N505 X-0.264098209 Y0.918851275 Z-0.271694181
N510 X-0.264699385 Y0.92091106 Z-0.266513947
N515 X-0.26513428 Y0.92240112 Z-0.261126042
N520 X-0.265397424 Y0.923302718 Z-0.255598219
N525 X-0.265485508 Y0.923604515 Z-0.249999996
N530 G0 Z0.120094996
N535 X-0.166797976 Y-1.019318648
N540 Z-0.199999997
N545 G1 Z-0.249999996 F15.
N550 X-0.166857536 Y-1.019009949 Z-0.255598223
N555 X-0.167035469 Y-1.01808774 Z-0.261126049
N560 X-0.167329538 Y-1.016563618 Z-0.266513957
N565 X-0.167736044 Y-1.01445675 Z-0.271694193
N570 X-0.168249876 Y-1.011793631 Z-0.276601611
N575 X-0.168864571 Y-1.008607751 Z-0.281174497
N580 X-0.169572399 Y-1.004939175 Z-0.285355346
N585 X-0.17036446 Y-1.000834036 Z-0.289091581
N590 X-0.171230792 Y-0.996343961 Z-0.292336215
N595 X-0.172160501 Y-0.991525413 Z-0.295048447
N600 X-0.173141895 Y-0.98643899 Z-0.297194169
N605 X-0.174162632 Y-0.981148655 Z-0.298746396
N610 X-0.175209877 Y-0.975720938 Z-0.299685609
N615 X-0.176270459 Y-0.970224095 Z-0.299999996
N620 G3 X-0.189479054 Y-0.942266044 Z-0.299999995 I-0.061177926 J-0.011803935
N625 G1 X-0.204713213 Y-0.925140831 F5.
N630 X-0.215533775 Y-0.91235281
N635 X-0.219710868 Y-0.906603655
N640 X-0.2260103 Y-0.897396193
N645 X-0.234708523 Y-0.883290449
N650 X-0.235161218 Y-0.882439651
N655 X-0.249335184 Y-0.852526417
N660 X-0.259417718 Y-0.833737756
N665 X-0.268362976 Y-0.819869454
N670 X-0.279877186 Y-0.804823553
N675 X-0.294583445 Y-0.788507311
N680 X-0.372069577 Y-0.715324222
N685 X-0.40701547 Y-0.675090504
N690 X-0.437750554 Y-0.631555197
N695 X-0.464365877 Y-0.585386021
N700 X-0.487128843 Y-0.5372008
N705 X-0.50640384 Y-0.487517372
N710 X-0.52258315 Y-0.436741423
N715 X-0.536080383 Y-0.385187667
N720 X-0.547282564 Y-0.333086975
N725 X-0.556539513 Y-0.280605789
N730 X-0.564160535 Y-0.227862174
N735 X-0.570414536 Y-0.174939069
N740 X-0.575532388 Y-0.121894042
N745 X-0.579710119 Y-0.068766709
N750 X-0.583113085 Y-0.015584119
N755 X-0.585879529 Y0.037635372
N760 X-0.588124681 Y0.090879408
N765 X-0.589943946 Y0.144139688
N770 X-0.591415983 Y0.197410696
N775 X-0.592605636 Y0.250688763
N780 X-0.583715289 Y0.303233327
N785 X-0.561101568 Y0.351488759
N790 X-0.528706828 Y0.393803627
N795 X-0.489604417 Y0.430010923
N800 X-0.446578799 Y0.461455555
N805 X-0.40173095 Y0.490241614
N810 X-0.356372661 Y0.518216486
N815 X-0.323680442 Y0.539184781
N820 X-0.310334446 Y0.549158074
N825 X-0.298545117 Y0.560930658
N830 X-0.288552938 Y0.574262536
N835 X-0.280561672 Y0.588881763
N840 X-0.274734291 Y0.604490183
N845 X-0.271189645 Y0.620769553
N850 X-0.269999992 Y0.637387854
N855 Y0.732873556
N860 X-0.26982636 Y0.747830098
N865 G3 X-0.27975946 Y0.776594117 I-0.049986445 J-0.001164759 F15.
N870 G1 X-0.283110416 Y0.781078668 Z-0.299685606
N875 X-0.286419232 Y0.785506824 Z-0.298746391
N880 X-0.289644297 Y0.789822897 Z-0.297194162
N885 X-0.292745055 Y0.79397261 Z-0.295048439
N890 X-0.295682511 Y0.797903779 Z-0.292336206
N895 X-0.298419726 Y0.801566967 Z-0.28909157
N900 X-0.300922277 Y0.804916106 Z-0.285355335
N905 X-0.303158693 Y0.80790908 Z-0.281174486
N910 X-0.30510085 Y0.810508251 Z-0.2766016
N915 X-0.306724325 Y0.812680931 Z-0.271694183
N920 X-0.3080087 Y0.814399799 Z-0.266513949
N925 X-0.308937825 Y0.815643239 Z-0.261126043
N930 X-0.309500015 Y0.816395613 Z-0.25559822
N935 X-0.309688199 Y0.816647461 Z-0.249999996
N940 G0 X-0.3096882 Y0.816647462 Z0.120094996
N945 X-0.249194892 Y-0.932847721
N950 Z-0.199999997
N955 G1 Z-0.249999996 F15.
N960 X-0.249165407 Y-0.932534717 Z-0.255598221
N965 X-0.249077321 Y-0.931599641 Z-0.261126044
N970 X-0.248931742 Y-0.930054253 Z-0.266513951
N975 X-0.248730502 Y-0.927917987 Z-0.271694185
N980 X-0.24847613 Y-0.925217708 Z-0.276601602
N985 X-0.248171827 Y-0.921987373 Z-0.281174488
N990 X-0.247821417 Y-0.918267605 Z-0.285355337
N995 X-0.247429309 Y-0.914105184 Z-0.289091572
N1000 X-0.247000433 Y-0.909552453 Z-0.292336207
N1005 X-0.246540183 Y-0.904666666 Z-0.29504844
N1010 X-0.246054345 Y-0.899509265 Z-0.297194163
N1015 X-0.245549031 Y-0.894145106 Z-0.298746391
N1020 X-0.245030595 Y-0.888641648 Z-0.299685606
N1025 X-0.244505556 Y-0.8830681 Z-0.299999995
N1030 G3 X-0.249335184 Y-0.852526417 I-0.062031652 J0.00584347
N1035 G1 X-0.249706159 Y-0.851743503 F5.
N1040 X-0.255193091 Y-0.8375698
N1045 X-0.259900788 Y-0.822613183
N1050 X-0.263311356 Y-0.807656641
N1055 X-0.265979448 Y-0.792700024
N1060 X-0.26832451 Y-0.777743407
N1065 X-0.26982636 Y-0.747830173
N1070 X-0.269999992 Y-0.732873556
N1075 X-0.27192771 Y-0.694367642
N1080 X-0.278855309 Y-0.641528452
N1085 X-0.28862191 Y-0.589139743
N1090 X-0.299507239 Y-0.536971956
N1095 X-0.310577764 Y-0.484843141
N1100 X-0.321231414 Y-0.432627558
N1105 X-0.331164383 Y-0.380270124
N1110 X-0.340227818 Y-0.327755147
N1115 X-0.348363486 Y-0.275088464
N1120 X-0.355572625 Y-0.22228699
N1125 X-0.361894172 Y-0.169371902
N1130 X-0.367389514 Y-0.116364656
N1135 X-0.372131828 Y-0.063284734
N1140 X-0.376198836 Y-0.010148803
N1145 X-0.377324247 Y0.043130658
N1150 X-0.366368744 Y0.09528375
N1155 X-0.346376915 Y0.144683085
N1160 X-0.32010146 Y0.191046516
N1165 X-0.290242556 Y0.234883883
N1170 X-0.281536542 Y0.249976868
N1175 X-0.27517544 Y0.266198117
N1180 X-0.271301119 Y0.283185835
N1185 X-0.269999992 Y0.300561086
N1190 Y0.637387854
N1195 G3 X-0.280266353 Y0.666034578 I-0.04996953 J-0.001744999 F15.
N1200 G1 X-0.283669145 Y0.670479926 Z-0.299685605
N1205 X-0.287029144 Y0.674869371 Z-0.29874639
N1210 X-0.290304098 Y0.679147712 Z-0.29719416
N1215 X-0.293452821 Y0.683261149 Z-0.295048436
N1220 X-0.296435717 Y0.687157951 Z-0.292336202
N1225 X-0.299215273 Y0.690789115 Z-0.289091566
N1230 X-0.301756536 Y0.694108975 Z-0.285355331
N1235 X-0.304027547 Y0.697075784 Z-0.281174482
N1240 X-0.305999747 Y0.699652232 Z-0.276601596
N1245 X-0.307648334 Y0.701805918 Z-0.27169418
N1250 X-0.308952578 Y0.703509758 Z-0.266513946
N1255 X-0.309896075 Y0.704742327 Z-0.261126041
N1260 X-0.310466961 Y0.705488123 Z-0.255598219
N1265 X-0.310658057 Y0.705737768 Z-0.249999996
N1270 G0 Y0.705737767 Z0.120094996
N1275 X-0.304266693 Y-0.805518759
N1280 Z-0.199999997
N1285 G1 Z-0.249999996 F15.
N1290 X-0.30410602 Y-0.80524853 Z-0.255598216
N1295 X-0.303626022 Y-0.804441239 Z-0.261126036
N1300 X-0.302832733 Y-0.803107036 Z-0.26651394
N1305 X-0.301736131 Y-0.8012627 Z-0.271694172
N1310 X-0.300350005 Y-0.798931424 Z-0.276601587
N1315 X-0.298691786 Y-0.796142526 Z-0.281174473
N1320 X-0.296782329 Y-0.792931078 Z-0.285355322
N1325 X-0.294645645 Y-0.789337465 Z-0.289091558
N1330 X-0.292308604 Y-0.78540688 Z-0.292336195
N1335 X-0.289800596 Y-0.781188751 Z-0.29504843
N1340 X-0.287153161 Y-0.776736123 Z-0.297194155
N1345 X-0.284399591 Y-0.772104992 Z-0.298746386
N1350 X-0.281574515 Y-0.767353597 Z-0.299685603
N1355 X-0.278713459 Y-0.762541688 Z-0.299999995
N1360 G3 X-0.269999992 Y-0.732873556 I-0.053554858 J0.031842585
N1365 G1 Y0.300561086 F5.
N1370 X-0.270681454 Y0.304779759 Z-0.299698706 F15.
N1375 X-0.271349735 Y0.308916834 Z-0.298809681
N1380 X-0.271992008 Y0.312892903 Z-0.297349982
N1385 X-0.273428378 Y0.316191944 Z-0.295455562
N1390 X-0.274753143 Y0.319234652 Z-0.293105543
N1395 X-0.275943412 Y0.321968451 Z-0.290340534
N1400 X-0.276978617 Y0.3243461 Z-0.287208313
N1405 X-0.27813716 Y0.326059297 Z-0.283936208
N1410 X-0.279057634 Y0.327420448 Z-0.280431363
N1415 X-0.279725615 Y0.328408227 Z-0.276748696
N1420 X-0.280130636 Y0.329007155 Z-0.272945909
N1425 X-0.280266353 Y0.329207848 Z-0.269082587
N1430 G0 Z0.120094996
N1435 X0.169073184 Y-1.170124745
N1440 Z-0.580000014
N1445 G1 Z-0.630000032 F15.
N1450 X0.168823235 Y-1.169934044 Z-0.635598258
N1455 X0.168076533 Y-1.169364342 Z-0.641126082
N1460 X0.166842467 Y-1.168422801 Z-0.646513991
N1465 X0.165136556 Y-1.167121264 Z-0.651694226
N1470 X0.162980254 Y-1.165476096 Z-0.656601645
N1475 X0.160400676 Y-1.163507988 Z-0.661174533
N1480 X0.157430264 Y-1.161241689 Z-0.665355383
N1485 X0.15410637 Y-1.158705699 Z-0.669091619
N1490 X0.150470796 Y-1.155931911 Z-0.672336256
N1495 X0.14656926 Y-1.152955205 Z-0.67504849
N1500 X0.142450828 Y-1.149813015 Z-0.677194214
N1505 X0.138167289 Y-1.146544857 Z-0.678746444
N1510 X0.133772513 Y-1.14319183 Z-0.679685659
N1515 X0.129321767 Y-1.139796099 Z-0.680000048
N1520 G3 X-0.106006889 Y-0.997509694 Z-0.68000005 I-0.774284648 J-1.014846441
N1525 G1 X-0.114727321 Y-0.993812591 F5.
N1530 X-0.128889976 Y-0.98713582
N1535 X-0.129724966 Y-0.98668564
N1540 X-0.144722621 Y-0.977495824
N1545 X-0.153054928 Y-0.972179278
N1550 X-0.159720267 Y-0.967283775
N1555 X-0.174717922 Y-0.955268079
N1560 X-0.189479054 Y-0.942266044
N1565 X-0.198655654 Y-0.934183091
N1570 X-0.217319004 Y-0.920235716
N1575 X-0.241266405 Y-0.905174045
N1580 X-0.272069015 Y-0.889095096
N1585 X-0.312176126 Y-0.872102647
N1590 X-0.362755332 Y-0.85531843
N1595 X-0.414461113 Y-0.842415742
N1600 X-0.466812727 Y-0.832451948
N1605 X-0.519542131 Y-0.824733118
N1610 X-0.521438816 Y-0.824305542
N1615 X-0.5299124 Y-0.822721842
N1620 X-0.538479737 Y-0.821768167
N1625 X-0.547094157 Y-0.8214497
N1630 G3 X-0.595349177 Y-0.871393774 I0.001744961 J-0.049969606 F15.
N1635 G1 Y-0.871419306
N1640 G3 X-0.560750361 Y-0.918988205 I0.04999998 J0.
N1645 G1 X-0.243375039 Y-1.021743459
N1650 G3 X-0.189479054 Y-0.942266044 I0.015401183 J0.047568899
N1655 G1 X-0.204713213 Y-0.925140831 F5.
N1660 X-0.215533775 Y-0.91235281
N1665 X-0.219710868 Y-0.906603655
N1670 X-0.2260103 Y-0.897396193
N1675 X-0.235233157 Y-0.882439651
N1680 X-0.243069769 Y-0.867483034
N1685 X-0.249779131 Y-0.852526417
N1690 X-0.25371758 Y-0.845048108
N1695 X-0.256359765 Y-0.841308954
N1700 X-0.259575619 Y-0.8375698
N1705 X-0.264703814 Y-0.832872616
N1710 X-0.272202642 Y-0.827789982
N1715 X-0.279701469 Y-0.824381611
N1720 X-0.285847694 Y-0.822613183
N1725 X-0.2902734 Y-0.821847916
N1730 X-0.294699106 Y-0.821484768
N1735 X-0.324694416 Y-0.8214497
N1740 X-0.744628606
N1745 X-0.748847284 Y-0.822131174 Z-0.679698763 F15.
N1750 X-0.752984365 Y-0.822799468 Z-0.678809737
N1755 X-0.756960441 Y-0.823441753 Z-0.677350037
N1760 X-0.760259479 Y-0.824878119 Z-0.675455609
N1765 X-0.763302183 Y-0.82620288 Z-0.673105585
N1770 X-0.766035976 Y-0.827393144 Z-0.670340572
N1775 X-0.768413619 Y-0.828428344 Z-0.667208348
N1780 X-0.77012681 Y-0.829586881 Z-0.663936235
N1785 X-0.771487955 Y-0.830507347 Z-0.660431383
N1790 X-0.772475726 Y-0.83117532 Z-0.656748712
N1795 X-0.773074646 Y-0.831580334 Z-0.652945924
N1800 X-0.77327533 Y-0.831716042 Z-0.649082604
N1805 G0 Z0.120094996
N1810 X-0.152188258 Y-1.177942847
N1815 Z-0.480000015
N1820 G1 Z-0.530000033 F15.
N1825 X-0.15224817 Y-1.177634216 Z-0.535598259
N1830 X-0.152427153 Y-1.176712209 Z-0.541126084
N1835 X-0.152722955 Y-1.175188422 Z-0.546513991
N1840 X-0.153131858 Y-1.173082018 Z-0.551694225
N1845 X-0.153648718 Y-1.170419485 Z-0.556601641
N1850 X-0.154267035 Y-1.167234306 Z-0.561174526
N1855 X-0.154979035 Y-1.163566538 Z-0.565355373
N1860 X-0.155775763 Y-1.159462304 Z-0.569091606
N1865 X-0.1566472 Y-1.154973217 Z-0.57233624
N1870 X-0.157582388 Y-1.150155731 Z-0.57504847
N1875 X-0.158569564 Y-1.145070428 Z-0.57719419
N1880 X-0.159596316 Y-1.139781259 Z-0.578746416
N1885 X-0.160649731 Y-1.134354738 Z-0.579685628
N1890 X-0.161716563 Y-1.128859107 Z-0.580000015
N1895 G3 X-0.2428967 Y-0.866114399 Z-0.580000014 I-1.253098784 J-0.243256111
N1900 G1 X-0.249706159 Y-0.851743503 F5.
N1905 X-0.255193091 Y-0.8375698
N1910 X-0.259900788 Y-0.822613183
N1915 X-0.260555181 Y-0.820124844
N1920 X-0.262369396 Y-0.814405652
N1925 X-0.269740961 Y-0.801927536
N1930 X-0.279321051 Y-0.79105257
N1935 X-0.290769986 Y-0.782166353
N1940 X-0.303681798 Y-0.775583898
N1945 X-0.317598703 Y-0.771538742
N1950 X-0.332027195 Y-0.770174237
N1955 G3 X-0.374005798 Y-0.887385992 I0.002338342 J-0.066960477 F15.
N1960 X-0.260555181 Y-0.820124844 I0.045844514 J0.051983435
N1965 G1 X-0.263834056 Y-0.807656641 F5.
N1970 X-0.264703814 Y-0.804828133
N1975 X-0.267222228 Y-0.798764041
N1980 X-0.270772506 Y-0.792700024
N1985 X-0.274713603 Y-0.787650431
N1990 X-0.279701469 Y-0.782600913
N1995 X-0.286239601 Y-0.777743407
N2000 X-0.290469354 Y-0.775383101
N2005 X-0.294699106 Y-0.773523135
N2010 X-0.302197933 Y-0.771287483
N2015 X-0.309696761 Y-0.770263897
N2020 X-0.324694416 Y-0.770174237
N2025 X-0.744628606
N2030 X-0.748847284 Y-0.770855686 Z-0.579698726 F15.
N2035 X-0.752984365 Y-0.771523954 Z-0.5788097
N2040 X-0.756960441 Y-0.772166215 Z-0.577350001
N2045 X-0.760259479 Y-0.773602581 Z-0.575455573
N2050 X-0.763302184 Y-0.774927342 Z-0.573105549
N2055 X-0.766035977 Y-0.776117606 Z-0.570340536
N2060 X-0.768413619 Y-0.777152805 Z-0.567208312
N2065 X-0.770126806 Y-0.778311354 Z-0.56393621
N2070 X-0.77148795 Y-0.779231835 Z-0.560431369
N2075 X-0.772475721 Y-0.779899823 Z-0.556748706
N2080 X-0.773074642 Y-0.780304853 Z-0.552945923
N2085 X-0.77327533 Y-0.780440578 Z-0.549082606
N2090 G0 Z0.120094996
N2095 X-1.178889913 Y0.387550151
N2100 Z-0.580000014
N2105 G1 Z-0.630000032 F15.
N2110 X-1.178691386 Y0.387793928 Z-0.635598256
N2115 X-1.178098302 Y0.388522195 Z-0.641126079
N2120 X-1.177118118 Y0.389725795 Z-0.646513986
N2125 X-1.175763161 Y0.39138959 Z-0.651694221
N2130 X-1.17405047 Y0.393492658 Z-0.656601639
N2135 X-1.172001583 Y0.396008551 Z-0.661174526
N2140 X-1.169642267 Y0.398905632 Z-0.665355377
N2145 X-1.16700219 Y0.402147466 Z-0.669091613
N2150 X-1.164114554 Y0.405693287 Z-0.672336251
N2155 X-1.161015671 Y0.409498504 Z-0.675048486
N2160 X-1.157744513 Y0.413515263 Z-0.677194211
N2165 X-1.154342216 Y0.417693053 Z-0.678746442
N2170 X-1.150851566 Y0.421979334 Z-0.679685659
N2175 X-1.14731646 Y0.426320204 Z-0.680000049
N2180 G3 X-0.997641931 Y0.657020329 Z-0.68000005 I-0.989792741 J0.806064831
N2185 G1 X-0.990239541 Y0.673047088 F5.
N2190 X-0.984590936 Y0.68425524
N2195 X-0.969593318 Y0.7071649
N2200 X-0.962226147 Y0.717916939
N2205 X-0.954595701 Y0.72719191
N2210 X-0.949513893 Y0.732873556
N2215 X-0.93490961 Y0.747830098
N2220 X-0.924600391 Y0.756960591
N2225 X-0.917662748 Y0.762786715
N2230 X-0.894605081 Y0.778747994
N2235 X-0.879607463 Y0.787758339
N2240 X-0.864609771 Y0.795013773
N2245 X-0.849612153 Y0.802208608
N2250 X-0.819616843 Y0.811963795
N2255 X-0.804619151 Y0.815648357
N2260 X-0.789621533 Y0.818396065
N2265 X-0.774623916 Y0.819848203
N2270 X-0.759626223 Y0.820705609
N2275 X-0.744628606 Y0.821449775
N2280 X-0.309696761
N2285 X-0.294699106 Y0.821484844
N2290 X-0.290273644 Y0.821847991
N2295 X-0.285848163 Y0.822613183
N2300 X-0.279701469 Y0.824381611
N2305 X-0.272202642 Y0.827790058
N2310 X-0.264703814 Y0.832872616
N2315 X-0.259575675 Y0.837569725
N2320 X-0.256359802 Y0.841308879
N2325 X-0.253717599 Y0.845048033
N2330 X-0.249706159 Y0.852699805
N2335 X-0.248698314 Y0.856852617 Z-0.679698761 F15.
N2340 X-0.247709963 Y0.860925106 Z-0.678809735
N2345 X-0.246760076 Y0.864839103 Z-0.677350037
N2350 X-0.246596233 Y0.867739797 Z-0.675874148
N2355 X-0.246442059 Y0.870469311 Z-0.674100711
N2360 X-0.246846224 Y0.873679445 Z-0.671386638
N2365 X-0.247200457 Y0.876492989 Z-0.668257262
N2370 X-0.247498159 Y0.878857527 Z-0.664770881
N2375 X-0.247733783 Y0.880729009 Z-0.660992447
N2380 X-0.247902941 Y0.882072567 Z-0.65699235
N2385 X-0.24800248 Y0.882863172 Z-0.652845112
N2390 X-0.248060076 Y0.883086047 Z-0.64907885
N2395 G0 Z0.120094996
N2400 X-1.166636925 Y0.334834677
N2405 Z-0.480000015
N2410 G1 Z-0.530000033 F15.
N2415 X-1.166446626 Y0.335084933 Z-0.535598258
N2420 X-1.165878124 Y0.335832552 Z-0.54112608
N2425 X-1.164938569 Y0.337068132 Z-0.546513986
N2430 X-1.163639777 Y0.338776134 Z-0.55169422
N2435 X-1.161998079 Y0.34093508 Z-0.556601635
N2440 X-1.160034122 Y0.34351782 Z-0.56117452
N2445 X-1.157772604 Y0.346491873 Z-0.565355367
N2450 X-1.155241963 Y0.34981984 Z-0.5690916
N2455 X-1.152474026 Y0.35345987 Z-0.572336234
N2460 X-1.1495036 Y0.357366186 Z-0.575048465
N2465 X-1.14636804 Y0.361489665 Z-0.577194186
N2470 X-1.143106777 Y0.365778451 Z-0.578746413
N2475 X-1.139760824 Y0.370178611 Z-0.579685625
N2480 X-1.136372258 Y0.37463481 Z-0.580000013
N2485 G3 X-0.994464469 Y0.610191991 Z-0.580000014 I-1.016090498 J0.772651537
N2490 G1 X-0.99318617 Y0.613220695 F5.
N2495 X-0.985932087 Y0.628177312
N2500 X-0.984590936 Y0.630701546
N2505 X-0.976758942 Y0.643133929
N2510 X-0.954595701 Y0.674296552
N2515 X-0.953175102 Y0.676009937
N2520 X-0.95152104 Y0.677723396
N2525 X-0.924600391 Y0.704206332
N2530 X-0.909602698 Y0.715999753
N2535 X-0.885147485 Y0.732873556
N2540 X-0.879607463 Y0.736246109
N2545 X-0.864609771 Y0.743883989
N2550 X-0.855955214 Y0.747830098
N2555 X-0.849612153 Y0.750618056
N2560 X-0.819616843 Y0.760516369
N2565 X-0.810337367 Y0.762786715
N2570 X-0.789621533 Y0.766700234
N2575 X-0.774623916 Y0.768548785
N2580 X-0.759626223 Y0.769418281
N2585 X-0.744628606 Y0.770174237
N2590 X-0.324694416
N2595 X-0.309696761 Y0.770263897
N2600 X-0.302197933 Y0.771287407
N2605 X-0.294699106 Y0.77352306
N2610 X-0.290469391 Y0.775383101
N2615 X-0.286239658 Y0.777743332
N2620 X-0.279701469 Y0.782600913
N2625 X-0.274713621 Y0.787650431
N2630 X-0.270772525 Y0.792699949
N2635 X-0.267222228 Y0.798763966
N2640 X-0.264703814 Y0.804828058
N2645 X-0.263834056 Y0.807656566
N2650 X-0.263179663 Y0.81014498
N2655 X-0.262761397 Y0.81389341 Z-0.579766308 F15.
N2660 X-0.262349416 Y0.817585515 Z-0.579074265
N2665 X-0.261949873 Y0.821166151 Z-0.57793422
N2670 X-0.262389478 Y0.82465781 Z-0.576311434
N2675 X-0.262800287 Y0.827920751 Z-0.574261352
N2680 X-0.263175851 Y0.830903758 Z-0.571816152
N2685 X-0.263510276 Y0.833560013 Z-0.569014211
N2690 X-0.264320655 Y0.835978392 Z-0.565517859
N2695 X-0.264968023 Y0.837910304 Z-0.561699695
N2700 X-0.265439703 Y0.839317916 Z-0.55763449
N2705 X-0.265726458 Y0.840173662 Z-0.553401852
N2710 X-0.265822673 Y0.840460785 Z-0.549084671
N2715 G0 Z0.120094996
N2720 X-0.240135681 Y-1.141171943
N2725 Z-0.379905025
N2730 G1 Z-0.429905005 F15.
N2735 X-0.240127332 Y-1.140857665 Z-0.43550323
N2740 X-0.240102389 Y-1.139918782 Z-0.441031055
N2745 X-0.240061164 Y-1.138367101 Z-0.446418962
N2750 X-0.240004176 Y-1.136222135 Z-0.451599198
N2755 X-0.239932142 Y-1.133510858 Z-0.456506616
N2760 X-0.239845967 Y-1.130267367 Z-0.461079504
N2765 X-0.239746736 Y-1.126532449 Z-0.465260355
N2770 X-0.239635696 Y-1.122353074 Z-0.468996591
N2775 X-0.239514244 Y-1.1177818 Z-0.472241229
N2780 X-0.239383907 Y-1.112876113 Z-0.474953464
N2785 X-0.239246325 Y-1.107697705 Z-0.477099188
N2790 X-0.239103226 Y-1.102311698 Z-0.478651418
N2795 X-0.238956411 Y-1.096785823 Z-0.479590634
N2800 X-0.238807727 Y-1.091189572 Z-0.479905025
N2805 G3 X-0.261158136 Y-0.817099293 Z-0.479905023 I-1.276040997 J0.033902897
N2810 G1 X-0.263311356 Y-0.807656641 F5.
N2815 X-0.265979448 Y-0.792700024
N2820 X-0.26832451 Y-0.777743407
N2825 X-0.26839322 Y-0.776374772
N2830 X-0.268993321 Y-0.770404846
N2835 X-0.270647965 Y-0.764637519
N2840 X-0.273052351 Y-0.759140375
N2845 X-0.276690149 Y-0.752474567
N2850 X-0.282038216 Y-0.744309989
N2855 X-0.289500867 Y-0.734699505
N2860 X-0.299551844 Y-0.723704991
N2865 X-0.31276686 Y-0.711397336
N2870 X-0.329875946 Y-0.697856062
N2875 X-0.351851493 Y-0.683168501
N2880 X-0.380066699 Y-0.667429346
N2885 X-0.416602225 Y-0.650740195
N2890 X-0.464907894 Y-0.633208658
N2895 X-0.516299676 Y-0.619107081
N2900 X-0.542384733 Y-0.613670049
N2905 X-0.591318176 Y-0.592563509
N2910 X-0.63226054 Y-0.558450616
N2915 X-0.665787674 Y-0.517027209
N2920 X-0.692926842 Y-0.471163997
N2925 X-0.714726185 Y-0.422535243
N2930 X-0.732137575 Y-0.372168473
N2935 X-0.74598425 Y-0.320707456
N2940 X-0.756958864 Y-0.268558386
N2945 X-0.765633996 Y-0.215977872
N2950 X-0.772476722 Y-0.163127663
N2955 X-0.777865057 Y-0.110109425
N2960 X-0.78210245 Y-0.056986809
N2965 X-0.785431073 Y-0.003799519
N2970 X-0.788043766 Y0.049427748
N2975 X-0.790093039 Y0.102679673
N2980 X-0.791699567 Y0.155946805
N2985 X-0.792958417 Y0.209223285
N2990 X-0.793944682 Y0.262505501
N2995 X-0.794330807 Y0.289148364
N3000 X-0.789278811 Y0.315310711
N3005 X-0.768086141 Y0.364206945
N3010 X-0.733928305 Y0.405111801
N3015 X-0.692478165 Y0.438605857
N3020 X-0.646598395 Y0.465717128
N3025 X-0.597959278 Y0.487493267
N3030 X-0.547585975 Y0.504885771
N3035 X-0.496140878 Y0.518791432
N3040 X-0.444335036 Y0.531286442
N3045 X-0.392751506 Y0.544669534
N3050 X-0.3480704 Y0.559022558
N3055 X-0.342185779 Y0.561449471
N3060 X-0.326822461 Y0.56915501
N3065 X-0.31275798 Y0.579034099
N3070 X-0.300297568 Y0.590872352
N3075 X-0.289711652 Y0.604412837
N3080 X-0.281229977 Y0.619361645
N3085 X-0.275036632 Y0.635394374
N3090 X-0.271266032 Y0.652163047
N3095 X-0.269999992 Y0.669303729
N3100 Y0.732873556
N3105 X-0.26982636 Y0.747830098
N3110 X-0.270458801 Y0.752056407 Z-0.479603736 F15.
N3115 X-0.271079009 Y0.75620097 Z-0.47871471
N3120 X-0.27167508 Y0.760184236 Z-0.47725501
N3125 X-0.273073052 Y0.763499733 Z-0.475360585
N3130 X-0.274362403 Y0.766557618 Z-0.473010562
N3135 X-0.275520852 Y0.769305052 Z-0.470245548
N3140 X-0.276528381 Y0.771694559 Z-0.467113322
N3145 X-0.277666958 Y0.773421082 Z-0.463841219
N3150 X-0.278571568 Y0.774792821 Z-0.460336377
N3155 X-0.279228038 Y0.775788282 Z-0.456653713
N3160 X-0.27962608 Y0.776391866 Z-0.452850931
N3165 X-0.27975946 Y0.776594117 Z-0.448987615
N3170 G0 Z0.120094996
N3175 X-0.298974101 Y-0.850646853
N3180 Z-0.379905025
N3185 G1 Z-0.429905005 F15.
N3190 X-0.29882718 Y-0.850368906 Z-0.43550323
N3195 X-0.298388265 Y-0.849538558 Z-0.441031054
N3200 X-0.297662875 Y-0.848166253 Z-0.446418962
N3205 X-0.296660132 Y-0.846269246 Z-0.451599197
N3210 X-0.295392647 Y-0.843871394 Z-0.456506615
N3215 X-0.29387636 Y-0.841002852 Z-0.461079503
N3220 X-0.292130337 Y-0.837699693 Z-0.465260354
N3225 X-0.290176537 Y-0.834003457 Z-0.468996591
N3230 X-0.288039529 Y-0.829960624 Z-0.472241228
N3235 X-0.285746188 Y-0.825622037 Z-0.474953463
N3240 X-0.283325354 Y-0.821042256 Z-0.477099188
N3245 X-0.280807469 Y-0.816278874 Z-0.478651418
N3250 X-0.278224199 Y-0.811391793 Z-0.479590634
N3255 X-0.275608029 Y-0.806442471 Z-0.479905024
N3260 G3 X-0.26839322 Y-0.776374772 Z-0.479905023 I-0.05508421 J0.029117029
N3265 G1 X-0.26982636 Y-0.747830173 F5.
N3270 X-0.269999992 Y-0.732873556
N3275 Y-0.70969086
N3280 X-0.270405135 Y-0.701598145
N3285 X-0.271798476 Y-0.690970684
N3290 X-0.274208362 Y-0.679703284
N3295 X-0.278212161 Y-0.666337501
N3300 X-0.283474978 Y-0.652824537
N3305 X-0.290974463 Y-0.637367954
N3310 X-0.300741346 Y-0.620777663
N3315 X-0.312677387 Y-0.603787542
N3320 X-0.346712728 Y-0.562780673
N3325 X-0.382520871 Y-0.523312411
N3330 X-0.415140099 Y-0.481170331
N3335 X-0.444002564 Y-0.436371631
N3340 X-0.469132859 Y-0.389377602
N3345 X-0.490734108 Y-0.340660538
N3350 X-0.509110436 Y-0.290637748
N3355 X-0.524612149 Y-0.239650846
N3360 X-0.537598828 Y-0.187966091
N3365 X-0.548412631 Y-0.135783445
N3370 X-0.557375818 Y-0.083251272
N3375 X-0.564775805 Y-0.0304762
N3380 X-0.570864377 Y0.022466192
N3385 X-0.564472356 Y0.0753728
N3390 X-0.543144143 Y0.124210044
N3395 X-0.512244983 Y0.167629043
N3400 X-0.47535059 Y0.206083838
N3405 X-0.434724477 Y0.240572775
N3410 X-0.392232279 Y0.272734541
N3415 X-0.349258288 Y0.304249722
N3420 X-0.315801553 Y0.329831942
N3425 X-0.302504949 Y0.341714611
N3430 X-0.291174641 Y0.35548488
N3435 X-0.282075292 Y0.370821052
N3440 X-0.275419528 Y0.387364861
N3445 X-0.271362845 Y0.404729768
N3450 X-0.269999992 Y0.422510087
N3455 Y0.669303729
N3460 X-0.270681454 Y0.673522407 Z-0.479603736 F15.
N3465 X-0.271349735 Y0.677659488 Z-0.47871471
N3470 X-0.271992008 Y0.681635564 Z-0.47725501
N3475 X-0.273428378 Y0.684934602 Z-0.475360583
N3480 X-0.274753144 Y0.687977306 Z-0.473010559
N3485 X-0.275943412 Y0.690711099 Z-0.470245546
N3490 X-0.276978617 Y0.693088742 Z-0.467113322
N3495 X-0.27813716 Y0.694801931 Z-0.463841218
N3500 X-0.279057633 Y0.696163075 Z-0.460336376
N3505 X-0.279725614 Y0.697150846 Z-0.456653712
N3510 X-0.280130636 Y0.697749767 Z-0.45285093
N3515 X-0.280266353 Y0.697950453 Z-0.448987615
N3520 G0 Z0.120094996
N3525 X-0.304266693 Y-0.782336062
N3530 Z-0.379905025
N3535 G1 Z-0.429905005 F15.
N3540 X-0.304106021 Y-0.78206583 Z-0.435503232
N3545 X-0.303626022 Y-0.781258533 Z-0.441031058
N3550 X-0.302832734 Y-0.779924324 Z-0.446418967
N3555 X-0.301736131 Y-0.778079982 Z-0.451599203
N3560 X-0.300350004 Y-0.7757487 Z-0.456506622
N3565 X-0.298691785 Y-0.772959796 Z-0.46107951
N3570 X-0.296782327 Y-0.769748342 Z-0.465260361
N3575 X-0.294645643 Y-0.766154723 Z-0.468996597
N3580 X-0.292308602 Y-0.762224131 Z-0.472241233
N3585 X-0.289800594 Y-0.758005997 Z-0.474953467
N3590 X-0.287153159 Y-0.753553364 Z-0.477099191
N3595 X-0.28439959 Y-0.748922229 Z-0.47865142
N3600 X-0.281574514 Y-0.744170829 Z-0.479590634
N3605 X-0.278713459 Y-0.739358917 Z-0.479905023
N3610 G3 X-0.269999992 Y-0.70969086 I-0.053554858 J0.03184251
N3615 G1 Y-0.55339434 F5.
N3620 X-0.272387858 Y-0.50569707
N3625 X-0.279315438 Y-0.452857919
N3630 X-0.288962849 Y-0.400447095
N3635 X-0.299682129 Y-0.348244952
N3640 X-0.310590361 Y-0.296081952
N3645 X-0.321147198 Y-0.243846713
N3650 X-0.331008453 Y-0.191475688
N3655 X-0.328765554 Y-0.138231572
N3660 X-0.31605285 Y-0.086478746
N3665 X-0.29586364 Y-0.037159744
N3670 X-0.283831067 Y-0.014702591
N3675 X-0.277849126 Y-0.001672766
N3680 X-0.273510584 Y0.011992411
N3685 X-0.270880977 Y0.026086564
N3690 X-0.269999992 Y0.040396837
N3695 Y0.422510087
N3700 X-0.270681454 Y0.426728753 Z-0.479603732 F15.
N3705 X-0.271349735 Y0.430865822 Z-0.478714706
N3710 X-0.271992008 Y0.434841884 Z-0.47725501
N3715 X-0.273428378 Y0.438140932 Z-0.475360587
N3720 X-0.274753144 Y0.441183646 Z-0.473010564
N3725 X-0.275943413 Y0.443917448 Z-0.470245549
N3730 X-0.276978617 Y0.4462951 Z-0.467113322
N3735 X-0.278137159 Y0.448008289 Z-0.463841218
N3740 X-0.279057633 Y0.449369432 Z-0.460336376
N3745 X-0.279725613 Y0.450357203 Z-0.456653712
N3750 X-0.280130635 Y0.450956125 Z-0.45285093
N3755 X-0.280266353 Y0.451156812 Z-0.448987615
N3760 G0 Y0.451156811 Z0.120094996
N3765 X-0.304266693 Y-0.626039543
N3770 Z-0.379905025
N3775 G1 Z-0.429905005 F15.
N3780 X-0.304106021 Y-0.625769313 Z-0.435503229
N3785 X-0.303626023 Y-0.624962019 Z-0.441031052
N3790 X-0.302832734 Y-0.623627814 Z-0.446418959
N3795 X-0.301736132 Y-0.621783475 Z-0.451599193
N3800 X-0.300350006 Y-0.619452197 Z-0.456506611
N3805 X-0.298691787 Y-0.616663296 Z-0.461079499
N3810 X-0.29678233 Y-0.613451845 Z-0.465260349
N3815 X-0.294645646 Y-0.609858229 Z-0.468996586
N3820 X-0.292308605 Y-0.60592764 Z-0.472241224
N3825 X-0.289800597 Y-0.601709508 Z-0.474953459
N3830 X-0.287153161 Y-0.597256878 Z-0.477099184
N3835 X-0.284399591 Y-0.592625744 Z-0.478651415
N3840 X-0.281574515 Y-0.587874346 Z-0.479590632
N3845 X-0.278713459 Y-0.583062435 Z-0.479905023
N3850 G3 X-0.269999992 Y-0.55339434 I-0.053554858 J0.031842547
N3855 G1 Y0.040396837 F5.
N3860 X-0.270681454 Y0.044615509 Z-0.479603734 F15.
N3865 X-0.271349735 Y0.048752584 Z-0.478714708
N3870 X-0.271992008 Y0.052728653 Z-0.47725501
N3875 X-0.273428378 Y0.056027695 Z-0.475360585
N3880 X-0.274753144 Y0.059070403 Z-0.473010561
N3885 X-0.275943413 Y0.061804199 Z-0.470245547
N3890 X-0.276978617 Y0.064181845 Z-0.467113322
N3895 X-0.278137159 Y0.065895037 Z-0.463841219
N3900 X-0.279057632 Y0.067256185 Z-0.460336378
N3905 X-0.279725613 Y0.068243959 Z-0.456653715
N3910 X-0.280130635 Y0.068842885 Z-0.452850932
N3915 X-0.280266353 Y0.069043575 Z-0.448987615
N3920 G0 Z0.120094996
N3925 X0.169073184 Y-1.170124745
N3930 Z-0.679999975
N3935 G1 Z-0.729999993 F15.
N3940 X0.168823235 Y-1.169934044 Z-0.735598219
N3945 X0.168076533 Y-1.169364342 Z-0.741126043
N3950 X0.166842467 Y-1.168422801 Z-0.746513952
N3955 X0.165136556 Y-1.167121264 Z-0.751694187
N3960 X0.162980254 Y-1.165476096 Z-0.756601606
N3965 X0.160400676 Y-1.163507988 Z-0.761174494
N3970 X0.157430264 Y-1.161241689 Z-0.765355344
N3975 X0.15410637 Y-1.158705699 Z-0.76909158
N3980 X0.150470796 Y-1.155931911 Z-0.772336217
N3985 X0.14656926 Y-1.152955205 Z-0.775048451
N3990 X0.142450828 Y-1.149813015 Z-0.777194175
N3995 X0.138167289 Y-1.146544857 Z-0.778746405
N4000 X0.133772513 Y-1.14319183 Z-0.77968562
N4005 X0.129321767 Y-1.139796099 Z-0.780000009
N4010 G3 X-0.106006889 Y-0.997509694 Z-0.780000011 I-0.774284648 J-1.014846441
N4015 G1 X-0.114727321 Y-0.993812591 F5.
N4020 X-0.128889976 Y-0.98713582
N4025 X-0.129724966 Y-0.98668564
N4030 X-0.144722621 Y-0.977495824
N4035 X-0.153054928 Y-0.972179278
N4040 X-0.159720267 Y-0.967283775
N4045 X-0.174717922 Y-0.955268079
N4050 X-0.189479054 Y-0.942266044
N4055 X-0.198655654 Y-0.934183091
N4060 X-0.217319004 Y-0.920235716
N4065 X-0.241266405 Y-0.905174045
N4070 X-0.272069015 Y-0.889095096
N4075 X-0.312176126 Y-0.872102647
N4080 X-0.362755332 Y-0.85531843
N4085 X-0.414461113 Y-0.842415742
N4090 X-0.466812727 Y-0.832451948
N4095 X-0.470532169 Y-0.831907528
N4100 X-0.476142891 Y-0.831224562
N4105 X-0.481780082 Y-0.830814106
N4110 X-0.487430565 Y-0.830677213
N4115 G3 X-0.535685584 Y-0.880621287 I0.001744999 J-0.04996953 F15.
N4120 G1 Y-0.880646743
N4125 G3 X-0.50274282 Y-0.927647268 I0.050000018 J0.
N4130 G1 X-0.377353308 Y-0.973153152
N4135 X-0.245031109 Y-1.021175084
N4140 G3 X-0.189479054 Y-0.942266044 I0.017057254 J0.047000525
N4145 G1 X-0.204713213 Y-0.925140831 F5.
N4150 X-0.215533775 Y-0.91235281
N4155 X-0.219710868 Y-0.906603655
N4160 X-0.2260103 Y-0.897396193
N4165 X-0.235233157 Y-0.882439651
N4170 X-0.243080094 Y-0.867483034
N4175 X-0.249706159 Y-0.854288387
N4180 X-0.250877752 Y-0.852526417
N4185 X-0.253999139 Y-0.848495228
N4190 X-0.257790783 Y-0.844463964
N4195 X-0.261247308 Y-0.841462593
N4200 X-0.264703814 Y-0.838960588
N4205 X-0.266934061 Y-0.8375698
N4210 X-0.273317765 Y-0.834407055
N4215 X-0.279701469 Y-0.832281864
N4220 X-0.287200278 Y-0.830934555
N4225 X-0.294699106 Y-0.830677213
N4230 X-0.744628606
N4235 X-0.748847284 Y-0.831358662 Z-0.779698723 F15.
N4240 X-0.752984365 Y-0.83202693 Z-0.778809697
N4245 X-0.756960441 Y-0.832669191 Z-0.777349998
N4250 X-0.760259479 Y-0.834105575 Z-0.775455573
N4255 X-0.763302183 Y-0.835430355 Z-0.77310555
N4260 X-0.766035976 Y-0.836620638 Z-0.770340536
N4265 X-0.768413619 Y-0.837655856 Z-0.767208309
N4270 X-0.77012681 Y-0.838814393 Z-0.763936196
N4275 X-0.771487955 Y-0.839734859 Z-0.760431344
N4280 X-0.772475726 Y-0.840402833 Z-0.756748673
N4285 X-0.773074646 Y-0.840807846 Z-0.752945885
N4290 X-0.77327533 Y-0.840943554 Z-0.749082565
N4295 G0 Z0.120094996
N4300 X-1.170093732 Y0.391339617
N4305 Z-0.679999975
N4310 G1 Z-0.729999993 F15.
N4315 X-1.169903136 Y0.39158964 Z-0.735598213
N4320 X-1.169333738 Y0.392336569 Z-0.741126033
N4325 X-1.168392699 Y0.393571011 Z-0.746513937
N4330 X-1.167091854 Y0.395277442 Z-0.75169417
N4335 X-1.16544756 Y0.397434403 Z-0.756601587
N4340 X-1.163480496 Y0.40001477 Z-0.761174474
N4345 X-1.161215398 Y0.402986092 Z-0.765355325
N4350 X-1.158680752 Y0.406311004 Z-0.769091563
N4355 X-1.155908432 Y0.409947693 Z-0.772336202
N4360 X-1.152933302 Y0.413850426 Z-0.775048439
N4365 X-1.149792775 Y0.417970123 Z-0.777194166
N4370 X-1.146526346 Y0.422254977 Z-0.778746399
N4375 X-1.143175092 Y0.426651103 Z-0.779685618
N4380 X-1.139781156 Y0.431103218 Z-0.780000011
N4385 G3 X-0.997589592 Y0.666489188 I-1.015158451 J0.773875695
N4390 G1 X-0.994812447 Y0.673047088 F5.
N4395 X-0.988024389 Y0.688003705
N4400 X-0.984590936 Y0.693962067
N4405 X-0.978922656 Y0.702960322
N4410 X-0.969593318 Y0.717543579
N4415 X-0.954595701 Y0.736435642
N4420 X-0.944474213 Y0.747830098
N4425 X-0.939598008 Y0.75257001
N4430 X-0.924600391 Y0.766013288
N4435 X-0.910143665 Y0.777743332
N4440 X-0.894605081 Y0.788457375
N4445 X-0.88777482 Y0.792699949
N4450 X-0.879607463 Y0.797056363
N4455 X-0.849612153 Y0.811540724
N4460 X-0.834614461 Y0.816853215
N4465 X-0.819616843 Y0.821462766
N4470 X-0.81468079 Y0.822613183
N4475 X-0.789621533 Y0.827271844
N4480 X-0.774623916 Y0.829078719
N4485 X-0.759626223 Y0.829934548
N4490 X-0.744628606 Y0.830677288
N4495 X-0.294699106
N4500 X-0.287200278 Y0.83093463
N4505 X-0.279701469 Y0.832281939
N4510 X-0.273317859 Y0.834407055
N4515 X-0.266934248 Y0.837569725
N4520 X-0.264703814 Y0.838960663
N4525 X-0.261247308 Y0.841462668
N4530 X-0.257790802 Y0.844464039
N4535 X-0.253999158 Y0.848495153
N4540 X-0.25087779 Y0.852526342
N4545 X-0.249706159 Y0.854288387
N4550 X-0.247701773 Y0.858279776
N4555 G3 X-0.244020402 Y0.888487072 I-0.045438188 J0.020865493 F15.
N4560 G1 X-0.245066346 Y0.893986721 Z-0.779685619
N4565 X-0.246099137 Y0.899417207 Z-0.778746402
N4570 X-0.247105786 Y0.90471024 Z-0.777194171
N4575 X-0.248073635 Y0.909799258 Z-0.775048446
N4580 X-0.248990512 Y0.914620261 Z-0.77233621
N4585 X-0.249844887 Y0.919112625 Z-0.769091573
N4590 X-0.250626016 Y0.923219854 Z-0.765355336
N4595 X-0.251324075 Y0.926890297 Z-0.761174485
N4600 X-0.251930286 Y0.930077798 Z-0.756601598
N4605 X-0.252437026 Y0.932742271 Z-0.75169418
N4610 X-0.252837922 Y0.934850209 Z-0.746513945
N4615 X-0.253127932 Y0.936375104 Z-0.741126039
N4620 X-0.25330341 Y0.937297779 Z-0.735598216
N4625 X-0.253362149 Y0.93760663 Z-0.729999993
N4630 G0 Y0.937606631 Z0.099999998
(2D CONTOUR2 2)
N4635 G0 X-0.399999994 Y-1.049558234
N4640 G1 Z0.099999998 F15.
N4645 Z-0.45000005
N4650 G18 G2 X-0.350000014 Z-0.499999992 I0.04999998 K0.000000038
N4655 G1 X-0.299999995
N4660 G17 G3 X-0.249999996 Y-0.999558216 I0. J0.050000018
N4665 G1 Y0.999581344 F5.
N4670 G3 X-0.299999995 Y1.049581363 I-0.049999999 J0. F15.
N4675 G1 X-0.350000014
N4680 G18 G3 X-0.399999994 Z-0.45000005 I0. K0.04999998
N4685 G0 Z0.099999998
N4690 G17
(PARALLEL3)
N4695 G0 Z0.599999991
N4700 X-0.299797396 Y0.836564237
N4705 Z0.050502049
N4710 G1 Z-0.550719997 F15.
N4715 G19 G2 Y0.74999997 Z-0.584823616 J-0.050000018 K0.
N4720 G1 Y0.738577054 Z-0.572576523 F5.
N4725 Y0.724147436 Z-0.559335168
N4730 Y0.708695885 Z-0.547244342
N4735 Y0.692310033 Z-0.536383719
N4740 Y0.675101243 Z-0.526835111
N4745 Y0.657287057 Z-0.518704024
N4750 Y0.638752509 Z-0.511953361
N4755 Y0.619953336 Z-0.506726926
N4760 Y0.601266838 Z-0.503037445
N4765 Y0.581255898 Z-0.50073695
N4770 Y0.560288054 Z-0.50000003
N4775 Y-0.566351357 Z-0.500151341
N4780 Y-0.583210893 Z-0.500900426
N4785 Y-0.602408732 Z-0.503237079
N4790 Y-0.621917567 Z-0.507205453
N4795 Y-0.640758755 Z-0.512606478
N4800 Y-0.658959967 Z-0.519393898
N4805 Y-0.6767921 Z-0.527693268
N4810 Y-0.693983243 Z-0.53741365
N4815 Y-0.710197659 Z-0.548338027
N4820 Y-0.725516222 Z-0.560503231
N4825 Y-0.740000207 Z-0.574005945
N4830 Y-0.74999997 Z-0.584823691
N4835 G2 Y-0.76835805 Z-0.592853666 J-0.01835808 K0.016970034
N4840 G17 G2 X-0.349792158 I-0.024997381 J0.
N4845 G19 G3 Y-0.74999997 Z-0.584823691 J0. K0.025000009
N4850 G1 Y-0.740000207 Z-0.574005945
N4855 Y-0.725516222 Z-0.560503231
N4860 Y-0.710197659 Z-0.548338027
N4865 Y-0.693983243 Z-0.53741365
N4870 Y-0.6767921 Z-0.527693268
N4875 Y-0.658959967 Z-0.519393898
N4880 Y-0.640758755 Z-0.512606478
N4885 Y-0.621917567 Z-0.507205453
N4890 Y-0.602408732 Z-0.503237079
N4895 Y-0.583210893 Z-0.500900426
N4900 Y-0.566351357 Z-0.500151341
N4905 Y0.560288054 Z-0.50000003
N4910 Y0.581255898 Z-0.50073695
N4915 Y0.601266838 Z-0.503037445
N4920 Y0.619953336 Z-0.506726926
N4925 Y0.638752509 Z-0.511953361
N4930 Y0.657287057 Z-0.518704024
N4935 Y0.675101243 Z-0.526835111
N4940 Y0.692310033 Z-0.536383719
N4945 Y0.708695885 Z-0.547244342
N4950 Y0.724147436 Z-0.559335168
N4955 Y0.738577054 Z-0.572576523
N4960 Y0.74999997 Z-0.584823616
N4965 G3 Y0.768282057 Z-0.592771816 J0.018282087 K0.017051809
N4970 G17 G3 X-0.399786882 I-0.024997343 J0.
N4975 G19 G2 Y0.74999997 Z-0.584823616 J0. K0.025000009
N4980 G1 Y0.738577054 Z-0.572576523
N4985 Y0.724147436 Z-0.559335168
N4990 Y0.708695885 Z-0.547244342
N4995 Y0.692310033 Z-0.536383719
N5000 Y0.675101243 Z-0.526835111
N5005 Y0.657287057 Z-0.518704024
N5010 Y0.638752509 Z-0.511953361
N5015 Y0.619953336 Z-0.506726926
N5020 Y0.601266838 Z-0.503037445
N5025 Y0.581255898 Z-0.50073695
N5030 Y0.560288054 Z-0.50000003
N5035 Y-0.566351357 Z-0.500151341
N5040 Y-0.583210893 Z-0.500900426
N5045 Y-0.602408732 Z-0.503237079
N5050 Y-0.621917567 Z-0.507205453
N5055 Y-0.640758755 Z-0.512606478
N5060 Y-0.658959967 Z-0.519393898
N5065 Y-0.6767921 Z-0.527693268
N5070 Y-0.693983243 Z-0.53741365
N5075 Y-0.710197659 Z-0.548338027
N5080 Y-0.725516222 Z-0.560503231
N5085 Y-0.740000207 Z-0.574005945
N5090 Y-0.74999997 Z-0.584823691
N5095 G2 Y-0.76835805 Z-0.592853666 J-0.01835808 K0.016970034
N5100 G17 G2 X-0.449781606 I-0.024997381 J0.
N5105 G19 G3 Y-0.74999997 Z-0.584823691 J0. K0.025000009
N5110 G1 Y-0.740000207 Z-0.574005945
N5115 Y-0.725516222 Z-0.560503231
N5120 Y-0.710197659 Z-0.548338027
N5125 Y-0.693983243 Z-0.53741365
N5130 Y-0.6767921 Z-0.527693268
N5135 Y-0.658959967 Z-0.519393898
N5140 Y-0.640758755 Z-0.512606478
N5145 Y-0.621917567 Z-0.507205453
N5150 Y-0.602408732 Z-0.503237079
N5155 Y-0.583210893 Z-0.500900426
N5160 Y-0.566351357 Z-0.500151341
N5165 Y0.560288054 Z-0.50000003
N5170 Y0.581255898 Z-0.50073695
N5175 Y0.601266838 Z-0.503037445
N5180 Y0.619953336 Z-0.506726926
N5185 Y0.638752509 Z-0.511953361
N5190 Y0.657287057 Z-0.518704024
N5195 Y0.675101243 Z-0.526835111
N5200 Y0.692310033 Z-0.536383719
N5205 Y0.708695885 Z-0.547244342
N5210 Y0.724147436 Z-0.559335168
N5215 Y0.738577054 Z-0.572576523
N5220 Y0.74999997 Z-0.584823616
N5225 G3 Y0.768282057 Z-0.592771816 J0.018282087 K0.017051809
N5230 G17 G3 X-0.499776367 I-0.024997381 J0.
N5235 G19 G2 Y0.74999997 Z-0.584823616 J0. K0.025000009
N5240 G1 Y0.738577054 Z-0.572576523
N5245 Y0.724147436 Z-0.559335168
N5250 Y0.708695885 Z-0.547244342
N5255 Y0.692310033 Z-0.536383719
N5260 Y0.675101243 Z-0.526835111
N5265 Y0.657287057 Z-0.518704024
N5270 Y0.638752509 Z-0.511953361
N5275 Y0.619953336 Z-0.506726926
N5280 Y0.601266838 Z-0.503037445
N5285 Y0.581255898 Z-0.50073695
N5290 Y0.560288054 Z-0.50000003
N5295 Y-0.566351357 Z-0.500151341
N5300 Y-0.583210893 Z-0.500900426
N5305 Y-0.602408732 Z-0.503237079
N5310 Y-0.621917567 Z-0.507205453
N5315 Y-0.640758755 Z-0.512606478
N5320 Y-0.658959967 Z-0.519393898
N5325 Y-0.6767921 Z-0.527693268
N5330 Y-0.693983243 Z-0.53741365
N5335 Y-0.710197659 Z-0.548338027
N5340 Y-0.725516222 Z-0.560503231
N5345 Y-0.740000207 Z-0.574005945
N5350 Y-0.74999997 Z-0.584823691
N5355 G2 Y-0.76835805 Z-0.592853666 J-0.01835808 K0.016970034
N5360 G17 G2 X-0.549771091 I-0.024997343 J0.
N5365 G19 G3 Y-0.74999997 Z-0.584823691 J0. K0.025000009
N5370 G1 Y-0.740000207 Z-0.574005945
N5375 Y-0.725516222 Z-0.560503231
N5380 Y-0.710197659 Z-0.548338027
N5385 Y-0.693983243 Z-0.53741365
N5390 Y-0.6767921 Z-0.527693268
N5395 Y-0.658959967 Z-0.519393898
N5400 Y-0.640758755 Z-0.512606478
N5405 Y-0.621917567 Z-0.507205453
N5410 Y-0.602408732 Z-0.503237079
N5415 Y-0.583210893 Z-0.500900426
N5420 Y-0.566351357 Z-0.500151341
N5425 Y0.560288054 Z-0.50000003
N5430 Y0.581255898 Z-0.50073695
N5435 Y0.601266838 Z-0.503037445
N5440 Y0.619953336 Z-0.506726926
N5445 Y0.638752509 Z-0.511953361
N5450 Y0.657287057 Z-0.518704024
N5455 Y0.675101243 Z-0.526835111
N5460 Y0.692310033 Z-0.536383719
N5465 Y0.708695885 Z-0.547244342
N5470 Y0.724147436 Z-0.559335168
N5475 Y0.738577054 Z-0.572576523
N5480 Y0.74999997 Z-0.584823616
N5485 G3 Y0.768282057 Z-0.592771816 J0.018282087 K0.017051809
N5490 G17 G3 X-0.599765815 I-0.024997381 J0.
N5495 G19 G2 Y0.74999997 Z-0.584823616 J0. K0.025000009
N5500 G1 Y0.738577054 Z-0.572576523
N5505 Y0.724147436 Z-0.559335168
N5510 Y0.708695885 Z-0.547244342
N5515 Y0.692310033 Z-0.536383719
N5520 Y0.675101243 Z-0.526835111
N5525 Y0.657287057 Z-0.518704024
N5530 Y0.638752509 Z-0.511953361
N5535 Y0.619953336 Z-0.506726926
N5540 Y0.601266838 Z-0.503037445
N5545 Y0.581255898 Z-0.50073695
N5550 Y0.560288054 Z-0.50000003
N5555 Y-0.566351357 Z-0.500151341
N5560 Y-0.583210893 Z-0.500900426
N5565 Y-0.602408732 Z-0.503237079
N5570 Y-0.621917567 Z-0.507205453
N5575 Y-0.640758755 Z-0.512606478
N5580 Y-0.658959967 Z-0.519393898
N5585 Y-0.6767921 Z-0.527693268
N5590 Y-0.693983243 Z-0.53741365
N5595 Y-0.710197659 Z-0.548338027
N5600 Y-0.725516222 Z-0.560503231
N5605 Y-0.740000207 Z-0.574005945
N5610 Y-0.74999997 Z-0.584823691
N5615 G2 Y-0.76835805 Z-0.592853666 J-0.01835808 K0.016970034
N5620 G17 G2 X-0.649760539 I-0.024997381 J0.
N5625 G19 G3 Y-0.74999997 Z-0.584823691 J0. K0.025000009
N5630 G1 Y-0.740000207 Z-0.574005945
N5635 Y-0.725516222 Z-0.560503231
N5640 Y-0.710197659 Z-0.548338027
N5645 Y-0.693983243 Z-0.53741365
N5650 Y-0.6767921 Z-0.527693268
N5655 Y-0.658959967 Z-0.519393898
N5660 Y-0.640758755 Z-0.512606478
N5665 Y-0.621917567 Z-0.507205453
N5670 Y-0.602408732 Z-0.503237079
N5675 Y-0.583210893 Z-0.500900426
N5680 Y-0.566351357 Z-0.500151341
N5685 Y0.560288054 Z-0.50000003
N5690 Y0.581255898 Z-0.50073695
N5695 Y0.601266838 Z-0.503037445
N5700 Y0.619953336 Z-0.506726926
N5705 Y0.638752509 Z-0.511953361
N5710 Y0.657287057 Z-0.518704024
N5715 Y0.675101243 Z-0.526835111
N5720 Y0.692310033 Z-0.536383719
N5725 Y0.708695885 Z-0.547244342
N5730 Y0.724147436 Z-0.559335168
N5735 Y0.738577054 Z-0.572576523
N5740 Y0.74999997 Z-0.584823616
N5745 G3 Y0.768282057 Z-0.592771816 J0.018282087 K0.017051809
N5750 G17 G3 X-0.699755301 I-0.024997381 J0.
N5755 G19 G2 Y0.74999997 Z-0.584823616 J0. K0.025000009
N5760 G1 Y0.738577054 Z-0.572576523
N5765 Y0.724147436 Z-0.559335168
N5770 Y0.708695885 Z-0.547244342
N5775 Y0.692310033 Z-0.536383719
N5780 Y0.675101243 Z-0.526835111
N5785 Y0.657287057 Z-0.518704024
N5790 Y0.638752509 Z-0.511953361
N5795 Y0.619953336 Z-0.506726926
N5800 Y0.601266838 Z-0.503037445
N5805 Y0.581255898 Z-0.50073695
N5810 Y0.560288054 Z-0.50000003
N5815 Y-0.566351357 Z-0.500151341
N5820 Y-0.583210893 Z-0.500900426
N5825 Y-0.602408732 Z-0.503237079
N5830 Y-0.621917567 Z-0.507205453
N5835 Y-0.640758755 Z-0.512606478
N5840 Y-0.658959967 Z-0.519393898
N5845 Y-0.6767921 Z-0.527693268
N5850 Y-0.693983243 Z-0.53741365
N5855 Y-0.710197659 Z-0.548338027
N5860 Y-0.725516222 Z-0.560503231
N5865 Y-0.740000207 Z-0.574005945
N5870 Y-0.74999997 Z-0.584823691
N5875 G2 Y-0.76835805 Z-0.592853666 J-0.01835808 K0.016970034
N5880 G17 G2 X-0.749750062 I-0.024997381 J0.
N5885 G19 G3 Y-0.74999997 Z-0.584823691 J0. K0.025000009
N5890 G1 Y-0.740000207 Z-0.574005945
N5895 Y-0.725516222 Z-0.560503231
N5900 Y-0.710197659 Z-0.548338027
N5905 Y-0.693983243 Z-0.53741365
N5910 Y-0.6767921 Z-0.527693268
N5915 Y-0.658959967 Z-0.519393898
N5920 Y-0.640758755 Z-0.512606478
N5925 Y-0.621917567 Z-0.507205453
N5930 Y-0.602408732 Z-0.503237079
N5935 Y-0.583210893 Z-0.500900426
N5940 Y-0.566351357 Z-0.500151341
N5945 Y0.560288054 Z-0.50000003
N5950 Y0.581255898 Z-0.50073695
N5955 Y0.601266838 Z-0.503037445
N5960 Y0.619953336 Z-0.506726926
N5965 Y0.638752509 Z-0.511953361
N5970 Y0.657287057 Z-0.518704024
N5975 Y0.675101243 Z-0.526835111
N5980 Y0.692310033 Z-0.536383719
N5985 Y0.708695885 Z-0.547244342
N5990 Y0.724147436 Z-0.559335168
N5995 Y0.738577054 Z-0.572576523
N6000 Y0.74999997 Z-0.584823616
N6005 G3 Y0.836564237 Z-0.550719997 J0.036564249 K0.034103619 F15.
N6010 G0 Z0.599999991
N6015 G17
N6020 G53 G0 Z0.
N6025 M30
%
