%
(END TENON)
(T1  D=0.5 CR=0. - ZMIN=-0.790000001 - FLAT END MILL)
N10 G90 G94 G17 G91.1
N15 G20
N20 G53 G0 Z0.
(ADAPTIVE1)
N25 M9
N30 T1 M6
N35 S4000 M3
N40 G54
N45 G0 X0.212713114 Y-1.144648274
N50 G43 Z0.110037402 H1
N55 G0 Z-0.293700789
N60 G1 Z-0.343700769 F15.
N65 X0.21244692 Y-1.144481 Z-0.349298993
N70 X0.211651685 Y-1.143981278 Z-0.354826816
N75 X0.210337408 Y-1.143155393 Z-0.360214722
N80 X0.208520617 Y-1.14201373 Z-0.365394957
N85 X0.20622416 Y-1.140570647 Z-0.370302375
N90 X0.203476916 Y-1.138844292 Z-0.374875262
N95 X0.200313433 Y-1.136856373 Z-0.379056113
N100 X0.196773493 Y-1.134631891 Z-0.382792349
N105 X0.192901614 Y-1.13219882 Z-0.386036987
N110 X0.188746486 Y-1.129587756 Z-0.388749222
N115 X0.184360362 Y-1.126831536 Z-0.390894948
N120 X0.179798401 Y-1.12396482 Z-0.392447179
N125 X0.175117972 Y-1.12102366 Z-0.393386396
N130 X0.170377934 Y-1.118045041 Z-0.393700787
N135 G3 X-0.076871711 Y-0.997659803 I-0.679176173 J-1.080809841
N140 G1 X-0.084862362 Y-0.995097724 F5.
N145 X-0.09654031 Y-0.991300072
N150 X-0.111510228 Y-0.984482577
N155 X-0.12090422 Y-0.980133823
N160 X-0.126480136 Y-0.977101138
N165 X-0.127849982 Y-0.976186887
N170 X-0.133000875 Y-0.973109824
N175 X-0.143532546 Y-0.967601491
N180 X-0.156569434 Y-0.961571641
N185 X-0.17272294 Y-0.955034616
N190 X-0.192858009 Y-0.948005887
N195 X-0.218265563 Y-0.940502047
N200 X-0.251011041 Y-0.932540969
N205 X-0.29472995 Y-0.924141426
N210 X-0.346501456 Y-0.916785893
N215 X-0.398529684 Y-0.911546091
N220 X-0.450684705 Y-0.907771343
N225 X-0.502904306 Y-0.90503197
N230 X-0.555157549 Y-0.90303406
N235 X-0.607385072 Y-0.900449753
N240 X-0.656814951 Y-0.883388669
N245 X-0.701227413 Y-0.855785655
N250 X-0.739803089 Y-0.820482509
N255 X-0.772450965 Y-0.779635212
N260 X-0.79949409 Y-0.734879576
N265 X-0.821482591 Y-0.687435931
N270 X-0.839072475 Y-0.638191794
N275 X-0.852943706 Y-0.587773699
N280 X-0.863747184 Y-0.536610461
N285 X-0.872071934 Y-0.48498593
N290 X-0.878429338 Y-0.433082393
N295 X-0.883248622 Y-0.38101354
N300 X-0.886880019 Y-0.328848381
N305 X-0.889603472 Y-0.276627916
N310 X-0.891638403 Y-0.2243761
N315 X-0.893154445 Y-0.172106657
N320 X-0.894281507 Y-0.119827394
N325 X-0.895117962 Y-0.06754266
N330 X-0.895738001 Y-0.015254917
N335 X-0.896197191 Y0.037034487
N340 X-0.896536985 Y0.089324807
N345 X-0.896788319 Y0.141615624
N350 X-0.896974173 Y0.193906713
N355 X-0.897212967 Y0.298489266
N360 X-0.897384328 Y0.455363416
N365 X-0.89741459 Y0.507654843
N370 X-0.897436893 Y0.55994627
N375 X-0.893314992 Y0.612074972
N380 X-0.875146971 Y0.661108813
N385 X-0.846733033 Y0.705006892
N390 X-0.810841463 Y0.743035669
N395 X-0.769575299 Y0.775152567
N400 X-0.724528455 Y0.801707666
N405 X-0.676887542 Y0.823265436
N410 X-0.627513232 Y0.840486692
N415 X-0.577011709 Y0.854050869
N420 X-0.525796207 Y0.864603989
N425 X-0.474139837 Y0.872728618
N430 X-0.422217264 Y0.878928628
N435 X-0.370137222 Y0.883625661
N440 X-0.317965605 Y0.887163342
N445 X-0.274686776 Y0.889361224
N450 X-0.255876169 Y0.891701105
N455 X-0.237606229 Y0.896753176
N460 X-0.220265895 Y0.904410054
N465 X-0.204224286 Y0.914508639
N470 X-0.189822884 Y0.926833941
N475 G3 X-0.176702109 Y0.954290826 I-0.036413632 J0.034264392 F15.
N480 G1 X-0.175939907 Y0.959836921 Z-0.393386394
N485 X-0.175187291 Y0.96531327 Z-0.392447175
N490 X-0.174453724 Y0.970651005 Z-0.390894942
N495 X-0.173748432 Y0.975783 Z-0.388749215
N500 X-0.173080285 Y0.980644718 Z-0.386036978
N505 X-0.172457684 Y0.985175019 Z-0.382792339
N510 X-0.171888459 Y0.989316933 Z-0.379056101
N515 X-0.171379769 Y0.993018373 Z-0.374875251
N520 X-0.170938011 Y0.996232791 Z-0.370302364
N525 X-0.170568739 Y0.998919764 Z-0.365394947
N530 X-0.170276598 Y1.001045502 Z-0.360214714
N535 X-0.170065261 Y1.002583272 Z-0.354826809
N540 X-0.169937387 Y1.003513737 Z-0.349298989
N545 X-0.169894583 Y1.003825194 Z-0.343700769
N550 G0 Y1.003825195 Z0.110037402
N555 X-0.086448531 Y-1.045016041
N560 Z-0.293700789
N565 G1 Z-0.343700769 F15.
N570 X-0.086584105 Y-1.044732383 Z-0.349298998
N575 X-0.086989124 Y-1.043884982 Z-0.354826826
N580 X-0.087658495 Y-1.042484494 Z-0.360214736
N585 X-0.0885838 Y-1.040548531 Z-0.365394973
N590 X-0.089753403 Y-1.038101438 Z-0.370302393
N595 X-0.091152594 Y-1.035173991 Z-0.374875281
N600 X-0.092763779 Y-1.031803002 Z-0.379056132
N605 X-0.094566696 Y-1.028030865 Z-0.382792368
N610 X-0.096538672 Y-1.023905015 Z-0.386037004
N615 X-0.098654909 Y-1.019477339 Z-0.388749237
N620 X-0.100888792 Y-1.014803516 Z-0.39089496
N625 X-0.103212231 Y-1.009942323 Z-0.392447188
N630 X-0.105596006 Y-1.004954891 Z-0.393386401
N635 X-0.10801014 Y-0.999903942 Z-0.393700789
N640 G3 X-0.127849982 Y-0.976186887 Z-0.393700787 I-0.056215262 J-0.026868535
N645 G1 X-0.141450054 Y-0.967110086 F5.
N650 X-0.156419972 Y-0.956956683
N655 X-0.165819315 Y-0.950206096
N660 X-0.17138988 Y-0.94500767
N665 X-0.186359807 Y-0.930266042
N670 X-0.19872626 Y-0.919179691
N675 X-0.206046273 Y-0.913233719
N680 X-0.215243167 Y-0.906478551
N685 X-0.226321408 Y-0.899143745
N690 X-0.238546762 Y-0.891879375
N695 X-0.253784919 Y-0.883801077
N700 X-0.271179883 Y-0.875637625
N705 X-0.292505767 Y-0.866868853
N710 X-0.317543886 Y-0.857971822
N715 X-0.348648086 Y-0.848596903
N720 X-0.39938983 Y-0.835960794
N725 X-0.450327941 Y-0.824141315
N730 X-0.498966608 Y-0.804940471
N735 X-0.544152297 Y-0.778622289
N740 X-0.585126389 Y-0.746133609
N745 X-0.621482969 Y-0.708549154
N750 X-0.653128511 Y-0.666920369
N755 X-0.680209858 Y-0.622187937
N760 X-0.703038644 Y-0.575142845
N765 X-0.722025173 Y-0.526420113
N770 X-0.737626083 Y-0.476510168
N775 X-0.750306648 Y-0.425779538
N780 X-0.760513441 Y-0.374493937
N785 X-0.768658345 Y-0.322840721
N790 X-0.775108262 Y-0.270948598
N795 X-0.78018196 Y-0.218903906
N800 X-0.784149996 Y-0.166763264
N805 X-0.787238023 Y-0.114563103
N810 X-0.78963092 Y-0.062326465
N815 X-0.791478495 Y-0.010067693
N820 X-0.792900521 Y0.042204388
N825 X-0.79399214 Y0.094484419
N830 X-0.794828295 Y0.146769154
N835 X-0.795467557 Y0.199056667
N840 X-0.795955583 Y0.251345803
N845 X-0.796327516 Y0.303635898
N850 X-0.796610614 Y0.355926574
N855 X-0.796161111 Y0.408216048
N860 X-0.78666304 Y0.459637642
N865 X-0.768198329 Y0.508560496
N870 X-0.741845078 Y0.553725761
N875 X-0.708942188 Y0.594367981
N880 X-0.670805503 Y0.630144885
N885 X-0.628620433 Y0.661044909
N890 X-0.583392654 Y0.687290702
N895 X-0.535937707 Y0.709254723
N900 X-0.486892753 Y0.727392782
N905 X-0.436752913 Y0.742238187
N910 X-0.386110028 Y0.755264778
N915 X-0.335531009 Y0.768537146
N920 X-0.32331737 Y0.77237347
N925 X-0.305797209 Y0.779272665
N930 X-0.289426 Y0.788575345
N935 X-0.274531391 Y0.800095205
N940 X-0.261411554 Y0.813601637
N945 X-0.250329051 Y0.828824456
N950 X-0.241505705 Y0.845458939
N955 G3 X-0.239292993 Y0.875809136 I-0.046396255 J0.018638325 F15.
N960 G1 X-0.240604313 Y0.881251615 Z-0.3933864
N965 X-0.241899142 Y0.886625652 Z-0.392447187
N970 X-0.243161197 Y0.891863666 Z-0.390894959
N975 X-0.244374607 Y0.896899784 Z-0.388749236
N980 X-0.245524113 Y0.901670677 Z-0.386037003
N985 X-0.24659526 Y0.906116345 Z-0.382792367
N990 X-0.247574576 Y0.910180883 Z-0.379056131
N995 X-0.248449746 Y0.913813177 Z-0.374875281
N1000 X-0.249209765 Y0.916967549 Z-0.370302392
N1005 X-0.249845075 Y0.919604329 Z-0.365394973
N1010 X-0.250347686 Y0.92169036 Z-0.360214736
N1015 X-0.250711278 Y0.923199408 Z-0.354826825
N1020 X-0.250931279 Y0.924112496 Z-0.349298998
N1025 X-0.251004921 Y0.924418141 Z-0.343700769
N1030 G0 Y0.924418142 Z0.110037402
N1035 X-0.158881672 Y-1.005741104
N1040 Z-0.293700789
N1045 G1 Z-0.343700769 F15.
N1050 X-0.158960512 Y-1.005436761 Z-0.349298995
N1055 X-0.159196044 Y-1.004527558 Z-0.354826819
N1060 X-0.159585305 Y-1.00302493 Z-0.360214727
N1065 X-0.1601234 Y-1.000947772 Z-0.365394963
N1070 X-0.160803562 Y-0.998322207 Z-0.370302381
N1075 X-0.161617238 Y-0.995181252 Z-0.374875269
N1080 X-0.162554195 Y-0.991564406 Z-0.379056119
N1085 X-0.163602651 Y-0.987517154 Z-0.382792356
N1090 X-0.164749421 Y-0.983090392 Z-0.386036993
N1095 X-0.165980082 Y-0.978339789 Z-0.388749227
N1100 X-0.16727916 Y-0.973325087 Z-0.390894951
N1105 X-0.168630317 Y-0.968109349 Z-0.392447181
N1110 X-0.170016562 Y-0.962758164 Z-0.393386396
N1115 X-0.171420462 Y-0.957338829 Z-0.393700786
N1120 G3 X-0.186359807 Y-0.930266042 Z-0.393700787 I-0.060315282 J-0.01562494
N1125 G1 X-0.19643793 Y-0.920278369 F5.
N1130 X-0.201329716 Y-0.914210372
N1135 X-0.217962753 Y-0.890350567
N1140 X-0.225759491 Y-0.878416872
N1145 X-0.231840517 Y-0.8700545
N1150 X-0.236543764 Y-0.864207576
N1155 X-0.242539823 Y-0.85745466
N1160 X-0.249336404 Y-0.850512212
N1165 X-0.257359208 Y-0.843078058
N1170 X-0.267477899 Y-0.834578492
N1175 X-0.279589882 Y-0.825371404
N1180 X-0.304735608 Y-0.808120562
N1185 X-0.349243795 Y-0.780672163
N1190 X-0.392693084 Y-0.751576611
N1195 X-0.433644497 Y-0.719059321
N1200 X-0.471469361 Y-0.682952911
N1205 X-0.505719035 Y-0.643438955
N1210 X-0.536245361 Y-0.600982689
N1215 X-0.563057877 Y-0.556088545
N1220 X-0.586294039 Y-0.509243349
N1225 X-0.606185132 Y-0.460882863
N1230 X-0.623023041 Y-0.41137654
N1235 X-0.637131638 Y-0.361024376
N1240 X-0.648844036 Y-0.310061522
N1245 X-0.658485608 Y-0.258666643
N1250 X-0.666362057 Y-0.206971826
N1255 X-0.672752501 Y-0.155072353
N1260 X-0.677905496 Y-0.103035452
N1265 X-0.682037759 Y-0.050907557
N1270 X-0.68533537 Y0.00127978
N1275 X-0.687955571 Y0.053505513
N1280 X-0.690029475 Y0.105755789
N1285 X-0.691665514 Y0.158021619
N1290 X-0.692931798 Y0.21029769
N1295 X-0.691685414 Y0.262574267
N1300 X-0.683423515 Y0.314208879
N1305 X-0.667399309 Y0.363984559
N1310 X-0.644121996 Y0.410809329
N1315 X-0.614434415 Y0.453856273
N1320 X-0.579350802 Y0.492631694
N1325 X-0.540010798 Y0.527081001
N1330 X-0.497549162 Y0.557599931
N1335 X-0.452916153 Y0.58484483
N1340 X-0.407154954 Y0.610149113
N1345 X-0.361315547 Y0.635311397
N1350 X-0.331550846 Y0.653170939
N1355 X-0.316533967 Y0.663206446
N1360 X-0.302997649 Y0.67360067
N1365 X-0.290940578 Y0.685679518
N1370 X-0.280570834 Y0.69923461
N1375 X-0.272067325 Y0.714031955
N1380 X-0.265576783 Y0.729816317
N1385 X-0.261211245 Y0.746315183
N1390 X-0.259045991 Y0.763243953
N1395 G3 X-0.267532735 Y0.792467388 I-0.049982353 J0.001328761 F15.
N1400 G1 X-0.270655952 Y0.797113424 Z-0.393386399
N1405 X-0.273739892 Y0.801701034 Z-0.392447185
N1410 X-0.276745774 Y0.806172525 Z-0.390894956
N1415 X-0.279635796 Y0.810471667 Z-0.388749233
N1420 X-0.282373616 Y0.814544395 Z-0.386037
N1425 X-0.284924803 Y0.818339492 Z-0.382792363
N1430 X-0.287257274 Y0.821809232 Z-0.379056127
N1435 X-0.289341699 Y0.824909982 Z-0.374875277
N1440 X-0.291151862 Y0.827602747 Z-0.370302389
N1445 X-0.292665002 Y0.829853666 Z-0.36539497
N1450 X-0.293862088 Y0.83163443 Z-0.360214733
N1455 X-0.294728068 Y0.832922647 Z-0.354826823
N1460 X-0.29525205 Y0.833702115 Z-0.349298997
N1465 X-0.295427445 Y0.833963033 Z-0.343700769
N1470 G0 X-0.295427446 Y0.833963034 Z0.110037402
N1475 X-0.214712958 Y-0.957975087
N1480 Z-0.293700789
N1485 G1 Z-0.343700769 F15.
N1490 X-0.21472625 Y-0.957660982 Z-0.349298991
N1495 X-0.214765962 Y-0.95672261 Z-0.354826812
N1500 X-0.214831593 Y-0.955171772 Z-0.360214718
N1505 X-0.214922319 Y-0.953027971 Z-0.365394952
N1510 X-0.215036998 Y-0.950318166 Z-0.370302369
N1515 X-0.215174189 Y-0.947076435 Z-0.374875256
N1520 X-0.215332166 Y-0.943343544 Z-0.379056107
N1525 X-0.215508942 Y-0.939166436 Z-0.382792344
N1530 X-0.215702294 Y-0.93459764 Z-0.386036982
N1535 X-0.215909791 Y-0.929694613 Z-0.388749219
N1540 X-0.216128824 Y-0.924519012 Z-0.390894945
N1545 X-0.216356637 Y-0.919135924 Z-0.392447177
N1550 X-0.216590367 Y-0.913613043 Z-0.393386395
N1555 X-0.216827073 Y-0.908019824 Z-0.393700787
N1560 G3 X-0.225759491 Y-0.878416872 I-0.062250547 J-0.002634469
N1565 G1 X-0.227739229 Y-0.875386741 F5.
N1570 X-0.234878889 Y-0.86042284
N1575 X-0.241505705 Y-0.845458939
N1580 X-0.244109274 Y-0.837654054
N1585 X-0.248205493 Y-0.827155151
N1590 X-0.251268627 Y-0.820308295
N1595 X-0.255814669 Y-0.811344507
N1600 X-0.262155251 Y-0.800219784
N1605 X-0.273396162 Y-0.782554957
N1610 X-0.303583089 Y-0.739856705
N1615 X-0.335686413 Y-0.698579953
N1620 X-0.367125902 Y-0.656795427
N1625 X-0.396946246 Y-0.613840321
N1630 X-0.424490576 Y-0.569391438
N1635 X-0.449504402 Y-0.523470819
N1640 X-0.47189307 Y-0.476214717
N1645 X-0.491672538 Y-0.427808461
N1650 X-0.508942116 Y-0.378451047
N1655 X-0.523859835 Y-0.328332646
N1660 X-0.536621199 Y-0.27762229
N1665 X-0.547441685 Y-0.226462657
N1670 X-0.556542892 Y-0.174969331
N1675 X-0.564141987 Y-0.123233016
N1680 X-0.570444723 Y-0.071322829
N1685 X-0.575640671 Y-0.019290194
N1690 X-0.579897926 Y0.032827636
N1695 X-0.582970784 Y0.085028692
N1700 X-0.581919828 Y0.137309549
N1705 X-0.574311196 Y0.189044457
N1710 X-0.559548468 Y0.23920874
N1715 X-0.538157891 Y0.286924933
N1720 X-0.511065994 Y0.331651019
N1725 X-0.47939308 Y0.373258929
N1730 X-0.444202611 Y0.411937406
N1735 X-0.406594577 Y0.448269581
N1740 X-0.367658946 Y0.483175338
N1745 X-0.328653028 Y0.51800251
N1750 X-0.304179492 Y0.541665873
N1755 X-0.29517399 Y0.551264117
N1760 X-0.282901178 Y0.566497074
N1765 X-0.273054547 Y0.583400013
N1770 X-0.265857329 Y0.601589698
N1775 X-0.261472679 Y0.620653761
N1780 X-0.260000004 Y0.640160042
N1785 Y0.740711783
N1790 X-0.259511921 Y0.755675684
N1795 X-0.259045991 Y0.763243953
N1800 G3 X-0.267532735 Y0.792467388 I-0.049982353 J0.001328761 F15.
N1805 G1 X-0.270655952 Y0.797113424 Z-0.393386399
N1810 X-0.273739892 Y0.801701034 Z-0.392447185
N1815 X-0.276745774 Y0.806172525 Z-0.390894956
N1820 X-0.279635796 Y0.810471667 Z-0.388749233
N1825 X-0.282373616 Y0.814544395 Z-0.386037
N1830 X-0.284924803 Y0.818339492 Z-0.382792363
N1835 X-0.287257274 Y0.821809232 Z-0.379056127
N1840 X-0.289341699 Y0.824909982 Z-0.374875277
N1845 X-0.291151862 Y0.827602747 Z-0.370302389
N1850 X-0.292665002 Y0.829853666 Z-0.36539497
N1855 X-0.293862088 Y0.83163443 Z-0.360214733
N1860 X-0.294728068 Y0.832922647 Z-0.354826823
N1865 X-0.29525205 Y0.833702115 Z-0.349298997
N1870 X-0.295427445 Y0.833963033 Z-0.343700769
N1875 G0 X-0.295427446 Y0.833963034 Z0.110037402
N1880 X-0.253627413 Y-0.917409461
N1885 Z-0.293700789
N1890 G1 Z-0.343700769 F15.
N1895 X-0.253560507 Y-0.917102277 Z-0.34929899
N1900 X-0.253360632 Y-0.916184581 Z-0.35482681
N1905 X-0.2530303 Y-0.914667912 Z-0.360214715
N1910 X-0.252573666 Y-0.912571345 Z-0.365394948
N1915 X-0.251996472 Y-0.909921244 Z-0.370302365
N1920 X-0.251305977 Y-0.906750936 Z-0.374875252
N1925 X-0.250510865 Y-0.903100289 Z-0.379056103
N1930 X-0.249621133 Y-0.899015212 Z-0.38279234
N1935 X-0.248647971 Y-0.894547078 Z-0.386036979
N1940 X-0.247603617 Y-0.889752075 Z-0.388749216
N1945 X-0.246501205 Y-0.884690504 Z-0.390894942
N1950 X-0.245354597 Y-0.879426017 Z-0.392447175
N1955 X-0.244178214 Y-0.874024817 Z-0.393386394
N1960 X-0.242986848 Y-0.868554829 Z-0.393700787
N1965 G3 X-0.244109274 Y-0.837654054 I-0.060879039 J0.013259452
N1970 G1 X-0.251488986 Y-0.815531213 F5.
N1975 X-0.257255186 Y-0.785603486
N1980 X-0.258590706 Y-0.770639585
N1985 X-0.25985791 Y-0.759322324
N1990 X-0.261731917 Y-0.747723542
N1995 X-0.264882572 Y-0.732858913
N2000 X-0.270014016 Y-0.713377224
N2005 X-0.279615226 Y-0.683010206
N2010 X-0.297786739 Y-0.63397768
N2015 X-0.317685698 Y-0.58562046
N2020 X-0.337794672 Y-0.537350159
N2025 X-0.357184373 Y-0.488786472
N2030 X-0.375348001 Y-0.439751017
N2035 X-0.392034861 Y-0.390193556
N2040 X-0.40712319 Y-0.340126255
N2045 X-0.420583515 Y-0.289596929
N2050 X-0.432451541 Y-0.238670101
N2055 X-0.442807881 Y-0.187414481
N2060 X-0.451761569 Y-0.135895314
N2065 X-0.459371927 Y-0.084160651
N2070 X-0.464646985 Y-0.032135983
N2075 X-0.465216374 Y0.020152337
N2080 X-0.459648455 Y0.07214648
N2085 X-0.447925019 Y0.123106795
N2090 X-0.430507998 Y0.172412377
N2095 X-0.408182895 Y0.219698553
N2100 X-0.381924937 Y0.264919255
N2105 X-0.352721177 Y0.308295892
N2110 X-0.32161983 Y0.350332786
N2115 X-0.289981497 Y0.391967015
N2120 X-0.28425472 Y0.399972247
N2125 X-0.275704598 Y0.413643995
N2130 X-0.26891393 Y0.428269604
N2135 X-0.263987338 Y0.443623723
N2140 X-0.261000686 Y0.459469923
N2145 X-0.260000004 Y0.475564003
N2150 Y0.640160042
N2155 G3 X-0.270266345 Y0.668806842 I-0.04996953 J-0.001744924 F15.
N2160 G1 X-0.273669139 Y0.673252191 Z-0.393386397
N2165 X-0.277029141 Y0.677641636 Z-0.39244718
N2170 X-0.280304097 Y0.681919979 Z-0.390894949
N2175 X-0.283452822 Y0.686033416 Z-0.388749224
N2180 X-0.286435719 Y0.689930218 Z-0.386036989
N2185 X-0.289215277 Y0.693561382 Z-0.382792352
N2190 X-0.291756541 Y0.696881243 Z-0.379056115
N2195 X-0.294027553 Y0.699848052 Z-0.374875264
N2200 X-0.295999754 Y0.702424499 Z-0.370302377
N2205 X-0.297648343 Y0.704578185 Z-0.365394959
N2210 X-0.298952587 Y0.706282025 Z-0.360214724
N2215 X-0.299896085 Y0.707514592 Z-0.354826817
N2220 X-0.300466972 Y0.708260388 Z-0.349298993
N2225 X-0.300658069 Y0.708510031 Z-0.343700769
N2230 G0 X-0.300658068 Z0.110037402
N2235 X-0.288328955 Y-0.845253036
N2240 Z-0.293700789
N2245 G1 Z-0.343700769 F15.
N2250 X-0.28818519 Y-0.844973446 Z-0.349298992
N2255 X-0.287755701 Y-0.844138186 Z-0.354826814
N2260 X-0.287045891 Y-0.842757759 Z-0.36021472
N2265 X-0.286064685 Y-0.840849527 Z-0.365394954
N2270 X-0.284824423 Y-0.838437485 Z-0.370302371
N2275 X-0.283340702 Y-0.835551966 Z-0.374875259
N2280 X-0.281632179 Y-0.832229257 Z-0.379056109
N2285 X-0.279720342 Y-0.828511145 Z-0.382792346
N2290 X-0.277629231 Y-0.824444384 Z-0.386036985
N2295 X-0.275385145 Y-0.820080119 Z-0.38874922
N2300 X-0.273016304 Y-0.815473231 Z-0.390894946
N2305 X-0.270552497 Y-0.810681655 Z-0.392447178
N2310 X-0.268024709 Y-0.805765648 Z-0.393386396
N2315 X-0.265464726 Y-0.800787032 Z-0.393700788
N2320 G3 X-0.258590706 Y-0.770639585 Z-0.393700787 I-0.055410261 J0.028491658
N2325 G1 X-0.259511921 Y-0.755675684 F5.
N2330 X-0.260000004 Y-0.740711858
N2335 Y-0.621000838
N2340 X-0.26150495 Y-0.590939372
N2345 X-0.264763701 Y-0.558030587
N2350 X-0.272442656 Y-0.50630607
N2355 X-0.282518376 Y-0.454994562
N2360 X-0.293597067 Y-0.403890197
N2365 X-0.304813272 Y-0.352815831
N2370 X-0.315700103 Y-0.301670258
N2375 X-0.325961564 Y-0.250395565
N2380 X-0.335254894 Y-0.198936594
N2385 X-0.342365888 Y-0.147130921
N2390 X-0.345484854 Y-0.094932599
N2395 X-0.343615877 Y-0.042674588
N2400 X-0.336532142 Y0.009134807
N2405 X-0.324511791 Y0.060025899
N2410 X-0.308164142 Y0.109696285
N2415 X-0.28826126 Y0.158051919
N2420 X-0.272349373 Y0.191891231
N2425 X-0.265538035 Y0.209647839
N2430 X-0.261391974 Y0.228208613
N2435 X-0.260000004 Y0.247175787
N2440 Y0.475564003
N2445 G3 X-0.270266345 Y0.504210727 I-0.04996953 J-0.001744961 F15.
N2450 G1 X-0.273669138 Y0.508656077 Z-0.393386399
N2455 X-0.277029139 Y0.513045524 Z-0.392447184
N2460 X-0.280304094 Y0.517323869 Z-0.390894955
N2465 X-0.283452819 Y0.521437308 Z-0.388749232
N2470 X-0.286435716 Y0.525334113 Z-0.386036998
N2475 X-0.289215274 Y0.52896528 Z-0.382792362
N2480 X-0.291756538 Y0.532285144 Z-0.379056126
N2485 X-0.294027551 Y0.535251956 Z-0.374875275
N2490 X-0.295999753 Y0.537828406 Z-0.370302387
N2495 X-0.297648342 Y0.539982095 Z-0.365394968
N2500 X-0.298952586 Y0.541685939 Z-0.360214732
N2505 X-0.299896085 Y0.54291851 Z-0.354826822
N2510 X-0.300466972 Y0.543664308 Z-0.349298996
N2515 X-0.300658069 Y0.543913954 Z-0.343700769
N2520 G0 X-0.300658068 Z0.110037402
N2525 X-0.294266704 Y-0.693646003
N2530 Z-0.293700789
N2535 G1 Z-0.343700769 F15.
N2540 X-0.294106031 Y-0.693375776 Z-0.34929899
N2545 X-0.293626032 Y-0.692568485 Z-0.354826811
N2550 X-0.292832742 Y-0.691234283 Z-0.360214717
N2555 X-0.291736139 Y-0.689389947 Z-0.36539495
N2560 X-0.290350012 Y-0.687058672 Z-0.370302367
N2565 X-0.288691792 Y-0.684269775 Z-0.374875255
N2570 X-0.286782334 Y-0.681058327 Z-0.379056105
N2575 X-0.284645648 Y-0.677464714 Z-0.382792342
N2580 X-0.282308606 Y-0.673534128 Z-0.386036981
N2585 X-0.279800596 Y-0.669315999 Z-0.388749217
N2590 X-0.27715316 Y-0.664863371 Z-0.390894944
N2595 X-0.274399588 Y-0.660232239 Z-0.392447176
N2600 X-0.27157451 Y-0.655480842 Z-0.393386394
N2605 X-0.268713452 Y-0.650668933 Z-0.393700787
N2610 G3 X-0.260000004 Y-0.621000838 I-0.053554877 J0.031842547
N2615 G1 Y0.247175787 F5.
N2620 X-0.260681459 Y0.251394466 Z-0.393399499 F15.
N2625 X-0.261349734 Y0.255531547 Z-0.392510474
N2630 X-0.261992 Y0.259507622 Z-0.391050774
N2635 X-0.263428371 Y0.262806661 Z-0.389156347
N2640 X-0.264753137 Y0.265849365 Z-0.386806323
N2645 X-0.265943405 Y0.268583158 Z-0.38404131
N2650 X-0.266978609 Y0.270960801 Z-0.380909086
N2655 X-0.268137152 Y0.272673992 Z-0.377636984
N2660 X-0.269057625 Y0.27403514 Z-0.374132142
N2665 X-0.269725606 Y0.275022915 Z-0.370449479
N2670 X-0.270130628 Y0.27562184 Z-0.366646696
N2675 X-0.270266345 Y0.275822531 Z-0.362783379
N2680 G0 Z0.110037402
N2685 X-1.140210835 Y0.346074855
N2690 Z-0.665590557
N2695 G1 Z-0.715590575 F15.
N2700 X-1.140047563 Y0.346343524 Z-0.7211888
N2705 X-1.139559806 Y0.347146155 Z-0.726716625
N2710 X-1.138753698 Y0.348472657 Z-0.732104533
N2715 X-1.137639376 Y0.350306346 Z-0.737284768
N2720 X-1.136230854 Y0.352624164 Z-0.742192187
N2725 X-1.134545845 Y0.355396962 Z-0.746765075
N2730 X-1.132605538 Y0.358589872 Z-0.750945925
N2735 X-1.130434334 Y0.362162739 Z-0.754682162
N2740 X-1.128059537 Y0.366070634 Z-0.757926799
N2745 X-1.125511012 Y0.370264411 Z-0.760639034
N2750 X-1.122820806 Y0.374691333 Z-0.762784758
N2755 X-1.120022753 Y0.379295728 Z-0.764336988
N2760 X-1.117152037 Y0.384019692 Z-0.765276203
N2765 X-1.114244761 Y0.38880382 Z-0.765590593
N2770 G3 X-0.997577202 Y0.637829247 I-1.090863671 J0.662907916
N2775 G1 X-0.99359257 Y0.650928527 F5.
N2780 X-0.987060502 Y0.665892428
N2785 X-0.979765344 Y0.681943893
N2790 X-0.971202475 Y0.695820155
N2795 X-0.961440529 Y0.710784056
N2800 X-0.95068421 Y0.725747882
N2805 X-0.949825527 Y0.726798501
N2810 X-0.936934779 Y0.740711783
N2815 X-0.934855619 Y0.74284974
N2820 X-0.921738392 Y0.755675684
N2825 X-0.919885635 Y0.757270573
N2830 X-0.904915727 Y0.768654215
N2835 X-0.889945819 Y0.778975524
N2840 X-0.880247552 Y0.785603411
N2845 X-0.849406926 Y0.800567312
N2850 X-0.845036094 Y0.802452283
N2855 X-0.797019718 Y0.823160232
N2860 X-0.74765303 Y0.840403339
N2865 X-0.69715635 Y0.853985614
N2870 X-0.645943889 Y0.864553527
N2875 X-0.594289397 Y0.872689945
N2880 X-0.54236795 Y0.878899191
N2885 X-0.490288547 Y0.883603509
N2890 X-0.438117305 Y0.887146672
N2895 X-0.385893386 Y0.889802993
N2900 X-0.333639656 Y0.891787236
N2905 X-0.281369104 Y0.893265206
N2910 X-0.274314017 Y0.893413439
N2915 X-0.254762079 Y0.895309674
N2920 X-0.235719493 Y0.900131886
N2925 X-0.217621589 Y0.907769992
N2930 X-0.200882108 Y0.918049249
N2935 X-0.185883721 Y0.93073477
N2940 X-0.183355987 Y0.934180368 Z-0.765289303 F15.
N2945 X-0.180877144 Y0.937559321 Z-0.764400277
N2950 X-0.178494773 Y0.940806772 Z-0.762940579
N2955 X-0.177151979 Y0.944145002 Z-0.761046156
N2960 X-0.17591352 Y0.947223854 Z-0.758696133
N2965 X-0.174800795 Y0.949990126 Z-0.755931119
N2970 X-0.173833032 Y0.952396017 Z-0.752798892
N2975 X-0.173425248 Y0.954423568 Z-0.74952678
N2980 X-0.173101261 Y0.956034475 Z-0.74602193
N2985 X-0.172866146 Y0.957203497 Z-0.742339258
N2990 X-0.172723588 Y0.957912316 Z-0.738536469
N2995 X-0.17267582 Y0.958149827 Z-0.734673147
N3000 G0 Z0.110037402
N3005 X-0.924710552 Y0.812626636
N3010 Z-0.665590557
N3015 G1 Z-0.715590575 F15.
N3020 X-0.924403926 Y0.812557205 Z-0.721188799
N3025 X-0.923487903 Y0.812349782 Z-0.726716622
N3030 X-0.921974002 Y0.812006978 Z-0.732104529
N3035 X-0.919881261 Y0.811533102 Z-0.737284764
N3040 X-0.917235998 Y0.810934114 Z-0.742192182
N3045 X-0.914071478 Y0.810217546 Z-0.74676507
N3050 X-0.910427496 Y0.80939241 Z-0.750945921
N3055 X-0.906349879 Y0.808469082 Z-0.754682157
N3060 X-0.901889904 Y0.807459174 Z-0.757926795
N3065 X-0.897103658 Y0.806375386 Z-0.76063903
N3070 X-0.892051332 Y0.805231347 Z-0.762784755
N3075 X-0.88679646 Y0.804041443 Z-0.764336986
N3080 X-0.881405126 Y0.80282064 Z-0.765276203
N3085 X-0.875945129 Y0.801584289 Z-0.765590594
N3090 G3 X-0.845036094 Y0.802452283 Z-0.765590593 I0.013760169 J0.060767827
N3095 G1 X-0.815096277 Y0.812166469 F5.
N3100 X-0.799255747 Y0.815531137
N3105 X-0.78515646 Y0.818272088
N3110 X-0.770186477 Y0.819344558
N3115 X-0.755216568 Y0.820146245
N3120 X-0.74024666 Y0.820677299
N3125 X-0.336058947
N3130 X-0.303933639 Y0.822285555
N3135 X-0.288481224 Y0.825120295
N3140 X-0.2737068 Y0.830461622
N3145 X-0.260013971 Y0.838163481
N3150 X-0.247776771 Y0.848015613
N3155 X-0.237329494 Y0.859748735
N3160 X-0.22895751 Y0.873042505
N3165 G3 X-0.292541455 Y0.941012826 I-0.045143845 J0.021494918 F15.
N3170 G1 X-0.352754067 Y0.917122233
N3175 G3 X-0.336058947 Y0.820677299 I0.018440081 J-0.046475403
N3180 G1 X-0.291149203 F5.
N3185 X-0.283664249 Y0.820715596
N3190 X-0.276179295 Y0.821577132
N3195 X-0.268694341 Y0.82363016
N3200 X-0.261209387 Y0.827042512
N3205 X-0.255867196 Y0.830495038
N3210 X-0.251053318 Y0.834553035
N3215 X-0.246239459 Y0.839871985
N3220 X-0.242444155 Y0.845458939
N3225 X-0.238548846 Y0.853689074
N3230 X-0.237360036 Y0.857793743 Z-0.765289304 F15.
N3235 X-0.236194219 Y0.861819023 Z-0.764400278
N3240 X-0.235073773 Y0.865687648 Z-0.76294058
N3245 X-0.234856887 Y0.868450765 Z-0.761540189
N3250 X-0.234652085 Y0.871059937 Z-0.759868895
N3255 X-0.234461431 Y0.873488854 Z-0.757943551
N3260 X-0.234786607 Y0.876555677 Z-0.75482721
N3265 X-0.235062063 Y0.879153576 Z-0.751306163
N3270 X-0.235282265 Y0.881230364 Z-0.74745114
N3275 X-0.23544279 Y0.882744322 Z-0.743339583
N3280 X-0.235540414 Y0.883665038 Z-0.739054084
N3285 X-0.235573175 Y0.883974015 Z-0.734680732
N3290 G0 Z0.110037402
N3295 X-1.184539344 Y0.682545534
N3300 Z-0.586850399
N3305 G1 Z-0.636850417 F15.
N3310 X-1.184232242 Y0.682612828 Z-0.642448642
N3315 X-1.183314796 Y0.682813867 Z-0.647976466
N3320 X-1.181798544 Y0.683146125 Z-0.653364374
N3325 X-1.179702554 Y0.683605421 Z-0.658544609
N3330 X-1.177053184 Y0.684185981 Z-0.663452028
N3335 X-1.173883752 Y0.684880503 Z-0.668024916
N3340 X-1.170234114 Y0.685680254 Z-0.672205766
N3345 X-1.166150168 Y0.686575176 Z-0.675942003
N3350 X-1.161683271 Y0.687554015 Z-0.67918664
N3355 X-1.156889596 Y0.688604461 Z-0.681898875
N3360 X-1.151829428 Y0.689713305 Z-0.684044599
N3365 X-1.1465664 Y0.690866601 Z-0.68559683
N3370 X-1.141166699 Y0.692049847 Z-0.686536046
N3375 X-1.135698228 Y0.693248163 Z-0.686850436
N3380 G3 X-0.87497591 Y0.780705955 Z-0.686850435 I-0.273237078 J1.246904914
N3385 G1 X-0.865250009 Y0.785603411 F5.
N3390 X-0.860006002 Y0.788004793
N3395 X-0.845036094 Y0.794594532
N3400 X-0.815096277 Y0.80431788
N3405 X-0.800126369 Y0.807312042
N3410 X-0.78515646 Y0.810066508
N3415 X-0.770186477 Y0.811504905
N3420 X-0.755216568 Y0.812307343
N3425 X-0.74024666 Y0.812838997
N3430 X-0.291149203
N3435 X-0.283664249 Y0.813136589
N3440 X-0.276179295 Y0.814540367
N3445 X-0.272926214 Y0.815531137
N3450 X-0.2670678 Y0.817960604
N3455 X-0.261209387 Y0.821348476
N3460 X-0.256046498 Y0.825333107
N3465 X-0.250883628 Y0.830495038
N3470 X-0.246239459 Y0.836713295
N3475 X-0.243772972 Y0.84108608
N3480 X-0.241841894 Y0.845458939
N3485 X-0.240761054 Y0.849593332 Z-0.686549141 F15.
N3490 X-0.23970112 Y0.853647758 Z-0.685660115
N3495 X-0.238682435 Y0.857544395 Z-0.684200422
N3500 X-0.238462121 Y0.86091711 Z-0.682444975
N3505 X-0.238257543 Y0.864048905 Z-0.680287354
N3510 X-0.238610737 Y0.867009491 Z-0.677620369
N3515 X-0.238920215 Y0.869603632 Z-0.674590967
N3520 X-0.239180802 Y0.871787959 Z-0.671249795
N3525 X-0.239388142 Y0.873525953 Z-0.667652712
N3530 X-0.239538768 Y0.874788558 Z-0.663859855
N3535 X-0.239630162 Y0.875554664 Z-0.659934636
N3540 X-0.239660796 Y0.875811464 Z-0.655942677
N3545 G0 Z0.110037402
N3550 X-1.208433241 Y0.519781976
N3555 Z-0.54748032
N3560 G1 Z-0.597480338 F15.
N3565 X-1.20816317 Y0.519942917 Z-0.603078563
N3570 X-1.207356354 Y0.52042372 Z-0.608606388
N3575 X-1.206022938 Y0.521218339 Z-0.613994295
N3580 X-1.204179693 Y0.52231678 Z-0.619174531
N3585 X-1.201849797 Y0.523705231 Z-0.624081949
N3590 X-1.19906255 Y0.525366231 Z-0.628654837
N3595 X-1.195853004 Y0.527278891 Z-0.632835687
N3600 X-1.19226152 Y0.52941916 Z-0.636571924
N3605 X-1.188333263 Y0.531760121 Z-0.639816561
N3610 X-1.184117634 Y0.534272335 Z-0.642528795
N3615 X-1.179667646 Y0.536924211 Z-0.64467452
N3620 X-1.17503926 Y0.5396824 Z-0.64622675
N3625 X-1.170290682 Y0.542512215 Z-0.647165965
N3630 X-1.165481627 Y0.545378069 Z-0.647480356
N3635 G3 X-0.945786679 Y0.710784056 I-0.6534644 J1.096546631
N3640 G1 X-0.934855619 Y0.721776166 F5.
N3645 X-0.914741201 Y0.740711783
N3650 X-0.904915727 Y0.748720545
N3655 X-0.889945819 Y0.758593026
N3660 X-0.87497591 Y0.76761088
N3665 X-0.860006002 Y0.774902058
N3670 X-0.845036094 Y0.781996419
N3675 X-0.815096277 Y0.791721419
N3680 X-0.800126369 Y0.794724367
N3685 X-0.78515646 Y0.797486493
N3690 X-0.770186477 Y0.798931047
N3695 X-0.755216568 Y0.799735663
N3700 X-0.74024666 Y0.800268969
N3705 X-0.30611913
N3710 X-0.291149203 Y0.800333323
N3715 X-0.288231354 Y0.800567312
N3720 X-0.282205334 Y0.801604639
N3725 X-0.276179295 Y0.803433591
N3730 X-0.268694341 Y0.806962261
N3735 X-0.264951864 Y0.809349375
N3740 X-0.261209387 Y0.812251324
N3745 X-0.257718563 Y0.815531137
N3750 X-0.254351867 Y0.819272094
N3755 X-0.251589629 Y0.823013125
N3760 X-0.247463729 Y0.830495038
N3765 X-0.246239459 Y0.833508724
N3770 X-0.245833697 Y0.834602221
N3775 X-0.245004929 Y0.83879444 Z-0.647179066 F15.
N3780 X-0.244192191 Y0.842905574 Z-0.64629004
N3785 X-0.243411083 Y0.84685671 Z-0.644830343
N3790 X-0.243288889 Y0.850350387 Z-0.643006272
N3795 X-0.243688195 Y0.85352192 Z-0.640774329
N3800 X-0.244049267 Y0.856389769 Z-0.638158093
N3805 X-0.244366371 Y0.858908394 Z-0.635199108
N3810 X-0.244634471 Y0.8610378 Z-0.631944363
N3815 X-0.24484931 Y0.862744174 Z-0.628445543
N3820 X-0.245204671 Y0.864007322 Z-0.624599499
N3825 X-0.24542037 Y0.86477405 Z-0.620614591
N3830 X-0.245492684 Y0.865031115 Z-0.616559644
N3835 G0 Z0.110037402
N3840 X-1.162022793 Y0.365857815
N3845 Z-0.508110242
N3850 G1 Z-0.55811026 F15.
N3855 X-1.161825125 Y0.366102291 Z-0.563708482
N3860 X-1.161234608 Y0.366832643 Z-0.569236304
N3865 X-1.160258667 Y0.368039688 Z-0.574624209
N3870 X-1.158909577 Y0.369708246 Z-0.579804441
N3875 X-1.157204303 Y0.371817333 Z-0.584711857
N3880 X-1.155164289 Y0.374340427 Z-0.589284741
N3885 X-1.15281519 Y0.377245798 Z-0.593465589
N3890 X-1.150186548 Y0.38049691 Z-0.597201822
N3895 X-1.147311418 Y0.384052878 Z-0.600446456
N3900 X-1.144225958 Y0.387868984 Z-0.603158688
N3905 X-1.140968968 Y0.391897237 Z-0.60530441
N3910 X-1.137581408 Y0.396086981 Z-0.606856638
N3915 X-1.134105877 Y0.400385526 Z-0.607795852
N3920 X-1.130586083 Y0.404738817 Z-0.60811024
N3925 G3 X-0.981725032 Y0.635964626 I-0.992625604 J0.80257382
N3930 G1 X-0.979765344 Y0.640247075 F5.
N3935 X-0.973429567 Y0.650928527
N3940 X-0.963527274 Y0.665892428
N3945 X-0.953505809 Y0.680856254
N3950 X-0.949825527 Y0.685338298
N3955 X-0.940205056 Y0.695820155
N3960 X-0.925575241 Y0.710784056
N3965 X-0.919885635 Y0.715974898
N3970 X-0.907162343 Y0.725747882
N3975 X-0.885374114 Y0.740711783
N3980 X-0.87497591 Y0.747031114
N3985 X-0.857130862 Y0.755675684
N3990 X-0.845036094 Y0.761303414
N3995 X-0.815096277 Y0.771054245
N4000 X-0.800126369 Y0.774061323
N4005 X-0.78515646 Y0.776823449
N4010 X-0.770186477 Y0.778532103
N4015 X-0.755216568 Y0.779184582
N4020 X-0.74024666 Y0.779605926
N4025 X-0.30611913
N4030 X-0.298634176 Y0.779628979
N4035 X-0.291149203 Y0.780423157
N4040 X-0.283778615 Y0.782362795
N4045 X-0.276408027 Y0.785603411
N4050 X-0.272436818 Y0.787990225
N4055 X-0.268694341 Y0.790741913
N4060 X-0.264951864 Y0.794003629
N4065 X-0.261209387 Y0.797982329
N4070 X-0.259172992 Y0.800567312
N4075 X-0.256671868 Y0.804308268
N4080 X-0.254620267 Y0.808049224
N4085 X-0.251646211 Y0.815531137
N4090 X-0.250904917 Y0.818020753
N4095 X-0.250354147 Y0.822258468 Z-0.607808951 F15.
N4100 X-0.249814031 Y0.826414217 Z-0.606919925
N4105 X-0.249294934 Y0.830408232 Z-0.605460227
N4110 X-0.24929454 Y0.830608278 Z-0.605370792
N4115 X-0.249745626 Y0.834191129 Z-0.603434375
N4120 X-0.250160785 Y0.837488623 Z-0.601037669
N4125 X-0.250532733 Y0.840442905 Z-0.598222725
N4130 X-0.250854943 Y0.843002139 Z-0.595038932
N4135 X-0.251459544 Y0.844907844 Z-0.591804634
N4140 X-0.25193954 Y0.846420792 Z-0.588349417
N4145 X-0.252287674 Y0.847518108 Z-0.58472552
N4150 X-0.252498684 Y0.848183202 Z-0.580987733
N4155 X-0.252569379 Y0.848406018 Z-0.577192569
N4160 G0 Z0.110037402
N4165 X-1.16998282 Y0.303691748
N4170 Z-0.468740163
N4175 G1 Z-0.518740181 F15.
N4180 X-1.16978833 Y0.303938762 Z-0.524338406
N4185 X-1.169207311 Y0.304676696 Z-0.52986623
N4190 X-1.168247069 Y0.30589627 Z-0.535254137
N4195 X-1.166919682 Y0.307582147 Z-0.540434371
N4200 X-1.165241841 Y0.309713126 Z-0.545341787
N4205 X-1.163234646 Y0.312262409 Z-0.549914672
N4210 X-1.160923339 Y0.315197937 Z-0.554095519
N4215 X-1.158336985 Y0.318482794 Z-0.557831752
N4220 X-1.15550811 Y0.322075672 Z-0.561076386
N4225 X-1.152472289 Y0.325931386 Z-0.563788616
N4230 X-1.149267699 Y0.33000145 Z-0.565934337
N4235 X-1.145934638 Y0.33423468 Z-0.567486563
N4240 X-1.142515024 Y0.338577841 Z-0.568425775
N4245 X-1.139051858 Y0.342976315 Z-0.568740162
N4250 G3 X-0.993195556 Y0.576109173 Z-0.568740161 I-1.002928441 J0.789661295
N4255 G1 X-0.979765344 Y0.606490721 F5.
N4260 X-0.970901129 Y0.621000763
N4265 X-0.961519376 Y0.635964626
N4270 X-0.950537629 Y0.650928527
N4275 X-0.949825527 Y0.651823029
N4280 X-0.937257526 Y0.665892428
N4285 X-0.934855619 Y0.668437462
N4290 X-0.921859891 Y0.680856254
N4295 X-0.919885635 Y0.68260726
N4300 X-0.904915727 Y0.694510167
N4305 X-0.889945819 Y0.705251468
N4310 X-0.881398118 Y0.710784056
N4315 X-0.87497591 Y0.714002144
N4320 X-0.85097816 Y0.725747882
N4325 X-0.845036094 Y0.728440773
N4330 X-0.815096277 Y0.738237186
N4335 X-0.804509666 Y0.740711783
N4340 X-0.78515646 Y0.744115049
N4345 X-0.770186477 Y0.745494722
N4350 X-0.755216568 Y0.746303018
N4355 X-0.74024666 Y0.746838953
N4360 X-0.309150538 Y0.746843683
N4365 X-0.30611913 Y0.746844885
N4370 X-0.298634176 Y0.747524547
N4375 X-0.291149203 Y0.749379931
N4380 X-0.284826061 Y0.751968369
N4385 X-0.2785029 Y0.755675684
N4390 X-0.276179295 Y0.757378631
N4395 X-0.272632359 Y0.76041492
N4400 X-0.269085441 Y0.76400907
N4405 X-0.264084527 Y0.77063951
N4410 X-0.261209387 Y0.775859863
N4415 X-0.259200701 Y0.780731637
N4420 X-0.257760014 Y0.785603411
N4425 X-0.256929116 Y0.790129984
N4430 X-0.256658896 Y0.793808993 Z-0.568518532 F15.
N4435 X-0.256392543 Y0.797435355 Z-0.567858388
N4440 X-0.256814097 Y0.80078361 Z-0.566821545
N4445 X-0.257218146 Y0.803992822 Z-0.565406881
N4450 X-0.257599424 Y0.807021176 Z-0.563632827
N4455 X-0.257952964 Y0.809829216 Z-0.561522499
N4460 X-0.258938948 Y0.812439679 Z-0.558866153
N4465 X-0.259800622 Y0.814721024 Z-0.555883565
N4470 X-0.260524624 Y0.816637867 Z-0.552620993
N4475 X-0.261099722 Y0.818160481 Z-0.549129037
N4480 X-0.261517 Y0.81926525 Z-0.545461857
N4485 X-0.261769983 Y0.819935039 Z-0.541676329
N4490 X-0.26185475 Y0.820159461 Z-0.537831164
N4495 G0 Y0.820159462 Z0.110037402
N4500 X-1.137142256 Y0.220204019
N4505 Z-0.429370084
N4510 G1 Z-0.479370102 F15.
N4515 X-1.136981393 Y0.220474142 Z-0.484968329
N4520 X-1.136500838 Y0.22128111 Z-0.490496153
N4525 X-1.135706634 Y0.222614777 Z-0.495884061
N4530 X-1.134608769 Y0.22445837 Z-0.501064295
N4535 X-1.133221048 Y0.226788705 Z-0.505971712
N4540 X-1.131560924 Y0.229576477 Z-0.510544597
N4545 X-1.129649273 Y0.232786628 Z-0.514725444
N4550 X-1.127510136 Y0.236378788 Z-0.518461676
N4555 X-1.125170413 Y0.240307783 Z-0.521706309
N4560 X-1.122659528 Y0.244524204 Z-0.52441854
N4565 X-1.120009057 Y0.248975028 Z-0.526564259
N4570 X-1.11725233 Y0.253604281 Z-0.528116485
N4575 X-1.114424015 Y0.25835375 Z-0.529055696
N4580 X-1.11155968 Y0.263163706 Z-0.529370082
N4585 G3 X-0.997125821 Y0.513223475 Z-0.529370083 I-1.096753699 J0.653116966
N4590 G1 X-0.996233647 Y0.516253644 F5.
N4595 X-0.994735252 Y0.520442339
N4600 X-0.9907947 Y0.531217545
N4605 X-0.984067391 Y0.546181408
N4610 X-0.979765344 Y0.555512436
N4615 X-0.97689163 Y0.561145272
N4620 X-0.967293762 Y0.576109173
N4625 X-0.957131724 Y0.591073036
N4630 X-0.949825527 Y0.601679284
N4635 X-0.94616094 Y0.6060369
N4640 X-0.919885635 Y0.632765387
N4645 X-0.91631604 Y0.635964626
N4650 X-0.904915727 Y0.644297262
N4655 X-0.889945819 Y0.654715215
N4660 X-0.87497591 Y0.664726242
N4665 X-0.87276241 Y0.665892428
N4670 X-0.860006002 Y0.671944806
N4675 X-0.845036094 Y0.67881877
N4680 X-0.815096277 Y0.688678261
N4685 X-0.800126369 Y0.691735726
N4690 X-0.78515646 Y0.694527363
N4695 X-0.773410271 Y0.695820155
N4700 X-0.755216568 Y0.696808297
N4705 X-0.74024666 Y0.697347911
N4710 X-0.336058947
N4715 X-0.326469264 Y0.697827977
N4720 X-0.311624215 Y0.700828898
N4725 X-0.297680201 Y0.706740402
N4730 X-0.285201561 Y0.71532317
N4735 X-0.274693346 Y0.726229976
N4740 X-0.266580788 Y0.739019274
N4745 X-0.261192265 Y0.753173603
N4750 X-0.258745809 Y0.768120007
N4755 G3 X-0.278725211 Y0.821631274 I-0.076222758 J0.002026295 F15.
N4760 X-0.388212529 Y0.721407139 I-0.054743647 J-0.050112056
N4765 X-0.336058947 Y0.697347911 I0.054743672 J0.050112079
N4770 G1 X-0.321089039 F5.
N4775 X-0.30611913 Y0.697536694
N4780 X-0.298634176 Y0.698766408
N4785 X-0.291149203 Y0.701227263
N4790 X-0.283752351 Y0.70507823
N4795 X-0.280053935 Y0.707655328
N4800 X-0.276179295 Y0.710949184
N4805 X-0.272598529 Y0.71464884
N4810 X-0.269617865 Y0.718348571
N4815 X-0.265141491 Y0.725747882
N4820 X-0.262803524 Y0.731324774
N4825 X-0.261209387 Y0.736901666
N4830 X-0.2605096 Y0.740711783
N4835 X-0.259511921 Y0.755675684
N4840 X-0.259494256 Y0.75700437 Z-0.52934151 F15.
N4845 X-0.260031705 Y0.761273134 Z-0.528847851
N4850 X-0.260555269 Y0.765431609 Z-0.527757955
N4855 X-0.261054677 Y0.769398231 Z-0.526093198
N4860 X-0.262410764 Y0.77283595 Z-0.523898443
N4865 X-0.263642137 Y0.775957513 Z-0.521212669
N4870 X-0.264725026 Y0.778702665 Z-0.518087723
N4875 X-0.265638528 Y0.781018415 Z-0.514583926
N4880 X-0.266656359 Y0.782692006 Z-0.510823813
N4885 X-0.267397365 Y0.783910425 Z-0.506831106
N4890 X-0.267847616 Y0.784650769 Z-0.502680861
N4895 X-0.267998647 Y0.784899118 Z-0.498451097
N4900 G0 Z0.110037402
N4905 X0.212713114 Y-1.144648274
N4910 Z-0.665590557
N4915 G1 Z-0.715590575 F15.
N4920 X0.21244692 Y-1.144481 Z-0.721188798
N4925 X0.211651685 Y-1.143981278 Z-0.726716621
N4930 X0.210337408 Y-1.143155393 Z-0.732104527
N4935 X0.208520617 Y-1.14201373 Z-0.737284762
N4940 X0.20622416 Y-1.140570647 Z-0.74219218
N4945 X0.203476916 Y-1.138844292 Z-0.746765067
N4950 X0.200313433 Y-1.136856373 Z-0.750945918
N4955 X0.196773493 Y-1.134631891 Z-0.754682155
N4960 X0.192901614 Y-1.13219882 Z-0.757926792
N4965 X0.188746486 Y-1.129587756 Z-0.760639028
N4970 X0.184360362 Y-1.126831536 Z-0.762784753
N4975 X0.179798401 Y-1.12396482 Z-0.764336984
N4980 X0.175117972 Y-1.12102366 Z-0.765276201
N4985 X0.170377934 Y-1.118045041 Z-0.765590592
N4990 G3 X-0.076871711 Y-0.997659803 Z-0.765590593 I-0.679176173 J-1.080809841
N4995 G1 X-0.084862362 Y-0.995097724 F5.
N5000 X-0.09654031 Y-0.991300072
N5005 X-0.111510228 Y-0.984482577
N5010 X-0.12090422 Y-0.980133823
N5015 X-0.126480136 Y-0.977101138
N5020 X-0.127849982 Y-0.976186887
N5025 X-0.133000875 Y-0.973109824
N5030 X-0.143532546 Y-0.967601491
N5035 X-0.156569434 Y-0.961571641
N5040 X-0.17272294 Y-0.955034616
N5045 X-0.192858009 Y-0.948005887
N5050 X-0.218265563 Y-0.940502047
N5055 X-0.251011041 Y-0.932540969
N5060 X-0.29472995 Y-0.924141426
N5065 X-0.346501456 Y-0.916785893
N5070 X-0.398529684 Y-0.911546091
N5075 X-0.450684705 Y-0.907771343
N5080 X-0.502904306 Y-0.90503197
N5085 X-0.555157549 Y-0.90303406
N5090 X-0.607385072 Y-0.900449753
N5095 X-0.656814951 Y-0.883388669
N5100 X-0.701227413 Y-0.855785655
N5105 X-0.705227364 Y-0.852125048
N5110 X-0.718810089 Y-0.841271558
N5115 X-0.733720449 Y-0.832328871
N5120 X-0.74969134 Y-0.82545716
N5125 X-0.766436735 Y-0.820779425
N5130 X-0.783656789 Y-0.81837947
N5135 X-0.785486792 Y-0.818345979 Z-0.765536376 F15.
N5140 X-0.789766938 Y-0.818884864 Z-0.764968622
N5145 X-0.793925646 Y-0.81940846 Z-0.763800988
N5150 X-0.797880578 Y-0.8199064 Z-0.762056591
N5155 X-0.801360467 Y-0.821279119 Z-0.759732799
N5160 X-0.804498157 Y-0.822516851 Z-0.756901384
N5165 X-0.807230067 Y-0.823594514 Z-0.753619722
N5170 X-0.809500837 Y-0.824490269 Z-0.749954314
N5175 X-0.810996773 Y-0.82538981 Z-0.746362301
N5180 X-0.812083489 Y-0.826043274 Z-0.742575273
N5185 X-0.812742856 Y-0.826439761 Z-0.738656397
N5190 X-0.812963876 Y-0.826572659 Z-0.734671044
N5195 G0 Z0.110037402
N5200 X-0.086448531 Y-1.045016041
N5205 Z-0.665590557
N5210 G1 Z-0.715590575 F15.
N5215 X-0.086584105 Y-1.044732383 Z-0.721188803
N5220 X-0.086989124 Y-1.043884982 Z-0.726716631
N5225 X-0.087658495 Y-1.042484494 Z-0.732104541
N5230 X-0.0885838 Y-1.040548531 Z-0.737284778
N5235 X-0.089753403 Y-1.038101438 Z-0.742192198
N5240 X-0.091152594 Y-1.035173991 Z-0.746765086
N5245 X-0.092763779 Y-1.031803002 Z-0.750945937
N5250 X-0.094566696 Y-1.028030865 Z-0.754682173
N5255 X-0.096538672 Y-1.023905015 Z-0.757926809
N5260 X-0.098654909 Y-1.019477339 Z-0.760639042
N5265 X-0.100888792 Y-1.014803516 Z-0.762784765
N5270 X-0.103212231 Y-1.009942323 Z-0.764336993
N5275 X-0.105596006 Y-1.004954891 Z-0.765276206
N5280 X-0.10801014 Y-0.999903942 Z-0.765590594
N5285 G3 X-0.127849982 Y-0.976186887 Z-0.765590593 I-0.056215262 J-0.026868535
N5290 G1 X-0.141450054 Y-0.967110086 F5.
N5295 X-0.156419972 Y-0.956956683
N5300 X-0.165819315 Y-0.950206096
N5305 X-0.17138988 Y-0.94500767
N5310 X-0.186359807 Y-0.930266042
N5315 X-0.19872626 Y-0.919179691
N5320 X-0.206046273 Y-0.913233719
N5325 X-0.215243167 Y-0.906478551
N5330 X-0.226321408 Y-0.899143745
N5335 X-0.238546762 Y-0.891879375
N5340 X-0.253784919 Y-0.883801077
N5345 X-0.271179883 Y-0.875637625
N5350 X-0.292505767 Y-0.866868853
N5355 X-0.317543886 Y-0.857971822
N5360 X-0.348648086 Y-0.848596903
N5365 X-0.39938983 Y-0.835960794
N5370 X-0.450448502 Y-0.82467342
N5375 X-0.460984125 Y-0.822458417
N5380 X-0.471666967 Y-0.821123273
N5385 X-0.482423662 Y-0.820677224
N5390 G3 X-0.497781911 Y-0.917630609 I0.001744961 J-0.04996953 F15.
N5395 G1 X-0.239876668 Y-1.011514213
N5400 G3 X-0.186359807 Y-0.930266042 I0.017103229 J0.046983779
N5405 G1 X-0.19643793 Y-0.920278369 F5.
N5410 X-0.201329716 Y-0.914210372
N5415 X-0.217962753 Y-0.890350567
N5420 X-0.225759491 Y-0.878416872
N5425 X-0.231840517 Y-0.8700545
N5430 X-0.232555378 Y-0.869165781
N5435 X-0.245755733 Y-0.855049148
N5440 X-0.260904192 Y-0.843046969
N5445 X-0.277665525 Y-0.833424771
N5450 X-0.295668812 Y-0.826395515
N5455 X-0.31451567 Y-0.822114719
N5460 X-0.333789052 Y-0.820677224
N5465 G3 X-0.355451464 Y-0.914829284 I0.001744999 J-0.04996953 F15.
N5470 G1 X-0.291954026 Y-0.948469507
N5475 G3 X-0.225759491 Y-0.878416872 I0.023407392 J0.04418253
N5480 G1 X-0.227739229 Y-0.875386741 F5.
N5485 X-0.231269551 Y-0.868593802
N5490 X-0.235361753 Y-0.86042284
N5495 X-0.242444136 Y-0.845458939
N5500 X-0.246239459 Y-0.839871985
N5505 X-0.251053262 Y-0.834553035
N5510 X-0.255867083 Y-0.830495113
N5515 X-0.261209387 Y-0.827042512
N5520 X-0.268694341 Y-0.823630085
N5525 X-0.276179295 Y-0.821577057
N5530 X-0.283664249 Y-0.820715596
N5535 X-0.291149203 Y-0.820677224
N5540 X-0.74024666
N5545 X-0.755216568 Y-0.82014617
N5550 X-0.770186477 Y-0.819344483
N5555 X-0.783656789 Y-0.81837947
N5560 X-0.785486792 Y-0.818345979 Z-0.765536376 F15.
N5565 X-0.789766938 Y-0.818884864 Z-0.764968622
N5570 X-0.793925646 Y-0.81940846 Z-0.763800988
N5575 X-0.797880578 Y-0.8199064 Z-0.762056591
N5580 X-0.801360467 Y-0.821279119 Z-0.759732799
N5585 X-0.804498157 Y-0.822516851 Z-0.756901384
N5590 X-0.807230067 Y-0.823594514 Z-0.753619722
N5595 X-0.809500837 Y-0.824490269 Z-0.749954314
N5600 X-0.810996773 Y-0.82538981 Z-0.746362301
N5605 X-0.812083489 Y-0.826043274 Z-0.742575273
N5610 X-0.812742856 Y-0.826439761 Z-0.738656397
N5615 X-0.812963876 Y-0.826572659 Z-0.734671044
N5620 G0 Z0.110037402
N5625 X-0.140799181 Y-1.178476529
N5630 Z-0.586850399
N5635 G1 Z-0.636850417 F15.
N5640 X-0.140859451 Y-1.178167971 Z-0.642448643
N5645 X-0.141039505 Y-1.177246176 Z-0.647976468
N5650 X-0.141337078 Y-1.175722737 Z-0.653364376
N5655 X-0.141748428 Y-1.173616811 Z-0.658544611
N5660 X-0.142268383 Y-1.170954883 Z-0.66345203
N5665 X-0.142890402 Y-1.167770427 Z-0.668024918
N5670 X-0.143606665 Y-1.16410349 Z-0.672205768
N5675 X-0.144408164 Y-1.160000185 Z-0.675942005
N5680 X-0.145284819 Y-1.155512114 Z-0.679186642
N5685 X-0.146225606 Y-1.150695717 Z-0.681898876
N5690 X-0.147218694 Y-1.145611564 Z-0.6840446
N5695 X-0.148251594 Y-1.14032359 Z-0.68559683
N5700 X-0.149311317 Y-1.134898294 Z-0.686536045
N5705 X-0.150384537 Y-1.129403903 Z-0.686850435
N5710 G3 X-0.231870047 Y-0.866753736 I-1.252815207 J-0.244712529
N5715 G1 X-0.234878889 Y-0.86042284 F5.
N5720 X-0.241841894 Y-0.845458939
N5725 X-0.243772972 Y-0.841086155
N5730 X-0.246239459 Y-0.83671337
N5735 X-0.250883572 Y-0.830495113
N5740 X-0.256046479 Y-0.825333032
N5745 X-0.261209387 Y-0.821348476
N5750 X-0.267067631 Y-0.817960679
N5755 X-0.272925895 Y-0.815531213
N5760 X-0.276179295 Y-0.814540367
N5765 X-0.283664249 Y-0.813136589
N5770 X-0.291149203 Y-0.812838922
N5775 X-0.74024666
N5780 X-0.755216568 Y-0.812307343
N5785 X-0.755246155 Y-0.812307268 Z-0.68685036 F15.
N5790 X-0.759486649 Y-0.812841161 Z-0.686544853
N5795 X-0.763644525 Y-0.813364652 Z-0.685651442
N5800 X-0.767639941 Y-0.813867689 Z-0.684187281
N5805 X-0.77098885 Y-0.81518874 Z-0.682286734
N5810 X-0.774076604 Y-0.816406774 Z-0.679929909
N5815 X-0.776849729 Y-0.817500694 Z-0.677157622
N5820 X-0.7792602 Y-0.818451558 Z-0.674017884
N5825 X-0.781004495 Y-0.819543709 Z-0.670751257
N5830 X-0.782390196 Y-0.820411336 Z-0.667253648
N5835 X-0.783395705 Y-0.821040917 Z-0.663579578
N5840 X-0.784005347 Y-0.821422638 Z-0.659786316
N5845 X-0.784209619 Y-0.821550549 Z-0.65593299
N5850 G0 Z0.110037402
N5855 X-0.178590046 Y-1.164000729
N5860 Z-0.54748032
N5865 G1 Z-0.597480338 F15.
N5870 X-0.17862286 Y-1.163688058 Z-0.603078563
N5875 X-0.178720889 Y-1.162753974 Z-0.608606386
N5880 X-0.178882901 Y-1.161210224 Z-0.613994293
N5885 X-0.179106859 Y-1.159076221 Z-0.619174528
N5890 X-0.179389945 Y-1.156378803 Z-0.624081947
N5895 X-0.179728601 Y-1.153151889 Z-0.628654834
N5900 X-0.180118567 Y-1.149436061 Z-0.632835685
N5905 X-0.180554939 Y-1.145278047 Z-0.636571922
N5910 X-0.181032229 Y-1.140730137 Z-0.639816559
N5915 X-0.181544436 Y-1.135849524 Z-0.642528795
N5920 X-0.182085119 Y-1.130697583 Z-0.64467452
N5925 X-0.182647476 Y-1.125339103 Z-0.64622675
N5930 X-0.183224438 Y-1.119841471 Z-0.647165967
N5935 X-0.183808747 Y-1.114273822 Z-0.647480358
N5940 G3 X-0.241805043 Y-0.845458939 Z-0.647480356 I-1.269519273 J-0.133232657
N5945 G1 X-0.246239459 Y-0.833508724 F5.
N5950 X-0.247463729 Y-0.830495113
N5955 X-0.251589591 Y-0.823013125
N5960 X-0.254351811 Y-0.819272169
N5965 X-0.257718507 Y-0.815531213
N5970 X-0.261209387 Y-0.812251249
N5975 X-0.264951864 Y-0.8093493
N5980 X-0.268694341 Y-0.806962186
N5985 X-0.276179295 Y-0.803433516
N5990 X-0.282204865 Y-0.801604714
N5995 X-0.288230434 Y-0.800567312
N6000 X-0.291149203 Y-0.800333248
N6005 X-0.30611913 Y-0.800268969
N6010 X-0.74024666
N6015 X-0.755216568 Y-0.799735663
N6020 X-0.755251712 Z-0.647480281 F15.
N6025 X-0.759492324 Y-0.80026957 Z-0.647173975
N6030 X-0.763650202 Y-0.800793062 Z-0.646279732
N6035 X-0.767645498 Y-0.801296084 Z-0.644814724
N6040 X-0.770994738 Y-0.802617266 Z-0.642913016
N6045 X-0.774082618 Y-0.803835349 Z-0.640554902
N6050 X-0.776855639 Y-0.804929229 Z-0.637781235
N6055 X-0.779265757 Y-0.805879953 Z-0.63464007
N6060 X-0.781008498 Y-0.806970975 Z-0.631374476
N6065 X-0.782392937 Y-0.807837685 Z-0.627878231
N6070 X-0.783397514 Y-0.808466585 Z-0.624205781
N6075 X-0.784006587 Y-0.808847883 Z-0.620414315
N6080 X-0.78421067 Y-0.80897564 Z-0.616562874
N6085 G0 X-0.784210671 Z0.110037402
N6090 X-0.180496738 Y-1.157675916
N6095 Z-0.508110242
N6100 G1 Z-0.55811026 F15.
N6105 X-0.180529881 Y-1.157363278 Z-0.563708481
N6110 X-0.180628896 Y-1.156429298 Z-0.569236302
N6115 X-0.180792537 Y-1.154885719 Z-0.574624206
N6120 X-0.181018747 Y-1.152751954 Z-0.579804438
N6125 X-0.181304681 Y-1.150054836 Z-0.584711853
N6130 X-0.181646743 Y-1.146828282 Z-0.589284737
N6135 X-0.182040631 Y-1.143112869 Z-0.593465584
N6140 X-0.182481392 Y-1.13895532 Z-0.597201818
N6145 X-0.182963483 Y-1.134407919 Z-0.600446452
N6150 X-0.183480842 Y-1.129527851 Z-0.603158684
N6155 X-0.184026963 Y-1.124376486 Z-0.605304407
N6160 X-0.184594977 Y-1.119018607 Z-0.606856635
N6165 X-0.185177742 Y-1.113521591 Z-0.60779585
N6170 X-0.185767928 Y-1.107954566 Z-0.608110239
N6175 G3 X-0.244048036 Y-0.839201109 Z-0.60811024 I-1.26937793 J-0.134572983
N6180 G1 X-0.246239459 Y-0.833314535 F5.
N6185 X-0.247190656 Y-0.830495113
N6190 X-0.251646211 Y-0.815531213
N6195 X-0.254018006 Y-0.809564365
N6200 X-0.254620248 Y-0.8080493
N6205 X-0.255748625 Y-0.805991766
N6210 X-0.258456853 Y-0.801653149
N6215 X-0.259172973 Y-0.800567312
N6220 G3 X-0.295461519 Y-0.794980057 I-0.02135611 J-0.018066947 F15.
N6225 X-0.265746994 Y-0.842050245 I0.01485727 J-0.023535105
N6230 X-0.255748625 Y-0.805991766 I-0.014857256 J0.023535083
N6235 G1 X-0.256671849 Y-0.804308343 F5.
N6240 X-0.259172973 Y-0.800567312
N6245 X-0.260292996 Y-0.799145586
N6250 X-0.261209387 Y-0.797982329
N6255 X-0.262341481 Y-0.796778822
N6260 X-0.266665774 Y-0.79261945
N6265 X-0.271758939 Y-0.788865953
N6270 X-0.277163419 Y-0.785576528
N6275 X-0.282837068 Y-0.78277678
N6280 G3 X-0.296462953 Y-0.808550166 I-0.005428678 J-0.013618544 F15.
N6285 G1 X-0.281561566 Y-0.818599641
N6290 G3 X-0.262341481 Y-0.796778822 I0.008197206 J0.012154842
N6295 G1 X-0.264951864 Y-0.794003629 F5.
N6300 X-0.268694341 Y-0.790741913
N6305 X-0.272436818 Y-0.787990225
N6310 X-0.276407933 Y-0.785603486
N6315 X-0.283778577 Y-0.78236287
N6320 X-0.291149203 Y-0.780423157
N6325 X-0.298634176 Y-0.779628979
N6330 X-0.351028893 Y-0.779605926
N6335 X-0.74024666
N6340 X-0.748480098 Y-0.77937419
N6345 X-0.752716296 Y-0.779936674 Z-0.607808957 F15.
N6350 X-0.756870559 Y-0.780488278 Z-0.606919931
N6355 X-0.760863146 Y-0.781018415 Z-0.605460227
N6360 X-0.764201289 Y-0.782361401 Z-0.60356581
N6365 X-0.76728006 Y-0.783600039 Z-0.601215796
N6370 X-0.770046261 Y-0.784712926 Z-0.598450792
N6375 X-0.772452091 Y-0.785680831 Z-0.595318577
N6380 X-0.774197198 Y-0.786790721 Z-0.592046465
N6385 X-0.775583699 Y-0.78767254 Z-0.588541615
N6390 X-0.776589869 Y-0.788312471 Z-0.584858944
N6395 X-0.777199944 Y-0.788700487 Z-0.581056154
N6400 X-0.777404365 Y-0.788830509 Z-0.577192832
N6405 G0 Z0.110037402
N6410 X-0.190929221 Y-1.159991993
N6415 Z-0.468740163
N6420 G1 Z-0.518740181 F15.
N6425 X-0.19095159 Y-1.1596784 Z-0.524338403
N6430 X-0.191018416 Y-1.158741565 Z-0.529866225
N6435 X-0.19112886 Y-1.15719327 Z-0.53525413
N6440 X-0.191281532 Y-1.155052985 Z-0.540434362
N6445 X-0.191474512 Y-1.152347626 Z-0.545341778
N6450 X-0.191705375 Y-1.149111214 Z-0.549914662
N6455 X-0.191971215 Y-1.14538445 Z-0.55409551
N6460 X-0.192268691 Y-1.141214198 Z-0.557831743
N6465 X-0.192594061 Y-1.136652903 Z-0.561076378
N6470 X-0.192943234 Y-1.131757926 Z-0.56378861
N6475 X-0.193311819 Y-1.126590823 Z-0.565934332
N6480 X-0.193695179 Y-1.121216574 Z-0.56748656
N6485 X-0.194088495 Y-1.115702764 Z-0.568425774
N6490 X-0.194486821 Y-1.110118731 Z-0.568740163
N6495 G3 X-0.243487001 Y-0.839519426 Z-0.568740161 I-1.273256099 J-0.090825314
N6500 G1 X-0.251488986 Y-0.815531213 F5.
N6505 X-0.255013226 Y-0.800567312
N6510 X-0.255844124 Y-0.796040738
N6515 X-0.257221113 Y-0.790200947
N6520 X-0.259623321 Y-0.784702827
N6525 X-0.262872478 Y-0.77965864
N6530 X-0.266802799 Y-0.775125158
N6535 X-0.271242979 Y-0.771089764
N6540 X-0.283725975 Y-0.762568346
N6545 X-0.297229459 Y-0.755779011
N6550 X-0.311514543 Y-0.750841832
N6555 X-0.326328503 Y-0.74784414
N6560 X-0.34140921 Y-0.746839028
N6565 G3 X-0.378999597 Y-0.871140788 I0.002394098 J-0.068558745 F15.
N6570 X-0.255844124 Y-0.796040738 I0.045659336 J0.063654381
N6575 G1 X-0.257760014 Y-0.785603486 F5.
N6580 X-0.259200701 Y-0.780731712
N6585 X-0.261209387 Y-0.775859938
N6590 X-0.264084527 Y-0.770639585
N6595 X-0.269085422 Y-0.764009145
N6600 X-0.272632359 Y-0.76041492
N6605 X-0.276179295 Y-0.757378631
N6610 X-0.278502862 Y-0.755675684
N6615 X-0.284826042 Y-0.751968369
N6620 X-0.291149203 Y-0.749379931
N6625 X-0.298634176 Y-0.747524547
N6630 X-0.30611913 Y-0.746844885
N6635 X-0.74024666 Y-0.746839028
N6640 X-0.755216568 Y-0.746303018
N6645 X-0.755260723 Z-0.568740124 F15.
N6650 X-0.759501548 Y-0.746836949 Z-0.568432541
N6655 X-0.763659456 Y-0.747360441 Z-0.567536961
N6660 X-0.767654584 Y-0.747863439 Z-0.566070587
N6665 X-0.77100435 Y-0.749184836 Z-0.56416697
N6670 X-0.774092417 Y-0.750403 Z-0.561806742
N6675 X-0.776865247 Y-0.751496812 Z-0.559030821
N6680 X-0.779274768 Y-0.752447308 Z-0.555887335
N6685 X-0.781014972 Y-0.753536518 Z-0.552623435
N6690 X-0.782397349 Y-0.754401757 Z-0.549129423
N6695 X-0.783400406 Y-0.755029574 Z-0.54545962
N6700 X-0.784008549 Y-0.755410207 Z-0.541671084
N6705 X-0.784212323 Y-0.755537739 Z-0.537822716
N6710 G0 Z0.110037402
N6715 X-0.242420632 Y-1.134610289
N6720 Z-0.429370084
N6725 G1 Z-0.479370102 F15.
N6730 X-0.242401737 Y-1.134296462 Z-0.484968332
N6735 X-0.242345292 Y-1.133358938 Z-0.49049616
N6740 X-0.242252005 Y-1.131809508 Z-0.49588407
N6745 X-0.24212305 Y-1.129667656 Z-0.501064305
N6750 X-0.241960049 Y-1.126960319 Z-0.505971723
N6755 X-0.241765052 Y-1.123721541 Z-0.510544609
N6760 X-0.24154051 Y-1.119992054 Z-0.514725456
N6765 X-0.241289248 Y-1.115818757 Z-0.518461688
N6770 X-0.241014425 Y-1.111254132 Z-0.52170632
N6775 X-0.240719497 Y-1.106355582 Z-0.524418549
N6780 X-0.240408174 Y-1.10118471 Z-0.526564267
N6785 X-0.24008437 Y-1.095806541 Z-0.528116491
N6790 X-0.239752157 Y-1.09028871 Z-0.5290557
N6795 X-0.239415713 Y-1.084700607 Z-0.529370084
N6800 G3 X-0.252553516 Y-0.81001462 Z-0.529370083 I-1.274184073 J0.076714914
N6805 G1 X-0.257255186 Y-0.785603486 F5.
N6810 X-0.258590706 Y-0.770639585
N6815 X-0.258675016 Y-0.769270274
N6820 X-0.259342644 Y-0.763307556
N6825 X-0.261004572 Y-0.757542332
N6830 X-0.263568717 Y-0.752117803
N6835 X-0.266877122 Y-0.747112364
N6840 X-0.270811967 Y-0.742582787
N6845 X-0.275232773 Y-0.738526142
N6850 X-0.279940564 Y-0.734806361
N6855 X-0.285608881 Y-0.730795748
N6860 X-0.292776588 Y-0.726230802
N6865 X-0.30173159 Y-0.721122261
N6870 X-0.312841746 Y-0.715482441
N6875 X-0.326592077 Y-0.709324484
N6880 X-0.334458351 Y-0.706251925
N6885 X-0.349804736 Y-0.701330816
N6890 X-0.365642262 Y-0.698347542
N6895 X-0.381727331 Y-0.697347986
N6900 G3 X-0.438780484 Y-0.850878588 I0.003091031 J-0.088514643 F15.
N6905 X-0.258675016 Y-0.769270274 I0.072855687 J0.078757203
N6910 G1 X-0.259813718 Y-0.75114911 F5.
N6915 X-0.260024221 Y-0.747991847
N6920 X-0.260722205 Y-0.742032584
N6925 X-0.262247446 Y-0.736229664
N6930 X-0.267575763 Y-0.725512842
N6935 X-0.274921477 Y-0.716063882
N6940 X-0.283993417 Y-0.708257345
N6945 X-0.294432021 Y-0.702402686
N6950 X-0.305823566 Y-0.698731865
N6955 X-0.317716523 Y-0.697390489
N6960 G3 X-0.364037799 Y-0.774376486 I0.001185184 J-0.053141511 F15.
N6965 X-0.260024221 Y-0.747991847 I0.049101612 J0.024645122
N6970 G1 X-0.260509581 Y-0.740711858 F5.
N6975 X-0.261209387 Y-0.736901666
N6980 X-0.262803524 Y-0.731324849
N6985 X-0.265141472 Y-0.725747957
N6990 X-0.269617865 Y-0.718348571
N6995 X-0.272598529 Y-0.714648915
N7000 X-0.276355481 Y-0.710784056
N7005 X-0.280053916 Y-0.707655404
N7010 X-0.283752351 Y-0.70507823
N7015 X-0.291149203 Y-0.701227338
N7020 X-0.298634176 Y-0.698766483
N7025 X-0.30611913 Y-0.697536694
N7030 X-0.321089039 Y-0.697347986
N7035 X-0.74024666
N7040 X-0.755216568 Y-0.696808372
N7045 X-0.755272813 Y-0.696808297 Z-0.529370045 F15.
N7050 X-0.759513869 Y-0.697342261 Z-0.529060723
N7055 X-0.763671755 Y-0.697865753 Z-0.528163341
N7060 X-0.767666599 Y-0.698368718 Z-0.526695139
N7065 X-0.771017102 Y-0.699690398 Z-0.524789016
N7070 X-0.774105461 Y-0.70090867 Z-0.522425997
N7075 X-0.776878084 Y-0.702002393 Z-0.519647087
N7080 X-0.779286858 Y-0.702952588 Z-0.516500511
N7085 X-0.781023678 Y-0.704039402 Z-0.513238861
N7090 X-0.782403302 Y-0.704902703 Z-0.509747813
N7095 X-0.783404328 Y-0.705529095 Z-0.506081528
N7100 X-0.784011224 Y-0.705908861 Z-0.502296884
N7105 X-0.784214576 Y-0.70603611 Z-0.498452599
N7110 G0 X-0.784214575 Z0.110037402
N7115 X-0.300584365 Y-1.077821687
N7120 Z-0.389962609
N7125 G1 Z-0.439962627 F15.
N7130 X-0.300516322 Y-1.077514749 Z-0.445560848
N7135 X-0.30031305 Y-1.076597796 Z-0.451088669
N7140 X-0.299977105 Y-1.075082358 Z-0.456476573
N7145 X-0.299512712 Y-1.072987493 Z-0.461656804
N7150 X-0.29892571 Y-1.070339545 Z-0.466564219
N7155 X-0.298223482 Y-1.067171813 Z-0.471137103
N7160 X-0.297414858 Y-1.063524134 Z-0.475317951
N7165 X-0.296510008 Y-1.059442378 Z-0.479054185
N7170 X-0.295520311 Y-1.054977878 Z-0.48229882
N7175 X-0.294458212 Y-1.050186775 Z-0.485011052
N7180 X-0.293337067 Y-1.045129322 Z-0.487156775
N7185 X-0.292170977 Y-1.039869118 Z-0.488709004
N7190 X-0.290974605 Y-1.034472314 Z-0.489648219
N7195 X-0.289762996 Y-1.029006778 Z-0.489962609
N7200 G3 X-0.259511921 Y-0.755675684 Z-0.489962608 I-1.246236872 J0.27626766
N7205 G1 X-0.260000004 Y-0.740711858 F5.
N7210 Y-0.723258341
N7215 X-0.260299998 Y-0.717265888
N7220 X-0.261592527 Y-0.711406723
N7225 X-0.26378671 Y-0.705822321
N7230 X-0.266741355 Y-0.700600241
N7235 X-0.270348234 Y-0.695805437
N7240 X-0.274497167 Y-0.6914711
N7245 X-0.279047189 Y-0.687559909
N7250 X-0.283890165 Y-0.683904633
N7255 X-0.290080694 Y-0.679688792
N7260 X-0.297868984 Y-0.674922523
N7265 X-0.307569016 Y-0.669617015
N7270 X-0.319586476 Y-0.663784883
N7275 X-0.334463195 Y-0.657439945
N7280 X-0.352952424 Y-0.650597219
N7285 X-0.376154006 Y-0.643272926
N7290 X-0.405777308 Y-0.635484485
N7295 X-0.444711888 Y-0.627250183
N7300 X-0.496337583 Y-0.618932754
N7305 X-0.548295825 Y-0.613039385
N7310 X-0.600415778 Y-0.60880815
N7315 X-0.650397999 Y-0.593440176
N7320 X-0.695557857 Y-0.567077727
N7325 X-0.73493965 Y-0.532676179
N7330 X-0.768376598 Y-0.492472198
N7335 X-0.796148571 Y-0.448165165
N7340 X-0.818783167 Y-0.401026358
N7345 X-0.836927609 Y-0.351983806
N7350 X-0.85126231 Y-0.301695546
N7355 X-0.862444329 Y-0.250613689
N7360 X-0.871072304 Y-0.199038982
N7365 X-0.877668726 Y-0.147165295
N7370 X-0.882673714 Y-0.095113948
N7375 X-0.886447861 Y-0.042958907
N7380 X-0.889279974 Y0.009255763
N7385 X-0.891396981 Y0.061504311
N7390 X-0.892974823 Y0.113771919
N7395 X-0.894148068 Y0.166050186
N7400 X-0.895018991 Y0.218334348
N7405 X-0.895664711 Y0.270621777
N7410 X-0.888254811 Y0.32238551
N7415 X-0.867705308 Y0.370469957
N7420 X-0.837547347 Y0.413188709
N7425 X-0.800393548 Y0.449985256
N7430 X-0.758231756 Y0.480917045
N7435 X-0.712564574 Y0.506390549
N7440 X-0.664504945 Y0.526998099
N7445 X-0.614855759 Y0.543409933
N7450 X-0.564178444 Y0.556301808
N7455 X-0.512853457 Y0.56630878
N7460 X-0.461149854 Y0.574127295
N7465 X-0.413664082 Y0.581254997
N7470 X-0.387038621 Y0.586587726
N7475 X-0.36685463 Y0.59166315
N7480 X-0.350334475 Y0.596683645
N7485 X-0.336261058 Y0.60172081
N7490 X-0.331611708 Y0.603644979
N7495 X-0.316367262 Y0.611312934
N7500 X-0.302413298 Y0.621135216
N7505 X-0.290052046 Y0.632899127
N7510 X-0.279551247 Y0.646349914
N7515 X-0.2711383 Y0.661196221
N7520 X-0.264995417 Y0.677116499
N7525 X-0.261255662 Y0.693766001
N7530 X-0.260000004 Y0.710784056
N7535 Y0.733978016
N7540 X-0.260681459 Y0.738196695 Z-0.48966132 F15.
N7545 X-0.261349734 Y0.742333777 Z-0.488772294
N7550 X-0.261992 Y0.746309851 Z-0.487312595
N7555 X-0.263428371 Y0.749608889 Z-0.485418168
N7560 X-0.264753137 Y0.752651594 Z-0.483068144
N7565 X-0.265943405 Y0.755385387 Z-0.48030313
N7570 X-0.266978609 Y0.757763029 Z-0.477170906
N7575 X-0.268137153 Y0.759476219 Z-0.473898803
N7580 X-0.269057626 Y0.760837363 Z-0.47039396
N7585 X-0.269725607 Y0.761825134 Z-0.466711297
N7590 X-0.270130629 Y0.762424054 Z-0.462908515
N7595 X-0.270266345 Y0.762624741 Z-0.4590452
N7600 G0 Z0.110037402
N7605 X-0.294266704 Y-0.795903544
N7610 Z-0.389962609
N7615 G1 Z-0.439962627 F15.
N7620 X-0.29410603 Y-0.795633314 Z-0.445560848
N7625 X-0.293626029 Y-0.794826021 Z-0.451088668
N7630 X-0.292832738 Y-0.793491817 Z-0.456476572
N7635 X-0.291736134 Y-0.79164748 Z-0.461656803
N7640 X-0.290350006 Y-0.789316204 Z-0.466564218
N7645 X-0.288691786 Y-0.786527305 Z-0.471137103
N7650 X-0.286782327 Y-0.783315856 Z-0.47531795
N7655 X-0.284645641 Y-0.779722243 Z-0.479054184
N7660 X-0.282308599 Y-0.775791658 Z-0.482298818
N7665 X-0.279800591 Y-0.771573529 Z-0.485011051
N7670 X-0.277153155 Y-0.767120903 Z-0.487156774
N7675 X-0.274399584 Y-0.762489774 Z-0.488709003
N7680 X-0.271574508 Y-0.75773838 Z-0.489648218
N7685 X-0.268713452 Y-0.752926474 Z-0.489962608
N7690 G3 X-0.260000004 Y-0.723258341 I-0.053554877 J0.031842585
N7695 G1 Y-0.702553997 F5.
N7700 X-0.260299998 Y-0.696561468
N7705 X-0.261471666 Y-0.690676997
N7710 X-0.263324535 Y-0.68497027
N7715 X-0.265671644 Y-0.679448346
N7720 X-0.268405817 Y-0.674107544
N7725 X-0.271454627 Y-0.668939906
N7730 X-0.274994824 Y-0.663628841
N7735 X-0.278947372 Y-0.658282408
N7740 X-0.28397562 Y-0.652131358
N7745 X-0.289478433 Y-0.646031372
N7750 X-0.296394637 Y-0.639077134
N7755 X-0.304014026 Y-0.632127552
N7760 X-0.313158129 Y-0.624568594
N7765 X-0.323985318 Y-0.616471936
N7770 X-0.335871892 Y-0.608454276
N7775 X-0.35074801 Y-0.59944104
N7780 X-0.366953752 Y-0.590670653
N7785 X-0.386299036 Y-0.581388361
N7790 X-0.408674338 Y-0.571962642
N7795 X-0.457795248 Y-0.554031425
N7800 X-0.504980087 Y-0.531492909
N7805 X-0.54881156 Y-0.502976357
N7810 X-0.588573133 Y-0.469014476
N7815 X-0.623912586 Y-0.430472066
N7820 X-0.65474743 Y-0.388239312
N7825 X-0.681210616 Y-0.343138439
N7830 X-0.703587795 Y-0.295876856
N7835 X-0.72225871 Y-0.247032323
N7840 X-0.737650638 Y-0.197057499
N7845 X-0.750201969 Y-0.146294748
N7850 X-0.760337199 Y-0.094994945
N7855 X-0.768450039 Y-0.043336707
N7860 X-0.774894024 Y0.008556149
N7865 X-0.779977558 Y0.060599883
N7870 X-0.780745153 Y0.112885669
N7875 X-0.771579292 Y0.164367514
N7880 X-0.753021991 Y0.213255338
N7885 X-0.726402688 Y0.258264298
N7890 X-0.693166387 Y0.298634289
N7895 X-0.654705753 Y0.334062726
N7900 X-0.61234294 Y0.364718625
N7905 X-0.567208388 Y0.391124402
N7910 X-0.520333005 Y0.414299627
N7915 X-0.472486151 Y0.435396367
N7920 X-0.424338363 Y0.455796925
N7925 X-0.38734421 Y0.472538002
N7930 X-0.36254207 Y0.485250405
N7935 X-0.342740074 Y0.496649367
N7940 X-0.325551446 Y0.507691
N7945 X-0.311493498 Y0.517720313
N7950 X-0.309408875 Y0.519366302
N7955 X-0.295039162 Y0.532581412
N7960 X-0.282811799 Y0.54780044
N7965 X-0.273002902 Y0.564679799
N7970 X-0.265833937 Y0.582838359
N7975 X-0.261466766 Y0.601866114
N7980 X-0.260000004 Y0.621333423
N7985 Y0.710784056
N7990 X-0.260681459 Y0.71500271 Z-0.489661313 F15.
N7995 X-0.261349734 Y0.719139766 Z-0.488772287
N8000 X-0.261992 Y0.723115816 Z-0.487312595
N8005 X-0.263428371 Y0.726414873 Z-0.485418175
N8010 X-0.264753137 Y0.729457597 Z-0.483068153
N8015 X-0.265943406 Y0.732191409 Z-0.480303137
N8020 X-0.266978609 Y0.734569069 Z-0.477170906
N8025 X-0.268137152 Y0.736282257 Z-0.473898802
N8030 X-0.269057624 Y0.7376434 Z-0.47039396
N8035 X-0.269725605 Y0.738631171 Z-0.466711297
N8040 X-0.270130628 Y0.739230093 Z-0.462908515
N8045 X-0.270266345 Y0.739430781 Z-0.4590452
N8050 G0 Y0.73943078 Z0.110037402
N8055 X-0.294266704 Y-0.775199124
N8060 Z-0.389962609
N8065 G1 Z-0.439962627 F15.
N8070 X-0.29410603 Y-0.774928895 Z-0.445560848
N8075 X-0.293626029 Y-0.774121602 Z-0.451088668
N8080 X-0.292832738 Y-0.772787398 Z-0.456476572
N8085 X-0.291736134 Y-0.77094306 Z-0.461656803
N8090 X-0.290350006 Y-0.768611784 Z-0.466564218
N8095 X-0.288691786 Y-0.765822885 Z-0.471137103
N8100 X-0.286782327 Y-0.762611437 Z-0.47531795
N8105 X-0.284645641 Y-0.759017824 Z-0.479054184
N8110 X-0.282308599 Y-0.755087238 Z-0.482298818
N8115 X-0.279800591 Y-0.75086911 Z-0.485011051
N8120 X-0.277153155 Y-0.746416484 Z-0.487156774
N8125 X-0.274399584 Y-0.741785354 Z-0.488709003
N8130 X-0.271574508 Y-0.73703396 Z-0.489648218
N8135 X-0.268713452 Y-0.732222054 Z-0.489962608
N8140 G3 X-0.260000004 Y-0.702553997 I-0.053554877 J0.031842585
N8145 G1 Y-0.670589237 F5.
N8150 X-0.260299998 Y-0.664596783
N8155 X-0.26098011 Y-0.658635417
N8160 X-0.262111547 Y-0.652743062
N8165 X-0.263626087 Y-0.646937363
N8170 X-0.265466209 Y-0.641226506
N8175 X-0.267634486 Y-0.635531718
N8180 X-0.270415986 Y-0.629175254
N8185 X-0.273625569 Y-0.622716025
N8190 X-0.277644443 Y-0.615528587
N8195 X-0.282201805 Y-0.608235569
N8200 X-0.28769816 Y-0.600324503
N8205 X-0.294039944 Y-0.592083405
N8210 X-0.301324908 Y-0.583514116
N8215 X-0.309920536 Y-0.574347203
N8220 X-0.323467968 Y-0.561240414
N8225 X-0.362774481 Y-0.526752847
N8230 X-0.402845473 Y-0.493156628
N8235 X-0.441208637 Y-0.457622686
N8240 X-0.476898434 Y-0.419404488
N8245 X-0.509489653 Y-0.378511872
N8250 X-0.538734188 Y-0.335162718
N8255 X-0.564554057 Y-0.289690457
N8260 X-0.58705007 Y-0.242485362
N8265 X-0.606412399 Y-0.193910749
N8270 X-0.622891854 Y-0.144283931
N8275 X-0.636553201 Y-0.093808597
N8280 X-0.643236356 Y-0.041946004
N8285 X-0.640467171 Y0.01027204
N8290 X-0.628534377 Y0.061183745
N8295 X-0.6084631 Y0.109469731
N8300 X-0.581642812 Y0.1543592
N8305 X-0.549490884 Y0.195598114
N8310 X-0.5133351 Y0.233375782
N8315 X-0.474331435 Y0.268205451
N8320 X-0.433532647 Y0.300914021
N8325 X-0.391829295 Y0.332461192
N8330 X-0.350170398 Y0.36406701
N8335 X-0.322919342 Y0.386549619
N8340 X-0.30397096 Y0.403798809
N8345 X-0.297890273 Y0.409901123
N8350 X-0.286731007 Y0.422667631
N8355 X-0.277329411 Y0.436778707
N8360 X-0.269845621 Y0.45199398
N8365 X-0.264407105 Y0.468054343
N8370 X-0.261106491 Y0.484686198
N8375 X-0.260000004 Y0.501606258
N8380 Y0.621333423
N8385 X-0.260681459 Y0.625552089 Z-0.489661316 F15.
N8390 X-0.261349734 Y0.629689158 Z-0.488772291
N8395 X-0.261992 Y0.63366522 Z-0.487312595
N8400 X-0.263428371 Y0.636964277 Z-0.485418175
N8405 X-0.264753137 Y0.640007 Z-0.483068153
N8410 X-0.265943405 Y0.642740812 Z-0.480303137
N8415 X-0.266978609 Y0.645118473 Z-0.477170906
N8420 X-0.268137152 Y0.646831661 Z-0.473898802
N8425 X-0.269057624 Y0.648192804 Z-0.47039396
N8430 X-0.269725605 Y0.649180575 Z-0.466711297
N8435 X-0.270130628 Y0.649779497 Z-0.462908515
N8440 X-0.270266345 Y0.649980185 Z-0.4590452
N8445 G0 Z0.110037402
N8450 X-0.294266704 Y-0.743234439
N8455 Z-0.389962609
N8460 G1 Z-0.439962627 F15.
N8465 X-0.29410603 Y-0.74296421 Z-0.445560848
N8470 X-0.293626029 Y-0.742156917 Z-0.451088668
N8475 X-0.292832738 Y-0.740822712 Z-0.456476572
N8480 X-0.291736134 Y-0.738978375 Z-0.461656803
N8485 X-0.290350006 Y-0.736647099 Z-0.466564218
N8490 X-0.288691786 Y-0.7338582 Z-0.471137103
N8495 X-0.286782327 Y-0.730646752 Z-0.47531795
N8500 X-0.284645641 Y-0.727053139 Z-0.479054184
N8505 X-0.282308599 Y-0.723122553 Z-0.482298818
N8510 X-0.279800591 Y-0.718904425 Z-0.485011051
N8515 X-0.277153155 Y-0.714451799 Z-0.487156774
N8520 X-0.274399584 Y-0.709820669 Z-0.488709003
N8525 X-0.271574508 Y-0.705069275 Z-0.489648218
N8530 X-0.268713452 Y-0.700257369 Z-0.489962608
N8535 G3 X-0.260000004 Y-0.670589237 I-0.053554877 J0.031842585
N8540 G1 Y-0.621000838 F5.
N8545 X-0.260362869 Y-0.613752425
N8550 X-0.260954128 Y-0.607781598
N8555 X-0.261902246 Y-0.60185699
N8560 X-0.263187191 Y-0.595779982
N8565 X-0.265125778 Y-0.588405189
N8570 X-0.26792162 Y-0.579547169
N8575 X-0.271566271 Y-0.569697778
N8580 X-0.276449327 Y-0.558247191
N8585 X-0.283786162 Y-0.54312736
N8590 X-0.295807639 Y-0.521146031
N8595 X-0.323101216 Y-0.476542721
N8600 X-0.352278394 Y-0.433148211
N8605 X-0.381091373 Y-0.389511003
N8610 X-0.408568645 Y-0.34502067
N8615 X-0.43405683 Y-0.299361653
N8620 X-0.457274219 Y-0.252507127
N8625 X-0.475890467 Y-0.203641738
N8630 X-0.486127673 Y-0.152362181
N8635 X-0.487488086 Y-0.100088457
N8640 X-0.480462172 Y-0.048271192
N8645 X-0.466052716 Y0.001995687
N8650 X-0.445453614 Y0.050058881
N8655 X-0.419923715 Y0.095694563
N8660 X-0.390634274 Y0.139013397
N8665 X-0.358750426 Y0.180459924
N8670 X-0.291996434 Y0.260967514
N8675 X-0.286497 Y0.268200946
N8680 X-0.277175697 Y0.282272898
N8685 X-0.269757387 Y0.297434536
N8690 X-0.264367325 Y0.313429964
N8695 X-0.261096466 Y0.329989185
N8700 X-0.260000004 Y0.346832726
N8705 Y0.501606258
N8710 X-0.260681459 Y0.505824924 Z-0.489661316 F15.
N8715 X-0.261349734 Y0.509961992 Z-0.488772291
N8720 X-0.261992 Y0.513938055 Z-0.487312595
N8725 X-0.263428371 Y0.517237094 Z-0.485418168
N8730 X-0.264753137 Y0.520279799 Z-0.483068144
N8735 X-0.265943406 Y0.523013592 Z-0.48030313
N8740 X-0.266978609 Y0.525391234 Z-0.477170906
N8745 X-0.268137152 Y0.527104429 Z-0.473898805
N8750 X-0.269057625 Y0.52846558 Z-0.470393965
N8755 X-0.269725606 Y0.529453359 Z-0.466711301
N8760 X-0.270130628 Y0.530052288 Z-0.462908518
N8765 X-0.270266345 Y0.530252982 Z-0.4590452
N8770 G0 Z0.110037402
N8775 X-0.294266704 Y-0.693646003
N8780 Z-0.389962609
N8785 G1 Z-0.439962627 F15.
N8790 X-0.29410603 Y-0.693375773 Z-0.445560848
N8795 X-0.293626029 Y-0.692568481 Z-0.451088668
N8800 X-0.292832738 Y-0.691234276 Z-0.456476572
N8805 X-0.291736134 Y-0.689389939 Z-0.461656803
N8810 X-0.290350006 Y-0.687058663 Z-0.466564218
N8815 X-0.288691786 Y-0.684269764 Z-0.471137103
N8820 X-0.286782327 Y-0.681058316 Z-0.47531795
N8825 X-0.284645641 Y-0.677464703 Z-0.479054184
N8830 X-0.282308599 Y-0.673534117 Z-0.482298818
N8835 X-0.279800591 Y-0.669315989 Z-0.485011051
N8840 X-0.277153155 Y-0.664863362 Z-0.487156774
N8845 X-0.274399584 Y-0.660232233 Z-0.488709003
N8850 X-0.271574508 Y-0.655480839 Z-0.489648218
N8855 X-0.268713452 Y-0.650668933 Z-0.489962608
N8860 G3 X-0.260000004 Y-0.621000838 I-0.053554877 J0.031842547
N8865 G1 Y-0.537951349 F5.
N8870 X-0.260492685 Y-0.528110031
N8875 X-0.261613384 Y-0.516792395
N8880 X-0.263689878 Y-0.502805485
N8885 X-0.267044165 Y-0.485917076
N8890 X-0.272849977 Y-0.462670552
N8895 X-0.283223494 Y-0.428337788
N8900 X-0.300765751 Y-0.379076642
N8905 X-0.319672832 Y-0.330323047
N8910 X-0.334796718 Y-0.280266446
N8915 X-0.343377083 Y-0.228683798
N8920 X-0.34491325 Y-0.176414955
N8925 X-0.339793521 Y-0.124374759
N8930 X-0.328749259 Y-0.073262951
N8935 X-0.312719965 Y-0.023488919
N8940 X-0.292694287 Y0.024815993
N8945 X-0.272690405 Y0.066689211
N8950 X-0.265692407 Y0.084657463
N8955 X-0.261430984 Y0.103463582
N8960 X-0.260000004 Y0.122693308
N8965 Y0.346832726
N8970 X-0.260681459 Y0.351051392 Z-0.489661316 F15.
N8975 X-0.261349734 Y0.35518846 Z-0.488772291
N8980 X-0.261992 Y0.359164523 Z-0.487312595
N8985 X-0.263428371 Y0.362463562 Z-0.485418168
N8990 X-0.264753137 Y0.365506267 Z-0.483068144
N8995 X-0.265943406 Y0.36824006 Z-0.48030313
N9000 X-0.266978609 Y0.370617702 Z-0.477170906
N9005 X-0.268137152 Y0.372330897 Z-0.473898805
N9010 X-0.269057625 Y0.373692048 Z-0.470393965
N9015 X-0.269725606 Y0.374679827 Z-0.466711301
N9020 X-0.270130628 Y0.375278756 Z-0.462908518
N9025 X-0.270266345 Y0.37547945 Z-0.4590452
N9030 G0 Z0.110037402
N9035 X-0.294266704 Y-0.610596514
N9040 Z-0.389962609
N9045 G1 Z-0.439962627 F15.
N9050 X-0.29410603 Y-0.610326285 Z-0.445560848
N9055 X-0.293626029 Y-0.609518992 Z-0.451088668
N9060 X-0.292832738 Y-0.608184787 Z-0.456476572
N9065 X-0.291736134 Y-0.60634045 Z-0.461656803
N9070 X-0.290350006 Y-0.604009174 Z-0.466564218
N9075 X-0.288691786 Y-0.601220275 Z-0.471137103
N9080 X-0.286782327 Y-0.598008827 Z-0.47531795
N9085 X-0.284645641 Y-0.594415214 Z-0.479054184
N9090 X-0.282308599 Y-0.590484628 Z-0.482298818
N9095 X-0.279800591 Y-0.5862665 Z-0.485011051
N9100 X-0.277153155 Y-0.581813874 Z-0.487156774
N9105 X-0.274399584 Y-0.577182744 Z-0.488709003
N9110 X-0.271574508 Y-0.57243135 Z-0.489648218
N9115 X-0.268713452 Y-0.567619444 Z-0.489962608
N9120 G3 X-0.260000004 Y-0.537951349 I-0.053554877 J0.031842585
N9125 G1 Y0.122693308 F5.
N9130 X-0.260681459 Y0.126911983 Z-0.489661319 F15.
N9135 X-0.261349734 Y0.131049061 Z-0.488772293
N9140 X-0.261992 Y0.135025133 Z-0.487312595
N9145 X-0.263428371 Y0.138324174 Z-0.485418169
N9150 X-0.264753137 Y0.141366881 Z-0.483068145
N9155 X-0.265943405 Y0.144100676 Z-0.480303131
N9160 X-0.266978609 Y0.146478321 Z-0.477170906
N9165 X-0.268137152 Y0.148191513 Z-0.473898804
N9170 X-0.269057625 Y0.14955266 Z-0.470393963
N9175 X-0.269725606 Y0.150540435 Z-0.466711299
N9180 X-0.270130628 Y0.15113936 Z-0.462908516
N9185 X-0.270266345 Y0.151340051 Z-0.4590452
N9190 G0 Z0.110037402
N9195 X-1.140210835 Y0.346074855
N9200 Z-0.689999963
N9205 G1 Z-0.739999981 F15.
N9210 X-1.140047563 Y0.346343524 Z-0.745598207
N9215 X-1.139559806 Y0.347146155 Z-0.751126031
N9220 X-1.138753698 Y0.348472657 Z-0.75651394
N9225 X-1.137639376 Y0.350306346 Z-0.761694175
N9230 X-1.136230854 Y0.352624164 Z-0.766601594
N9235 X-1.134545845 Y0.355396962 Z-0.771174482
N9240 X-1.132605538 Y0.358589872 Z-0.775355332
N9245 X-1.130434334 Y0.362162739 Z-0.779091569
N9250 X-1.128059537 Y0.366070634 Z-0.782336206
N9255 X-1.125511012 Y0.370264411 Z-0.785048441
N9260 X-1.122820806 Y0.374691333 Z-0.787194165
N9265 X-1.120022753 Y0.379295728 Z-0.788746395
N9270 X-1.117152037 Y0.384019692 Z-0.78968561
N9275 X-1.114244761 Y0.38880382 Z-0.79
N9280 G3 X-0.997577202 Y0.637829247 Z-0.789999999 I-1.090863671 J0.662907916
N9285 G1 X-0.99359257 Y0.650928527 F5.
N9290 X-0.987060502 Y0.665892428
N9295 X-0.979765344 Y0.681943893
N9300 X-0.971202475 Y0.695820155
N9305 X-0.961440529 Y0.710784056
N9310 X-0.95068421 Y0.725747882
N9315 X-0.949825527 Y0.726798501
N9320 X-0.936934779 Y0.740711783
N9325 X-0.934855619 Y0.74284974
N9330 X-0.921738392 Y0.755675684
N9335 X-0.919885635 Y0.757270573
N9340 X-0.904915727 Y0.768654215
N9345 X-0.889945819 Y0.778975524
N9350 X-0.880247552 Y0.785603411
N9355 X-0.849406926 Y0.800567312
N9360 X-0.845036094 Y0.802452283
N9365 X-0.797019718 Y0.823160232
N9370 X-0.74765303 Y0.840403339
N9375 X-0.69715635 Y0.853985614
N9380 X-0.645943889 Y0.864553527
N9385 X-0.594289397 Y0.872689945
N9390 X-0.54236795 Y0.878899191
N9395 X-0.490288547 Y0.883603509
N9400 X-0.438117305 Y0.887146672
N9405 X-0.385893386 Y0.889802993
N9410 X-0.333639656 Y0.891787236
N9415 X-0.281369104 Y0.893265206
N9420 X-0.274314017 Y0.893413439
N9425 X-0.254762079 Y0.895309674
N9430 X-0.235719493 Y0.900131886
N9435 X-0.217621589 Y0.907769992
N9440 X-0.200882108 Y0.918049249
N9445 X-0.185883721 Y0.93073477
N9450 X-0.183355987 Y0.934180368 Z-0.78969871 F15.
N9455 X-0.180877144 Y0.937559321 Z-0.788809684
N9460 X-0.178494773 Y0.940806772 Z-0.787349986
N9465 X-0.177151979 Y0.944145002 Z-0.785455563
N9470 X-0.17591352 Y0.947223854 Z-0.78310554
N9475 X-0.174800795 Y0.949990126 Z-0.780340526
N9480 X-0.173833032 Y0.952396017 Z-0.777208299
N9485 X-0.173425248 Y0.954423568 Z-0.773936186
N9490 X-0.173101261 Y0.956034475 Z-0.770431336
N9495 X-0.172866146 Y0.957203497 Z-0.766748665
N9500 X-0.172723588 Y0.957912316 Z-0.762945876
N9505 X-0.17267582 Y0.958149827 Z-0.759082554
N9510 G0 Z0.110037402
N9515 X-0.924710552 Y0.812626636
N9520 Z-0.689999963
N9525 G1 Z-0.739999981 F15.
N9530 X-0.924403926 Y0.812557205 Z-0.745598205
N9535 X-0.923487903 Y0.812349782 Z-0.751126029
N9540 X-0.921974002 Y0.812006978 Z-0.756513936
N9545 X-0.919881261 Y0.811533102 Z-0.761694171
N9550 X-0.917235998 Y0.810934114 Z-0.766601589
N9555 X-0.914071478 Y0.810217546 Z-0.771174477
N9560 X-0.910427496 Y0.80939241 Z-0.775355327
N9565 X-0.906349879 Y0.808469082 Z-0.779091564
N9570 X-0.901889904 Y0.807459174 Z-0.782336202
N9575 X-0.897103658 Y0.806375386 Z-0.785048437
N9580 X-0.892051332 Y0.805231347 Z-0.787194162
N9585 X-0.88679646 Y0.804041443 Z-0.788746393
N9590 X-0.881405126 Y0.80282064 Z-0.78968561
N9595 X-0.875945129 Y0.801584289 Z-0.790000001
N9600 G3 X-0.845036094 Y0.802452283 Z-0.789999999 I0.013760169 J0.060767827
N9605 G1 X-0.815096277 Y0.812166469 F5.
N9610 X-0.799255747 Y0.815531137
N9615 X-0.78515646 Y0.818272088
N9620 X-0.770186477 Y0.819344558
N9625 X-0.755216568 Y0.820146245
N9630 X-0.74024666 Y0.820677299
N9635 X-0.336058947
N9640 X-0.303933639 Y0.822285555
N9645 X-0.288481224 Y0.825120295
N9650 X-0.2737068 Y0.830461622
N9655 X-0.260013971 Y0.838163481
N9660 X-0.247776771 Y0.848015613
N9665 X-0.237329494 Y0.859748735
N9670 X-0.22895751 Y0.873042505
N9675 G3 X-0.292541455 Y0.941012826 I-0.045143845 J0.021494918 F15.
N9680 G1 X-0.352754067 Y0.917122233
N9685 G3 X-0.336058947 Y0.820677299 I0.018440081 J-0.046475403
N9690 G1 X-0.291149203 F5.
N9695 X-0.283664249 Y0.820715596
N9700 X-0.276179295 Y0.821577132
N9705 X-0.268694341 Y0.82363016
N9710 X-0.261209387 Y0.827042512
N9715 X-0.255867196 Y0.830495038
N9720 X-0.251053318 Y0.834553035
N9725 X-0.246239459 Y0.839871985
N9730 X-0.242444155 Y0.845458939
N9735 X-0.238548846 Y0.853689074
N9740 X-0.237360036 Y0.857793743 Z-0.78969871 F15.
N9745 X-0.236194219 Y0.861819023 Z-0.788809685
N9750 X-0.235073773 Y0.865687648 Z-0.787349986
N9755 X-0.234856887 Y0.868450765 Z-0.785949595
N9760 X-0.234652085 Y0.871059937 Z-0.784278302
N9765 X-0.234461431 Y0.873488854 Z-0.782352958
N9770 X-0.234786607 Y0.876555677 Z-0.779236617
N9775 X-0.235062063 Y0.879153576 Z-0.77571557
N9780 X-0.235282265 Y0.881230364 Z-0.771860547
N9785 X-0.23544279 Y0.882744322 Z-0.76774899
N9790 X-0.235540414 Y0.883665038 Z-0.763463491
N9795 X-0.235573175 Y0.883974015 Z-0.759090139
N9800 G0 Z0.110037402
N9805 X0.212713114 Y-1.144648274
N9810 Z-0.689999963
N9815 G1 Z-0.739999981 F15.
N9820 X0.21244692 Y-1.144481 Z-0.745598205
N9825 X0.211651685 Y-1.143981278 Z-0.751126028
N9830 X0.210337408 Y-1.143155393 Z-0.756513934
N9835 X0.208520617 Y-1.14201373 Z-0.761694169
N9840 X0.20622416 Y-1.140570647 Z-0.766601587
N9845 X0.203476916 Y-1.138844292 Z-0.771174474
N9850 X0.200313433 Y-1.136856373 Z-0.775355325
N9855 X0.196773493 Y-1.134631891 Z-0.779091561
N9860 X0.192901614 Y-1.13219882 Z-0.782336199
N9865 X0.188746486 Y-1.129587756 Z-0.785048434
N9870 X0.184360362 Y-1.126831536 Z-0.78719416
N9875 X0.179798401 Y-1.12396482 Z-0.788746391
N9880 X0.175117972 Y-1.12102366 Z-0.789685608
N9885 X0.170377934 Y-1.118045041 Z-0.789999999
N9890 G3 X-0.076871711 Y-0.997659803 I-0.679176173 J-1.080809841
N9895 G1 X-0.084862362 Y-0.995097724 F5.
N9900 X-0.09654031 Y-0.991300072
N9905 X-0.111510228 Y-0.984482577
N9910 X-0.12090422 Y-0.980133823
N9915 X-0.126480136 Y-0.977101138
N9920 X-0.127849982 Y-0.976186887
N9925 X-0.133000875 Y-0.973109824
N9930 X-0.143532546 Y-0.967601491
N9935 X-0.156569434 Y-0.961571641
N9940 X-0.17272294 Y-0.955034616
N9945 X-0.192858009 Y-0.948005887
N9950 X-0.218265563 Y-0.940502047
N9955 X-0.251011041 Y-0.932540969
N9960 X-0.29472995 Y-0.924141426
N9965 X-0.346501456 Y-0.916785893
N9970 X-0.398529684 Y-0.911546091
N9975 X-0.450684705 Y-0.907771343
N9980 X-0.502904306 Y-0.90503197
N9985 X-0.555157549 Y-0.90303406
N9990 X-0.607385072 Y-0.900449753
N9995 X-0.656814951 Y-0.883388669
N10000 X-0.701227413 Y-0.855785655
N10005 X-0.705227364 Y-0.852125048
N10010 X-0.718810089 Y-0.841271558
N10015 X-0.733720449 Y-0.832328871
N10020 X-0.74969134 Y-0.82545716
N10025 X-0.766436735 Y-0.820779425
N10030 X-0.783656789 Y-0.81837947
N10035 X-0.785486792 Y-0.818345979 Z-0.789945783 F15.
N10040 X-0.789766938 Y-0.818884864 Z-0.789378029
N10045 X-0.793925646 Y-0.81940846 Z-0.788210395
N10050 X-0.797880578 Y-0.8199064 Z-0.786465998
N10055 X-0.801360467 Y-0.821279119 Z-0.784142208
N10060 X-0.804498157 Y-0.822516851 Z-0.781310793
N10065 X-0.807230067 Y-0.823594514 Z-0.778029131
N10070 X-0.809500837 Y-0.824490269 Z-0.774363721
N10075 X-0.810996767 Y-0.825389806 Z-0.770771727
N10080 X-0.812083481 Y-0.826043269 Z-0.766984718
N10085 X-0.81274285 Y-0.826439758 Z-0.763065862
N10090 X-0.812963876 Y-0.826572659 Z-0.759080526
N10095 G0 Z0.110037402
N10100 X-0.086448531 Y-1.045016041
N10105 Z-0.689999963
N10110 G1 Z-0.739999981 F15.
N10115 X-0.086584105 Y-1.044732383 Z-0.74559821
N10120 X-0.086989124 Y-1.043884982 Z-0.751126038
N10125 X-0.087658495 Y-1.042484494 Z-0.756513948
N10130 X-0.0885838 Y-1.040548531 Z-0.761694185
N10135 X-0.089753403 Y-1.038101438 Z-0.766601605
N10140 X-0.091152594 Y-1.035173991 Z-0.771174493
N10145 X-0.092763779 Y-1.031803002 Z-0.775355344
N10150 X-0.094566696 Y-1.028030865 Z-0.77909158
N10155 X-0.096538672 Y-1.023905015 Z-0.782336216
N10160 X-0.098654909 Y-1.019477339 Z-0.785048449
N10165 X-0.100888792 Y-1.014803516 Z-0.787194172
N10170 X-0.103212231 Y-1.009942323 Z-0.7887464
N10175 X-0.105596006 Y-1.004954891 Z-0.789685613
N10180 X-0.10801014 Y-0.999903942 Z-0.790000001
N10185 G3 X-0.127849982 Y-0.976186887 Z-0.789999999 I-0.056215262 J-0.026868535
N10190 G1 X-0.141450054 Y-0.967110086 F5.
N10195 X-0.156419972 Y-0.956956683
N10200 X-0.165819315 Y-0.950206096
N10205 X-0.17138988 Y-0.94500767
N10210 X-0.186359807 Y-0.930266042
N10215 X-0.19872626 Y-0.919179691
N10220 X-0.206046273 Y-0.913233719
N10225 X-0.215243167 Y-0.906478551
N10230 X-0.226321408 Y-0.899143745
N10235 X-0.238546762 Y-0.891879375
N10240 X-0.253784919 Y-0.883801077
N10245 X-0.271179883 Y-0.875637625
N10250 X-0.292505767 Y-0.866868853
N10255 X-0.317543886 Y-0.857971822
N10260 X-0.348648086 Y-0.848596903
N10265 X-0.39938983 Y-0.835960794
N10270 X-0.450448502 Y-0.82467342
N10275 X-0.460984125 Y-0.822458417
N10280 X-0.471666967 Y-0.821123273
N10285 X-0.482423662 Y-0.820677224
N10290 G3 X-0.497781911 Y-0.917630609 I0.001744961 J-0.04996953 F15.
N10295 G1 X-0.239876668 Y-1.011514213
N10300 G3 X-0.186359807 Y-0.930266042 I0.017103229 J0.046983779
N10305 G1 X-0.19643793 Y-0.920278369 F5.
N10310 X-0.201329716 Y-0.914210372
N10315 X-0.217962753 Y-0.890350567
N10320 X-0.225759491 Y-0.878416872
N10325 X-0.231840517 Y-0.8700545
N10330 X-0.232555378 Y-0.869165781
N10335 X-0.245755733 Y-0.855049148
N10340 X-0.260904192 Y-0.843046969
N10345 X-0.277665525 Y-0.833424771
N10350 X-0.295668812 Y-0.826395515
N10355 X-0.31451567 Y-0.822114719
N10360 X-0.333789052 Y-0.820677224
N10365 G3 X-0.355451464 Y-0.914829284 I0.001744999 J-0.04996953 F15.
N10370 G1 X-0.291954026 Y-0.948469507
N10375 G3 X-0.225759491 Y-0.878416872 I0.023407392 J0.04418253
N10380 G1 X-0.227739229 Y-0.875386741 F5.
N10385 X-0.231269551 Y-0.868593802
N10390 X-0.235361753 Y-0.86042284
N10395 X-0.242444136 Y-0.845458939
N10400 X-0.246239459 Y-0.839871985
N10405 X-0.251053262 Y-0.834553035
N10410 X-0.255867083 Y-0.830495113
N10415 X-0.261209387 Y-0.827042512
N10420 X-0.268694341 Y-0.823630085
N10425 X-0.276179295 Y-0.821577057
N10430 X-0.283664249 Y-0.820715596
N10435 X-0.291149203 Y-0.820677224
N10440 X-0.74024666
N10445 X-0.755216568 Y-0.82014617
N10450 X-0.770186477 Y-0.819344483
N10455 X-0.783656789 Y-0.81837947
N10460 X-0.785486792 Y-0.818345979 Z-0.789945783 F15.
N10465 X-0.789766938 Y-0.818884864 Z-0.789378029
N10470 X-0.793925646 Y-0.81940846 Z-0.788210395
N10475 X-0.797880578 Y-0.8199064 Z-0.786465998
N10480 X-0.801360467 Y-0.821279119 Z-0.784142208
N10485 X-0.804498157 Y-0.822516851 Z-0.781310793
N10490 X-0.807230067 Y-0.823594514 Z-0.778029131
N10495 X-0.809500837 Y-0.824490269 Z-0.774363721
N10500 X-0.810996767 Y-0.825389806 Z-0.770771727
N10505 X-0.812083481 Y-0.826043269 Z-0.766984718
N10510 X-0.81274285 Y-0.826439758 Z-0.763065862
N10515 X-0.812963876 Y-0.826572659 Z-0.759080526
N10520 G0 Z0.110037402
(2D CONTOUR2)
N10525 G0 X-0.399999994 Y-1.049558234
N10530 G1 Z0.099999998 F15.
N10535 Z-0.45000005
N10540 G18 G2 X-0.350000014 Z-0.499999992 I0.04999998 K0.000000038
N10545 G1 X-0.299999995
N10550 G17 G3 X-0.249999996 Y-0.999558216 I0. J0.050000018
N10555 G1 Y0.999581344 F5.
N10560 G3 X-0.299999995 Y1.049581363 I-0.049999999 J0. F15.
N10565 G1 X-0.350000014
N10570 G18 G3 X-0.399999994 Z-0.45000005 I0. K0.04999998
N10575 G0 Z0.099999998
N10580 G17
(HORIZONTAL1)
N10585 G0 Z0.599999991
N10590 X-0.600002769 Y0.845133789
N10595 Z-0.450000012
N10600 G19 G2 X-0.600002544 Y0.795133771 Z-0.499999992 J-0.050000018 K0. F15.
N10605 G1 X-0.599705178 Y0.789688816
N10610 X-0.550298015 Y0.338703891
N10615 G17 G2 X-0.600000442 Y0.283258787 I-0.049702652 J-0.005445105
N10620 G1 X-0.601371705 F5.
N10625 G3 X-0.713124989 Y0.171505053 I0.000000451 J-0.111753734
N10630 G1 Y-0.171505072
N10635 G3 X-0.601371705 Y-0.283258787 I0.111753734 J0.
N10640 G1 X-0.598629178 Y-0.283258806
N10645 G3 X-0.486874993 Y-0.171505072 I0.000000451 J0.111753734
N10650 G1 Y0.171505072
N10655 G3 X-0.598629178 Y0.283258787 I-0.111753734 J0.
N10660 G1 X-0.600000442
N10665 G2 X-0.742066977 Y0.395593418 I-0.000000601 J0.146000385
N10670 G3 X-0.921009019 Y0.423552633 I-0.0951794 J-0.022554923
N10675 G1 X-0.924349732 Y0.418013025
N10680 X-0.926493697 Y0.414178353
N10685 X-0.930250273 Y0.406715363
N10690 X-0.935258565 Y0.395417739
N10695 X-0.937783474 Y0.388886872
N10700 X-0.939415008 Y0.384120078
N10705 X-0.942889161 Y0.372822416
N10710 X-0.944328608 Y0.367173585
N10715 X-0.945640173 Y0.361524792
N10720 X-0.947663089 Y0.350227131
N10725 X-0.949111248 Y0.338929469
N10730 X-0.949858493 Y0.327631845
N10735 X-0.949999967 Y0.316334184
N10740 Y-0.316334259
N10745 X-0.949858493 Y-0.327631883
N10750 X-0.949073326 Y-0.339339361
N10755 X-0.947663089 Y-0.350227206
N10760 X-0.945640173 Y-0.36152483
N10765 X-0.944328608 Y-0.36717366
N10770 X-0.942889086 Y-0.372822491
N10775 X-0.939414933 Y-0.384120153
N10780 X-0.937783474 Y-0.388886872
N10785 X-0.935258565 Y-0.395417777
N10790 X-0.930250198 Y-0.406715438
N10795 X-0.926493697 Y-0.414178353
N10800 X-0.924349732 Y-0.418013062
N10805 X-0.917536518 Y-0.429310724
N10810 X-0.91520392 Y-0.432794113
N10815 X-0.909616666 Y-0.440608385
N10820 X-0.903914144 Y-0.447696926
N10825 X-0.900417012 Y-0.451906009
N10830 X-0.892624367 Y-0.460234665
N10835 X-0.889643196 Y-0.46320367
N10840 X-0.881334515 Y-0.470933914
N10845 X-0.877018125 Y-0.474501332
N10850 X-0.870044738 Y-0.480077586
N10855 X-0.861971697 Y-0.485798956
N10860 X-0.858754962 Y-0.487939504
N10865 X-0.847465185 Y-0.494717838
N10870 X-0.843155328 Y-0.497096617
N10875 X-0.836175333 Y-0.500577791
N10880 X-0.824885556 Y-0.505546172
N10885 X-0.817378337 Y-0.508394279
N10890 X-0.813595779 Y-0.509681739
N10895 X-0.802306003 Y-0.513129422
N10900 X-0.796661077 Y-0.514546867
N10905 X-0.791016226 Y-0.51587882
N10910 X-0.779726374 Y-0.517853226
N10915 X-0.768436597 Y-0.519220735
N10920 X-0.762522765 Y-0.519691903
N10925 X-0.75714682 Y-0.519967417
N10930 X-0.745857044 Y-0.520133146
N10935 X-0.250081228 Y-0.520135211
N10940 X-0.250000034 Y-0.520079831
N10945 Y0.520079793
N10950 X-0.250081228 Y0.520135211
N10955 X-0.745857044 Y0.520133146
N10960 X-0.75714682 Y0.519967417
N10965 X-0.762523816 Y0.519691865
N10970 X-0.768436597 Y0.519220735
N10975 X-0.779726374 Y0.517853226
N10980 X-0.791016226 Y0.51587882
N10985 X-0.796661077 Y0.514546867
N10990 X-0.802306003 Y0.513129384
N10995 X-0.813595779 Y0.509681739
N11000 X-0.817378487 Y0.508394204
N11005 X-0.824885556 Y0.505546172
N11010 X-0.836175333 Y0.500577754
N11015 X-0.843155403 Y0.497096542
N11020 X-0.847465185 Y0.494717838
N11025 X-0.858754962 Y0.487939504
N11030 X-0.861971773 Y0.485798918
N11035 X-0.870044738 Y0.480077548
N11040 X-0.877018125 Y0.474501257
N11045 X-0.881334515 Y0.470933877
N11050 X-0.889643196 Y0.463203595
N11055 X-0.892624367 Y0.460234665
N11060 X-0.900417088 Y0.451905971
N11065 X-0.903914144 Y0.447696926
N11070 X-0.909616741 Y0.44060831
N11075 X-0.91520392 Y0.432794113
N11080 X-0.917536518 Y0.429310648
N11085 X-0.921009019 Y0.423552633
N11090 G3 X-0.904013491 Y0.354914778 I0.042816673 J-0.025821183 F15.
N11095 G1 X-0.899219546 Y0.352023727 Z-0.499685604
N11100 X-0.894485887 Y0.349169033 Z-0.49874639
N11105 X-0.889872043 Y0.346386595 Z-0.497194162
N11110 X-0.885436036 Y0.343711404 Z-0.49504844
N11115 X-0.881233651 Y0.341177101 Z-0.492336208
N11120 X-0.877317736 Y0.338815558 Z-0.489091574
N11125 X-0.873737535 Y0.336656472 Z-0.485355341
N11130 X-0.870538072 Y0.334726994 Z-0.481174493
N11135 X-0.867759582 Y0.33305139 Z-0.476601609
N11140 X-0.865437005 Y0.33165073 Z-0.471694193
N11145 X-0.86359955 Y0.33054263 Z-0.466513961
N11150 X-0.862270324 Y0.329741023 Z-0.461126056
N11155 X-0.861466042 Y0.329255991 Z-0.455598235
N11160 X-0.861196819 Y0.329093633 Z-0.450000012
N11165 G0 X-0.861196818 Z0.599999991
N11170 G53 Z0.
N11175 M30
%
