%
(END TENON SIDE PARALLEL)
(T1  D=0.5 CR=0. - ZMIN=-0.4617509 - FLAT END MILL)
N10 G90 G94 G17 G91.1
N15 G20
N20 G53 G0 Z0.
(2D CONTOUR4)
N25 M9
N30 T1 M6
N35 S3000 M3
N40 G54
N45 G0 X-0.399999994 Y-1.049558234
N50 G43 Z0.199999997 H1
N55 G1 Z-0.13750004 F15.
N60 G18 G2 X-0.350000014 Z-0.187499992 I0.04999998 K0.000000038
N65 G1 X-0.299999995
N70 G17 G3 X-0.249999996 Y-0.999558216 I0. J0.050000018
N75 G1 Y0.999581344 F5.
N80 G3 X-0.299999995 Y1.049581363 I-0.049999999 J0. F15.
N85 G1 X-0.350000014
N90 G18 G3 X-0.399999994 Z-0.13750004 I0. K0.04999999
N95 G0 Z0.199999997
N100 G17
(PARALLEL2 2)
N105 G0 Z0.599999991
N110 X-0.299797396 Y0.598853479
N115 Z0.062611647
N120 G1 Z-0.411762177 F15.
N125 G19 G2 Y0.499212798 Z-0.417745733 J-0.04999998 K0.
N130 G1 Y0.496814946 Z-0.3978528 F5.
N135 Y0.492855845 Z-0.378299736
N140 Y0.487473293 Z-0.359457384
N145 Y0.480566738 Z-0.340954563
N150 Y0.472263163 Z-0.323130165
N155 Y0.462673443 Z-0.306147065
N160 Y0.451608155 Z-0.289734104
N165 Y0.439436943 Z-0.274419052
N170 Y0.426105402 Z-0.26010273
N175 Y0.411485837 Z-0.246707755
N180 Y0.39622427 Z-0.234763284
N185 Y0.379838343 Z-0.223899601
N190 Y0.36262959 Z-0.214348196
N195 Y0.344815367 Z-0.206214499
N200 Y0.326280857 Z-0.19946134
N205 Y0.307481758 Z-0.194232576
N210 Y0.288795092 Z-0.190540806
N215 Y0.26878447 Z-0.188238039
N220 Y0.247816608 Z-0.187499992
N225 Y-0.253457854 Z-0.187635854
N230 Y-0.270710667 Z-0.18840037
N235 Y-0.289908263 Z-0.190736985
N240 Y-0.309417285 Z-0.194705321
N245 Y-0.328258379 Z-0.200106328
N250 Y-0.346459516 Z-0.206893711
N255 Y-0.364291724 Z-0.215193061
N260 Y-0.38148283 Z-0.224913387
N265 Y-0.397697208 Z-0.235837726
N270 Y-0.413015771 Z-0.248002856
N275 Y-0.427499756 Z-0.261505514
N280 Y-0.440735141 Z-0.275941759
N285 Y-0.452817106 Z-0.291396013
N290 Y-0.463673975 Z-0.307793035
N295 Y-0.47321466 Z-0.3250068
N300 Y-0.481347625 Z-0.342853051
N305 Y-0.487975436 Z-0.360994902
N310 Y-0.493214975 Z-0.379754464
N315 Y-0.497038308 Z-0.399373535
N320 Y-0.499229093 Z-0.41788334
N325 X-0.349792158
N330 Y-0.497038308 Z-0.399373535
N335 Y-0.493214975 Z-0.379754464
N340 Y-0.487975436 Z-0.360994902
N345 Y-0.481347625 Z-0.342853051
N350 Y-0.47321466 Z-0.3250068
N355 Y-0.463673975 Z-0.307793035
N360 Y-0.452817106 Z-0.291396013
N365 Y-0.440735141 Z-0.275941759
N370 Y-0.427499756 Z-0.261505514
N375 Y-0.413015771 Z-0.248002856
N380 Y-0.397697208 Z-0.235837726
N385 Y-0.38148283 Z-0.224913387
N390 Y-0.364291724 Z-0.215193061
N395 Y-0.346459516 Z-0.206893711
N400 Y-0.328258379 Z-0.200106328
N405 Y-0.309417285 Z-0.194705321
N410 Y-0.289908263 Z-0.190736985
N415 Y-0.270710667 Z-0.18840037
N420 Y-0.253457854 Z-0.187635854
N425 Y0.247816608 Z-0.187499992
N430 Y0.26878447 Z-0.188238039
N435 Y0.288795092 Z-0.190540806
N440 Y0.307481758 Z-0.194232576
N445 Y0.326280857 Z-0.19946134
N450 Y0.344815367 Z-0.206214499
N455 Y0.36262959 Z-0.214348196
N460 Y0.379838343 Z-0.223899601
N465 Y0.39622427 Z-0.234763284
N470 Y0.411485837 Z-0.246707755
N475 Y0.426105402 Z-0.26010273
N480 Y0.439436943 Z-0.274419052
N485 Y0.451608155 Z-0.289734104
N490 Y0.462673443 Z-0.306147065
N495 Y0.472263163 Z-0.323130165
N500 Y0.480566738 Z-0.340954563
N505 Y0.487473293 Z-0.359457384
N510 Y0.492855845 Z-0.378299736
N515 Y0.496814946 Z-0.3978528
N520 Y0.499212798 Z-0.417745733
N525 X-0.399786882
N530 Y0.496814946 Z-0.3978528
N535 Y0.492855845 Z-0.378299736
N540 Y0.487473293 Z-0.359457384
N545 Y0.480566738 Z-0.340954563
N550 Y0.472263163 Z-0.323130165
N555 Y0.462673443 Z-0.306147065
N560 Y0.451608155 Z-0.289734104
N565 Y0.439436943 Z-0.274419052
N570 Y0.426105402 Z-0.26010273
N575 Y0.411485837 Z-0.246707755
N580 Y0.39622427 Z-0.234763284
N585 Y0.379838343 Z-0.223899601
N590 Y0.36262959 Z-0.214348196
N595 Y0.344815367 Z-0.206214499
N600 Y0.326280857 Z-0.19946134
N605 Y0.307481758 Z-0.194232576
N610 Y0.288795092 Z-0.190540806
N615 Y0.26878447 Z-0.188238039
N620 Y0.247816608 Z-0.187499992
N625 Y-0.253457854 Z-0.187635854
N630 Y-0.270710667 Z-0.18840037
N635 Y-0.289908263 Z-0.190736985
N640 Y-0.309417285 Z-0.194705321
N645 Y-0.328258379 Z-0.200106328
N650 Y-0.346459516 Z-0.206893711
N655 Y-0.364291724 Z-0.215193061
N660 Y-0.38148283 Z-0.224913387
N665 Y-0.397697208 Z-0.235837726
N670 Y-0.413015771 Z-0.248002856
N675 Y-0.427499756 Z-0.261505514
N680 Y-0.440735141 Z-0.275941759
N685 Y-0.452817106 Z-0.291396013
N690 Y-0.463673975 Z-0.307793035
N695 Y-0.47321466 Z-0.3250068
N700 Y-0.481347625 Z-0.342853051
N705 Y-0.487975436 Z-0.360994902
N710 Y-0.493214975 Z-0.379754464
N715 Y-0.497038308 Z-0.399373535
N720 Y-0.499229093 Z-0.41788334
N725 X-0.449781606
N730 Y-0.497038308 Z-0.399373535
N735 Y-0.493214975 Z-0.379754464
N740 Y-0.487975436 Z-0.360994902
N745 Y-0.481347625 Z-0.342853051
N750 Y-0.47321466 Z-0.3250068
N755 Y-0.463673975 Z-0.307793035
N760 Y-0.452817106 Z-0.291396013
N765 Y-0.440735141 Z-0.275941759
N770 Y-0.427499756 Z-0.261505514
N775 Y-0.413015771 Z-0.248002856
N780 Y-0.397697208 Z-0.235837726
N785 Y-0.38148283 Z-0.224913387
N790 Y-0.364291724 Z-0.215193061
N795 Y-0.346459516 Z-0.206893711
N800 Y-0.328258379 Z-0.200106328
N805 Y-0.309417285 Z-0.194705321
N810 Y-0.289908263 Z-0.190736985
N815 Y-0.270710667 Z-0.18840037
N820 Y-0.253457854 Z-0.187635854
N825 Y0.247816608 Z-0.187499992
N830 Y0.26878447 Z-0.188238039
N835 Y0.288795092 Z-0.190540806
N840 Y0.307481758 Z-0.194232576
N845 Y0.326280857 Z-0.19946134
N850 Y0.344815367 Z-0.206214499
N855 Y0.36262959 Z-0.214348196
N860 Y0.379838343 Z-0.223899601
N865 Y0.39622427 Z-0.234763284
N870 Y0.411485837 Z-0.246707755
N875 Y0.426105402 Z-0.26010273
N880 Y0.439436943 Z-0.274419052
N885 Y0.451608155 Z-0.289734104
N890 Y0.462673443 Z-0.306147065
N895 Y0.472263163 Z-0.323130165
N900 Y0.480566738 Z-0.340954563
N905 Y0.487473293 Z-0.359457384
N910 Y0.492855845 Z-0.378299736
N915 Y0.496814946 Z-0.3978528
N920 Y0.499212798 Z-0.417745733
N925 X-0.499776367
N930 Y0.496814946 Z-0.3978528
N935 Y0.492855845 Z-0.378299736
N940 Y0.487473293 Z-0.359457384
N945 Y0.480566738 Z-0.340954563
N950 Y0.472263163 Z-0.323130165
N955 Y0.462673443 Z-0.306147065
N960 Y0.451608155 Z-0.289734104
N965 Y0.439436943 Z-0.274419052
N970 Y0.426105402 Z-0.26010273
N975 Y0.411485837 Z-0.246707755
N980 Y0.39622427 Z-0.234763284
N985 Y0.379838343 Z-0.223899601
N990 Y0.36262959 Z-0.214348196
N995 Y0.344815367 Z-0.206214499
N1000 Y0.326280857 Z-0.19946134
N1005 Y0.307481758 Z-0.194232576
N1010 Y0.288795092 Z-0.190540806
N1015 Y0.26878447 Z-0.188238039
N1020 Y0.247816608 Z-0.187499992
N1025 Y-0.253457854 Z-0.187635854
N1030 Y-0.270710667 Z-0.18840037
N1035 Y-0.289908263 Z-0.190736985
N1040 Y-0.309417285 Z-0.194705321
N1045 Y-0.328258379 Z-0.200106328
N1050 Y-0.346459516 Z-0.206893711
N1055 Y-0.364291724 Z-0.215193061
N1060 Y-0.38148283 Z-0.224913387
N1065 Y-0.397697208 Z-0.235837726
N1070 Y-0.413015771 Z-0.248002856
N1075 Y-0.427499756 Z-0.261505514
N1080 Y-0.440735141 Z-0.275941759
N1085 Y-0.452817106 Z-0.291396013
N1090 Y-0.463673975 Z-0.307793035
N1095 Y-0.47321466 Z-0.3250068
N1100 Y-0.481347625 Z-0.342853051
N1105 Y-0.487975436 Z-0.360994902
N1110 Y-0.493214975 Z-0.379754464
N1115 Y-0.497038308 Z-0.399373535
N1120 Y-0.499229093 Z-0.41788334
N1125 X-0.549771091
N1130 Y-0.497038308 Z-0.399373535
N1135 Y-0.493214975 Z-0.379754464
N1140 Y-0.487975436 Z-0.360994902
N1145 Y-0.481347625 Z-0.342853051
N1150 Y-0.47321466 Z-0.3250068
N1155 Y-0.463673975 Z-0.307793035
N1160 Y-0.452817106 Z-0.291396013
N1165 Y-0.440735141 Z-0.275941759
N1170 Y-0.427499756 Z-0.261505514
N1175 Y-0.413015771 Z-0.248002856
N1180 Y-0.397697208 Z-0.235837726
N1185 Y-0.38148283 Z-0.224913387
N1190 Y-0.364291724 Z-0.215193061
N1195 Y-0.346459516 Z-0.206893711
N1200 Y-0.328258379 Z-0.200106328
N1205 Y-0.309417285 Z-0.194705321
N1210 Y-0.289908263 Z-0.190736985
N1215 Y-0.270710667 Z-0.18840037
N1220 Y-0.253457854 Z-0.187635854
N1225 Y0.247816608 Z-0.187499992
N1230 Y0.26878447 Z-0.188238039
N1235 Y0.288795092 Z-0.190540806
N1240 Y0.307481758 Z-0.194232576
N1245 Y0.326280857 Z-0.19946134
N1250 Y0.344815367 Z-0.206214499
N1255 Y0.36262959 Z-0.214348196
N1260 Y0.379838343 Z-0.223899601
N1265 Y0.39622427 Z-0.234763284
N1270 Y0.411485837 Z-0.246707755
N1275 Y0.426105402 Z-0.26010273
N1280 Y0.439436943 Z-0.274419052
N1285 Y0.451608155 Z-0.289734104
N1290 Y0.462673443 Z-0.306147065
N1295 Y0.472263163 Z-0.323130165
N1300 Y0.480566738 Z-0.340954563
N1305 Y0.487473293 Z-0.359457384
N1310 Y0.492855845 Z-0.378299736
N1315 Y0.496814946 Z-0.3978528
N1320 Y0.499212798 Z-0.417745733
N1325 X-0.599765815
N1330 Y0.496814946 Z-0.3978528
N1335 Y0.492855845 Z-0.378299736
N1340 Y0.487473293 Z-0.359457384
N1345 Y0.480566738 Z-0.340954563
N1350 Y0.472263163 Z-0.323130165
N1355 Y0.462673443 Z-0.306147065
N1360 Y0.451608155 Z-0.289734104
N1365 Y0.439436943 Z-0.274419052
N1370 Y0.426105402 Z-0.26010273
N1375 Y0.411485837 Z-0.246707755
N1380 Y0.39622427 Z-0.234763284
N1385 Y0.379838343 Z-0.223899601
N1390 Y0.36262959 Z-0.214348196
N1395 Y0.344815367 Z-0.206214499
N1400 Y0.326280857 Z-0.19946134
N1405 Y0.307481758 Z-0.194232576
N1410 Y0.288795092 Z-0.190540806
N1415 Y0.26878447 Z-0.188238039
N1420 Y0.247816608 Z-0.187499992
N1425 Y-0.253457854 Z-0.187635854
N1430 Y-0.270710667 Z-0.18840037
N1435 Y-0.289908263 Z-0.190736985
N1440 Y-0.309417285 Z-0.194705321
N1445 Y-0.328258379 Z-0.200106328
N1450 Y-0.346459516 Z-0.206893711
N1455 Y-0.364291724 Z-0.215193061
N1460 Y-0.38148283 Z-0.224913387
N1465 Y-0.397697208 Z-0.235837726
N1470 Y-0.413015771 Z-0.248002856
N1475 Y-0.427499756 Z-0.261505514
N1480 Y-0.440735141 Z-0.275941759
N1485 Y-0.452817106 Z-0.291396013
N1490 Y-0.463673975 Z-0.307793035
N1495 Y-0.47321466 Z-0.3250068
N1500 Y-0.481347625 Z-0.342853051
N1505 Y-0.487975436 Z-0.360994902
N1510 Y-0.493214975 Z-0.379754464
N1515 Y-0.497038308 Z-0.399373535
N1520 Y-0.499229093 Z-0.41788334
N1525 X-0.649760539
N1530 Y-0.497038308 Z-0.399373535
N1535 Y-0.493214975 Z-0.379754464
N1540 Y-0.487975436 Z-0.360994902
N1545 Y-0.481347625 Z-0.342853051
N1550 Y-0.47321466 Z-0.3250068
N1555 Y-0.463673975 Z-0.307793035
N1560 Y-0.452817106 Z-0.291396013
N1565 Y-0.440735141 Z-0.275941759
N1570 Y-0.427499756 Z-0.261505514
N1575 Y-0.413015771 Z-0.248002856
N1580 Y-0.397697208 Z-0.235837726
N1585 Y-0.38148283 Z-0.224913387
N1590 Y-0.364291724 Z-0.215193061
N1595 Y-0.346459516 Z-0.206893711
N1600 Y-0.328258379 Z-0.200106328
N1605 Y-0.309417285 Z-0.194705321
N1610 Y-0.289908263 Z-0.190736985
N1615 Y-0.270710667 Z-0.18840037
N1620 Y-0.253457854 Z-0.187635854
N1625 Y0.247816608 Z-0.187499992
N1630 Y0.26878447 Z-0.188238039
N1635 Y0.288795092 Z-0.190540806
N1640 Y0.307481758 Z-0.194232576
N1645 Y0.326280857 Z-0.19946134
N1650 Y0.344815367 Z-0.206214499
N1655 Y0.36262959 Z-0.214348196
N1660 Y0.379838343 Z-0.223899601
N1665 Y0.39622427 Z-0.234763284
N1670 Y0.411485837 Z-0.246707755
N1675 Y0.426105402 Z-0.26010273
N1680 Y0.439436943 Z-0.274419052
N1685 Y0.451608155 Z-0.289734104
N1690 Y0.462673443 Z-0.306147065
N1695 Y0.472263163 Z-0.323130165
N1700 Y0.480566738 Z-0.340954563
N1705 Y0.487473293 Z-0.359457384
N1710 Y0.492855845 Z-0.378299736
N1715 Y0.496814946 Z-0.3978528
N1720 Y0.499212798 Z-0.417745733
N1725 X-0.699755301
N1730 Y0.496814946 Z-0.3978528
N1735 Y0.492855845 Z-0.378299736
N1740 Y0.487473293 Z-0.359457384
N1745 Y0.480566738 Z-0.340954563
N1750 Y0.472263163 Z-0.323130165
N1755 Y0.462673443 Z-0.306147065
N1760 Y0.451608155 Z-0.289734104
N1765 Y0.439436943 Z-0.274419052
N1770 Y0.426105402 Z-0.26010273
N1775 Y0.411485837 Z-0.246707755
N1780 Y0.39622427 Z-0.234763284
N1785 Y0.379838343 Z-0.223899601
N1790 Y0.36262959 Z-0.214348196
N1795 Y0.344815367 Z-0.206214499
N1800 Y0.326280857 Z-0.19946134
N1805 Y0.307481758 Z-0.194232576
N1810 Y0.288795092 Z-0.190540806
N1815 Y0.26878447 Z-0.188238039
N1820 Y0.247816608 Z-0.187499992
N1825 Y-0.253457854 Z-0.187635854
N1830 Y-0.270710667 Z-0.18840037
N1835 Y-0.289908263 Z-0.190736985
N1840 Y-0.309417285 Z-0.194705321
N1845 Y-0.328258379 Z-0.200106328
N1850 Y-0.346459516 Z-0.206893711
N1855 Y-0.364291724 Z-0.215193061
N1860 Y-0.38148283 Z-0.224913387
N1865 Y-0.397697208 Z-0.235837726
N1870 Y-0.413015771 Z-0.248002856
N1875 Y-0.427499756 Z-0.261505514
N1880 Y-0.440735141 Z-0.275941759
N1885 Y-0.452817106 Z-0.291396013
N1890 Y-0.463673975 Z-0.307793035
N1895 Y-0.47321466 Z-0.3250068
N1900 Y-0.481347625 Z-0.342853051
N1905 Y-0.487975436 Z-0.360994902
N1910 Y-0.493214975 Z-0.379754464
N1915 Y-0.497038308 Z-0.399373535
N1920 Y-0.499229093 Z-0.41788334
N1925 X-0.749750062
N1930 Y-0.497038308 Z-0.399373535
N1935 Y-0.493214975 Z-0.379754464
N1940 Y-0.487975436 Z-0.360994902
N1945 Y-0.481347625 Z-0.342853051
N1950 Y-0.47321466 Z-0.3250068
N1955 Y-0.463673975 Z-0.307793035
N1960 Y-0.452817106 Z-0.291396013
N1965 Y-0.440735141 Z-0.275941759
N1970 Y-0.427499756 Z-0.261505514
N1975 Y-0.413015771 Z-0.248002856
N1980 Y-0.397697208 Z-0.235837726
N1985 Y-0.38148283 Z-0.224913387
N1990 Y-0.364291724 Z-0.215193061
N1995 Y-0.346459516 Z-0.206893711
N2000 Y-0.328258379 Z-0.200106328
N2005 Y-0.309417285 Z-0.194705321
N2010 Y-0.289908263 Z-0.190736985
N2015 Y-0.270710667 Z-0.18840037
N2020 Y-0.253457854 Z-0.187635854
N2025 Y0.247816608 Z-0.187499992
N2030 Y0.26878447 Z-0.188238039
N2035 Y0.288795092 Z-0.190540806
N2040 Y0.307481758 Z-0.194232576
N2045 Y0.326280857 Z-0.19946134
N2050 Y0.344815367 Z-0.206214499
N2055 Y0.36262959 Z-0.214348196
N2060 Y0.379838343 Z-0.223899601
N2065 Y0.39622427 Z-0.234763284
N2070 Y0.411485837 Z-0.246707755
N2075 Y0.426105402 Z-0.26010273
N2080 Y0.439436943 Z-0.274419052
N2085 Y0.451608155 Z-0.289734104
N2090 Y0.462673443 Z-0.306147065
N2095 Y0.472263163 Z-0.323130165
N2100 Y0.480566738 Z-0.340954563
N2105 Y0.487473293 Z-0.359457384
N2110 Y0.492855845 Z-0.378299736
N2115 Y0.496814946 Z-0.3978528
N2120 Y0.499212798 Z-0.417745733
N2125 G3 Y0.598853479 Z-0.411762177 J0.049640701 K0.005983555 F15.
N2130 G0 Z0.599999991
N2135 G17
N2140 G53 G0 Z0.
N2145 M30
%
