%
(END TENON SIDE)
(T1  D=0.5 CR=0. - ZMIN=-0.490000005 - FLAT END MILL)
N10 G90 G94 G17 G91.1
N15 G20
N20 G53 G0 Z0.
(ADAPTIVE2)
N25 M9
N30 T1 M6
N35 S3000 M3
N40 G54
N45 G0 X0.21845596 Y-1.146489616
N50 G43 Z0.110037402 H1
N55 G0 Z-0.276173175
N60 G1 Z-0.326173174 F15.
N65 X0.218189767 Y-1.146322342 Z-0.331771397
N70 X0.217394531 Y-1.14582262 Z-0.33729922
N75 X0.216080254 Y-1.144996735 Z-0.342687127
N80 X0.214263464 Y-1.143855073 Z-0.347867361
N85 X0.211967007 Y-1.14241199 Z-0.352774779
N90 X0.209219763 Y-1.140685634 Z-0.357347667
N95 X0.206056279 Y-1.138697716 Z-0.361528517
N100 X0.20251634 Y-1.136473234 Z-0.365264754
N105 X0.19864446 Y-1.134040162 Z-0.368509392
N110 X0.194489332 Y-1.131429098 Z-0.371221627
N115 X0.190103209 Y-1.128672878 Z-0.373367352
N120 X0.185541248 Y-1.125806163 Z-0.374919583
N125 X0.180860819 Y-1.122865002 Z-0.3758588
N130 X0.176120781 Y-1.119886383 Z-0.376173192
N135 G3 X-0.071128879 Y-0.999501146 I-0.679176173 J-1.080809916
N140 G1 X-0.084862362 Y-0.995097724 F5.
N145 X-0.09654031 Y-0.991300072
N150 X-0.111510228 Y-0.984482577
N155 X-0.12090422 Y-0.980133823
N160 X-0.126480136 Y-0.977101138
N165 X-0.141450054 Y-0.967110086
N170 X-0.156419972 Y-0.956956683
N175 X-0.165819315 Y-0.950206096
N180 X-0.17138988 Y-0.94500767
N185 X-0.180639451 Y-0.936768374
N190 X-0.198981743 Y-0.922900973
N195 X-0.222520359 Y-0.907912592
N200 X-0.252783618 Y-0.891899875
N205 X-0.292140086 Y-0.874965998
N210 X-0.341677703 Y-0.858220303
N215 X-0.392342477 Y-0.845279168
N220 X-0.443659918 Y-0.835233673
N225 X-0.495362883 Y-0.827410991
N230 X-0.547296607 Y-0.821305147
N235 X-0.594910562 Y-0.799687904
N240 X-0.634836062 Y-0.765918822
N245 X-0.66765192 Y-0.725206315
N250 X-0.694328969 Y-0.68023156
N255 X-0.715854975 Y-0.632576304
N260 X-0.733129546 Y-0.583220655
N265 X-0.734367446 Y-0.578697723
N270 X-0.740132144 Y-0.562289268
N275 X-0.748151719 Y-0.54685694
N280 X-0.758265998 Y-0.532708806
N285 X-0.770273284 Y-0.520127251
N290 X-0.78393373 Y-0.509363422
N295 X-0.798974826 Y-0.500632121
N300 X-0.815096277 Y-0.494107674
N305 X-0.823329715 Y-0.491435171
N310 G3 X-0.853746594 Y-0.492355842 I-0.013767453 J-0.048067213 F15.
N315 G1 X-0.859025334 Y-0.494219988 Z-0.375858799
N320 X-0.864237689 Y-0.496060691 Z-0.37491958
N325 X-0.869318112 Y-0.497854803 Z-0.373367346
N330 X-0.874202713 Y-0.499579762 Z-0.371221619
N335 X-0.878830066 Y-0.501213875 Z-0.368509383
N340 X-0.883141978 Y-0.502736594 Z-0.365264744
N345 X-0.887084227 Y-0.504128769 Z-0.361528506
N350 X-0.890607234 Y-0.505372892 Z-0.357347656
N355 X-0.893666697 Y-0.506453318 Z-0.352774769
N360 X-0.896224141 Y-0.50735646 Z-0.347867352
N365 X-0.898247405 Y-0.50807096 Z-0.342687119
N370 X-0.899711045 Y-0.508587834 Z-0.337299214
N375 X-0.900596655 Y-0.508900581 Z-0.331771394
N380 X-0.900893099 Y-0.509005269 Z-0.326173174
N385 G0 Z0.110037402
N390 X-0.143672247 Y-1.020395099
N395 Z-0.276173175
N400 G1 Z-0.326173174 F15.
N405 X-0.143752053 Y-1.02009101 Z-0.331771396
N410 X-0.143990471 Y-1.019182564 Z-0.337299217
N415 X-0.144384501 Y-1.017681183 Z-0.342687123
N420 X-0.144929189 Y-1.015605748 Z-0.347867356
N425 X-0.145617685 Y-1.01298236 Z-0.352774774
N430 X-0.14644133 Y-1.009844008 Z-0.357347661
N435 X-0.147389767 Y-1.00623016 Z-0.361528512
N440 X-0.148451069 Y-1.002186261 Z-0.365264749
N445 X-0.149611889 Y-0.997763166 Z-0.368509387
N450 X-0.150857629 Y-0.993016497 Z-0.371221624
N455 X-0.152172623 Y-0.988005947 Z-0.37336735
N460 X-0.153540335 Y-0.982794527 Z-0.374919582
N465 X-0.154943565 Y-0.977447772 Z-0.3758588
N470 X-0.156364666 Y-0.972032922 Z-0.376173193
N475 G3 X-0.17138988 Y-0.94500767 Z-0.376173192 I-0.060265365 J-0.015816351
N480 G1 X-0.186359807 Y-0.930266042 F5.
N485 X-0.19643793 Y-0.920278369
N490 X-0.201329716 Y-0.914210372
N495 X-0.217962753 Y-0.890350567
N500 X-0.227739229 Y-0.875386741
N505 X-0.234878889 Y-0.86042284
N510 X-0.238523633 Y-0.852192706
N515 X-0.245529348 Y-0.838295043
N520 X-0.253571582 Y-0.825096716
N525 X-0.264175032 Y-0.810480343
N530 X-0.277668266 Y-0.794716482
N535 X-0.29456531 Y-0.777916796
N540 X-0.334486924 Y-0.744143133
N545 X-0.373202572 Y-0.708993626
N550 X-0.408098116 Y-0.670048871
N555 X-0.440173675 Y-0.628750531
N560 X-0.471087779 Y-0.586575786
N565 X-0.49861157 Y-0.549612083
N570 X-0.510500547 Y-0.535991173
N575 X-0.52435124 Y-0.524370689
N580 X-0.539831026 Y-0.515029712
N585 X-0.556568161 Y-0.508192618
N590 X-0.574160673 Y-0.504023522
N595 X-0.592186057 Y-0.502622634
N600 X-0.74024666
N605 X-0.748480098 Y-0.502499595
N610 G3 X-0.775828399 Y-0.593677994 I0.000998129 J-0.049990031 F15.
N615 G1 X-0.313266281 Y-0.912019399
N620 G3 X-0.238523633 Y-0.852192706 I0.028346392 J0.041188368
N625 G1 X-0.241505705 Y-0.845458939 F5.
N630 X-0.251488986 Y-0.815531213
N635 X-0.257255186 Y-0.785603486
N640 X-0.258590706 Y-0.770639585
N645 X-0.259511921 Y-0.755675684
N650 X-0.260000004 Y-0.740711858
N655 X-0.260831315 Y-0.724106286
N660 X-0.265104414 Y-0.691513903
N665 X-0.27350131 Y-0.65225421
N670 X-0.285704924 Y-0.611515195
N675 X-0.299022404 Y-0.57732094
N680 X-0.303369695 Y-0.568361095
N685 X-0.312815163 Y-0.552301707
N690 X-0.324696593 Y-0.537950711
N695 X-0.338711025 Y-0.525674069
N700 X-0.354500981 Y-0.515784879
N705 X-0.371663852 Y-0.508535303
N710 X-0.389761887 Y-0.504110291
N715 X-0.408333568 Y-0.502622634
N720 G3 X-0.450978204 Y-0.575604326 I0.001744999 J-0.04996953 F15.
N725 G1 X-0.354359169 Y-0.76197902
N730 G3 X-0.260000004 Y-0.740711858 I0.044389635 J0.023012161
N735 G1 Y-0.561145347 F5.
N740 X-0.260499406 Y-0.546181484
N745 X-0.261209387 Y-0.542300217
N750 X-0.262791115 Y-0.536758918
N755 X-0.265106554 Y-0.531217583
N760 X-0.267142949 Y-0.527476626
N765 X-0.269626238 Y-0.52373567
N770 X-0.272572585 Y-0.519994676
N775 X-0.276179295 Y-0.51622387
N780 X-0.279921772 Y-0.513031614
N785 X-0.283664249 Y-0.510408709
N790 X-0.291149203 Y-0.506501986
N795 X-0.298634176 Y-0.504041131
N800 X-0.30611913 Y-0.502811379
N805 X-0.321089039 Y-0.502622634
N810 X-0.592186057
N815 X-0.596404723 Y-0.503304096 Z-0.375871901 F15.
N820 X-0.600541792 Y-0.503972377 Z-0.374982875
N825 X-0.604517854 Y-0.50461465 Z-0.373523179
N830 X-0.607816902 Y-0.506051016 Z-0.371628755
N835 X-0.610859616 Y-0.507375777 Z-0.369278732
N840 X-0.613593418 Y-0.508566041 Z-0.366513717
N845 X-0.61597107 Y-0.50960124 Z-0.363381491
N850 X-0.617684258 Y-0.510759783 Z-0.360109387
N855 X-0.619045402 Y-0.511680256 Z-0.356604545
N860 X-0.620033173 Y-0.512348237 Z-0.352921881
N865 X-0.620632094 Y-0.512753259 Z-0.349119099
N870 X-0.620832781 Y-0.512888976 Z-0.345255784
N875 G0 Z0.110037402
N880 X-0.31155269 Y-0.881781165
N885 Z-0.236803096
N890 G1 Z-0.286803095 F15.
N895 X-0.311474677 Y-0.881476609 Z-0.29240132
N900 X-0.31124162 Y-0.880566769 Z-0.297929144
N905 X-0.31085645 Y-0.879063088 Z-0.303317052
N910 X-0.31032401 Y-0.876984474 Z-0.308497287
N915 X-0.309650996 Y-0.874357068 Z-0.313404705
N920 X-0.308845872 Y-0.871213911 Z-0.317977593
N925 X-0.307918763 Y-0.867594529 Z-0.322158444
N930 X-0.306881327 Y-0.863544439 Z-0.32589468
N935 X-0.305746611 Y-0.859114572 Z-0.329139317
N940 X-0.304528884 Y-0.854360638 Z-0.331851552
N945 X-0.303243461 Y-0.849342419 Z-0.333997277
N950 X-0.301906505 Y-0.844123022 Z-0.335549507
N955 X-0.300534831 Y-0.838768084 Z-0.336488723
N960 X-0.299145687 Y-0.833344948 Z-0.336803113
N965 G3 X-0.260000004 Y-0.561145347 I-1.236568079 J0.316748506
N970 G1 Y-0.546181484 F5.
N975 X-0.260514819 Y-0.531217583
N980 X-0.261209387 Y-0.527443698
N985 X-0.26280987 Y-0.521848709
N990 X-0.265159344 Y-0.516253719
N995 X-0.269616007 Y-0.508893118
N1000 X-0.272579099 Y-0.505212836
N1005 X-0.276438833 Y-0.501289856
N1010 X-0.28011643 Y-0.498190902
N1015 X-0.283794028 Y-0.49563528
N1020 X-0.291149203 Y-0.491810633
N1025 X-0.298634176 Y-0.489349778
N1030 X-0.30611913 Y-0.488120026
N1035 X-0.321089039 Y-0.487931282
N1040 X-0.74024666
N1045 X-0.755216568 Y-0.487398989
N1050 X-0.755248483 Y-0.487398951 Z-0.336803076 F15.
N1055 X-0.759489027 Y-0.487932851 Z-0.336497229
N1060 X-0.763646904 Y-0.488456342 Z-0.335603465
N1065 X-0.767642269 Y-0.488959373 Z-0.334138945
N1070 X-0.770991321 Y-0.49028048 Z-0.3322379
N1075 X-0.774079129 Y-0.491498535 Z-0.329880522
N1080 X-0.776852209 Y-0.492592438 Z-0.327107644
N1085 X-0.779262528 Y-0.493543242 Z-0.323967295
N1090 X-0.781006172 Y-0.494634917 Z-0.320701106
N1095 X-0.782391346 Y-0.495502159 Z-0.317204074
N1100 X-0.783396466 Y-0.496131454 Z-0.313530688
N1105 X-0.784005873 Y-0.496512997 Z-0.309738182
N1110 X-0.78421007 Y-0.496640844 Z-0.305885649
N1115 G0 Z0.110037402
N1120 X-0.31155269 Y-0.866817264
N1125 Z-0.197433017
N1130 G1 Z-0.247433017 F15.
N1135 X-0.311474677 Y-0.866512707 Z-0.253031241
N1140 X-0.31124162 Y-0.865602866 Z-0.258559065
N1145 X-0.310856449 Y-0.864099183 Z-0.263946972
N1150 X-0.310324009 Y-0.862020568 Z-0.269127206
N1155 X-0.309650995 Y-0.859393162 Z-0.274034623
N1160 X-0.308845871 Y-0.856250003 Z-0.278607509
N1165 X-0.307918761 Y-0.852630621 Z-0.282788358
N1170 X-0.306881325 Y-0.848580531 Z-0.286524593
N1175 X-0.305746609 Y-0.844150665 Z-0.289769228
N1180 X-0.304528883 Y-0.839396731 Z-0.292481461
N1185 X-0.303243459 Y-0.834378513 Z-0.294627184
N1190 X-0.301906504 Y-0.829159117 Z-0.296179412
N1195 X-0.30053483 Y-0.823804181 Z-0.297118627
N1200 X-0.299145687 Y-0.818381047 Z-0.297433015
N1205 G3 X-0.260000004 Y-0.546181484 Z-0.297433016 I-1.236568079 J0.316748469
N1210 G1 X-0.260017481 Y-0.516253719 F5.
N1215 X-0.260376724 Y-0.511449378
N1220 X-0.261209387 Y-0.506645075
N1225 X-0.262726592 Y-0.501289856
N1230 X-0.266010254 Y-0.493807905
N1235 X-0.268247447 Y-0.490066949
N1240 X-0.270968441 Y-0.486325955
N1245 X-0.276179295 Y-0.480628727
N1250 X-0.279658479 Y-0.477640986
N1255 X-0.283137644 Y-0.475152459
N1260 X-0.290095994 Y-0.471362091
N1265 X-0.291149203 Y-0.470906843
N1270 X-0.298634176 Y-0.468445988
N1275 X-0.30611913 Y-0.467216236
N1280 X-0.321089039 Y-0.467027491
N1285 X-0.74024666
N1290 X-0.755216568 Y-0.466492983
N1295 X-0.755255842 Y-0.466492946 Z-0.297432997 F15.
N1300 X-0.759496539 Y-0.467026864 Z-0.297126103
N1305 X-0.76365442 Y-0.467550356 Z-0.296231248
N1310 X-0.767649628 Y-0.468053367 Z-0.294765619
N1315 X-0.770999119 Y-0.469374648 Z-0.292863039
N1320 X-0.774087094 Y-0.470592768 Z-0.290503955
N1325 X-0.776860036 Y-0.471686617 Z-0.287729254
N1330 X-0.779269887 Y-0.472637237 Z-0.284587023
N1335 X-0.781011465 Y-0.473727438 Z-0.281322202
N1340 X-0.782394958 Y-0.474593483 Z-0.277826977
N1345 X-0.783398838 Y-0.475221895 Z-0.274155737
N1350 X-0.784007482 Y-0.475602896 Z-0.270365608
N1355 X-0.784211422 Y-0.475730558 Z-0.26651557
N1360 G0 Z0.110037402
N1365 X-0.31155269 Y-0.850484127
N1370 Z-0.158062939
N1375 G1 Z-0.208062938 F15.
N1380 X-0.311474677 Y-0.85017957 Z-0.213661163
N1385 X-0.31124162 Y-0.849269729 Z-0.219188986
N1390 X-0.310856449 Y-0.847766046 Z-0.224576893
N1395 X-0.310324009 Y-0.845687432 Z-0.229757127
N1400 X-0.309650995 Y-0.843060025 Z-0.234664544
N1405 X-0.308845871 Y-0.839916867 Z-0.239237431
N1410 X-0.307918761 Y-0.836297484 Z-0.243418279
N1415 X-0.306881325 Y-0.832247394 Z-0.247154514
N1420 X-0.305746609 Y-0.827817528 Z-0.25039915
N1425 X-0.304528883 Y-0.823063594 Z-0.253111383
N1430 X-0.303243459 Y-0.818045376 Z-0.255257105
N1435 X-0.301906504 Y-0.81282598 Z-0.256809334
N1440 X-0.30053483 Y-0.807471045 Z-0.257748548
N1445 X-0.299145687 Y-0.80204791 Z-0.258062937
N1450 G3 X-0.260000004 Y-0.529848309 I-1.236568079 J0.316748506
N1455 G1 X-0.260007588 Y-0.486325955 F5.
N1460 X-0.260349428 Y-0.481296374
N1465 X-0.261209387 Y-0.476266793
N1470 X-0.262573779 Y-0.471362091
N1475 X-0.26576979 Y-0.463880141
N1480 X-0.267954079 Y-0.460139184
N1485 X-0.270611958 Y-0.456398228
N1490 X-0.276179295 Y-0.450371194
N1495 X-0.282800423 Y-0.445139915
N1500 X-0.28942157 Y-0.441434327
N1505 X-0.291149203 Y-0.440672326
N1510 X-0.298634176 Y-0.438211471
N1515 X-0.30611913 Y-0.436981719
N1520 X-0.321089039 Y-0.436792974
N1525 X-0.74024666
N1530 X-0.755216568 Y-0.436255275
N1535 X-0.75526643 Y-0.436255237 Z-0.2580629 F15.
N1540 X-0.759507353 Y-0.436789184 Z-0.257754486
N1545 X-0.763665237 Y-0.437312677 Z-0.256858049
N1550 X-0.767660216 Y-0.437815659 Z-0.255390809
N1555 X-0.771010336 Y-0.439137188 Z-0.253486023
N1560 X-0.77409855 Y-0.440355402 Z-0.251124488
N1565 X-0.776871294 Y-0.441449173 Z-0.248347165
N1570 X-0.779280475 Y-0.442399528 Z-0.245202226
N1575 X-0.78101908 Y-0.443487614 Z-0.241939385
N1580 X-0.782400156 Y-0.444351945 Z-0.238446767
N1585 X-0.783402252 Y-0.444979096 Z-0.234778621
N1590 X-0.784009803 Y-0.445359326 Z-0.230991918
N1595 X-0.784213374 Y-0.44548673 Z-0.227145473
N1600 G0 Z0.110037402
N1605 X0.21845596 Y-1.146489616
N1610 Z-0.390000005
N1615 G1 Z-0.439999986 F15.
N1620 X0.218189767 Y-1.146322342 Z-0.445598209
N1625 X0.217394531 Y-1.14582262 Z-0.451126032
N1630 X0.216080254 Y-1.144996735 Z-0.456513939
N1635 X0.214263464 Y-1.143855073 Z-0.461694173
N1640 X0.211967007 Y-1.14241199 Z-0.466601591
N1645 X0.209219763 Y-1.140685634 Z-0.471174479
N1650 X0.206056279 Y-1.138697716 Z-0.475355329
N1655 X0.20251634 Y-1.136473234 Z-0.479091566
N1660 X0.19864446 Y-1.134040162 Z-0.482336204
N1665 X0.194489332 Y-1.131429098 Z-0.485048439
N1670 X0.190103209 Y-1.128672878 Z-0.487194164
N1675 X0.185541248 Y-1.125806163 Z-0.488746395
N1680 X0.180860819 Y-1.122865002 Z-0.489685612
N1685 X0.176120781 Y-1.119886383 Z-0.490000003
N1690 G3 X-0.071128879 Y-0.999501146 Z-0.490000004 I-0.679176173 J-1.080809916
N1695 G1 X-0.084862362 Y-0.995097724 F5.
N1700 X-0.09654031 Y-0.991300072
N1705 X-0.111510228 Y-0.984482577
N1710 X-0.12090422 Y-0.980133823
N1715 X-0.126480136 Y-0.977101138
N1720 X-0.141450054 Y-0.967110086
N1725 X-0.156419972 Y-0.956956683
N1730 X-0.165819315 Y-0.950206096
N1735 X-0.17138988 Y-0.94500767
N1740 X-0.180639451 Y-0.936768374
N1745 X-0.198981743 Y-0.922900973
N1750 X-0.222520359 Y-0.907912592
N1755 X-0.252783618 Y-0.891899875
N1760 X-0.292140086 Y-0.874965998
N1765 X-0.341677703 Y-0.858220303
N1770 X-0.392342477 Y-0.845279168
N1775 X-0.443659918 Y-0.835233673
N1780 X-0.495362883 Y-0.827410991
N1785 X-0.547296607 Y-0.821305147
N1790 X-0.594910562 Y-0.799687904
N1795 X-0.634836062 Y-0.765918822
N1800 X-0.66765192 Y-0.725206315
N1805 X-0.694328969 Y-0.68023156
N1810 X-0.715854975 Y-0.632576304
N1815 X-0.733129546 Y-0.583220655
N1820 X-0.734653173 Y-0.57765375
N1825 X-0.740276171 Y-0.562011726
N1830 X-0.748259176 Y-0.547432224
N1835 X-0.758408899 Y-0.534268815
N1840 X-0.770478962 Y-0.522840643
N1845 X-0.784176954 Y-0.513424836
N1850 X-0.799170517 Y-0.506249713
N1855 X-0.815096277 Y-0.501489189
N1860 X-0.819333399 Y-0.500933885 Z-0.489698714 F15.
N1865 X-0.823488569 Y-0.500389322 Z-0.488809688
N1870 X-0.827482028 Y-0.499865952 Z-0.487349991
N1875 X-0.82773554 Y-0.499865314 Z-0.487236301
N1880 X-0.831321919 Y-0.500316849 Z-0.48528848
N1885 X-0.834620754 Y-0.500732182 Z-0.482879083
N1890 X-0.837573925 Y-0.501103994 Z-0.480050558
N1895 X-0.840129402 Y-0.501425736 Z-0.47685274
N1900 X-0.842017854 Y-0.502023747 Z-0.473628842
N1905 X-0.843516801 Y-0.502498416 Z-0.470187152
N1910 X-0.8446038 Y-0.502842634 Z-0.466579199
N1915 X-0.845262577 Y-0.503051248 Z-0.462859002
N1920 X-0.845483269 Y-0.503121136 Z-0.459082259
N1925 G0 Z0.110037402
N1930 X-0.31155269 Y-0.820556325
N1935 Z-0.118692869
N1940 G1 Z-0.168692859 F15.
N1945 X-0.311474677 Y-0.820251768 Z-0.174291084
N1950 X-0.31124162 Y-0.819341927 Z-0.179818907
N1955 X-0.310856449 Y-0.817838244 Z-0.185206814
N1960 X-0.310324009 Y-0.81575963 Z-0.190387049
N1965 X-0.309650995 Y-0.813132223 Z-0.195294466
N1970 X-0.308845871 Y-0.809989065 Z-0.199867352
N1975 X-0.307918761 Y-0.806369683 Z-0.204048201
N1980 X-0.306881325 Y-0.802319592 Z-0.207784436
N1985 X-0.305746609 Y-0.797889726 Z-0.211029071
N1990 X-0.304528883 Y-0.793135792 Z-0.213741304
N1995 X-0.303243459 Y-0.788117574 Z-0.215887026
N2000 X-0.301906504 Y-0.782898178 Z-0.217439255
N2005 X-0.30053483 Y-0.777543243 Z-0.218378469
N2010 X-0.299145687 Y-0.772120108 Z-0.218692858
N2015 G3 X-0.260000004 Y-0.499920545 I-1.236568079 J0.316748469
N2020 G1 Y-0.448168094 F5.
N2025 X-0.260299998 Y-0.442175602
N2030 X-0.261347425 Y-0.436267703
N2035 X-0.263160495 Y-0.43054821
N2040 X-0.269929405 Y-0.418752798
N2045 X-0.278813182 Y-0.408455819
N2050 X-0.289489172 Y-0.400031232
N2055 X-0.301569559 Y-0.393785116
N2060 X-0.314615561 Y-0.389944362
N2065 X-0.328153287 Y-0.388648379
N2070 G3 X-0.380272527 Y-0.470459442 I0.002053892 J-0.058815761 F15.
N2075 X-0.260000004 Y-0.448168094 I0.057665307 J0.024477666
N2080 G1 Y-0.441434327 F5.
N2085 X-0.260188917 Y-0.434846315
N2090 X-0.261209387 Y-0.428258265
N2095 X-0.261644604 Y-0.426470464
N2100 X-0.264262158 Y-0.418988513
N2105 X-0.268362319 Y-0.4115066
N2110 X-0.271842142 Y-0.406878126
N2115 X-0.276179295 Y-0.402249652
N2120 X-0.27983688 Y-0.399122989
N2125 X-0.283494484 Y-0.396542699
N2130 X-0.291149203 Y-0.392527768
N2135 X-0.298634176 Y-0.390066913
N2140 X-0.30611913 Y-0.388837123
N2145 X-0.321089039 Y-0.388648379
N2150 X-0.74024666
N2155 X-0.755216568 Y-0.388106699
N2160 X-0.755279796 Y-0.388106662 Z-0.218692802 F15.
N2165 X-0.759521002 Y-0.388640644 Z-0.218382475
N2170 X-0.763678892 Y-0.389164137 Z-0.217484047
N2175 X-0.767673583 Y-0.389667083 Z-0.216014779
N2180 X-0.771024503 Y-0.390988919 Z-0.214107196
N2185 X-0.774113022 Y-0.392207244 Z-0.211742555
N2190 X-0.776885513 Y-0.393300905 Z-0.208961911
N2195 X-0.779293841 Y-0.394250915 Z-0.205813543
N2200 X-0.781028695 Y-0.39533633 Z-0.202553208
N2205 X-0.782406722 Y-0.396198495 Z-0.19906389
N2210 X-0.783406569 Y-0.396824051 Z-0.195399655
N2215 X-0.784012743 Y-0.397203306 Z-0.191617281
N2220 X-0.784215852 Y-0.397330382 Z-0.187775375
N2225 G0 Z0.110037402
N2230 X-0.143672247 Y-1.020395099
N2235 Z-0.390000005
N2240 G1 Z-0.439999986 F15.
N2245 X-0.143752053 Y-1.02009101 Z-0.445598207
N2250 X-0.143990471 Y-1.019182564 Z-0.451126029
N2255 X-0.144384501 Y-1.017681183 Z-0.456513934
N2260 X-0.144929189 Y-1.015605748 Z-0.461694168
N2265 X-0.145617685 Y-1.01298236 Z-0.466601585
N2270 X-0.14644133 Y-1.009844008 Z-0.471174473
N2275 X-0.147389767 Y-1.00623016 Z-0.475355324
N2280 X-0.148451069 Y-1.002186261 Z-0.479091561
N2285 X-0.149611889 Y-0.997763166 Z-0.482336199
N2290 X-0.150857629 Y-0.993016497 Z-0.485048436
N2295 X-0.152172623 Y-0.988005947 Z-0.487194162
N2300 X-0.153540335 Y-0.982794527 Z-0.488746394
N2305 X-0.154943565 Y-0.977447772 Z-0.489685612
N2310 X-0.156364666 Y-0.972032922 Z-0.490000005
N2315 G3 X-0.17138988 Y-0.94500767 Z-0.490000004 I-0.060265365 J-0.015816351
N2320 G1 X-0.186359807 Y-0.930266042 F5.
N2325 X-0.19643793 Y-0.920278369
N2330 X-0.201329716 Y-0.914210372
N2335 X-0.217962753 Y-0.890350567
N2340 X-0.227739229 Y-0.875386741
N2345 X-0.234878889 Y-0.86042284
N2350 X-0.238523633 Y-0.852192706
N2355 X-0.245529348 Y-0.838295043
N2360 X-0.253571582 Y-0.825096716
N2365 X-0.264175032 Y-0.810480343
N2370 X-0.277668266 Y-0.794716482
N2375 X-0.29456531 Y-0.777916796
N2380 X-0.334486924 Y-0.744143133
N2385 X-0.373202572 Y-0.708993626
N2390 X-0.408086927 Y-0.670038809
N2395 X-0.440165152 Y-0.628742571
N2400 X-0.471153672 Y-0.586622493
N2405 X-0.49376056 Y-0.55655502
N2410 X-0.505647922 Y-0.543052568
N2415 X-0.519469779 Y-0.53153819
N2420 X-0.534897526 Y-0.522285634
N2425 X-0.551564337 Y-0.515514884
N2430 X-0.56907391 Y-0.511386976
N2435 X-0.587009971 Y-0.510000019
N2440 X-0.74024666
N2445 X-0.755216568 Y-0.509468965
N2450 X-0.755244203 F15.
N2455 G3 X-0.782844889 Y-0.601160733 I0. J-0.04999998
N2460 G1 X-0.312520519 Y-0.912522819
N2465 G3 X-0.238523633 Y-0.852192706 I0.02760063 J0.041691788
N2470 G1 X-0.241505705 Y-0.845458939 F5.
N2475 X-0.251488986 Y-0.815531213
N2480 X-0.257255186 Y-0.785603486
N2485 X-0.258590706 Y-0.770639585
N2490 X-0.259511921 Y-0.755675684
N2495 X-0.260000004 Y-0.740711858
N2500 X-0.260831165 Y-0.724109214
N2505 X-0.265084683 Y-0.69166619
N2510 X-0.273373333 Y-0.652912696
N2515 X-0.284934363 Y-0.614318735
N2520 X-0.297720545 Y-0.581488647
N2525 X-0.300510512 Y-0.575738479
N2530 X-0.30995598 Y-0.559679091
N2535 X-0.32183741 Y-0.545328095
N2540 X-0.335851842 Y-0.533051453
N2545 X-0.351641798 Y-0.523162264
N2550 X-0.368804669 Y-0.515912687
N2555 X-0.386902704 Y-0.511487675
N2560 X-0.405474385 Y-0.510000019
N2565 G3 X-0.448021025 Y-0.583169779 I0.001744999 J-0.04996953 F15.
N2570 G1 X-0.354261173 Y-0.762167127
N2575 G3 X-0.260000004 Y-0.740711858 I0.044291639 J0.023200268
N2580 G1 Y-0.561145347 F5.
N2585 X-0.260264798 Y-0.555353841
N2590 X-0.261209387 Y-0.549562334
N2595 X-0.262091911 Y-0.546181484
N2600 X-0.264999416 Y-0.538699533
N2605 X-0.269466554 Y-0.531217583
N2610 X-0.272510146 Y-0.527409418
N2615 X-0.276179295 Y-0.523601254
N2620 X-0.281212968 Y-0.519445825
N2625 X-0.286246641 Y-0.516253719
N2630 X-0.291149203 Y-0.513879371
N2635 X-0.298634176 Y-0.511418515
N2640 X-0.30611913 Y-0.510188764
N2645 X-0.321089039 Y-0.510000019
N2650 X-0.587009971
N2655 X-0.591228636 Y-0.510681468 Z-0.489698712 F15.
N2660 X-0.595365705 Y-0.511349736 Z-0.488809686
N2665 X-0.599341768 Y-0.511991996 Z-0.487349991
N2670 X-0.602640816 Y-0.513428372 Z-0.485455568
N2675 X-0.60568353 Y-0.514753142 Z-0.483105545
N2680 X-0.608417332 Y-0.515943416 Z-0.48034053
N2685 X-0.610794984 Y-0.516978624 Z-0.477208302
N2690 X-0.612508172 Y-0.518137167 Z-0.473936199
N2695 X-0.613869316 Y-0.51905764 Z-0.470431356
N2700 X-0.614857087 Y-0.519725621 Z-0.466748693
N2705 X-0.615456008 Y-0.520130643 Z-0.462945911
N2710 X-0.615656695 Y-0.52026636 Z-0.459082596
N2715 G0 Z0.110037402
N2720 X-0.304787516 Y-0.881623471
N2725 Z-0.315543272
N2730 G1 Z-0.365543253 F15.
N2735 X-0.304715959 Y-0.881317332 Z-0.371141479
N2740 X-0.304502189 Y-0.880402768 Z-0.376669304
N2745 X-0.304148895 Y-0.878891278 Z-0.382057213
N2750 X-0.303660518 Y-0.876801871 Z-0.387237449
N2755 X-0.3030432 Y-0.874160823 Z-0.392144868
N2760 X-0.302304705 Y-0.871001345 Z-0.396717756
N2765 X-0.30145432 Y-0.867363171 Z-0.400898606
N2770 X-0.300502738 Y-0.863292053 Z-0.404634842
N2775 X-0.299461927 Y-0.858839186 Z-0.407879479
N2780 X-0.298344974 Y-0.854060569 Z-0.410591713
N2785 X-0.297165928 Y-0.849016296 Z-0.412737437
N2790 X-0.295939614 Y-0.843769801 Z-0.414289666
N2795 X-0.294681454 Y-0.838387061 Z-0.415228881
N2800 X-0.293407271 Y-0.832935769 Z-0.415543271
N2805 G3 X-0.260024859 Y-0.559969474 I-1.242988034 J0.290535604
N2810 G1 X-0.260149456 Y-0.554077794 F5.
N2815 X-0.261209387 Y-0.547010279
N2820 X-0.261402468 Y-0.546181484
N2825 X-0.263850501 Y-0.538699533
N2830 X-0.267740404 Y-0.531217583
N2835 X-0.271438332 Y-0.526113135
N2840 X-0.276179295 Y-0.521008687
N2845 X-0.28206279 Y-0.516253719
N2850 X-0.286605996 Y-0.513464147
N2855 X-0.291149203 Y-0.511286766
N2860 X-0.298634176 Y-0.50882591
N2865 X-0.30611913 Y-0.507596159
N2870 X-0.321089039 Y-0.507407414
N2875 X-0.74024666
N2880 X-0.755216568 Y-0.506876247
N2885 X-0.755244728 Y-0.50687621 Z-0.415543233 F15.
N2890 X-0.75948519 Y-0.507410099 Z-0.415237932
N2895 X-0.763643066 Y-0.50793359 Z-0.414344734
N2900 X-0.767638514 Y-0.508436631 Z-0.412880792
N2905 X-0.770987343 Y-0.509757651 Z-0.410980527
N2910 X-0.774075067 Y-0.510975672 Z-0.408624015
N2915 X-0.776848217 Y-0.512069603 Z-0.405852063
N2920 X-0.779258773 Y-0.5130205 Z-0.402712672
N2925 X-0.781003474 Y-0.514112927 Z-0.399445785
N2930 X-0.782389509 Y-0.514980778 Z-0.395947832
N2935 X-0.783395265 Y-0.515610522 Z-0.392273351
N2940 X-0.784005063 Y-0.51599234 Z-0.388479631
N2945 X-0.784209394 Y-0.51612028 Z-0.384625824
N2950 G0 Z0.110037402
N2955 X-1.144822864 Y0.022541062
N2960 Z-0.276173175
N2965 G1 Z-0.326173174 F15.
N2970 X-1.144657224 Y0.022808277 Z-0.3317714
N2975 X-1.144162389 Y0.023606565 Z-0.337299224
N2980 X-1.143344582 Y0.024925886 Z-0.342687133
N2985 X-1.142214088 Y0.026749649 Z-0.347867368
N2990 X-1.140785122 Y0.029054919 Z-0.352774787
N2995 X-1.139075656 Y0.031812707 Z-0.357347675
N3000 X-1.137107186 Y0.03498833 Z-0.361528525
N3005 X-1.134904467 Y0.038541855 Z-0.365264762
N3010 X-1.1324952 Y0.042428593 Z-0.368509399
N3015 X-1.129909682 Y0.046599667 Z-0.371221634
N3020 X-1.127180429 Y0.051002622 Z-0.373367358
N3025 X-1.124341761 Y0.055582089 Z-0.374919588
N3030 X-1.121429377 Y0.060280479 Z-0.375858803
N3035 X-1.118479901 Y0.065038706 Z-0.376173193
N3040 G3 X-0.999614235 Y0.313022493 Z-0.376173192 I-1.084957423 J0.672530607
N3045 G1 X-0.992186389 Y0.336687171 F5.
N3050 X-0.979765344 Y0.363807077
N3055 X-0.97844642 Y0.366614897
N3060 X-0.968691608 Y0.381578798
N3065 X-0.958719779 Y0.396542662
N3070 X-0.949825527 Y0.408741996
N3075 X-0.947543167 Y0.411506525
N3080 X-0.943705116 Y0.415460481
N3085 X-0.935713025 Y0.424563753
N3090 X-0.921732685 Y0.44333488
N3095 X-0.906638649 Y0.467420488
N3100 X-0.890527785 Y0.498406943
N3105 X-0.870206788 Y0.546588372
N3110 X-0.848693622 Y0.594249447
N3115 X-0.814986567 Y0.634227287
N3120 X-0.774315211 Y0.667094133
N3125 X-0.729368841 Y0.693819016
N3130 X-0.681733635 Y0.715389252
N3135 X-0.632392253 Y0.732704673
N3140 X-0.581966122 Y0.746546618
N3145 X-0.530851094 Y0.757575899
N3150 X-0.47929959 Y0.766341442
N3155 X-0.427472347 Y0.773293578
N3160 X-0.375471528 Y0.778798682
N3165 X-0.336200046 Y0.782079847
N3170 X-0.318154951 Y0.785025274
N3175 X-0.300791601 Y0.790753778
N3180 X-0.284536504 Y0.799124785
N3185 X-0.269788888 Y0.809932694
N3190 X-0.256910981 Y0.822911976
N3195 X-0.246219091 Y0.837743864
N3200 X-0.237975778 Y0.854064085
N3205 X-0.237005181 Y0.85822576 Z-0.375871903 F15.
N3210 X-0.236053358 Y0.862306941 Z-0.374982877
N3215 X-0.235138578 Y0.86622929 Z-0.373523179
N3220 X-0.235000133 Y0.868891313 Z-0.372184148
N3225 X-0.234869033 Y0.871412097 Z-0.370594498
N3230 Y0.871414049 Z-0.370593146
N3235 X-0.235245966 Y0.874407886 Z-0.368180779
N3240 X-0.235582407 Y0.877080113 Z-0.365411182
N3245 X-0.235873111 Y0.879389069 Z-0.362327535
N3250 X-0.236113545 Y0.881298754 Z-0.358977913
N3255 X-0.236299962 Y0.882779396 Z-0.355414541
N3260 X-0.236429455 Y0.883807911 Z-0.351692973
N3265 X-0.236558771 Y0.884299411 Z-0.348490308
N3270 X-0.236602036 Y0.884463843 Z-0.34525203
N3275 G0 Z0.110037402
N3280 X-1.018890997 Y0.387200708
N3285 Z-0.276173175
N3290 G1 Z-0.326173174 F15.
N3295 X-1.018587492 Y0.387282702 Z-0.331771394
N3300 X-1.017680787 Y0.387527653 Z-0.337299214
N3305 X-1.016182283 Y0.387932484 Z-0.342687118
N3310 X-1.014110826 Y0.388492101 Z-0.347867351
N3315 X-1.011492465 Y0.389199469 Z-0.352774767
N3320 X-1.008360127 Y0.390045691 Z-0.357347654
N3325 X-1.004753203 Y0.391020126 Z-0.361528505
N3330 X-1.000717052 Y0.392110519 Z-0.365264742
N3335 X-0.996302432 Y0.393303159 Z-0.368509381
N3340 X-0.991564858 Y0.394583046 Z-0.371221618
N3345 X-0.986563908 Y0.395934087 Z-0.373367345
N3350 X-0.981362472 Y0.39733929 Z-0.374919578
N3355 X-0.976025961 Y0.398780985 Z-0.375858797
N3360 X-0.970621484 Y0.400241041 Z-0.376173191
N3365 G3 X-0.943705116 Y0.415460481 Z-0.376173192 I-0.016249935 J0.060149929
N3370 G1 X-0.932992875 Y0.426470389 F5.
N3375 X-0.919885635 Y0.439267459
N3380 X-0.917338123 Y0.44143429
N3385 X-0.904915727 Y0.450512556
N3390 X-0.889945819 Y0.46075911
N3395 X-0.87497591 Y0.470274264
N3400 X-0.860006002 Y0.47745378
N3405 X-0.845036094 Y0.484389583
N3410 X-0.815096277 Y0.494107674
N3415 X-0.800126369 Y0.497099283
N3420 X-0.78515646 Y0.499852211
N3425 X-0.733815441 Y0.509776694
N3430 X-0.682674243 Y0.520683949
N3435 X-0.631425662 Y0.531075132
N3440 X-0.580018111 Y0.540649046
N3445 X-0.52844209 Y0.54926906
N3450 X-0.476793004 Y0.557440059
N3455 X-0.425338632 Y0.566758847
N3460 X-0.374432962 Y0.578717284
N3465 X-0.333436155 Y0.591783261
N3470 X-0.33243292 Y0.592194354
N3475 X-0.317023307 Y0.59988172
N3480 X-0.30291317 Y0.609753751
N3485 X-0.290409937 Y0.62159527
N3490 X-0.279786024 Y0.635148296
N3495 X-0.271272922 Y0.650117529
N3500 X-0.265056073 Y0.666176954
N3505 X-0.261270944 Y0.68297649
N3510 X-0.260000004 Y0.700150212
N3515 Y0.740711783
N3520 X-0.259884061 Y0.748941917
N3525 G3 X-0.32894739 Y0.794119797 I-0.049989167 J-0.001040932 F15.
N3530 G1 X-0.809521788 Y0.595790232
N3535 G3 X-0.78515646 Y0.499852211 I0.019074162 J-0.046218774
N3540 G1 X-0.775023408 Y0.501289781 F5.
N3545 X-0.770186477 Y0.501713603
N3550 X-0.755216568 Y0.502398934
N3555 X-0.74024666 Y0.502622634
N3560 X-0.351028893
N3565 X-0.328508099 Y0.503750073
N3570 X-0.314691461 Y0.506845422
N3575 X-0.301652499 Y0.512365056
N3580 X-0.289812801 Y0.52013048
N3585 X-0.279555171 Y0.529890699
N3590 X-0.271211234 Y0.54133006
N3595 X-0.265050779 Y0.55407877
N3600 X-0.26127299 Y0.567724611
N3605 X-0.260000004 Y0.581826375
N3610 G3 X-0.338621102 Y0.621058096 I-0.04996953 J-0.001744961 F15.
N3615 G1 X-0.377935462 Y0.593568847
N3620 G3 X-0.351028893 Y0.502622634 I0.028651568 J-0.040976682
N3625 G1 X-0.321089039 F5.
N3630 X-0.30611913 Y0.502811379
N3635 X-0.298634176 Y0.504041131
N3640 X-0.291149203 Y0.506501986
N3645 X-0.283664249 Y0.510408709
N3650 X-0.279921772 Y0.513031652
N3655 X-0.276147737 Y0.516253644
N3660 X-0.27257266 Y0.519994638
N3665 X-0.269626295 Y0.523735595
N3670 X-0.267143005 Y0.527476551
N3675 X-0.265106592 Y0.531217545
N3680 X-0.262791115 Y0.536758881
N3685 X-0.261209387 Y0.542300254
N3690 X-0.260499425 Y0.546181408
N3695 X-0.260000004 Y0.561145272
N3700 Y0.700150212
N3705 X-0.260681459 Y0.70436889 Z-0.375871904 F15.
N3710 X-0.261349733 Y0.708505971 Z-0.374982878
N3715 X-0.261992 Y0.712482047 Z-0.373523179
N3720 X-0.263428371 Y0.715781085 Z-0.371628752
N3725 X-0.264753137 Y0.718823789 Z-0.369278728
N3730 X-0.265943405 Y0.721557582 Z-0.366513715
N3735 X-0.266978609 Y0.723935225 Z-0.363381491
N3740 X-0.268137152 Y0.725648413 Z-0.360109387
N3745 X-0.269057624 Y0.727009556 Z-0.356604544
N3750 X-0.269725605 Y0.727997327 Z-0.352921881
N3755 X-0.270130628 Y0.728596249 Z-0.349119099
N3760 X-0.270266345 Y0.728796936 Z-0.345255784
N3765 G0 Z0.110037402
N3770 X-1.201810011 Y0.194797328
N3775 Z-0.236803096
N3780 G1 Z-0.286803095 F15.
N3785 X-1.201546857 Y0.194969349 Z-0.292401321
N3790 X-1.200760705 Y0.195483247 Z-0.297929147
N3795 X-1.199461442 Y0.196332561 Z-0.303317055
N3800 X-1.197665407 Y0.197506609 Z-0.308497291
N3805 X-1.195395186 Y0.198990628 Z-0.31340471
N3810 X-1.192679327 Y0.200765955 Z-0.317977598
N3815 X-1.189551986 Y0.202810264 Z-0.322158448
N3820 X-1.186052489 Y0.205097847 Z-0.325894684
N3825 X-1.182224845 Y0.207599936 Z-0.329139321
N3830 X-1.178117189 Y0.210285066 Z-0.331851555
N3835 X-1.173781178 Y0.21311947 Z-0.333997279
N3840 X-1.169271338 Y0.216067503 Z-0.335549508
N3845 X-1.164644383 Y0.219092093 Z-0.336488723
N3850 X-1.159958502 Y0.222155203 Z-0.336803113
N3855 G3 X-0.947322695 Y0.396542662 I-0.698441708 J1.06846126
N3860 G1 X-0.934855619 Y0.410167026 F5.
N3865 X-0.933558396 Y0.411506525
N3870 X-0.919885635 Y0.424267176
N3875 X-0.917365007 Y0.426470389
N3880 X-0.904915727 Y0.436134789
N3885 X-0.889945819 Y0.446177505
N3890 X-0.87497591 Y0.455455367
N3895 X-0.860006002 Y0.462969833
N3900 X-0.845036094 Y0.469662599
N3905 X-0.815096277 Y0.479397361
N3910 X-0.800126369 Y0.482396929
N3915 X-0.78515646 Y0.485154625
N3920 X-0.775211514 Y0.486325917
N3925 X-0.755216568 Y0.487398951
N3930 X-0.74024666 Y0.487931282
N3935 X-0.321089039
N3940 X-0.30611913 Y0.488120026
N3945 X-0.298634176 Y0.489349778
N3950 X-0.291149203 Y0.491810633
N3955 X-0.283794046 Y0.495635243
N3960 X-0.280116468 Y0.498190865
N3965 X-0.276179295 Y0.501532517
N3970 X-0.272579099 Y0.505212799
N3975 X-0.269616026 Y0.508893081
N3980 X-0.265159363 Y0.516253644
N3985 X-0.26280987 Y0.521848671
N3990 X-0.261209387 Y0.527443698
N3995 X-0.260514838 Y0.531217545
N4000 X-0.260000004 Y0.546181408
N4005 Y0.554411543
N4010 X-0.260681459 Y0.558630208 Z-0.336501822 F15.
N4015 X-0.261349734 Y0.562767277 Z-0.335612796
N4020 X-0.261992 Y0.56674334 Z-0.3341531
N4025 X-0.263428371 Y0.570042388 Z-0.332258677
N4030 X-0.264753137 Y0.573085102 Z-0.329908654
N4035 X-0.265943405 Y0.575818904 Z-0.327143639
N4040 X-0.266978609 Y0.578196556 Z-0.324011412
N4045 X-0.268137153 Y0.579909746 Z-0.320739304
N4050 X-0.269057627 Y0.58127089 Z-0.317234458
N4055 X-0.269725608 Y0.582258661 Z-0.31355179
N4060 X-0.270130629 Y0.582857582 Z-0.309749005
N4065 X-0.270266345 Y0.583058267 Z-0.305885686
N4070 G0 Z0.110037402
N4075 X-1.16787963 Y0.035715971
N4080 Z-0.197433017
N4085 G1 Z-0.247433017 F15.
N4090 X-1.167683241 Y0.035961475 Z-0.25303124
N4095 X-1.167096542 Y0.036694897 Z-0.258559062
N4100 X-1.166126911 Y0.037907015 Z-0.263946969
N4105 X-1.164786542 Y0.039582586 Z-0.269127202
N4110 X-1.163092291 Y0.041700538 Z-0.274034619
N4115 X-1.161065463 Y0.044234237 Z-0.278607505
N4120 X-1.158731549 Y0.047151821 Z-0.282788354
N4125 X-1.156119897 Y0.050416598 Z-0.286524589
N4130 X-1.153263351 Y0.053987513 Z-0.289769224
N4135 X-1.150197834 Y0.057819659 Z-0.292481458
N4140 X-1.146961896 Y0.061864844 Z-0.294627181
N4145 X-1.143596231 Y0.066072199 Z-0.29617941
N4150 X-1.140143164 Y0.070388813 Z-0.297118625
N4155 X-1.136646121 Y0.074760402 Z-0.297433015
N4160 G3 X-0.988992931 Y0.306759406 Z-0.297433016 I-0.996797517 J0.797386324
N4165 G1 X-0.979765344 Y0.32720532 F5.
N4170 X-0.974136338 Y0.336687171
N4175 X-0.964472838 Y0.351651034
N4180 X-0.954539982 Y0.366614897
N4185 X-0.949825527 Y0.372434338
N4190 X-0.941686856 Y0.381578798
N4195 X-0.927281943 Y0.396542662
N4200 X-0.919885635 Y0.403133865
N4205 X-0.909471512 Y0.411506525
N4210 X-0.88805086 Y0.426470389
N4215 X-0.87497591 Y0.434289054
N4220 X-0.860006002 Y0.441596264
N4225 X-0.845036094 Y0.448681689
N4230 X-0.815096277 Y0.458453058
N4235 X-0.800126369 Y0.4618879
N4240 X-0.78515646 Y0.464528264
N4245 X-0.770186477 Y0.46568664
N4250 X-0.755216568 Y0.466492946
N4255 X-0.74024666 Y0.467027491
N4260 X-0.321089039
N4265 X-0.30611913 Y0.467216236
N4270 X-0.298634176 Y0.468445988
N4275 X-0.291149203 Y0.470906843
N4280 X-0.290096106 Y0.471362016
N4285 X-0.283137701 Y0.475152421
N4290 X-0.279658498 Y0.477640948
N4295 X-0.276179295 Y0.480628727
N4300 X-0.270968478 Y0.486325917
N4305 X-0.268247484 Y0.490066874
N4310 X-0.266010273 Y0.49380783
N4315 X-0.262726611 Y0.501289781
N4320 X-0.261209387 Y0.506645075
N4325 X-0.260376724 Y0.511449378
N4330 X-0.260017481 Y0.516253644
N4335 X-0.260000004 Y0.531217545
N4340 X-0.260681459 Y0.535436209 Z-0.297131731 F15.
N4345 X-0.261349733 Y0.539573278 Z-0.296242711
N4350 X-0.261992 Y0.543549342 Z-0.294783022
N4355 X-0.263428371 Y0.54684839 Z-0.292888598
N4360 X-0.264753137 Y0.549891104 Z-0.290538575
N4365 X-0.265943405 Y0.552624907 Z-0.28777356
N4370 X-0.266978609 Y0.555002558 Z-0.284641333
N4375 X-0.268137153 Y0.556715748 Z-0.281369225
N4380 X-0.269057627 Y0.558076893 Z-0.277864379
N4385 X-0.269725608 Y0.559064664 Z-0.274181712
N4390 X-0.270130629 Y0.559663584 Z-0.270378926
N4395 X-0.270266345 Y0.55986427 Z-0.266515608
N4400 G0 Y0.559864269 Z0.110037402
N4405 X-1.143658931 Y-0.031927327
N4410 Z-0.158062939
N4415 G1 Z-0.208062938 F15.
N4420 X-1.143490971 Y-0.031661564 Z-0.213661161
N4425 X-1.142989201 Y-0.030867618 Z-0.219188983
N4430 X-1.142159931 Y-0.029555474 Z-0.224576888
N4435 X-1.141013589 Y-0.027741632 Z-0.229757121
N4440 X-1.139564591 Y-0.025448902 Z-0.234664538
N4445 X-1.13783116 Y-0.022706116 Z-0.239237424
N4450 X-1.135835094 Y-0.019547768 Z-0.243418273
N4455 X-1.133601494 Y-0.016013574 Z-0.247154508
N4460 X-1.131158451 Y-0.01214798 Z-0.250399144
N4465 X-1.128536686 Y-0.007999597 Z-0.253111378
N4470 X-1.125769169 Y-0.003620594 Z-0.255257102
N4475 X-1.122890704 Y0.000933961 Z-0.256809331
N4480 X-1.11993749 Y0.005606792 Z-0.257748547
N4485 X-1.116946663 Y0.010339134 Z-0.258062937
N4490 G3 X-0.995924416 Y0.257277639 I-1.079055456 J0.681960085
N4495 G1 X-0.994735252 Y0.260953847 F5.
N4500 X-0.981767835 Y0.291795524
N4505 X-0.979765344 Y0.296153046
N4510 X-0.964174871 Y0.32172327
N4515 X-0.953345261 Y0.336687171
N4520 X-0.949825527 Y0.341219451
N4525 X-0.94102424 Y0.351651034
N4530 X-0.934855619 Y0.358371885
N4535 X-0.925911505 Y0.366614897
N4540 X-0.919885635 Y0.372109038
N4545 X-0.908840209 Y0.381578798
N4550 X-0.904915727 Y0.384499219
N4555 X-0.889945819 Y0.39515897
N4560 X-0.887747862 Y0.396542662
N4565 X-0.87497591 Y0.403839847
N4570 X-0.859362835 Y0.411506525
N4575 X-0.845036094 Y0.418443304
N4580 X-0.830066185 Y0.423766121
N4585 X-0.821775902 Y0.426470389
N4590 X-0.815096277 Y0.428346874
N4595 X-0.800126369 Y0.431201364
N4600 X-0.78515646 Y0.433983953
N4605 X-0.770186477 Y0.435444764
N4610 X-0.755216568 Y0.436255275
N4615 X-0.74024666 Y0.436792974
N4620 X-0.321089039
N4625 X-0.30611913 Y0.436981719
N4630 X-0.298634176 Y0.438211509
N4635 X-0.291149203 Y0.440672364
N4640 X-0.28942172 Y0.44143429
N4645 X-0.282800517 Y0.445139877
N4650 X-0.276179295 Y0.450371232
N4655 X-0.270612015 Y0.456398153
N4660 X-0.267954117 Y0.460139109
N4665 X-0.265769827 Y0.463880103
N4670 X-0.262573798 Y0.471362016
N4675 X-0.261209387 Y0.476266793
N4680 X-0.260349428 Y0.481296374
N4685 X-0.260007588 Y0.486325917
N4690 X-0.260000004 Y0.501289781
N4695 X-0.260681459 Y0.505508457 Z-0.257761656 F15.
N4700 X-0.261349733 Y0.509645539 Z-0.256872636
N4705 X-0.261992 Y0.513621616 Z-0.255412943
N4710 X-0.263428371 Y0.516920654 Z-0.253518516
N4715 X-0.264753137 Y0.519963358 Z-0.251168492
N4720 X-0.265943405 Y0.522697151 Z-0.248403478
N4725 X-0.266978609 Y0.525074794 Z-0.245271254
N4730 X-0.268137153 Y0.526787984 Z-0.241999147
N4735 X-0.269057627 Y0.528149128 Z-0.2384943
N4740 X-0.269725608 Y0.529136899 Z-0.234811633
N4745 X-0.270130629 Y0.52973582 Z-0.231008847
N4750 X-0.270266345 Y0.529936505 Z-0.227145529
N4755 G0 Z0.110037402
N4760 X-1.133623649 Y-0.10098478
N4765 Z-0.118692869
N4770 G1 Z-0.168692859 F15.
N4775 X-1.133468139 Y-0.100711547 Z-0.174291081
N4780 X-1.133003559 Y-0.099895283 Z-0.179818902
N4785 X-1.132235752 Y-0.098546253 Z-0.185206807
N4790 X-1.131174373 Y-0.096681422 Z-0.19038704
N4795 X-1.12983277 Y-0.094324241 Z-0.195294456
N4800 X-1.128227814 Y-0.091504354 Z-0.199867342
N4805 X-1.126379689 Y-0.088257221 Z-0.204048191
N4810 X-1.124311636 Y-0.084623677 Z-0.207784426
N4815 X-1.122049661 Y-0.080649417 Z-0.211029063
N4820 X-1.119622211 Y-0.076384418 Z-0.213741297
N4825 X-1.117059811 Y-0.071882316 Z-0.215887021
N4830 X-1.114394687 Y-0.067199728 Z-0.217439251
N4835 X-1.111660353 Y-0.062395538 Z-0.218378468
N4840 X-1.108891194 Y-0.057530164 Z-0.218692858
N4845 G3 X-0.999398419 Y0.194732261 I-1.109388907 J0.631416187
N4850 G1 X-0.99740967 Y0.202012287 F5.
N4855 X-0.99231367 Y0.216976151
N4860 X-0.985803078 Y0.231940033
N4865 X-0.979151388 Y0.246903915
N4870 X-0.970172281 Y0.261867779
N4875 X-0.960594613 Y0.276831661
N4880 X-0.95016074 Y0.291795524
N4885 X-0.949825527 Y0.292216061
N4890 X-0.936767548 Y0.306759406
N4895 X-0.934855619 Y0.308778812
N4900 X-0.922075782 Y0.32172327
N4905 X-0.919885635 Y0.323655436
N4910 X-0.904915727 Y0.335434215
N4915 X-0.882058557 Y0.351651034
N4920 X-0.87497591 Y0.355411064
N4925 X-0.852342365 Y0.366614897
N4930 X-0.845036094 Y0.370041967
N4935 X-0.815096277 Y0.379939004
N4940 X-0.808928407 Y0.381578798
N4945 X-0.800126369 Y0.383499476
N4950 X-0.78515646 Y0.386086562
N4955 X-0.770186477 Y0.387290857
N4960 X-0.755216568 Y0.388106699
N4965 X-0.74024666 Y0.388648416
N4970 X-0.321089039
N4975 X-0.30611913 Y0.388837161
N4980 X-0.298634176 Y0.390066913
N4985 X-0.291149203 Y0.392527768
N4990 X-0.283494596 Y0.396542662
N4995 X-0.279836936 Y0.399122989
N5000 X-0.276179295 Y0.402249652
N5005 X-0.271842179 Y0.406878088
N5010 X-0.268362357 Y0.411506525
N5015 X-0.264262196 Y0.418988476
N5020 X-0.261644622 Y0.426470389
N5025 X-0.261209387 Y0.428258303
N5030 X-0.260188936 Y0.434846277
N5035 X-0.260000004 Y0.44143429
N5040 Y0.471362016
N5045 X-0.260681459 Y0.475580693 Z-0.218391577 F15.
N5050 X-0.261349733 Y0.479717775 Z-0.217502557
N5055 X-0.261992 Y0.483693851 Z-0.216042864
N5060 X-0.263428371 Y0.486992889 Z-0.214148437
N5065 X-0.264753137 Y0.490035594 Z-0.211798413
N5070 X-0.265943405 Y0.492769387 Z-0.2090334
N5075 X-0.266978609 Y0.49514703 Z-0.205901176
N5080 X-0.268137153 Y0.496860226 Z-0.202629071
N5085 X-0.269057626 Y0.498221378 Z-0.199124226
N5090 X-0.269725607 Y0.499209157 Z-0.195441559
N5095 X-0.270130629 Y0.499808085 Z-0.191638772
N5100 X-0.270266345 Y0.500008778 Z-0.18777545
N5105 G0 Z0.110037402
N5110 X-0.31155269 Y-0.762070108
N5115 Z-0.079285385
N5120 G1 Z-0.129285384 F15.
N5125 X-0.311474677 Y-0.761765556 Z-0.134883601
N5130 X-0.31124162 Y-0.760855722 Z-0.140411419
N5135 X-0.31085645 Y-0.759352046 Z-0.145799321
N5140 X-0.31032401 Y-0.757273438 Z-0.150979551
N5145 X-0.309650997 Y-0.754646039 Z-0.155886966
N5150 X-0.308845873 Y-0.751502888 Z-0.160459851
N5155 X-0.307918764 Y-0.747883513 Z-0.1646407
N5160 X-0.306881328 Y-0.743833429 Z-0.168376936
N5165 X-0.305746612 Y-0.739403569 Z-0.171621574
N5170 X-0.304528886 Y-0.73464964 Z-0.17433381
N5175 X-0.303243462 Y-0.729631426 Z-0.176479537
N5180 X-0.301906506 Y-0.724412033 Z-0.17803177
N5185 X-0.300534832 Y-0.719057099 Z-0.178970989
N5190 X-0.299145687 Y-0.713633965 Z-0.179285383
N5195 G3 X-0.260000004 Y-0.441434327 Z-0.179285384 I-1.236568079 J0.316748544
N5200 G1 Y-0.399572906 F5.
N5205 X-0.260299998 Y-0.393580414
N5210 X-0.260982626 Y-0.387619349
N5215 X-0.262442367 Y-0.381799645
N5220 X-0.264572684 Y-0.376190576
N5225 X-0.267157442 Y-0.370775846
N5230 X-0.27008006 Y-0.365535781
N5235 X-0.273275995 Y-0.360457803
N5240 X-0.276702502 Y-0.355532451
N5245 X-0.280328473 Y-0.350752027
N5250 X-0.284129916 Y-0.346109961
N5255 X-0.288087665 Y-0.341600358
N5260 X-0.292185855 Y-0.337218037
N5265 X-0.296411195 Y-0.332958191
N5270 X-0.300752291 Y-0.328816316
N5275 X-0.305199266 Y-0.324788394
N5280 X-0.309743487 Y-0.320870445
N5285 X-0.314377274 Y-0.317058901
N5290 X-0.319093832 Y-0.313350253
N5295 X-0.323887059 Y-0.309741253
N5300 X-0.328751474 Y-0.306228784
N5305 X-0.333682083 Y-0.302809843
N5310 X-0.33867438 Y-0.299481613
N5315 X-0.343724198 Y-0.296241336
N5320 X-0.348827745 Y-0.293086401
N5325 X-0.353981604 Y-0.290014312
N5330 X-0.359182583 Y-0.287022647
N5335 X-0.364427679 Y-0.284109078
N5340 X-0.369714189 Y-0.281271353
N5345 X-0.375039634 Y-0.278507312
N5350 X-0.380401611 Y-0.27581489
N5355 X-0.385797944 Y-0.273192042
N5360 X-0.391226678 Y-0.270636851
N5365 X-0.396685863 Y-0.268147442
N5370 X-0.402173771 Y-0.265721956
N5375 X-0.407688749 Y-0.263358664
N5380 X-0.413229221 Y-0.26105586
N5385 X-0.418793798 Y-0.258811891
N5390 X-0.424381128 Y-0.25662516
N5395 X-0.429989935 Y-0.254494111
N5400 X-0.435619016 Y-0.25241726
N5405 X-0.441267284 Y-0.250393124
N5410 X-0.446933686 Y-0.248420332
N5415 X-0.452617247 Y-0.246497477
N5420 X-0.458316991 Y-0.244623244
N5425 X-0.464032091 Y-0.242796357
N5430 X-0.469761758 Y-0.241015558
N5435 X-0.47550513 Y-0.239279608
N5440 X-0.481261531 Y-0.237587362
N5445 X-0.487161171 Y-0.235900222
N5450 X-0.493247716 Y-0.234207863
N5455 X-0.499530965 Y-0.232510341
N5460 X-0.506452238 Y-0.23069485
N5465 X-0.514370888 Y-0.228679706
N5470 X-0.539755671 Y-0.222417726
N5475 X-0.58690762 Y-0.199810576
N5480 X-0.625716119 Y-0.164763533
N5485 X-0.657201226 Y-0.123013305
N5490 X-0.663540082 Y-0.111580083
N5495 X-0.670998115 Y-0.097040285
N5500 X-0.675610144 Y-0.084808004
N5505 X-0.678824703 Y-0.072136526
N5510 X-0.68060139 Y-0.059184967
N5515 X-0.68091798 Y-0.046115945
N5520 X-0.679770417 Y-0.033093555
N5525 X-0.677173194 Y-0.020281299
N5530 X-0.673158826 Y-0.007840052
N5535 X-0.66777785 Y0.004073978
N5540 X-0.661097699 Y0.015311198
N5545 X-0.653202252 Y0.025730516
N5550 X-0.644190781 Y0.035201105
N5555 X-0.604132817 Y0.068812905
N5560 X-0.556205765 Y0.089726795
N5565 X-0.506664186 Y0.106460776
N5570 X-0.456347616 Y0.120695782
N5575 X-0.43907128 Y0.125510993
N5580 X-0.427940812 Y0.128701428
N5585 X-0.418943082 Y0.131352136
N5590 X-0.410219628 Y0.133991748
N5595 X-0.402460737 Y0.136401766
N5600 X-0.395580915 Y0.138594212
N5605 X-0.389339004 Y0.14063394
N5610 X-0.383583504 Y0.142561573
N5615 X-0.377908241 Y0.144508749
N5620 X-0.372247546 Y0.146497845
N5625 X-0.366602582 Y0.148531123
N5630 X-0.36097474 Y0.150611438
N5635 X-0.355365633 Y0.152741652
N5640 X-0.349776125 Y0.154922769
N5645 X-0.344207268 Y0.157156122
N5650 X-0.338660788 Y0.15944449
N5655 X-0.333138488 Y0.161790604
N5660 X-0.327642246 Y0.164197092
N5665 X-0.32014768 Y0.167604506
N5670 X-0.305493742 Y0.175917712
N5675 X-0.292375407 Y0.18648921
N5680 X-0.281137331 Y0.199041235
N5685 X-0.272074816 Y0.21324398
N5690 X-0.26542596 Y0.228724292
N5695 X-0.261365466 Y0.245075432
N5700 X-0.260000004 Y0.261867779
N5705 Y0.426470389
N5710 X-0.260681459 Y0.430689067 Z-0.178984096 F15.
N5715 X-0.261349734 Y0.434826149 Z-0.17809507
N5720 X-0.261992 Y0.438802224 Z-0.17663537
N5725 X-0.26342837 Y0.44210126 Z-0.174740948
N5730 X-0.264753136 Y0.445143964 Z-0.172390929
N5735 X-0.265943404 Y0.447877757 Z-0.16962592
N5740 X-0.266978609 Y0.450255402 Z-0.166493701
N5745 X-0.268137153 Y0.451968599 Z-0.163221596
N5750 X-0.269057626 Y0.453329751 Z-0.159716751
N5755 X-0.269725607 Y0.454317529 Z-0.156034084
N5760 X-0.270130629 Y0.454916457 Z-0.152231297
N5765 X-0.270266345 Y0.455117151 Z-0.148367975
N5770 G0 Z0.110037402
N5775 X-0.294266704 Y-0.472218108
N5780 Z-0.079285385
N5785 G1 Z-0.129285384 F15.
N5790 X-0.29410603 Y-0.471947877 Z-0.134883609
N5795 X-0.29362603 Y-0.471140582 Z-0.140411432
N5800 X-0.29283274 Y-0.469806375 Z-0.145799339
N5805 X-0.291736135 Y-0.467962036 Z-0.150979573
N5810 X-0.290350007 Y-0.465630757 Z-0.15588699
N5815 X-0.288691787 Y-0.462841855 Z-0.160459876
N5820 X-0.286782328 Y-0.459630403 Z-0.164640725
N5825 X-0.284645642 Y-0.456036787 Z-0.16837696
N5830 X-0.2823086 Y-0.452106199 Z-0.171621595
N5835 X-0.279800591 Y-0.447888067 Z-0.174333828
N5840 X-0.277153155 Y-0.443435438 Z-0.176479551
N5845 X-0.274399584 Y-0.438804306 Z-0.17803178
N5850 X-0.271574508 Y-0.434052909 Z-0.178970994
N5855 X-0.268713452 Y-0.429241 Z-0.179285383
N5860 G3 X-0.260000004 Y-0.399572906 Z-0.179285384 I-0.053554877 J0.031842547
N5865 G1 Y0.261867779 F5.
N5870 X-0.260681459 Y0.266086451 Z-0.178984094 F15.
N5875 X-0.261349734 Y0.270223526 Z-0.178095068
N5880 X-0.261992 Y0.274199595 Z-0.17663537
N5885 X-0.26342837 Y0.277498636 Z-0.17474095
N5890 X-0.264753136 Y0.280541344 Z-0.172390931
N5895 X-0.265943405 Y0.283275143 Z-0.169625922
N5900 X-0.266978609 Y0.285652792 Z-0.166493701
N5905 X-0.268137153 Y0.287365985 Z-0.163221595
N5910 X-0.269057627 Y0.288727133 Z-0.159716749
N5915 X-0.269725607 Y0.289714908 Z-0.156034082
N5920 X-0.270130629 Y0.290313832 Z-0.152231295
N5925 X-0.270266345 Y0.290514522 Z-0.148367975
N5930 G0 Z0.110037402
N5935 X-1.137477019 Y0.026329608
N5940 Z-0.390000005
N5945 G1 Z-0.439999986 F15.
N5950 X-1.137318131 Y0.026600891 Z-0.44559821
N5955 X-1.136843465 Y0.027411332 Z-0.451126033
N5960 X-1.136058989 Y0.028750737 Z-0.45651394
N5965 X-1.134974568 Y0.030602265 Z-0.461694175
N5970 X-1.13360384 Y0.03294263 Z-0.466601593
N5975 X-1.131964043 Y0.035742402 Z-0.47117448
N5980 X-1.130075797 Y0.038966371 Z-0.475355331
N5985 X-1.127962849 Y0.042573994 Z-0.479091568
N5990 X-1.12565177 Y0.046519904 Z-0.482336205
N5995 X-1.123171624 Y0.050754478 Z-0.485048441
N6000 X-1.120553599 Y0.055224464 Z-0.487194166
N6005 X-1.117830618 Y0.059873649 Z-0.488746397
N6010 X-1.115036926 Y0.064643568 Z-0.489685614
N6015 X-1.112207653 Y0.069474235 Z-0.490000005
N6020 G3 X-0.999595612 Y0.320359703 Z-0.490000004 I-1.101474987 J0.645122641
N6025 G1 X-0.994735252 Y0.337321289 F5.
N6030 X-0.988510838 Y0.351651034
N6035 X-0.979765344 Y0.371509086
N6040 X-0.973467789 Y0.381578798
N6045 X-0.96402386 Y0.396542662
N6050 X-0.953426887 Y0.411506525
N6055 X-0.949825527 Y0.416001297
N6060 X-0.940565875 Y0.426470389
N6065 X-0.933974259 Y0.434137142
N6070 X-0.919845161 Y0.453523989
N6075 X-0.904614456 Y0.478396566
N6080 X-0.88837984 Y0.510427257
N6085 X-0.868559034 Y0.558816579
N6090 X-0.843339154 Y0.604624373
N6095 X-0.807605428 Y0.642801495
N6100 X-0.765706836 Y0.674088846
N6105 X-0.71999242 Y0.699477609
N6110 X-0.67187069 Y0.719939555
N6115 X-0.622220039 Y0.736347033
N6120 X-0.571597392 Y0.74945187
N6125 X-0.520357673 Y0.759886719
N6130 X-0.46872736 Y0.76817535
N6135 X-0.416850443 Y0.774746467
N6140 X-0.364818385 Y0.779948122
N6145 X-0.336683867 Y0.782167855
N6150 X-0.31855035 Y0.785047726
N6155 X-0.301093248 Y0.790736957
N6160 X-0.284744924 Y0.799094598
N6165 X-0.269910275 Y0.80991362
N6170 X-0.256956731 Y0.822926093
N6175 X-0.246205142 Y0.837809645
N6180 X-0.237921767 Y0.854195722
N6185 X-0.236951171 Y0.858357397 Z-0.489698715 F15.
N6190 X-0.235999348 Y0.862438578 Z-0.488809689
N6195 X-0.235084567 Y0.866360928 Z-0.487349991
N6200 X-0.234946123 Y0.869022988 Z-0.486010964
N6205 X-0.234815023 Y0.871543809 Z-0.48442131
N6210 Y0.871545686 Z-0.484419958
N6215 X-0.235191956 Y0.874539523 Z-0.482007591
N6220 X-0.235528396 Y0.87721175 Z-0.479237993
N6225 X-0.2358191 Y0.879520706 Z-0.476154346
N6230 X-0.236059535 Y0.881430391 Z-0.472804725
N6235 X-0.236245952 Y0.882911033 Z-0.469241353
N6240 X-0.236375445 Y0.883939548 Z-0.465519785
N6245 X-0.236504761 Y0.884431049 Z-0.462317119
N6250 X-0.236548026 Y0.88459548 Z-0.459078841
N6255 G0 Z0.110037402
N6260 X-1.015454991 Y0.397433371
N6265 Z-0.390000005
N6270 G1 Z-0.439999986 F15.
N6275 X-1.01515235 Y0.397518505 Z-0.445598208
N6280 X-1.01424823 Y0.397772837 Z-0.451126029
N6285 X-1.012753998 Y0.398193169 Z-0.456513935
N6290 X-1.010688447 Y0.398774214 Z-0.461694169
N6295 X-1.008077552 Y0.399508666 Z-0.466601587
N6300 X-1.004954145 Y0.400387289 Z-0.471174474
N6305 X-1.001357506 Y0.401399033 Z-0.475355325
N6310 X-0.997332865 Y0.402531175 Z-0.479091562
N6315 X-0.992930833 Y0.403769478 Z-0.4823362
N6320 X-0.988206769 Y0.40509837 Z-0.485048436
N6325 X-0.983220081 Y0.406501138 Z-0.487194162
N6330 X-0.978033478 Y0.407960143 Z-0.488746394
N6335 X-0.972712186 Y0.409457036 Z-0.489685612
N6340 X-0.967323123 Y0.410972993 Z-0.490000004
N6345 G3 X-0.940565875 Y0.426470389 I-0.016872001 J0.05997838
N6350 G1 X-0.934855619 Y0.432476472 F5.
N6355 X-0.925552413 Y0.44143429
N6360 X-0.919885635 Y0.446425235
N6365 X-0.90746842 Y0.456398153
N6370 X-0.889945819 Y0.468870486
N6375 X-0.886303308 Y0.471362016
N6380 X-0.87497591 Y0.47748393
N6385 X-0.856752546 Y0.486325917
N6390 X-0.845036094 Y0.491775002
N6395 X-0.815096277 Y0.501489189
N6400 X-0.800126369 Y0.504719479
N6405 X-0.78515646 Y0.507313098
N6410 X-0.733632591 Y0.516239902
N6415 X-0.682236454 Y0.525874603
N6420 X-0.630799541 Y0.535289396
N6425 X-0.579249202 Y0.544061848
N6430 X-0.527567901 Y0.552026568
N6435 X-0.475838128 Y0.559670043
N6440 X-0.424316662 Y0.568610439
N6445 X-0.373353357 Y0.580320771
N6450 X-0.333071431 Y0.593037493
N6455 X-0.332728821 Y0.593176752
N6460 X-0.317263828 Y0.600842266
N6465 X-0.303099062 Y0.610705586
N6470 X-0.290544559 Y0.622550859
N6475 X-0.279875158 Y0.636118866
N6480 X-0.271324379 Y0.651112504
N6485 X-0.265079352 Y0.667203693
N6490 X-0.26127682 Y0.684040175
N6495 X-0.260000004 Y0.701253395
N6500 Y0.740711783
N6505 X-0.259884061 Y0.748941917
N6510 G3 X-0.328396324 Y0.794343348 I-0.049989167 J-0.001040932 F15.
N6515 G1 X-0.806443372 Y0.603679071
N6520 G3 X-0.78515646 Y0.507313098 I0.018523134 J-0.0464424
N6525 G1 X-0.770186477 Y0.50866724 F5.
N6530 X-0.755216568 Y0.509468927
N6535 X-0.74024666 Y0.509999981
N6540 X-0.336058947
N6545 X-0.324368627 Y0.510585252
N6550 X-0.311386848 Y0.513493545
N6555 X-0.299135738 Y0.518679656
N6560 X-0.288011427 Y0.525975866
N6565 X-0.278373572 Y0.535146345
N6570 X-0.270533806 Y0.545894518
N6575 X-0.264745585 Y0.557872892
N6580 X-0.261196058 Y0.570694218
N6585 X-0.260000004 Y0.583943908
N6590 G3 X-0.281225527 Y0.633715907 I-0.075119387 J-0.002623205 F15.
N6595 X-0.3858022 Y0.53204719 I-0.052288348 J-0.05083437
N6600 X-0.336058947 Y0.509999981 I0.052288325 J0.050834347
N6605 G1 X-0.321089039 F5.
N6610 X-0.30611913 Y0.510188726
N6615 X-0.298634176 Y0.511418478
N6620 X-0.291149203 Y0.513879333
N6625 X-0.286246717 Y0.516253644
N6630 X-0.281213006 Y0.519445787
N6635 X-0.276179295 Y0.523601254
N6640 X-0.272510164 Y0.527409381
N6645 X-0.269466573 Y0.531217545
N6650 X-0.264999435 Y0.538699458
N6655 X-0.26209193 Y0.546181408
N6660 X-0.261209387 Y0.549562334
N6665 X-0.260264798 Y0.555353803
N6670 X-0.260000004 Y0.561145272
N6675 Y0.701253395
N6680 X-0.260681459 Y0.705472073 Z-0.489698716 F15.
N6685 X-0.261349733 Y0.709609155 Z-0.48880969
N6690 X-0.261992 Y0.71358523 Z-0.487349991
N6695 X-0.263428371 Y0.716884269 Z-0.485455564
N6700 X-0.264753137 Y0.719926973 Z-0.48310554
N6705 X-0.265943405 Y0.722660766 Z-0.480340526
N6710 X-0.266978609 Y0.725038409 Z-0.477208302
N6715 X-0.268137152 Y0.726751596 Z-0.473936198
N6720 X-0.269057624 Y0.728112739 Z-0.470431356
N6725 X-0.269725605 Y0.729100511 Z-0.466748693
N6730 X-0.270130628 Y0.729699432 Z-0.462945911
N6735 X-0.270266345 Y0.72990012 Z-0.459082596
N6740 G0 Z0.110037402
N6745 X-1.108898028 Y0.530487233
N6750 Z-0.315543272
N6755 G1 Z-0.365543253 F15.
N6760 X-1.108588189 Y0.53043395 Z-0.371141475
N6765 X-1.107662565 Y0.530274764 Z-0.376669297
N6770 X-1.106132796 Y0.530011677 Z-0.382057203
N6775 X-1.10401812 Y0.529647999 Z-0.387237437
N6780 X-1.101345129 Y0.529188302 Z-0.392144855
N6785 X-1.098147439 Y0.528638368 Z-0.396717742
N6790 X-1.094465262 Y0.528005112 Z-0.400898593
N6795 X-1.090344904 Y0.527296497 Z-0.404634829
N6800 X-1.08583818 Y0.526521436 Z-0.407879467
N6805 X-1.081001765 Y0.525689675 Z-0.410591703
N6810 X-1.07589648 Y0.524811673 Z-0.412737429
N6815 X-1.070586526 Y0.523898473 Z-0.41428966
N6820 X-1.06513868 Y0.522961558 Z-0.415228878
N6825 X-1.05962145 Y0.522012711 Z-0.41554327
N6830 G3 X-0.78515646 Y0.504867449 Z-0.415543271 I0.21635401 J1.258022654
N6835 G1 X-0.770186477 Y0.506074335 F5.
N6840 X-0.755216568 Y0.50687621
N6845 X-0.74024666 Y0.507407414
N6850 X-0.321089039
N6855 X-0.30611913 Y0.507596159
N6860 X-0.298634176 Y0.50882591
N6865 X-0.291149203 Y0.511286766
N6870 X-0.286606034 Y0.513464109
N6875 X-0.282062865 Y0.516253644
N6880 X-0.276179295 Y0.521008687
N6885 X-0.271438351 Y0.526113097
N6890 X-0.267740441 Y0.531217545
N6895 X-0.263850539 Y0.538699458
N6900 X-0.261402487 Y0.546181408
N6905 X-0.261209387 Y0.547010242
N6910 X-0.260149456 Y0.554077757
N6915 X-0.260000004 Y0.561145272
N6920 G3 X-0.270266345 Y0.589792034 I-0.04996953 J-0.001744961 F15.
N6925 G1 X-0.273669139 Y0.594237382 Z-0.41522888
N6930 X-0.277029141 Y0.598626828 Z-0.414289664
N6935 X-0.280304097 Y0.60290517 Z-0.412737433
N6940 X-0.283452822 Y0.607018608 Z-0.410591708
N6945 X-0.286435719 Y0.61091541 Z-0.407879473
N6950 X-0.289215277 Y0.614546574 Z-0.404634835
N6955 X-0.291756541 Y0.617866435 Z-0.400898598
N6960 X-0.294027553 Y0.620833244 Z-0.396717748
N6965 X-0.295999754 Y0.623409691 Z-0.39214486
N6970 X-0.297648343 Y0.625563376 Z-0.387237442
N6975 X-0.298952587 Y0.627267217 Z-0.382057207
N6980 X-0.299896085 Y0.628499784 Z-0.3766693
N6985 X-0.300466972 Y0.629245579 Z-0.371141477
N6990 X-0.300658069 Y0.629495223 Z-0.365543253
N6995 G0 X-0.300658068 Z0.099999998
(2D CONTOUR3)
N7000 G0 Z0.599999991
N7005 X0.027280459 Y-1.152188759
N7010 Z0.199999997
N7015 G1 Z-0.13750004 F15.
N7020 X0.027298253 Y-1.151874866 Z-0.143098265
N7025 X0.027351412 Y-1.150937149 Z-0.148626088
N7030 X0.027439266 Y-1.1493874 Z-0.154013994
N7035 X0.02756071 Y-1.14724511 Z-0.159194225
N7040 X0.027714219 Y-1.144537218 Z-0.164101639
N7045 X0.02789786 Y-1.141297779 Z-0.168674521
N7050 X0.028109326 Y-1.137567528 Z-0.172855366
N7055 X0.028345955 Y-1.133393378 Z-0.176591596
N7060 X0.028604773 Y-1.12882782 Z-0.179836226
N7065 X0.028882526 Y-1.123928269 Z-0.182548454
N7070 X0.029175719 Y-1.118756339 Z-0.184694172
N7075 X0.029480666 Y-1.113377071 Z-0.186246396
N7080 X0.029793532 Y-1.107858111 Z-0.187185606
N7085 X0.030110382 Y-1.102268865 Z-0.187499991
N7090 X0.032940307 Y-1.052349046 Z-0.187499992
N7095 G3 X-0.014149621 Y-0.999599292 I-0.049919851 J0.002829935
N7100 G2 X-0.249999996 Y-0.74999997 I0.014149621 J0.249599322 F5.
N7105 G1 Y0.74999997
N7110 G2 X-0.014178245 Y0.99959764 I0.249999996 J0.
N7115 G3 X0.032905631 Y1.0523528 I-0.00283565 J0.049919519 F15.
N7120 G1 X0.030069982 Y1.102272319
N7125 X0.029752491 Y1.107861529 Z-0.187185604
N7130 X0.029438992 Y1.113380451 Z-0.18624639
N7135 X0.029133428 Y1.118759682 Z-0.184694163
N7140 X0.028839641 Y1.123931575 Z-0.182548442
N7145 X0.028561327 Y1.128831091 Z-0.179836212
N7150 X0.028301985 Y1.133396616 Z-0.17659158
N7155 X0.028064877 Y1.137570734 Z-0.172855349
N7160 X0.027852984 Y1.141300955 Z-0.168674504
N7165 X0.027668971 Y1.144540369 Z-0.164101622
N7170 X0.027515152 Y1.147248238 Z-0.15919421
N7175 X0.027393462 Y1.149390509 Z-0.154013981
N7180 X0.02730543 Y1.150940242 Z-0.148626079
N7185 X0.027252164 Y1.151877949 Z-0.14309826
N7190 X0.027234334 Y1.152191837 Z-0.13750004
N7195 G0 Y1.152191838 Z0.599999991
(HORIZONTAL2)
N7200 G0 X-0.897876559 Y0.142199636
N7205 Z0.599999991
N7210 Z-0.096191919
N7215 G1 X-0.897977525 Y0.142090415 Z-0.100045784 F13.123
N7220 X-0.898279846 Y0.141763412 Z-0.103876721
N7225 X-0.898781724 Y0.141220571 Z-0.107661936
N7230 X-0.899647255 Y0.140211964 Z-0.112290266
N7235 X-0.900798714 Y0.138870158 Z-0.116769279
N7240 X-0.902225421 Y0.1372076 Z-0.121057433
N7245 X-0.903914143 Y0.13523971 Z-0.125114954
N7250 X-0.905722706 Y0.13288901 Z-0.128897854
N7255 X-0.907744424 Y0.13026126 Z-0.132378458
N7260 X-0.909960611 Y0.127380748 Z-0.135524596
N7265 X-0.912350782 Y0.124274099 Z-0.13830719
N7270 X-0.913754655 Y0.122301087 Z-0.139761983
N7275 X-0.91520392 Y0.120264282 Z-0.141077699
N7280 X-0.917543782 Y0.116684957 Z-0.142934273
N7285 X-0.919968087 Y0.112976455 Z-0.144384499
N7290 X-0.9218673 Y0.109675181 Z-0.145278517
N7295 X-0.923795554 Y0.106323426 Z-0.145872032
N7300 X-0.925741046 Y0.102941708 Z-0.146161412
N7305 X-0.926493697 Y0.101633335 Z-0.146214117
N7310 X-0.929343456 Y0.096007248 Z-0.146434354
N7315 X-0.932025985 Y0.09038116 Z-0.14665201
N7320 X-0.936776109 Y0.079083508 Z-0.14707999
N7325 X-0.937783474 Y0.076361223 Z-0.147181355
N7330 X-0.940673182 Y0.067785861 Z-0.147497354
N7335 X-0.943910644 Y0.056488214 Z-0.147907753
N7340 X-0.945266213 Y0.050839388 Z-0.148110615
N7345 X-0.946398833 Y0.045190566 Z-0.148311806
N7350 X-0.948258347 Y0.033892916 Z-0.148711636
N7355 X-0.949073326 Y0.026700013 Z-0.148964426
N7360 X-0.949436023 Y0.022595269 Z-0.149108322
N7365 X-0.949966175 Y0.011297619 Z-0.14950328
N7370 X-0.949999967 Y-0.00000003 Z-0.149897806
N7375 X-0.949966175 Y-0.011297679 Z-0.150292333
N7380 X-0.949436023 Y-0.022595328 Z-0.150687291
N7385 X-0.949073326 Y-0.026700044 Z-0.150831187
N7390 X-0.948258347 Y-0.033892975 Z-0.151083976
N7395 X-0.946398833 Y-0.045190627 Z-0.151483806
N7400 X-0.945266213 Y-0.050839449 Z-0.151684998
N7405 X-0.943910644 Y-0.056488275 Z-0.15188786
N7410 X-0.940673107 Y-0.067785922 Z-0.152298259
N7415 X-0.937783474 Y-0.076361256 Z-0.152614257
N7420 X-0.936776034 Y-0.079083565 Z-0.152715623
N7425 X-0.932025909 Y-0.090381217 Z-0.153143603
N7430 X-0.929343456 Y-0.096007295 Z-0.153361259
N7435 X-0.926468166 Y-0.101678869 Z-0.153583307
N7440 X-0.919968087 Y-0.112976512 Z-0.154038471
N7445 X-0.91520392 Y-0.12026432 Z-0.15434252
N7450 X-0.912350782 Y-0.124274164 Z-0.154514378
N7455 X-0.90364734 Y-0.135571806 Z-0.155012392
N7460 X-0.898781724 Y-0.141220637 Z-0.155272747
N7465 X-0.893558968 Y-0.146869459 Z-0.155541399
N7470 X-0.892624367 Y-0.147821875 Z-0.155587994
N7475 X-0.8871291 Y-0.153150577 Z-0.155855305
N7480 X-0.881334515 Y-0.158417582 Z-0.156128754
N7485 X-0.870044738 Y-0.167488827 Z-0.156634502
N7490 X-0.867363937 Y-0.169464753 Z-0.156750792
N7495 X-0.858754962 Y-0.175416038 Z-0.157116267
N7500 X-0.850023285 Y-0.180762396 Z-0.157473801
N7505 X-0.847465185 Y-0.182264752 Z-0.157577391
N7510 X-0.841820259 Y-0.185221743 Z-0.157799927
N7515 X-0.836175333 Y-0.188084963 Z-0.158020962
N7520 X-0.827299478 Y-0.192060058 Z-0.158360586
N7525 X-0.824885556 Y-0.193013563 Z-0.158451223
N7530 X-0.813595779 Y-0.197181946 Z-0.158871478
N7535 X-0.802306003 Y-0.200668864 Z-0.159284092
N7540 X-0.79099137 Y-0.2033577 Z-0.159690211
N7545 X-0.779726374 Y-0.205353452 Z-0.160089722
N7550 X-0.768436597 Y-0.20672096 Z-0.160486848
N7555 X-0.75714682 Y-0.207467624 Z-0.160881966
N7560 X-0.745857044 Y-0.207633371 Z-0.161276258
N7565 X-0.250081228 Y-0.207635418 Z-0.178589126
N7570 X-0.250000034 Y-0.207568604 Z-0.178592806
N7575 Y0.047499983 Z-0.187499992
N7580 Y0.207568567 F5.
N7585 X-0.250081228 Y0.20763538
N7590 X-0.745857044 Y0.207633334
N7595 X-0.75714682 Y0.207467605
N7600 X-0.768436597 Y0.206720923
N7605 X-0.779726374 Y0.205353414
N7610 X-0.791016226 Y0.203352951
N7615 X-0.802306003 Y0.200668846
N7620 X-0.813595779 Y0.197181908
N7625 X-0.824885556 Y0.193013525
N7630 X-0.827299554 Y0.192059982
N7635 X-0.836175333 Y0.188084925
N7640 X-0.841820259 Y0.185221725
N7645 X-0.847465185 Y0.182264734
N7650 X-0.85002336 Y0.18076234
N7655 X-0.858754962 Y0.175416
N7660 X-0.867363937 Y0.169464697
N7665 X-0.870044738 Y0.167488808
N7670 X-0.881633984 Y0.158167054
N7675 X-0.887129175 Y0.15315053
N7680 X-0.892624367 Y0.147821838
N7685 X-0.893558968 Y0.146869402
N7690 X-0.898781724 Y0.141220571
N7695 X-0.903914144 Y0.13523971
N7700 X-0.912350782 Y0.124274098
N7705 X-0.91520392 Y0.120264282
N7710 X-0.919968087 Y0.112976455
N7715 X-0.926493697 Y0.101633335
N7720 X-0.929343456 Y0.096007248
N7725 X-0.932025985 Y0.09038116
N7730 X-0.936776109 Y0.079083508
N7735 X-0.937783474 Y0.076361223
N7740 X-0.940673182 Y0.067785861
N7745 X-0.943910644 Y0.056488214
N7750 X-0.945266213 Y0.050839388
N7755 X-0.946398833 Y0.045190566
N7760 X-0.948258347 Y0.033892916
N7765 X-0.949073326 Y0.026700013
N7770 X-0.949436023 Y0.022595269
N7775 X-0.949966175 Y0.011297619
N7780 X-0.949999967 Y-0.00000003
N7785 X-0.949966175 Y-0.011297679
N7790 X-0.949436023 Y-0.022595328
N7795 X-0.949073326 Y-0.026700044
N7800 X-0.948258347 Y-0.033892975
N7805 X-0.946398833 Y-0.045190627
N7810 X-0.945266213 Y-0.050839449
N7815 X-0.943910644 Y-0.056488275
N7820 X-0.940673107 Y-0.067785922
N7825 X-0.937783474 Y-0.076361256
N7830 X-0.936776034 Y-0.079083565
N7835 X-0.932025909 Y-0.090381217
N7840 X-0.929343456 Y-0.096007295
N7845 X-0.926468166 Y-0.101678869
N7850 X-0.919968087 Y-0.112976512
N7855 X-0.91520392 Y-0.12026432
N7860 X-0.912350782 Y-0.124274164
N7865 X-0.90364734 Y-0.135571806
N7870 X-0.898781724 Y-0.141220637
N7875 X-0.893558968 Y-0.146869459
N7880 X-0.892624367 Y-0.147821875
N7885 X-0.8871291 Y-0.153150577
N7890 X-0.881334515 Y-0.158417582
N7895 X-0.870044738 Y-0.167488827
N7900 X-0.867363937 Y-0.169464753
N7905 X-0.858754962 Y-0.175416038
N7910 X-0.850023285 Y-0.180762396
N7915 X-0.847465185 Y-0.182264752
N7920 X-0.841820259 Y-0.185221743
N7925 X-0.836175333 Y-0.188084963
N7930 X-0.827299478 Y-0.192060058
N7935 X-0.824885556 Y-0.193013563
N7940 X-0.813595779 Y-0.197181946
N7945 X-0.802306003 Y-0.200668864
N7950 X-0.79099137 Y-0.2033577
N7955 X-0.779726374 Y-0.205353452
N7960 X-0.768436597 Y-0.20672096
N7965 X-0.75714682 Y-0.207467624
N7970 X-0.745857044 Y-0.207633371
N7975 X-0.250081228 Y-0.207635418
N7980 X-0.250000034 Y-0.207568604
N7985 Y0.047499983
N7990 G3 X-0.300000033 Y0.097499983 I-0.049999999 J0. F15.
N7995 G18 G3 X-0.350000051 Z-0.137499993 I0. K0.049999999
N8000 G0 Z0.599999991
N8005 G17
N8010 G53 G0 Z0.
N8015 M30
%
