%
(HAND RAIL MORTISE)
(T1  D=0.5 CR=0. - ZMIN=-0.799999988 - FLAT END MILL)
N10 G90 G94 G17 G91.1
N15 G20
N20 G53 G0 Z0.
(SLOT1)
N25 M9
N30 T1 M6
N35 S3000 M3
N40 G54
N45 M8
N50 G0 X-0.3125 Y0.499999992
N55 G43 Z0.590551181 H1
N60 G0 Z0.196850394
N65 G1 Z0.098425197 F15.37
N70 X0.3125 Z0.057587689 F5.
N75 X-0.3125 Z0.016750179
N80 X0.3125 Z-0.02408733
N85 X-0.3125 Z-0.064924838
N90 X0.3125 Z-0.10576235
N95 X-0.3125 Z-0.146599858
N100 X0.3125 Z-0.187437365
N105 X-0.3125 Z-0.228274882
N110 X0.3125 Z-0.26911238
N115 X-0.3125 Z-0.309949897
N120 X0.3125 Z-0.350787396
N125 X-0.3125 Z-0.391624894
N130 X0.3125 Z-0.432462429
N135 X-0.3125 Z-0.473299928
N140 X0.3125 Z-0.514137426
N145 X-0.3125 Z-0.554974961
N150 X0.3125 Z-0.59581246
N155 X-0.3125 Z-0.636649995
N160 X0.3125 Z-0.677487456
N165 X-0.3125 Z-0.718324992
N170 X0.3125 Z-0.759162527
N175 X-0.3125 Z-0.799999988
N180 X0.3125
N185 X-0.3125
N190 G0 Z0.196850394
N195 Y-0.499999992
N200 G1 Z0.098425197 F15.37
N205 X0.3125 Z0.057587689 F5.
N210 X-0.3125 Z0.016750179
N215 X0.3125 Z-0.02408733
N220 X-0.3125 Z-0.064924838
N225 X0.3125 Z-0.10576235
N230 X-0.3125 Z-0.146599858
N235 X0.3125 Z-0.187437365
N240 X-0.3125 Z-0.228274882
N245 X0.3125 Z-0.26911238
N250 X-0.3125 Z-0.309949897
N255 X0.3125 Z-0.350787396
N260 X-0.3125 Z-0.391624894
N265 X0.3125 Z-0.432462429
N270 X-0.3125 Z-0.473299928
N275 X0.3125 Z-0.514137426
N280 X-0.3125 Z-0.554974961
N285 X0.3125 Z-0.59581246
N290 X-0.3125 Z-0.636649995
N295 X0.3125 Z-0.677487456
N300 X-0.3125 Z-0.718324992
N305 X0.3125 Z-0.759162527
N310 X-0.3125 Z-0.799999988
N315 X0.3125
N320 X-0.3125
N325 G0 Z0.590551181
N330 M9
N335 G53 Z0.
N340 M30
%
