%
(HAND RAIL TENNON GUIDE)
(T1  D=0.5 CR=0. - ZMIN=-0.799999988 - FLAT END MILL)
N10 G90 G94 G17 G91.1
N15 G20
N20 G53 G0 Z0.
(SLOT1)
N25 M9
N30 T1 M6
N35 S3000 M3
N40 G54
N45 G0 X-0.3125 Y0.499999992
N50 G43 Z0.590551181 H1
N55 G0 Z0.196850394
N60 G1 Z0.098425197 F15.37
N65 X0.3125 Z0.057587689 F15.
N70 X-0.3125 Z0.016750179
N75 X0.3125 Z-0.02408733
N80 X-0.3125 Z-0.064924838
N85 X0.3125 Z-0.10576235
N90 X-0.3125 Z-0.146599858
N95 X0.3125 Z-0.187437365
N100 X-0.3125 Z-0.228274882
N105 X0.3125 Z-0.26911238
N110 X-0.3125 Z-0.309949897
N115 X0.3125 Z-0.350787396
N120 X-0.3125 Z-0.391624894
N125 X0.3125 Z-0.432462429
N130 X-0.3125 Z-0.473299928
N135 X0.3125 Z-0.514137426
N140 X-0.3125 Z-0.554974961
N145 X0.3125 Z-0.59581246
N150 X-0.3125 Z-0.636649995
N155 X0.3125 Z-0.677487456
N160 X-0.3125 Z-0.718324992
N165 X0.3125 Z-0.759162527
N170 X-0.3125 Z-0.799999988
N175 X0.3125
N180 X-0.3125
N185 G0 Z0.196850394
N190 Y-0.499999992
N195 G1 Z0.098425197 F15.37
N200 X0.3125 Z0.057587689 F15.
N205 X-0.3125 Z0.016750179
N210 X0.3125 Z-0.02408733
N215 X-0.3125 Z-0.064924838
N220 X0.3125 Z-0.10576235
N225 X-0.3125 Z-0.146599858
N230 X0.3125 Z-0.187437365
N235 X-0.3125 Z-0.228274882
N240 X0.3125 Z-0.26911238
N245 X-0.3125 Z-0.309949897
N250 X0.3125 Z-0.350787396
N255 X-0.3125 Z-0.391624894
N260 X0.3125 Z-0.432462429
N265 X-0.3125 Z-0.473299928
N270 X0.3125 Z-0.514137426
N275 X-0.3125 Z-0.554974961
N280 X0.3125 Z-0.59581246
N285 X-0.3125 Z-0.636649995
N290 X0.3125 Z-0.677487456
N295 X-0.3125 Z-0.718324992
N300 X0.3125 Z-0.759162527
N305 X-0.3125 Z-0.799999988
N310 X0.3125
N315 X-0.3125
N320 G0 Z0.590551181
N325 G53 Z0.
N330 M30
%
