%
(HAND RAIL DOUBLE MORTISE)
(T1  D=0.5 CR=0. - ZMIN=-0.8 - FLAT END MILL)
N10 G90 G94 G17 G91.1
N15 G20
N20 G53 G0 Z0.
(SLOT1)
N25 T1 M6
N30 S3000 M3
N35 G54
N40 G0 X-0.3125 Y0.5
N45 G43 Z0.5906 H1
N50 G0 Z0.1969
N55 G1 Z0.0984 F15.37
N60 X0.3125 Z0.0576 F15.
N65 X-0.3125 Z0.0168
N70 X0.3125 Z-0.0241
N75 X-0.3125 Z-0.0649
N80 X0.3125 Z-0.1058
N85 X-0.3125 Z-0.1466
N90 X0.3125 Z-0.1874
N95 X-0.3125 Z-0.2283
N100 X0.3125 Z-0.2691
N105 X-0.3125 Z-0.3099
N110 X0.3125 Z-0.3508
N115 X-0.3125 Z-0.3916
N120 X0.3125 Z-0.4325
N125 X-0.3125 Z-0.4733
N130 X0.3125 Z-0.5141
N135 X-0.3125 Z-0.555
N140 X0.3125 Z-0.5958
N145 X-0.3125 Z-0.6366
N150 X0.3125 Z-0.6775
N155 X-0.3125 Z-0.7183
N160 X0.3125 Z-0.7592
N165 X-0.3125 Z-0.8
N170 X0.3125
N175 X-0.3125
N180 G0 Z0.1969
N185 Y-0.5
N190 G1 Z0.0984 F15.37
N195 X0.3125 Z0.0576 F15.
N200 X-0.3125 Z0.0168
N205 X0.3125 Z-0.0241
N210 X-0.3125 Z-0.0649
N215 X0.3125 Z-0.1058
N220 X-0.3125 Z-0.1466
N225 X0.3125 Z-0.1874
N230 X-0.3125 Z-0.2283
N235 X0.3125 Z-0.2691
N240 X-0.3125 Z-0.3099
N245 X0.3125 Z-0.3508
N250 X-0.3125 Z-0.3916
N255 X0.3125 Z-0.4325
N260 X-0.3125 Z-0.4733
N265 X0.3125 Z-0.5141
N270 X-0.3125 Z-0.555
N275 X0.3125 Z-0.5958
N280 X-0.3125 Z-0.6366
N285 X0.3125 Z-0.6775
N290 X-0.3125 Z-0.7183
N295 X0.3125 Z-0.7592
N300 X-0.3125 Z-0.8
N305 X0.3125
N310 X-0.3125
N315 G0 Z0.5906
N320 G53 Z0.
N325 M30
%
