%
(MORTISE3)
(T2  D=0.5 CR=0. - ZMIN=-0.8 - FLAT END MILL)
N10 G90 G94 G17 G91.1
N15 G20
N20 G53 G0 Z0.
(SLOT1)
N25 T2 M6
N30 S3000 M3
N35 G54
N40 G0 X-5.6665 Y0.
N45 G43 Z0.75 H2
N50 G0 Z0.1
N55 G1 X-5.0415 Z0.0813 F15.
N60 X-5.6665 Z0.0625
N65 X-5.0415 Z0.0438
N70 X-5.6665 Z0.025
N75 X-5.0415 Z0.0062
N80 X-5.6665 Z-0.0125
N85 X-5.0415 Z-0.0312
N90 X-5.6665 Z-0.05
N95 X-5.0415
N100 X-5.6665
N105 X-5.0415 Z-0.0708
N110 X-5.6665 Z-0.0917
N115 X-5.0415 Z-0.1125
N120 X-5.6665 Z-0.1333
N125 X-5.0415 Z-0.1542
N130 X-5.6665 Z-0.175
N135 X-5.0415 Z-0.1958
N140 X-5.6665 Z-0.2167
N145 X-5.0415 Z-0.2375
N150 X-5.6665 Z-0.2583
N155 X-5.0415 Z-0.2792
N160 X-5.6665 Z-0.3
N165 X-5.0415
N170 X-5.6665
N175 X-5.0415 Z-0.3208
N180 X-5.6665 Z-0.3417
N185 X-5.0415 Z-0.3625
N190 X-5.6665 Z-0.3833
N195 X-5.0415 Z-0.4042
N200 X-5.6665 Z-0.425
N205 X-5.0415 Z-0.4458
N210 X-5.6665 Z-0.4667
N215 X-5.0415 Z-0.4875
N220 X-5.6665 Z-0.5083
N225 X-5.0415 Z-0.5292
N230 X-5.6665 Z-0.55
N235 X-5.0415
N240 X-5.6665
N245 X-5.0415 Z-0.5708
N250 X-5.6665 Z-0.5917
N255 X-5.0415 Z-0.6125
N260 X-5.6665 Z-0.6333
N265 X-5.0415 Z-0.6542
N270 X-5.6665 Z-0.675
N275 X-5.0415 Z-0.6958
N280 X-5.6665 Z-0.7167
N285 X-5.0415 Z-0.7375
N290 X-5.6665 Z-0.7583
N295 X-5.0415 Z-0.7792
N300 X-5.6665 Z-0.8
N305 X-5.0415
N310 X-5.6665
N315 G0 Z0.75
N320 X-0.3125
N325 Z0.1
N330 G1 X0.3125 Z0.0813 F15.
N335 X-0.3125 Z0.0625
N340 X0.3125 Z0.0438
N345 X-0.3125 Z0.025
N350 X0.3125 Z0.0062
N355 X-0.3125 Z-0.0125
N360 X0.3125 Z-0.0312
N365 X-0.3125 Z-0.05
N370 X0.3125
N375 X-0.3125
N380 X0.3125 Z-0.0708
N385 X-0.3125 Z-0.0917
N390 X0.3125 Z-0.1125
N395 X-0.3125 Z-0.1333
N400 X0.3125 Z-0.1542
N405 X-0.3125 Z-0.175
N410 X0.3125 Z-0.1958
N415 X-0.3125 Z-0.2167
N420 X0.3125 Z-0.2375
N425 X-0.3125 Z-0.2583
N430 X0.3125 Z-0.2792
N435 X-0.3125 Z-0.3
N440 X0.3125
N445 X-0.3125
N450 X0.3125 Z-0.3208
N455 X-0.3125 Z-0.3417
N460 X0.3125 Z-0.3625
N465 X-0.3125 Z-0.3833
N470 X0.3125 Z-0.4042
N475 X-0.3125 Z-0.425
N480 X0.3125 Z-0.4458
N485 X-0.3125 Z-0.4667
N490 X0.3125 Z-0.4875
N495 X-0.3125 Z-0.5083
N500 X0.3125 Z-0.5292
N505 X-0.3125 Z-0.55
N510 X0.3125
N515 X-0.3125
N520 X0.3125 Z-0.5708
N525 X-0.3125 Z-0.5917
N530 X0.3125 Z-0.6125
N535 X-0.3125 Z-0.6333
N540 X0.3125 Z-0.6542
N545 X-0.3125 Z-0.675
N550 X0.3125 Z-0.6958
N555 X-0.3125 Z-0.7167
N560 X0.3125 Z-0.7375
N565 X-0.3125 Z-0.7583
N570 X0.3125 Z-0.7792
N575 X-0.3125 Z-0.8
N580 X0.3125
N585 X-0.3125
N590 G0 Z0.75
N595 X5.0415
N600 Z0.1
N605 G1 X5.6665 Z0.0813 F15.
N610 X5.0415 Z0.0625
N615 X5.6665 Z0.0438
N620 X5.0415 Z0.025
N625 X5.6665 Z0.0062
N630 X5.0415 Z-0.0125
N635 X5.6665 Z-0.0312
N640 X5.0415 Z-0.05
N645 X5.6665
N650 X5.0415
N655 X5.6665 Z-0.0708
N660 X5.0415 Z-0.0917
N665 X5.6665 Z-0.1125
N670 X5.0415 Z-0.1333
N675 X5.6665 Z-0.1542
N680 X5.0415 Z-0.175
N685 X5.6665 Z-0.1958
N690 X5.0415 Z-0.2167
N695 X5.6665 Z-0.2375
N700 X5.0415 Z-0.2583
N705 X5.6665 Z-0.2792
N710 X5.0415 Z-0.3
N715 X5.6665
N720 X5.0415
N725 X5.6665 Z-0.3208
N730 X5.0415 Z-0.3417
N735 X5.6665 Z-0.3625
N740 X5.0415 Z-0.3833
N745 X5.6665 Z-0.4042
N750 X5.0415 Z-0.425
N755 X5.6665 Z-0.4458
N760 X5.0415 Z-0.4667
N765 X5.6665 Z-0.4875
N770 X5.0415 Z-0.5083
N775 X5.6665 Z-0.5292
N780 X5.0415 Z-0.55
N785 X5.6665
N790 X5.0415
N795 X5.6665 Z-0.5708
N800 X5.0415 Z-0.5917
N805 X5.6665 Z-0.6125
N810 X5.0415 Z-0.6333
N815 X5.6665 Z-0.6542
N820 X5.0415 Z-0.675
N825 X5.6665 Z-0.6958
N830 X5.0415 Z-0.7167
N835 X5.6665 Z-0.7375
N840 X5.0415 Z-0.7583
N845 X5.6665 Z-0.7792
N850 X5.0415 Z-0.8
N855 X5.6665
N860 X5.0415
N865 G0 Z0.75
N870 G53 Z0.
N875 M30
%
