%
(MORTISE GUIDE)
(T1  D=0.5 CR=0. - ZMIN=-0.625 - FLAT END MILL)
N10 G90 G94 G17 G91.1
N15 G20
N20 G53 G0 Z0.
(2D POCKET1)
N25 M9
N30 T1 M6
N35 S3000 M3
N40 G54
N45 G0 X0.02183619 Y-0.457499985
N50 G43 Z0.599999991 H1
N55 G0 Z0.199999997
N60 G1 Z0.149969491 F15.37
N65 G18 G3 X-0.026418837 Z0.099999998 I-0.049999999 K0.000000047 F10.457
N70 G1 X-0.312499606 Z0.090009838
N75 G17 G3 X-0.35499982 Y-0.499999908 Z0.087678564 I-0.000000207 J-0.042500008
N80 X-0.312499775 Y-0.5425 Z0.08534729 I0.042500008 J-0.000000084
N85 G1 X0.3125003 Z0.063521806
N90 G3 X0.312500169 Y-0.457499985 Z0.058859268 I-0.000000113 J0.042500008
N95 G1 X-0.312499606 Z0.037033797
N100 G3 X-0.35499982 Y-0.499999908 Z0.034702522 I-0.000000207 J-0.042500008
N105 X-0.312499775 Y-0.5425 Z0.032371247 I0.042500008 J-0.000000084
N110 G1 X0.3125003 Z0.010545764
N115 G3 X0.312500169 Y-0.457499985 Z0.005883227 I-0.000000113 J0.042500008
N120 G1 X-0.312499606 Z-0.015942245
N125 G3 X-0.35499982 Y-0.499999908 Z-0.018273519 I-0.000000207 J-0.042500008
N130 X-0.312499775 Y-0.5425 Z-0.020604793 I0.042500008 J-0.000000084
N135 G1 X0.3125003 Z-0.04243028
N140 G3 X0.312500169 Y-0.457499985 Z-0.047092813 I-0.000000113 J0.042500008
N145 G1 X-0.312499606 Z-0.068918288
N150 G3 X-0.35499982 Y-0.499999908 Z-0.071249562 I-0.000000207 J-0.042500008
N155 X-0.312499775 Y-0.5425 Z-0.073580836 I0.042500008 J-0.000000084
N160 G1 X0.3125003 Z-0.09540632
N165 G3 X0.312500169 Y-0.457499985 Z-0.100068858 I-0.000000113 J0.042500008
N170 G1 X-0.312499606 Z-0.121894333
N175 G3 X-0.35499982 Y-0.499999908 Z-0.124225607 I-0.000000207 J-0.042500008
N180 X-0.312499775 Y-0.5425 Z-0.126556881 I0.042500008 J-0.000000084
N185 G1 X0.3125003 Z-0.148382365
N190 G3 X0.312500169 Y-0.457499985 Z-0.153044903 I-0.000000113 J0.042500008
N195 G1 X-0.312499606 Z-0.174870378
N200 G3 X-0.35499982 Y-0.499999908 Z-0.177201652 I-0.000000207 J-0.042500008
N205 X-0.312499775 Y-0.5425 Z-0.179532926 I0.042500008 J-0.000000084
N210 G1 X0.3125003 Z-0.201358401
N215 G3 X0.312500169 Y-0.457499985 Z-0.206020948 I-0.000000113 J0.042500008
N220 G1 X-0.312499606 Z-0.227846423
N225 G3 X-0.35499982 Y-0.499999908 Z-0.230177697 I-0.000000207 J-0.042500008
N230 X-0.312499775 Y-0.5425 Z-0.232508971 I0.042500008 J-0.000000084
N235 G1 X0.3125003 Z-0.254334446
N240 G3 X0.312500169 Y-0.457499985 Z-0.258996994 I-0.000000113 J0.042500008
N245 G1 X-0.312499606 Z-0.280822469
N250 G3 X-0.35499982 Y-0.499999908 Z-0.283153742 I-0.000000207 J-0.042500008
N255 X-0.312499775 Y-0.5425 Z-0.285485016 I0.042500008 J-0.000000084
N260 G1 X0.3125003 Z-0.307310491
N265 G3 X0.312500169 Y-0.457499985 Z-0.31197302 I-0.000000113 J0.042500008
N270 G1 X-0.312499606 Z-0.333798514
N275 G3 X-0.35499982 Y-0.499999908 Z-0.336129778 I-0.000000207 J-0.042500008
N280 X-0.312499775 Y-0.5425 Z-0.338461042 I0.042500008 J-0.000000084
N285 G1 X0.3125003 Z-0.360286517
N290 G3 X0.312500169 Y-0.457499985 Z-0.364949084 I-0.000000113 J0.042500008
N295 G1 X-0.312499606 Z-0.386774559
N300 G3 X-0.35499982 Y-0.499999908 Z-0.389105823 I-0.000000207 J-0.042500008
N305 X-0.312499775 Y-0.5425 Z-0.391437087 I0.042500008 J-0.000000084
N310 G1 X0.3125003 Z-0.413262562
N315 G3 X0.312500169 Y-0.457499985 Z-0.417925129 I-0.000000113 J0.042500008
N320 G1 X-0.312499606 Z-0.439750604
N325 G3 X-0.35499982 Y-0.499999908 Z-0.442081868 I-0.000000207 J-0.042500008
N330 X-0.312499775 Y-0.5425 Z-0.444413133 I0.042500008 J-0.000000084
N335 G1 X0.3125003 Z-0.466238608
N340 G3 X0.312500169 Y-0.457499985 Z-0.470901174 I-0.000000113 J0.042500008
N345 G1 X-0.312499606 Z-0.492726611
N350 G3 X-0.35499982 Y-0.499999908 Z-0.495057894 I-0.000000207 J-0.042500008
N355 X-0.312499775 Y-0.5425 Z-0.497389178 I0.042500008 J-0.000000084
N360 G1 X0.3125003 Z-0.519214653
N365 G3 X0.312500169 Y-0.457499985 Z-0.523877181 I-0.000000113 J0.042500008
N370 G1 X-0.312499606 Z-0.545702656
N375 G3 X-0.35499982 Y-0.499999908 Z-0.54803394 I-0.000000207 J-0.042500008
N380 X-0.312499775 Y-0.5425 Z-0.550365223 I0.042500008 J-0.000000084
N385 G1 X0.3125003 Z-0.572190698
N390 G3 X0.312500169 Y-0.457499985 Z-0.576853226 I-0.000000113 J0.042500008
N395 G1 X-0.312499606 Z-0.598678702
N400 G3 X-0.35499982 Y-0.499999908 Z-0.601009985 I-0.000000207 J-0.042500008
N405 X-0.312499775 Y-0.5425 Z-0.603341268 I0.042500008 J-0.000000084
N410 G1 X-0.264999773 Z-0.604999985
N415 X0.3125003 F10.37
N420 G3 X0.312500169 Y-0.457499985 I-0.000000113 J0.042500008
N425 G1 X-0.312499606
N430 G3 X-0.35499982 Y-0.499999908 I-0.000000207 J-0.042500008
N435 X-0.312499775 Y-0.5425 I0.042500008 J-0.000000084
N440 G1 X-0.264999773
N445 G18 G2 X-0.214999773 Z-0.555000042 I0. K0.04999998 F15.37
N450 G0 Z0.199999997
N455 X-0.155353706 Y0.457499985
N460 G1 Z0.149969491 F15.37
N465 G2 X-0.107098686 Z0.099999998 I0.049999999 K0.000000047 F10.457
N470 G1 X0.3125 Z0.08534729
N475 G17 G3 Y0.5425 Z0.080684752 I0. J0.042500008
N480 G1 X-0.3125 Z0.058859268
N485 G3 Y0.457499985 Z0.054196729 I0. J-0.042500008
N490 G1 X0.3125 Z0.032371247
N495 G3 Y0.5425 Z0.027708709 I0. J0.042500008
N500 G1 X-0.3125 Z0.005883227
N505 G3 Y0.457499985 Z0.001220687 I0. J-0.042500008
N510 G1 X0.3125 Z-0.020604793
N515 G3 Y0.5425 Z-0.025267333 I0. J0.042500008
N520 G1 X-0.3125 Z-0.047092813
N525 G3 Y0.457499985 Z-0.051755356 I0. J-0.042500008
N530 G1 X0.3125 Z-0.073580836
N535 G3 Y0.5425 Z-0.078243379 I0. J0.042500008
N540 G1 X-0.3125 Z-0.100068858
N545 G3 Y0.457499985 Z-0.104731396 I0. J-0.042500008
N550 G1 X0.3125 Z-0.126556881
N555 G3 Y0.5425 Z-0.131219419 I0. J0.042500008
N560 G1 X-0.3125 Z-0.153044903
N565 G3 Y0.457499985 Z-0.157707432 I0. J-0.042500008
N570 G1 X0.3125 Z-0.179532926
N575 G3 Y0.5425 Z-0.184195455 I0. J0.042500008
N580 G1 X-0.3125 Z-0.206020948
N585 G3 Y0.457499985 Z-0.210683477 I0. J-0.042500008
N590 G1 X0.3125 Z-0.232508971
N595 G3 Y0.5425 Z-0.2371715 I0. J0.042500008
N600 G1 X-0.3125 Z-0.258996994
N605 G3 Y0.457499985 Z-0.263659522 I0. J-0.042500008
N610 G1 X0.3125 Z-0.285485016
N615 G3 Y0.5425 Z-0.290147545 I0. J0.042500008
N620 G1 X-0.3125 Z-0.31197302
N625 G3 Y0.457499985 Z-0.316635567 I0. J-0.042500008
N630 G1 X0.3125 Z-0.338461042
N635 G3 Y0.5425 Z-0.343123609 I0. J0.042500008
N640 G1 X-0.3125 Z-0.364949084
N645 G3 Y0.457499985 Z-0.369611612 I0. J-0.042500008
N650 G1 X0.3125 Z-0.391437087
N655 G3 Y0.5425 Z-0.396099616 I0. J0.042500008
N660 G1 X-0.3125 Z-0.417925129
N665 G3 Y0.457499985 Z-0.422587658 I0. J-0.042500008
N670 G1 X0.3125 Z-0.444413133
N675 G3 Y0.5425 Z-0.449075661 I0. J0.042500008
N680 G1 X-0.3125 Z-0.470901174
N685 G3 Y0.457499985 Z-0.475563703 I0. J-0.042500008
N690 G1 X0.3125 Z-0.497389178
N695 G3 Y0.5425 Z-0.502051706 I0. J0.042500008
N700 G1 X-0.3125 Z-0.523877181
N705 G3 Y0.457499985 Z-0.528539748 I0. J-0.042500008
N710 G1 X0.3125 Z-0.550365223
N715 G3 Y0.5425 Z-0.555027751 I0. J0.042500008
N720 G1 X-0.3125 Z-0.576853226
N725 G3 Y0.457499985 Z-0.581515793 I0. J-0.042500008
N730 G1 X0.3125 Z-0.603341268
N735 G3 X0.350710576 Y0.481393544 Z-0.604999985 I0. J0.042500008
N740 X0.3125 Y0.5425 I-0.038210576 J0.018606449 F10.37
N745 G1 X-0.3125
N750 G3 Y0.457499985 I0. J-0.042500008
N755 G1 X0.3125
N760 G3 X0.350710576 Y0.481393544 I0. J0.042500008
N765 G1 X0.352600811 Y0.485922547 Z-0.604513011 F15.37
N770 X0.353956335 Y0.490639266 Z-0.604026036
N775 X0.354738285 Y0.495290628 Z-0.602584092
N780 X0.355000008 Y0.499999992 Z-0.601142147
N785 G3 X0.353777653 Y0.510119566 Z-0.595387286 I-0.042500008 J0.
N790 G1 X0.352545072 Y0.51423528 Z-0.591399031
N795 X0.350903263 Y0.518205523 Z-0.587410777
N800 X0.3493997 Y0.521087021 Z-0.582531099
N805 X0.347680332 Y0.523845192 Z-0.577651422
N810 X0.345251879 Y0.527084381 Z-0.566646058
N815 X0.344358504 Y0.528129818 Z-0.555000042
N820 G0 Z0.599999991
(2D CONTOUR2)
N825 G0 X0.221634268 Y-0.543584786
N830 Z0.599999991
N835 Z0.199999997
N840 G1 Z0.039370079 F3.457
N845 Z-0.575000057
N850 X0.221947853 Y-0.543607372 Z-0.580598277
N855 X0.222884647 Y-0.543674846 Z-0.586126094
N860 X0.224432871 Y-0.543786359 Z-0.591513995
N865 X0.226573054 Y-0.543940509 Z-0.596694223
N870 X0.229278282 Y-0.544135356 Z-0.601601634
N875 X0.232514536 Y-0.544368452 Z-0.606174515
N880 X0.236241118 Y-0.544636863 Z-0.610355358
N885 X0.240411164 Y-0.544937216 Z-0.614091588
N890 X0.244972234 Y-0.545265733 Z-0.617336219
N895 X0.249866969 Y-0.545618283 Z-0.620048449
N900 X0.255033815 Y-0.545990432 Z-0.622194169
N905 X0.260407797 Y-0.5463775 Z-0.623746396
N910 X0.265921334 Y-0.546774619 Z-0.62468561
N915 X0.271505089 Y-0.547176797 Z-0.624999999
N920 X0.321375892 Y-0.550768807 Z-0.625 F15.37
N925 G3 X0.374838724 Y-0.504489996 I0.003592011 J0.049870821
N930 X0.31250015 Y-0.437500008 I-0.062338536 J0.004490004 F10.37
N935 G1 X-0.312499606
N940 G3 X-0.374999816 Y-0.499999917 I-0.000000207 J-0.062499985
N945 X-0.312499756 Y-0.562500015 I0.062500004 J-0.000000075
N950 G1 X0.312500319
N955 G3 X0.374838724 Y-0.504489996 I-0.000000131 J0.062500023
N960 X0.328559913 Y-0.451027202 I-0.049870821 J0.003592011 F15.37
N965 G1 X0.278689092 Y-0.447435191
N970 X0.273105336 Y-0.447033014 Z-0.624685609
N975 X0.2675918 Y-0.446635894 Z-0.623746394
N980 X0.262217819 Y-0.446248826 Z-0.622194166
N985 X0.257050974 Y-0.445876677 Z-0.620048445
N990 X0.25215624 Y-0.445524128 Z-0.617336214
N995 X0.247595172 Y-0.445195611 Z-0.614091583
N1000 X0.243425128 Y-0.444895258 Z-0.610355352
N1005 X0.239698548 Y-0.444626846 Z-0.606174509
N1010 X0.236462296 Y-0.444393751 Z-0.601601628
N1015 X0.233757069 Y-0.444198903 Z-0.596694218
N1020 X0.231616888 Y-0.444044754 Z-0.591513991
N1025 X0.230068666 Y-0.443933241 Z-0.586126091
N1030 X0.229131873 Y-0.443865767 Z-0.580598275
N1035 X0.22881829 Y-0.443843181 Z-0.575000057
N1040 G0 X0.228818289 Z0.199999997
N1045 X0.225000006 Y0.450000012
N1050 G1 Z0.039370079 F3.457
N1055 Z-0.575000057
N1060 G18 G2 X0.275000005 Z-0.625 I0.049999999 K0.000000075
N1065 G1 X0.325000005 F15.37
N1070 G17 G3 X0.374999985 Y0.499999992 I0. J0.04999998
N1075 X0.3125 Y0.562500015 I-0.062499985 J0. F10.37
N1080 G1 X-0.3125
N1085 G3 Y0.437500008 I0. J-0.062500023
N1090 G1 X0.3125
N1095 G3 X0.374999985 Y0.499999992 I0. J0.062499985
N1100 X0.325000005 Y0.550000011 I-0.04999998 J0. F15.37
N1105 G1 X0.275000005
N1110 G18 G3 X0.225000006 Z-0.575000057 I0. K0.050000018
N1115 G0 Z0.599999991
N1120 G17
N1125 G53 G0 Z0.
N1130 M30
%
