%
(MORTISE)
(T2  D=0.5 CR=0. - ZMIN=-0.799999988 - FLAT END MILL)
N10 G90 G94 G17 G91.1
N15 G20
N20 G53 G0 Z0.
(SLOT1)
N25 M9
N30 T2 M6
N35 S3000 M3
N40 G54
N45 G0 X-0.3125 Y0.
N50 G43 Z0.599999991 H2
N55 G0 Z0.199999997
N60 G1 Z0.099999998 F15.
N65 X0.3125 Z0.078571429 F5.
N70 X-0.3125 Z0.057142856
N75 X0.3125 Z0.035714287
N80 X-0.3125 Z0.014285714
N85 X0.3125 Z-0.007142857
N90 X-0.3125 Z-0.028571428
N95 X0.3125 Z-0.049999999
N100 X-0.3125 Z-0.071428573
N105 X0.3125 Z-0.092857147
N110 X-0.3125 Z-0.114285711
N115 X0.3125 Z-0.135714285
N120 X-0.3125 Z-0.157142859
N125 X0.3125 Z-0.178571423
N130 X-0.3125 Z-0.199999997
N135 X0.3125 Z-0.221428571
N140 X-0.3125 Z-0.242857145
N145 X0.3125 Z-0.264285718
N150 X-0.3125 Z-0.285714292
N155 X0.3125 Z-0.307142866
N160 X-0.3125 Z-0.32857144
N165 X0.3125 Z-0.350000014
N170 X-0.3125 Z-0.371428587
N175 X0.3125 Z-0.392857161
N180 X-0.3125 Z-0.414285697
N185 X0.3125 Z-0.435714271
N190 X-0.3125 Z-0.457142845
N195 X0.3125 Z-0.478571419
N200 X-0.3125 Z-0.499999992
N205 X0.3125 Z-0.521428566
N210 X-0.3125 Z-0.54285714
N215 X0.3125 Z-0.564285714
N220 X-0.3125 Z-0.585714288
N225 X0.3125 Z-0.607142861
N230 X-0.3125 Z-0.628571435
N235 X0.3125 Z-0.650000009
N240 X-0.3125 Z-0.671428545
N245 X0.3125 Z-0.692857157
N250 X-0.3125 Z-0.714285693
N255 X0.3125 Z-0.735714304
N260 X-0.3125 Z-0.75714284
N265 X0.3125 Z-0.778571452
N270 X-0.3125 Z-0.799999988
N275 X0.3125 F15.
N280 X-0.3125
N285 G0 Z0.599999991
N290 G53 Z0.
N295 M30
%
