%
(MOTOR MOUNT PLATE)
(T1  D=0.25 CR=0. - ZMIN=-0.2894 - FLAT END MILL)
N10 G90 G94 G17 G91.1
N15 G20
N20 G53 G0 Z0.
(2D ADAPTIVE1)
N25 T1 M6
N30 S4000 M3
N35 G54
N40 G0 X0.1148 Y0.0302
N45 G43 Z0.5906 H1
N50 G0 Z0.1969
N55 Z0.1004
N60 G3 X-0.1148 Y-0.0302 Z0.0874 I-0.1148 J-0.0302 F10.
N65 X0.1148 Y0.0302 Z0.0743 I0.1148 J0.0302
N70 X-0.1148 Y-0.0302 Z0.0613 I-0.1148 J-0.0302
N75 X0.1148 Y0.0302 Z0.0483 I0.1148 J0.0302
N80 X-0.1148 Y-0.0302 Z0.0353 I-0.1148 J-0.0302
N85 X0.1148 Y0.0302 Z0.0222 I0.1148 J0.0302
N90 X-0.1148 Y-0.0302 Z0.0092 I-0.1148 J-0.0302
N95 X0.1148 Y0.0302 Z-0.0038 I0.1148 J0.0302
N100 X-0.1148 Y-0.0302 Z-0.0169 I-0.1148 J-0.0302
N105 X0.1148 Y0.0302 Z-0.0299 I0.1148 J0.0302
N110 X-0.1148 Y-0.0302 Z-0.0429 I-0.1148 J-0.0302
N115 X0.1148 Y0.0302 Z-0.0559 I0.1148 J0.0302
N120 X-0.1148 Y-0.0302 Z-0.069 I-0.1148 J-0.0302
N125 X0.1148 Y0.0302 Z-0.082 I0.1148 J0.0302
N130 X-0.1148 Y-0.0302 Z-0.095 I-0.1148 J-0.0302
N135 X0.1148 Y0.0302 Z-0.108 I0.1148 J0.0302
N140 X-0.1148 Y-0.0302 Z-0.1211 I-0.1148 J-0.0302
N145 X0.1148 Y0.0302 Z-0.1341 I0.1148 J0.0302
N150 X-0.1148 Y-0.0302 Z-0.1471 I-0.1148 J-0.0302
N155 X0.1148 Y0.0302 Z-0.1602 I0.1148 J0.0302
N160 X-0.1148 Y-0.0302 Z-0.1732 I-0.1148 J-0.0302
N165 X0.1148 Y0.0302 Z-0.1862 I0.1148 J0.0302
N170 X-0.1148 Y-0.0302 Z-0.1992 I-0.1148 J-0.0302
N175 X0.1148 Y0.0302 Z-0.2123 I0.1148 J0.0302
N180 X-0.1148 Y-0.0302 Z-0.2253 I-0.1148 J-0.0302
N185 X0.1148 Y0.0302 Z-0.2383 I0.1148 J0.0302
N190 X-0.1148 Y-0.0302 Z-0.2514 I-0.1148 J-0.0302
N195 X0.1148 Y0.0302 Z-0.2644 I0.1148 J0.0302
N200 X-0.1148 Y-0.0302 Z-0.2774 I-0.1148 J-0.0302
N205 X0.1187 Y0. Z-0.2894 I0.1148 J0.0302
N210 X-0.1187 I-0.1187 J0.
N215 X0.1187 I0.1187 J0.
N220 G1 X0.1189 Y0.009 F15.
N225 X0.125 Y0.0443
N230 X0.1271 Y0.0499
N235 X0.1286 Y0.0556
N240 X0.1295 Y0.0614
N245 X0.1299 Y0.0673
N250 X0.1297 Y0.0735
N255 X0.1291 Y0.0802
N260 X0.1278 Y0.0872
N265 X0.1258 Y0.0946
N270 X0.1231 Y0.1022
N275 X0.1196 Y0.11
N280 X0.1153 Y0.1178
N285 X0.1101 Y0.1257
N290 X0.1041 Y0.1334
N295 X0.0971 Y0.141
N300 X0.0893 Y0.1482
N305 X0.0806 Y0.155
N310 X0.0711 Y0.1614
N315 X0.0609 Y0.1671
N320 X0.0499 Y0.172
N325 X0.0382 Y0.1762
N330 X0.026 Y0.1795
N335 X0.0133 Y0.1819
N340 X0.0002 Y0.1833
N345 X-0.0132 Y0.1836
N350 X-0.0268 Y0.1828
N355 X-0.0405 Y0.181
N360 X-0.0541 Y0.178
N365 X-0.0676 Y0.1738
N370 X-0.0808 Y0.1686
N375 X-0.0937 Y0.1622
N380 X-0.1061 Y0.1548
N385 X-0.118 Y0.1463
N390 X-0.1292 Y0.1369
N395 X-0.1397 Y0.1266
N400 X-0.1493 Y0.1153
N405 X-0.1581 Y0.1033
N410 X-0.1659 Y0.0906
N415 X-0.1727 Y0.0773
N420 X-0.1784 Y0.0634
N425 X-0.1829 Y0.0491
N430 X-0.1864 Y0.0345
N435 X-0.1886 Y0.0195
N440 X-0.1896 Y0.0045
N445 X-0.1894 Y-0.0107
N450 X-0.188 Y-0.0257
N455 X-0.1854 Y-0.0407
N460 X-0.1816 Y-0.0554
N465 X-0.1766 Y-0.0697
N470 X-0.1705 Y-0.0836
N475 X-0.1633 Y-0.097
N480 X-0.155 Y-0.1098
N485 X-0.1458 Y-0.1219
N490 X-0.1356 Y-0.1332
N495 X-0.1245 Y-0.1436
N500 X-0.1126 Y-0.1531
N505 X-0.0999 Y-0.1617
N510 X-0.0866 Y-0.1692
N515 X-0.0728 Y-0.1756
N520 X-0.0585 Y-0.1809
N525 X-0.0438 Y-0.185
N530 X-0.0288 Y-0.1879
N535 X-0.0137 Y-0.1896
N540 X0.0016 Y-0.1901
N545 X0.0168 Y-0.1894
N550 X0.032 Y-0.1874
N555 X0.0469 Y-0.1843
N560 X0.0615 Y-0.1799
N565 X0.0758 Y-0.1744
N570 X0.0895 Y-0.1677
N575 X0.1027 Y-0.16
N580 X0.1152 Y-0.1513
N585 X0.127 Y-0.1415
N590 X0.1379 Y-0.1309
N595 X0.148 Y-0.1194
N600 X0.1571 Y-0.1071
N605 X0.1666 Y-0.092
N610 X0.1825 Y-0.0612
N615 X0.1928 Y-0.0367
N620 X0.1998 Y-0.0155
N625 X0.2044 Y0.0037
N630 X0.2073 Y0.0219
N635 X0.2086 Y0.0397
N640 Y0.0568
N645 X0.2072 Y0.0735
N650 X0.2044 Y0.0899
N655 X0.2005 Y0.1058
N660 X0.1952 Y0.1214
N665 X0.1887 Y0.1366
N670 X0.1809 Y0.1512
N675 X0.172 Y0.1654
N680 X0.1618 Y0.1788
N685 X0.1505 Y0.1915
N690 X0.138 Y0.2035
N695 X0.1245 Y0.2145
N700 X0.1099 Y0.2245
N705 X0.0943 Y0.2335
N710 X0.0779 Y0.2413
N715 X0.0606 Y0.2478
N720 X0.0427 Y0.253
N725 X0.0241 Y0.2568
N730 X0.0051 Y0.2591
N735 X-0.0143 Y0.2598
N740 X-0.0338 Y0.2591
N745 X-0.0534 Y0.2567
N750 X-0.0729 Y0.2527
N755 X-0.0922 Y0.2472
N760 X-0.1111 Y0.24
N765 X-0.1295 Y0.2313
N770 X-0.1473 Y0.2211
N775 X-0.1643 Y0.2094
N780 X-0.1803 Y0.1963
N785 X-0.1954 Y0.182
N790 X-0.2093 Y0.1663
N795 X-0.2219 Y0.1496
N800 X-0.2333 Y0.1318
N805 X-0.2431 Y0.1131
N810 X-0.2515 Y0.0936
N815 X-0.2583 Y0.0735
N820 X-0.2635 Y0.0528
N825 X-0.267 Y0.0318
N830 X-0.2688 Y0.0105
N835 X-0.2689 Y-0.011
N840 X-0.2673 Y-0.0324
N845 X-0.2639 Y-0.0536
N850 X-0.2589 Y-0.0745
N855 X-0.2521 Y-0.0949
N860 X-0.2438 Y-0.1148
N865 X-0.2339 Y-0.134
N870 X-0.2225 Y-0.1523
N875 X-0.2096 Y-0.1696
N880 X-0.1954 Y-0.1859
N885 X-0.1799 Y-0.2009
N890 X-0.1632 Y-0.2147
N895 X-0.1455 Y-0.2271
N900 X-0.1269 Y-0.2381
N905 X-0.1074 Y-0.2475
N910 X-0.0872 Y-0.2553
N915 X-0.0664 Y-0.2615
N920 X-0.0453 Y-0.266
N925 X-0.0238 Y-0.2688
N930 X-0.0022 Y-0.2698
N935 X0.0195 Y-0.2691
N940 X0.041 Y-0.2667
N945 X0.0623 Y-0.2626
N950 X0.0831 Y-0.2567
N955 X0.1035 Y-0.2492
N960 X0.1231 Y-0.2401
N965 X0.142 Y-0.2295
N970 X0.16 Y-0.2173
N975 X0.1773 Y-0.2035
N980 X0.1961 Y-0.1858
N985 X0.214 Y-0.166
N990 X0.2308 Y-0.1441
N995 X0.246 Y-0.1207
N1000 X0.259 Y-0.0965
N1005 X0.2698 Y-0.072
N1010 X0.2784 Y-0.0473
N1015 X0.2848 Y-0.0226
N1020 X0.2891 Y0.0021
N1025 X0.2914 Y0.0266
N1030 X0.2917 Y0.0509
N1035 X0.2901 Y0.0749
N1040 X0.2865 Y0.0986
N1045 X0.2811 Y0.1217
N1050 X0.2739 Y0.1443
N1055 X0.2649 Y0.1662
N1060 X0.2542 Y0.1873
N1065 X0.2418 Y0.2076
N1070 X0.2277 Y0.2269
N1075 X0.2121 Y0.245
N1080 X0.1949 Y0.262
N1085 X0.1763 Y0.2777
N1090 X0.1564 Y0.2919
N1095 X0.1352 Y0.3046
N1100 X0.1128 Y0.3156
N1105 X0.0895 Y0.3249
N1110 X0.0652 Y0.3323
N1115 X0.0403 Y0.3378
N1120 X0.0148 Y0.3413
N1125 X-0.0111 Y0.3428
N1130 X-0.0372 Y0.3422
N1135 X-0.0634 Y0.3395
N1140 X-0.0894 Y0.3346
N1145 X-0.1151 Y0.3277
N1150 X-0.1403 Y0.3186
N1155 X-0.1648 Y0.3075
N1160 X-0.1885 Y0.2944
N1165 X-0.2112 Y0.2793
N1170 X-0.2327 Y0.2624
N1175 X-0.2528 Y0.2438
N1180 X-0.2715 Y0.2235
N1185 X-0.2885 Y0.2017
N1190 X-0.3038 Y0.1785
N1195 X-0.3172 Y0.1541
N1200 X-0.3287 Y0.1287
N1205 X-0.338 Y0.1023
N1210 X-0.3453 Y0.0752
N1215 X-0.3504 Y0.0476
N1220 X-0.3532 Y0.0196
N1225 X-0.3538 Y-0.0086
N1230 X-0.3521 Y-0.0367
N1235 X-0.3482 Y-0.0647
N1240 X-0.342 Y-0.0923
N1245 X-0.3336 Y-0.1194
N1250 X-0.3231 Y-0.1457
N1255 X-0.3104 Y-0.1711
N1260 X-0.2958 Y-0.1954
N1265 X-0.2793 Y-0.2185
N1270 X-0.2609 Y-0.2401
N1275 X-0.2409 Y-0.2603
N1280 X-0.2193 Y-0.2788
N1285 X-0.1962 Y-0.2955
N1290 X-0.1719 Y-0.3103
N1295 X-0.1465 Y-0.3231
N1300 X-0.1202 Y-0.3338
N1305 X-0.093 Y-0.3424
N1310 X-0.0653 Y-0.3487
N1315 X-0.0371 Y-0.3529
N1320 X-0.0087 Y-0.3547
N1325 X0.0198 Y-0.3543
N1330 X0.0482 Y-0.3516
N1335 X0.0762 Y-0.3466
N1340 X0.1038 Y-0.3393
N1345 X0.1307 Y-0.3299
N1350 X0.1568 Y-0.3183
N1355 X0.1829 Y-0.3042
N1360 X0.2084 Y-0.2875
N1365 X0.2334 Y-0.2682
N1370 X0.2573 Y-0.2465
N1375 X0.2797 Y-0.2225
N1380 X0.3003 Y-0.1966
N1385 X0.3188 Y-0.1691
N1390 X0.3349 Y-0.1404
N1395 X0.3485 Y-0.1106
N1400 X0.3597 Y-0.0801
N1405 X0.3683 Y-0.0491
N1410 X0.3743 Y-0.0177
N1415 X0.3777 Y0.0137
N1420 X0.3787 Y0.0452
N1425 X0.3771 Y0.0764
N1430 X0.373 Y0.1072
N1435 X0.3664 Y0.1375
N1440 X0.3575 Y0.1671
N1445 X0.3463 Y0.1959
N1450 X0.3328 Y0.2237
N1455 X0.317 Y0.2503
N1460 X0.2992 Y0.2756
N1465 X0.2793 Y0.2996
N1470 X0.2574 Y0.3219
N1475 X0.2337 Y0.3425
N1480 X0.2083 Y0.3612
N1485 X0.1813 Y0.378
N1490 X0.1529 Y0.3926
N1495 X0.1233 Y0.4049
N1500 X0.0925 Y0.4149
N1505 X0.0609 Y0.4224
N1510 X0.0286 Y0.4274
N1515 X-0.0042 Y0.4299
N1520 X-0.0373 Y0.4296
N1525 X-0.0704 Y0.4267
N1530 X-0.1033 Y0.4211
N1535 X-0.1359 Y0.4129
N1540 X-0.1678 Y0.402
N1545 X-0.199 Y0.3885
N1550 X-0.229 Y0.3725
N1555 X-0.2578 Y0.3541
N1560 X-0.2851 Y0.3333
N1565 X-0.3108 Y0.3103
N1570 X-0.3346 Y0.2853
N1575 X-0.3564 Y0.2583
N1580 X-0.376 Y0.2296
N1585 X-0.3933 Y0.1994
N1590 X-0.4082 Y0.1677
N1595 X-0.4205 Y0.1349
N1600 X-0.4301 Y0.1012
N1605 X-0.437 Y0.0668
N1610 X-0.4411 Y0.0318
N1615 X-0.4424 Y-0.0034
N1620 X-0.4409 Y-0.0387
N1625 X-0.4365 Y-0.0737
N1630 X-0.4294 Y-0.1084
N1635 X-0.4195 Y-0.1424
N1640 X-0.4068 Y-0.1755
N1645 X-0.3916 Y-0.2075
N1650 X-0.3738 Y-0.2382
N1655 X-0.3536 Y-0.2673
N1660 X-0.3311 Y-0.2948
N1665 X-0.3064 Y-0.3204
N1670 X-0.2798 Y-0.344
N1675 X-0.2514 Y-0.3653
N1680 X-0.2213 Y-0.3843
N1685 X-0.1898 Y-0.4008
N1690 X-0.1571 Y-0.4148
N1695 X-0.1233 Y-0.4261
N1700 X-0.0888 Y-0.4346
N1705 X-0.0536 Y-0.4403
N1710 X-0.0181 Y-0.4432
N1715 X0.0175 Y-0.4433
N1720 X0.053 Y-0.4405
N1725 X0.0882 Y-0.4348
N1730 X0.123 Y-0.4263
N1735 X0.157 Y-0.415
N1740 X0.1901 Y-0.401
N1745 X0.222 Y-0.3845
N1750 X0.2524 Y-0.3655
N1755 X0.2814 Y-0.3443
N1760 X0.3087 Y-0.321
N1765 X0.3342 Y-0.2957
N1770 X0.3578 Y-0.2687
N1775 X0.3794 Y-0.24
N1780 X0.3989 Y-0.2099
N1785 X0.4162 Y-0.1784
N1790 X0.4312 Y-0.1458
N1795 X0.4437 Y-0.1121
N1800 X0.4537 Y-0.0777
N1805 X0.4611 Y-0.0425
N1810 X0.4659 Y-0.007
N1815 X0.4681 Y0.0289
N1820 X0.4675 Y0.0648
N1825 X0.4643 Y0.1005
N1830 X0.4584 Y0.1359
N1835 X0.4499 Y0.1708
N1840 X0.4388 Y0.205
N1845 X0.4252 Y0.2382
N1850 X0.4091 Y0.2702
N1855 X0.3906 Y0.301
N1860 X0.3699 Y0.3303
N1865 X0.347 Y0.358
N1870 X0.3221 Y0.3839
N1875 X0.2953 Y0.4078
N1880 X0.2668 Y0.4296
N1885 X0.2368 Y0.4492
N1890 X0.2054 Y0.4666
N1895 X0.1728 Y0.4816
N1900 X0.1391 Y0.4942
N1905 X0.1047 Y0.5044
N1910 X0.0696 Y0.512
N1915 X0.0341 Y0.5171
N1920 X-0.0017 Y0.5196
N1925 X-0.0376
N1930 X-0.0734 Y0.5169
N1935 X-0.1089 Y0.5116
N1940 X-0.144 Y0.5039
N1945 X-0.1784 Y0.4937
N1950 X-0.212 Y0.4811
N1955 X-0.2447 Y0.4663
N1960 X-0.2763 Y0.4492
N1965 X-0.3066 Y0.4299
N1970 X-0.3354 Y0.4085
N1975 X-0.3627 Y0.3852
N1980 X-0.3883 Y0.36
N1985 X-0.4121 Y0.3332
N1990 X-0.4341 Y0.3048
N1995 X-0.4541 Y0.275
N2000 X-0.4719 Y0.2438
N2005 X-0.4875 Y0.2115
N2010 X-0.5009 Y0.1782
N2015 X-0.512 Y0.1441
N2020 X-0.5208 Y0.1093
N2025 X-0.5272 Y0.0739
N2030 X-0.5312 Y0.0383
N2035 X-0.5327 Y0.0024
N2040 X-0.5318 Y-0.0335
N2045 X-0.5284 Y-0.0692
N2050 X-0.5227 Y-0.1047
N2055 X-0.5146 Y-0.1396
N2060 X-0.5042 Y-0.174
N2065 X-0.4914 Y-0.2075
N2070 X-0.4764 Y-0.2401
N2075 X-0.4592 Y-0.2716
N2080 X-0.4399 Y-0.3019
N2085 X-0.4187 Y-0.3309
N2090 X-0.3956 Y-0.3584
N2095 X-0.3706 Y-0.3842
N2100 X-0.3439 Y-0.4082
N2105 X-0.3157 Y-0.4304
N2110 X-0.2861 Y-0.4506
N2115 X-0.2552 Y-0.4689
N2120 X-0.2231 Y-0.4851
N2125 X-0.1901 Y-0.499
N2130 X-0.1561 Y-0.5106
N2135 X-0.1214 Y-0.5199
N2140 X-0.0862 Y-0.5269
N2145 X-0.0506 Y-0.5315
N2150 X-0.0148 Y-0.5338
N2155 X0.0211 Y-0.5337
N2160 X0.0569 Y-0.531
N2165 X0.0925 Y-0.5259
N2170 X0.1276 Y-0.5185
N2175 X0.1622 Y-0.5089
N2180 X0.196 Y-0.4969
N2185 X0.229 Y-0.4828
N2190 X0.261 Y-0.4665
N2195 X0.2918 Y-0.4481
N2200 X0.3214 Y-0.4278
N2205 X0.3497 Y-0.4057
N2210 X0.3766 Y-0.3819
N2215 X0.402 Y-0.3566
N2220 X0.4257 Y-0.3296
N2225 X0.4477 Y-0.3012
N2230 X0.4679 Y-0.2716
N2235 X0.4863 Y-0.2407
N2240 X0.5028 Y-0.2089
N2245 X0.5173 Y-0.176
N2250 X0.5297 Y-0.1423
N2255 X0.54 Y-0.1079
N2260 X0.5481 Y-0.073
N2265 X0.554 Y-0.0375
N2270 X0.5577 Y-0.0018
N2275 X0.5592 Y0.034
N2280 X0.5585 Y0.0699
N2285 X0.5554 Y0.1057
N2290 X0.5501 Y0.1412
N2295 X0.5425 Y0.1763
N2300 X0.5336 Y0.2081
N2305 X0.533 Y0.21
N2310 X0.5324 Y0.2119
N2315 X0.5317 Y0.2137
N2320 X0.526 Y0.2281
N2325 X0.5154 Y0.2526
N2330 X0.5133 Y0.257
N2335 X0.4829 Y0.3096
N2340 X0.4807 Y0.3133
N2345 X0.4644 Y0.3362
N2350 X0.4601 Y0.3422
N2355 X0.4276 Y0.3829
N2360 X0.4237 Y0.3872
N2365 X0.4155 Y0.3958
N2370 X0.4122 Y0.3992
N2375 X0.3748 Y0.434
N2380 X0.3681 Y0.44
N2385 X0.3503 Y0.4546
N2390 X0.348 Y0.4563
N2395 X0.3096 Y0.4825
N2400 X0.2852 Y0.4985
N2405 X0.277 Y0.5026
N2410 X0.2281 Y0.5262
N2415 X0.2003 Y0.5377
N2420 X0.1955 Y0.5394
N2425 X0.1467 Y0.5544
N2430 X0.1385 Y0.5566
N2435 X0.1141 Y0.5623
N2440 X0.1059 Y0.5636
N2445 X0.0609 Y0.5703
N2450 X0.057 Y0.5709
N2455 X0.0326 Y0.5727
N2460 X0.0244 Y0.573
N2465 X-0.0244
N2470 X-0.0326 Y0.5727
N2475 X-0.057 Y0.5709
N2480 X-0.0733 Y0.5685
N2485 X-0.1059 Y0.5636
N2490 X-0.1141 Y0.5623
N2495 X-0.1385 Y0.5566
N2500 X-0.1467 Y0.5544
N2505 X-0.1955 Y0.5394
N2510 X-0.2003 Y0.5377
N2515 X-0.2281 Y0.5262
N2520 X-0.277 Y0.5026
N2525 X-0.2852 Y0.4985
N2530 X-0.3096 Y0.4825
N2535 X-0.348 Y0.4563
N2540 X-0.3503 Y0.4546
N2545 X-0.3681 Y0.44
N2550 X-0.3748 Y0.434
N2555 X-0.4122 Y0.3992
N2560 X-0.4155 Y0.3958
N2565 X-0.4237 Y0.3872
N2570 X-0.4276 Y0.3829
N2575 X-0.4601 Y0.3422
N2580 X-0.4659 Y0.3341
N2585 X-0.4807 Y0.3133
N2590 X-0.4829 Y0.3096
N2595 X-0.5133 Y0.257
N2600 X-0.5154 Y0.2526
N2605 X-0.526 Y0.2281
N2610 X-0.5296 Y0.2191
N2615 X-0.5459 Y0.1776
N2620 X-0.5484 Y0.1711
N2625 X-0.5504 Y0.163
N2630 X-0.5562 Y0.1385
N2635 X-0.5654 Y0.0978
N2640 X-0.5673 Y0.0896
N2645 X-0.5685 Y0.0815
N2650 X-0.574 Y0.0081
N2655 X-0.5746 Y0.
N2660 X-0.574 Y-0.0081
N2665 X-0.5685 Y-0.0815
N2670 X-0.5673 Y-0.0896
N2675 X-0.558 Y-0.1304
N2680 X-0.5543 Y-0.1467
N2685 X-0.5504 Y-0.163
N2690 X-0.5484 Y-0.1711
N2695 X-0.5452 Y-0.1792
N2700 X-0.5293 Y-0.22
N2705 X-0.526 Y-0.2281
N2710 X-0.5154 Y-0.2526
N2715 X-0.5133 Y-0.257
N2720 X-0.4829 Y-0.3096
N2725 X-0.4807 Y-0.3133
N2730 X-0.4644 Y-0.3362
N2735 X-0.4601 Y-0.3422
N2740 X-0.4276 Y-0.3829
N2745 X-0.4237 Y-0.3872
N2750 X-0.4155 Y-0.3958
N2755 X-0.4122 Y-0.3992
N2760 X-0.3748 Y-0.434
N2765 X-0.3681 Y-0.44
N2770 X-0.3503 Y-0.4546
N2775 X-0.348 Y-0.4563
N2780 X-0.3096 Y-0.4825
N2785 X-0.2852 Y-0.4985
N2790 X-0.277 Y-0.5026
N2795 X-0.2281 Y-0.5262
N2800 X-0.2003 Y-0.5377
N2805 X-0.1955 Y-0.5394
N2810 X-0.1467 Y-0.5544
N2815 X-0.1385 Y-0.5566
N2820 X-0.1141 Y-0.5623
N2825 X-0.1059 Y-0.5636
N2830 X-0.0609 Y-0.5703
N2835 X-0.057 Y-0.5709
N2840 X-0.0326 Y-0.5727
N2845 X-0.0244 Y-0.573
N2850 X0.0244
N2855 X0.0326 Y-0.5727
N2860 X0.057 Y-0.5709
N2865 X0.0733 Y-0.5685
N2870 X0.1059 Y-0.5636
N2875 X0.1141 Y-0.5623
N2880 X0.1385 Y-0.5566
N2885 X0.1467 Y-0.5544
N2890 X0.1955 Y-0.5394
N2895 X0.2003 Y-0.5377
N2900 X0.2281 Y-0.5262
N2905 X0.277 Y-0.5026
N2910 X0.2852 Y-0.4985
N2915 X0.3096 Y-0.4825
N2920 X0.348 Y-0.4563
N2925 X0.3503 Y-0.4546
N2930 X0.3681 Y-0.44
N2935 X0.3748 Y-0.434
N2940 X0.4122 Y-0.3992
N2945 X0.4155 Y-0.3958
N2950 X0.4237 Y-0.3872
N2955 X0.4276 Y-0.3829
N2960 X0.4601 Y-0.3422
N2965 X0.4659 Y-0.3341
N2970 X0.4807 Y-0.3133
N2975 X0.4829 Y-0.3096
N2980 X0.5133 Y-0.257
N2985 X0.5154 Y-0.2526
N2990 X0.526 Y-0.2281
N2995 X0.5296 Y-0.2191
N3000 X0.5459 Y-0.1776
N3005 X0.5484 Y-0.1711
N3010 X0.5504 Y-0.163
N3015 X0.5562 Y-0.1385
N3020 X0.5654 Y-0.0978
N3025 X0.5673 Y-0.0896
N3030 X0.5685 Y-0.0815
N3035 X0.574 Y-0.0081
N3040 X0.5746 Y0.
N3045 X0.574 Y0.0081
N3050 X0.5685 Y0.0815
N3055 X0.5673 Y0.0896
N3060 X0.558 Y0.1304
N3065 X0.5543 Y0.1467
N3070 X0.5504 Y0.163
N3075 X0.5484 Y0.1711
N3080 X0.5452 Y0.1792
N3085 X0.5317 Y0.2137
N3090 G3 X0.5069 Y0.2287 I-0.0229 J-0.0099
N3095 G1 X0.503 Y0.2284 Z-0.2891
N3100 X0.4992 Y0.2281 Z-0.2881
N3105 X0.4956 Y0.2278 Z-0.2866
N3110 X0.4923 Y0.2276 Z-0.2846
N3115 X0.4893 Y0.2274 Z-0.282
N3120 X0.4868 Y0.2272 Z-0.2791
N3125 X0.4847 Y0.227 Z-0.2757
N3130 X0.4832 Y0.2269 Z-0.2721
N3135 X0.4823 Y0.2268 Z-0.2683
N3140 X0.482 Z-0.2644
N3145 G0 Z0.5906
N3150 G53 Z0.
N3155 M30
%
