%
(PANTOROUTER TEMPLATE HOLDER)
(T1  D=0.125 CR=0. - ZMIN=-0.499999992 - FLAT END MILL)
N10 G90 G94 G17 G91.1
N15 G20
N20 G53 G0 Z0.
(DRILL3)
N25 M9
N30 T1 M6
N35 S3000 M3
N40 G54
N45 G0 X0.749015733 Y-6.617240005
N50 G43 Z0.599999991 H1
N55 G0 Z0.199999997
N60 X0.686515735 Y-6.617240235
N65 G1 Z0. F10.
N70 G3 X0.811515731 Y-6.617239774 Z-0.020000001 I0.062499998 J0.00000023
N75 X0.686515735 Y-6.617240235 Z-0.040000001 I-0.062499998 J-0.00000023
N80 X0.811515731 Y-6.617239774 Z-0.060000002 I0.062499998 J0.00000023
N85 X0.686515735 Y-6.617240235 Z-0.080000003 I-0.062499998 J-0.00000023
N90 X0.811515731 Y-6.617239774 Z-0.100000003 I0.062499998 J0.00000023
N95 X0.686515735 Y-6.617240235 Z-0.120000004 I-0.062499998 J-0.00000023
N100 X0.811515731 Y-6.617239774 Z-0.140000004 I0.062499998 J0.00000023
N105 X0.686515735 Y-6.617240235 Z-0.160000005 I-0.062499998 J-0.00000023
N110 X0.811515731 Y-6.617239774 Z-0.180000006 I0.062499998 J0.00000023
N115 X0.686515735 Y-6.617240235 Z-0.200000006 I-0.062499998 J-0.00000023
N120 X0.811515731 Y-6.617239774 Z-0.220000007 I0.062499998 J0.00000023
N125 X0.686515735 Y-6.617240235 Z-0.240000008 I-0.062499998 J-0.00000023
N130 X0.811515731 Y-6.617239774 Z-0.260000008 I0.062499998 J0.00000023
N135 X0.686515735 Y-6.617240235 Z-0.280000009 I-0.062499998 J-0.00000023
N140 X0.811515731 Y-6.617239774 Z-0.30000001 I0.062499998 J0.00000023
N145 X0.686515735 Y-6.617240235 Z-0.32000001 I-0.062499998 J-0.00000023
N150 X0.811515731 Y-6.617239774 Z-0.340000011 I0.062499998 J0.00000023
N155 X0.686515735 Y-6.617240235 Z-0.360000011 I-0.062499998 J-0.00000023
N160 X0.811515731 Y-6.617239774 Z-0.380000012 I0.062499998 J0.00000023
N165 X0.686515735 Y-6.617240235 Z-0.400000013 I-0.062499998 J-0.00000023
N170 X0.811515731 Y-6.617239774 Z-0.420000013 I0.062499998 J0.00000023
N175 X0.686515735 Y-6.617240235 Z-0.440000014 I-0.062499998 J-0.00000023
N180 X0.811515731 Y-6.617239774 Z-0.460000015 I0.062499998 J0.00000023
N185 X0.686515735 Y-6.617240235 Z-0.480000015 I-0.062499998 J-0.00000023
N190 X0.811515731 Y-6.617240005 Z-0.499999992 I0.062499998 J0.00000023
N195 X0.686515735 I-0.062499998 J0.
N200 X0.811515731 I0.062499998 J0.
N205 X0.749015733 I-0.031249999 J0.
N210 G0 Z0.199999997
N215 X0.686515735 Y-4.849991315
N220 G1 Z0. F10.
N225 G3 X0.811515731 Y-4.849990855 Z-0.020000001 I0.062499998 J0.00000023
N230 X0.686515735 Y-4.849991315 Z-0.040000001 I-0.062499998 J-0.00000023
N235 X0.811515731 Y-4.849990855 Z-0.060000002 I0.062499998 J0.00000023
N240 X0.686515735 Y-4.849991315 Z-0.080000003 I-0.062499998 J-0.00000023
N245 X0.811515731 Y-4.849990855 Z-0.100000003 I0.062499998 J0.00000023
N250 X0.686515735 Y-4.849991315 Z-0.120000004 I-0.062499998 J-0.00000023
N255 X0.811515731 Y-4.849990855 Z-0.140000004 I0.062499998 J0.00000023
N260 X0.686515735 Y-4.849991315 Z-0.160000005 I-0.062499998 J-0.00000023
N265 X0.811515731 Y-4.849990855 Z-0.180000006 I0.062499998 J0.00000023
N270 X0.686515735 Y-4.849991315 Z-0.200000006 I-0.062499998 J-0.00000023
N275 X0.811515731 Y-4.849990855 Z-0.220000007 I0.062499998 J0.00000023
N280 X0.686515735 Y-4.849991315 Z-0.240000008 I-0.062499998 J-0.00000023
N285 X0.811515731 Y-4.849990855 Z-0.260000008 I0.062499998 J0.00000023
N290 X0.686515735 Y-4.849991315 Z-0.280000009 I-0.062499998 J-0.00000023
N295 X0.811515731 Y-4.849990855 Z-0.30000001 I0.062499998 J0.00000023
N300 X0.686515735 Y-4.849991315 Z-0.32000001 I-0.062499998 J-0.00000023
N305 X0.811515731 Y-4.849990855 Z-0.340000011 I0.062499998 J0.00000023
N310 X0.686515735 Y-4.849991315 Z-0.360000011 I-0.062499998 J-0.00000023
N315 X0.811515731 Y-4.849990855 Z-0.380000012 I0.062499998 J0.00000023
N320 X0.686515735 Y-4.849991315 Z-0.400000013 I-0.062499998 J-0.00000023
N325 X0.811515731 Y-4.849990855 Z-0.420000013 I0.062499998 J0.00000023
N330 X0.686515735 Y-4.849991315 Z-0.440000014 I-0.062499998 J-0.00000023
N335 X0.811515731 Y-4.849990855 Z-0.460000015 I0.062499998 J0.00000023
N340 X0.686515735 Y-4.849991315 Z-0.480000015 I-0.062499998 J-0.00000023
N345 X0.811515731 Y-4.849991085 Z-0.499999992 I0.062499998 J0.00000023
N350 X0.686515735 I-0.062499998 J0.
N355 X0.811515731 I0.062499998 J0.
N360 X0.749015733 I-0.031249999 J0.
N365 G0 Z0.199999997
N370 X1.81151569 Y-1.952756076
N375 G1 Z0. F10.
N380 G3 X1.936515686 Y-1.952755615 Z-0.020000001 I0.062499998 J0.00000023
N385 X1.81151569 Y-1.952756076 Z-0.040000001 I-0.062499998 J-0.00000023
N390 X1.936515686 Y-1.952755615 Z-0.060000002 I0.062499998 J0.00000023
N395 X1.81151569 Y-1.952756076 Z-0.080000003 I-0.062499998 J-0.00000023
N400 X1.936515686 Y-1.952755615 Z-0.100000003 I0.062499998 J0.00000023
N405 X1.81151569 Y-1.952756076 Z-0.120000004 I-0.062499998 J-0.00000023
N410 X1.936515686 Y-1.952755615 Z-0.140000004 I0.062499998 J0.00000023
N415 X1.81151569 Y-1.952756076 Z-0.160000005 I-0.062499998 J-0.00000023
N420 X1.936515686 Y-1.952755615 Z-0.180000006 I0.062499998 J0.00000023
N425 X1.81151569 Y-1.952756076 Z-0.200000006 I-0.062499998 J-0.00000023
N430 X1.936515686 Y-1.952755615 Z-0.220000007 I0.062499998 J0.00000023
N435 X1.81151569 Y-1.952756076 Z-0.240000008 I-0.062499998 J-0.00000023
N440 X1.936515686 Y-1.952755615 Z-0.260000008 I0.062499998 J0.00000023
N445 X1.81151569 Y-1.952756076 Z-0.280000009 I-0.062499998 J-0.00000023
N450 X1.936515686 Y-1.952755615 Z-0.30000001 I0.062499998 J0.00000023
N455 X1.81151569 Y-1.952756076 Z-0.32000001 I-0.062499998 J-0.00000023
N460 X1.936515686 Y-1.952755615 Z-0.340000011 I0.062499998 J0.00000023
N465 X1.81151569 Y-1.952756076 Z-0.360000011 I-0.062499998 J-0.00000023
N470 X1.936515686 Y-1.952755615 Z-0.380000012 I0.062499998 J0.00000023
N475 X1.81151569 Y-1.952756076 Z-0.400000013 I-0.062499998 J-0.00000023
N480 X1.936515686 Y-1.952755615 Z-0.420000013 I0.062499998 J0.00000023
N485 X1.81151569 Y-1.952756076 Z-0.440000014 I-0.062499998 J-0.00000023
N490 X1.936515686 Y-1.952755615 Z-0.460000015 I0.062499998 J0.00000023
N495 X1.81151569 Y-1.952756076 Z-0.480000015 I-0.062499998 J-0.00000023
N500 X1.936515686 Y-1.952755845 Z-0.499999992 I0.062499998 J0.00000023
N505 X1.81151569 I-0.062499998 J0.
N510 X1.936515686 I0.062499998 J0.
N515 X1.874015688 I-0.031249999 J0.
N520 G0 Z0.199999997
N525 X2.81151575 Y-1.952756076
N530 G1 Z0. F10.
N535 G3 X2.936515746 Y-1.952755615 Z-0.020000001 I0.062499998 J0.00000023
N540 X2.81151575 Y-1.952756076 Z-0.040000001 I-0.062499998 J-0.00000023
N545 X2.936515746 Y-1.952755615 Z-0.060000002 I0.062499998 J0.00000023
N550 X2.81151575 Y-1.952756076 Z-0.080000003 I-0.062499998 J-0.00000023
N555 X2.936515746 Y-1.952755615 Z-0.100000003 I0.062499998 J0.00000023
N560 X2.81151575 Y-1.952756076 Z-0.120000004 I-0.062499998 J-0.00000023
N565 X2.936515746 Y-1.952755615 Z-0.140000004 I0.062499998 J0.00000023
N570 X2.81151575 Y-1.952756076 Z-0.160000005 I-0.062499998 J-0.00000023
N575 X2.936515746 Y-1.952755615 Z-0.180000006 I0.062499998 J0.00000023
N580 X2.81151575 Y-1.952756076 Z-0.200000006 I-0.062499998 J-0.00000023
N585 X2.936515746 Y-1.952755615 Z-0.220000007 I0.062499998 J0.00000023
N590 X2.81151575 Y-1.952756076 Z-0.240000008 I-0.062499998 J-0.00000023
N595 X2.936515746 Y-1.952755615 Z-0.260000008 I0.062499998 J0.00000023
N600 X2.81151575 Y-1.952756076 Z-0.280000009 I-0.062499998 J-0.00000023
N605 X2.936515746 Y-1.952755615 Z-0.30000001 I0.062499998 J0.00000023
N610 X2.81151575 Y-1.952756076 Z-0.32000001 I-0.062499998 J-0.00000023
N615 X2.936515746 Y-1.952755615 Z-0.340000011 I0.062499998 J0.00000023
N620 X2.81151575 Y-1.952756076 Z-0.360000011 I-0.062499998 J-0.00000023
N625 X2.936515746 Y-1.952755615 Z-0.380000012 I0.062499998 J0.00000023
N630 X2.81151575 Y-1.952756076 Z-0.400000013 I-0.062499998 J-0.00000023
N635 X2.936515746 Y-1.952755615 Z-0.420000013 I0.062499998 J0.00000023
N640 X2.81151575 Y-1.952756076 Z-0.440000014 I-0.062499998 J-0.00000023
N645 X2.936515746 Y-1.952755615 Z-0.460000015 I0.062499998 J0.00000023
N650 X2.81151575 Y-1.952756076 Z-0.480000015 I-0.062499998 J-0.00000023
N655 X2.936515746 Y-1.952755845 Z-0.499999992 I0.062499998 J0.00000023
N660 X2.81151575 I-0.062499998 J0.
N665 X2.936515746 I0.062499998 J0.
N670 X2.874015748 I-0.031249999 J0.
N675 G0 Z0.199999997
N680 X3.81151581 Y-1.952756076
N685 G1 Z0. F10.
N690 G3 X3.936515806 Y-1.952755615 Z-0.020000001 I0.062499998 J0.00000023
N695 X3.81151581 Y-1.952756076 Z-0.040000001 I-0.062499998 J-0.00000023
N700 X3.936515806 Y-1.952755615 Z-0.060000002 I0.062499998 J0.00000023
N705 X3.81151581 Y-1.952756076 Z-0.080000003 I-0.062499998 J-0.00000023
N710 X3.936515806 Y-1.952755615 Z-0.100000003 I0.062499998 J0.00000023
N715 X3.81151581 Y-1.952756076 Z-0.120000004 I-0.062499998 J-0.00000023
N720 X3.936515806 Y-1.952755615 Z-0.140000004 I0.062499998 J0.00000023
N725 X3.81151581 Y-1.952756076 Z-0.160000005 I-0.062499998 J-0.00000023
N730 X3.936515806 Y-1.952755615 Z-0.180000006 I0.062499998 J0.00000023
N735 X3.81151581 Y-1.952756076 Z-0.200000006 I-0.062499998 J-0.00000023
N740 X3.936515806 Y-1.952755615 Z-0.220000007 I0.062499998 J0.00000023
N745 X3.81151581 Y-1.952756076 Z-0.240000008 I-0.062499998 J-0.00000023
N750 X3.936515806 Y-1.952755615 Z-0.260000008 I0.062499998 J0.00000023
N755 X3.81151581 Y-1.952756076 Z-0.280000009 I-0.062499998 J-0.00000023
N760 X3.936515806 Y-1.952755615 Z-0.30000001 I0.062499998 J0.00000023
N765 X3.81151581 Y-1.952756076 Z-0.32000001 I-0.062499998 J-0.00000023
N770 X3.936515806 Y-1.952755615 Z-0.340000011 I0.062499998 J0.00000023
N775 X3.81151581 Y-1.952756076 Z-0.360000011 I-0.062499998 J-0.00000023
N780 X3.936515806 Y-1.952755615 Z-0.380000012 I0.062499998 J0.00000023
N785 X3.81151581 Y-1.952756076 Z-0.400000013 I-0.062499998 J-0.00000023
N790 X3.936515806 Y-1.952755615 Z-0.420000013 I0.062499998 J0.00000023
N795 X3.81151581 Y-1.952756076 Z-0.440000014 I-0.062499998 J-0.00000023
N800 X3.936515806 Y-1.952755615 Z-0.460000015 I0.062499998 J0.00000023
N805 X3.81151581 Y-1.952756076 Z-0.480000015 I-0.062499998 J-0.00000023
N810 X3.936515806 Y-1.952755845 Z-0.499999992 I0.062499998 J0.00000023
N815 X3.81151581 I-0.062499998 J0.
N820 X3.936515806 I0.062499998 J0.
N825 X3.874015808 I-0.031249999 J0.
N830 G0 Z0.199999997
N835 X4.81151587 Y-1.952756076
N840 G1 Z0. F10.
N845 G3 X4.936515866 Y-1.952755615 Z-0.020000001 I0.062499998 J0.00000023
N850 X4.81151587 Y-1.952756076 Z-0.040000001 I-0.062499998 J-0.00000023
N855 X4.936515866 Y-1.952755615 Z-0.060000002 I0.062499998 J0.00000023
N860 X4.81151587 Y-1.952756076 Z-0.080000003 I-0.062499998 J-0.00000023
N865 X4.936515866 Y-1.952755615 Z-0.100000003 I0.062499998 J0.00000023
N870 X4.81151587 Y-1.952756076 Z-0.120000004 I-0.062499998 J-0.00000023
N875 X4.936515866 Y-1.952755615 Z-0.140000004 I0.062499998 J0.00000023
N880 X4.81151587 Y-1.952756076 Z-0.160000005 I-0.062499998 J-0.00000023
N885 X4.936515866 Y-1.952755615 Z-0.180000006 I0.062499998 J0.00000023
N890 X4.81151587 Y-1.952756076 Z-0.200000006 I-0.062499998 J-0.00000023
N895 X4.936515866 Y-1.952755615 Z-0.220000007 I0.062499998 J0.00000023
N900 X4.81151587 Y-1.952756076 Z-0.240000008 I-0.062499998 J-0.00000023
N905 X4.936515866 Y-1.952755615 Z-0.260000008 I0.062499998 J0.00000023
N910 X4.81151587 Y-1.952756076 Z-0.280000009 I-0.062499998 J-0.00000023
N915 X4.936515866 Y-1.952755615 Z-0.30000001 I0.062499998 J0.00000023
N920 X4.81151587 Y-1.952756076 Z-0.32000001 I-0.062499998 J-0.00000023
N925 X4.936515866 Y-1.952755615 Z-0.340000011 I0.062499998 J0.00000023
N930 X4.81151587 Y-1.952756076 Z-0.360000011 I-0.062499998 J-0.00000023
N935 X4.936515866 Y-1.952755615 Z-0.380000012 I0.062499998 J0.00000023
N940 X4.81151587 Y-1.952756076 Z-0.400000013 I-0.062499998 J-0.00000023
N945 X4.936515866 Y-1.952755615 Z-0.420000013 I0.062499998 J0.00000023
N950 X4.81151587 Y-1.952756076 Z-0.440000014 I-0.062499998 J-0.00000023
N955 X4.936515866 Y-1.952755615 Z-0.460000015 I0.062499998 J0.00000023
N960 X4.81151587 Y-1.952756076 Z-0.480000015 I-0.062499998 J-0.00000023
N965 X4.936515866 Y-1.952755845 Z-0.499999992 I0.062499998 J0.00000023
N970 X4.81151587 I-0.062499998 J0.
N975 X4.936515866 I0.062499998 J0.
N980 X4.874015868 I-0.031249999 J0.
N985 G0 Z0.199999997
N990 X5.81151563 Y-1.952756076
N995 G1 Z0. F10.
N1000 G3 X5.936515626 Y-1.952755615 Z-0.020000001 I0.062499998 J0.00000023
N1005 X5.81151563 Y-1.952756076 Z-0.040000001 I-0.062499998 J-0.00000023
N1010 X5.936515626 Y-1.952755615 Z-0.060000002 I0.062499998 J0.00000023
N1015 X5.81151563 Y-1.952756076 Z-0.080000003 I-0.062499998 J-0.00000023
N1020 X5.936515626 Y-1.952755615 Z-0.100000003 I0.062499998 J0.00000023
N1025 X5.81151563 Y-1.952756076 Z-0.120000004 I-0.062499998 J-0.00000023
N1030 X5.936515626 Y-1.952755615 Z-0.140000004 I0.062499998 J0.00000023
N1035 X5.81151563 Y-1.952756076 Z-0.160000005 I-0.062499998 J-0.00000023
N1040 X5.936515626 Y-1.952755615 Z-0.180000006 I0.062499998 J0.00000023
N1045 X5.81151563 Y-1.952756076 Z-0.200000006 I-0.062499998 J-0.00000023
N1050 X5.936515626 Y-1.952755615 Z-0.220000007 I0.062499998 J0.00000023
N1055 X5.81151563 Y-1.952756076 Z-0.240000008 I-0.062499998 J-0.00000023
N1060 X5.936515626 Y-1.952755615 Z-0.260000008 I0.062499998 J0.00000023
N1065 X5.81151563 Y-1.952756076 Z-0.280000009 I-0.062499998 J-0.00000023
N1070 X5.936515626 Y-1.952755615 Z-0.30000001 I0.062499998 J0.00000023
N1075 X5.81151563 Y-1.952756076 Z-0.32000001 I-0.062499998 J-0.00000023
N1080 X5.936515626 Y-1.952755615 Z-0.340000011 I0.062499998 J0.00000023
N1085 X5.81151563 Y-1.952756076 Z-0.360000011 I-0.062499998 J-0.00000023
N1090 X5.936515626 Y-1.952755615 Z-0.380000012 I0.062499998 J0.00000023
N1095 X5.81151563 Y-1.952756076 Z-0.400000013 I-0.062499998 J-0.00000023
N1100 X5.936515626 Y-1.952755615 Z-0.420000013 I0.062499998 J0.00000023
N1105 X5.81151563 Y-1.952756076 Z-0.440000014 I-0.062499998 J-0.00000023
N1110 X5.936515626 Y-1.952755615 Z-0.460000015 I0.062499998 J0.00000023
N1115 X5.81151563 Y-1.952756076 Z-0.480000015 I-0.062499998 J-0.00000023
N1120 X5.936515626 Y-1.952755845 Z-0.499999992 I0.062499998 J0.00000023
N1125 X5.81151563 I-0.062499998 J0.
N1130 X5.936515626 I0.062499998 J0.
N1135 X5.874015628 I-0.031249999 J0.
N1140 G0 Z0.199999997
N1145 X6.81151599 Y-1.952756076
N1150 G1 Z0. F10.
N1155 G3 X6.936515986 Y-1.952755615 Z-0.020000001 I0.062499998 J0.00000023
N1160 X6.81151599 Y-1.952756076 Z-0.040000001 I-0.062499998 J-0.00000023
N1165 X6.936515986 Y-1.952755615 Z-0.060000002 I0.062499998 J0.00000023
N1170 X6.81151599 Y-1.952756076 Z-0.080000003 I-0.062499998 J-0.00000023
N1175 X6.936515986 Y-1.952755615 Z-0.100000003 I0.062499998 J0.00000023
N1180 X6.81151599 Y-1.952756076 Z-0.120000004 I-0.062499998 J-0.00000023
N1185 X6.936515986 Y-1.952755615 Z-0.140000004 I0.062499998 J0.00000023
N1190 X6.81151599 Y-1.952756076 Z-0.160000005 I-0.062499998 J-0.00000023
N1195 X6.936515986 Y-1.952755615 Z-0.180000006 I0.062499998 J0.00000023
N1200 X6.81151599 Y-1.952756076 Z-0.200000006 I-0.062499998 J-0.00000023
N1205 X6.936515986 Y-1.952755615 Z-0.220000007 I0.062499998 J0.00000023
N1210 X6.81151599 Y-1.952756076 Z-0.240000008 I-0.062499998 J-0.00000023
N1215 X6.936515986 Y-1.952755615 Z-0.260000008 I0.062499998 J0.00000023
N1220 X6.81151599 Y-1.952756076 Z-0.280000009 I-0.062499998 J-0.00000023
N1225 X6.936515986 Y-1.952755615 Z-0.30000001 I0.062499998 J0.00000023
N1230 X6.81151599 Y-1.952756076 Z-0.32000001 I-0.062499998 J-0.00000023
N1235 X6.936515986 Y-1.952755615 Z-0.340000011 I0.062499998 J0.00000023
N1240 X6.81151599 Y-1.952756076 Z-0.360000011 I-0.062499998 J-0.00000023
N1245 X6.936515986 Y-1.952755615 Z-0.380000012 I0.062499998 J0.00000023
N1250 X6.81151599 Y-1.952756076 Z-0.400000013 I-0.062499998 J-0.00000023
N1255 X6.936515986 Y-1.952755615 Z-0.420000013 I0.062499998 J0.00000023
N1260 X6.81151599 Y-1.952756076 Z-0.440000014 I-0.062499998 J-0.00000023
N1265 X6.936515986 Y-1.952755615 Z-0.460000015 I0.062499998 J0.00000023
N1270 X6.81151599 Y-1.952756076 Z-0.480000015 I-0.062499998 J-0.00000023
N1275 X6.936515986 Y-1.952755845 Z-0.499999992 I0.062499998 J0.00000023
N1280 X6.81151599 I-0.062499998 J0.
N1285 X6.936515986 I0.062499998 J0.
N1290 X6.874015988 I-0.031249999 J0.
N1295 G0 Z0.199999997
N1300 X7.81151575 Y-1.952756076
N1305 G1 Z0. F10.
N1310 G3 X7.936515746 Y-1.952755615 Z-0.020000001 I0.062499998 J0.00000023
N1315 X7.81151575 Y-1.952756076 Z-0.040000001 I-0.062499998 J-0.00000023
N1320 X7.936515746 Y-1.952755615 Z-0.060000002 I0.062499998 J0.00000023
N1325 X7.81151575 Y-1.952756076 Z-0.080000003 I-0.062499998 J-0.00000023
N1330 X7.936515746 Y-1.952755615 Z-0.100000003 I0.062499998 J0.00000023
N1335 X7.81151575 Y-1.952756076 Z-0.120000004 I-0.062499998 J-0.00000023
N1340 X7.936515746 Y-1.952755615 Z-0.140000004 I0.062499998 J0.00000023
N1345 X7.81151575 Y-1.952756076 Z-0.160000005 I-0.062499998 J-0.00000023
N1350 X7.936515746 Y-1.952755615 Z-0.180000006 I0.062499998 J0.00000023
N1355 X7.81151575 Y-1.952756076 Z-0.200000006 I-0.062499998 J-0.00000023
N1360 X7.936515746 Y-1.952755615 Z-0.220000007 I0.062499998 J0.00000023
N1365 X7.81151575 Y-1.952756076 Z-0.240000008 I-0.062499998 J-0.00000023
N1370 X7.936515746 Y-1.952755615 Z-0.260000008 I0.062499998 J0.00000023
N1375 X7.81151575 Y-1.952756076 Z-0.280000009 I-0.062499998 J-0.00000023
N1380 X7.936515746 Y-1.952755615 Z-0.30000001 I0.062499998 J0.00000023
N1385 X7.81151575 Y-1.952756076 Z-0.32000001 I-0.062499998 J-0.00000023
N1390 X7.936515746 Y-1.952755615 Z-0.340000011 I0.062499998 J0.00000023
N1395 X7.81151575 Y-1.952756076 Z-0.360000011 I-0.062499998 J-0.00000023
N1400 X7.936515746 Y-1.952755615 Z-0.380000012 I0.062499998 J0.00000023
N1405 X7.81151575 Y-1.952756076 Z-0.400000013 I-0.062499998 J-0.00000023
N1410 X7.936515746 Y-1.952755615 Z-0.420000013 I0.062499998 J0.00000023
N1415 X7.81151575 Y-1.952756076 Z-0.440000014 I-0.062499998 J-0.00000023
N1420 X7.936515746 Y-1.952755615 Z-0.460000015 I0.062499998 J0.00000023
N1425 X7.81151575 Y-1.952756076 Z-0.480000015 I-0.062499998 J-0.00000023
N1430 X7.936515746 Y-1.952755845 Z-0.499999992 I0.062499998 J0.00000023
N1435 X7.81151575 I-0.062499998 J0.
N1440 X7.936515746 I0.062499998 J0.
N1445 X7.874015748 I-0.031249999 J0.
N1450 G0 Z0.199999997
N1455 X8.81151551 Y-1.952756076
N1460 G1 Z0. F10.
N1465 G3 X8.936515506 Y-1.952755615 Z-0.020000001 I0.062499998 J0.00000023
N1470 X8.81151551 Y-1.952756076 Z-0.040000001 I-0.062499998 J-0.00000023
N1475 X8.936515506 Y-1.952755615 Z-0.060000002 I0.062499998 J0.00000023
N1480 X8.81151551 Y-1.952756076 Z-0.080000003 I-0.062499998 J-0.00000023
N1485 X8.936515506 Y-1.952755615 Z-0.100000003 I0.062499998 J0.00000023
N1490 X8.81151551 Y-1.952756076 Z-0.120000004 I-0.062499998 J-0.00000023
N1495 X8.936515506 Y-1.952755615 Z-0.140000004 I0.062499998 J0.00000023
N1500 X8.81151551 Y-1.952756076 Z-0.160000005 I-0.062499998 J-0.00000023
N1505 X8.936515506 Y-1.952755615 Z-0.180000006 I0.062499998 J0.00000023
N1510 X8.81151551 Y-1.952756076 Z-0.200000006 I-0.062499998 J-0.00000023
N1515 X8.936515506 Y-1.952755615 Z-0.220000007 I0.062499998 J0.00000023
N1520 X8.81151551 Y-1.952756076 Z-0.240000008 I-0.062499998 J-0.00000023
N1525 X8.936515506 Y-1.952755615 Z-0.260000008 I0.062499998 J0.00000023
N1530 X8.81151551 Y-1.952756076 Z-0.280000009 I-0.062499998 J-0.00000023
N1535 X8.936515506 Y-1.952755615 Z-0.30000001 I0.062499998 J0.00000023
N1540 X8.81151551 Y-1.952756076 Z-0.32000001 I-0.062499998 J-0.00000023
N1545 X8.936515506 Y-1.952755615 Z-0.340000011 I0.062499998 J0.00000023
N1550 X8.81151551 Y-1.952756076 Z-0.360000011 I-0.062499998 J-0.00000023
N1555 X8.936515506 Y-1.952755615 Z-0.380000012 I0.062499998 J0.00000023
N1560 X8.81151551 Y-1.952756076 Z-0.400000013 I-0.062499998 J-0.00000023
N1565 X8.936515506 Y-1.952755615 Z-0.420000013 I0.062499998 J0.00000023
N1570 X8.81151551 Y-1.952756076 Z-0.440000014 I-0.062499998 J-0.00000023
N1575 X8.936515506 Y-1.952755615 Z-0.460000015 I0.062499998 J0.00000023
N1580 X8.81151551 Y-1.952756076 Z-0.480000015 I-0.062499998 J-0.00000023
N1585 X8.936515506 Y-1.952755845 Z-0.499999992 I0.062499998 J0.00000023
N1590 X8.81151551 I-0.062499998 J0.
N1595 X8.936515506 I0.062499998 J0.
N1600 X8.874015508 I-0.031249999 J0.
N1605 G0 Z0.199999997
N1610 X9.81151587 Y-1.952756076
N1615 G1 Z0. F10.
N1620 G3 X9.936515866 Y-1.952755615 Z-0.020000001 I0.062499998 J0.00000023
N1625 X9.81151587 Y-1.952756076 Z-0.040000001 I-0.062499998 J-0.00000023
N1630 X9.936515866 Y-1.952755615 Z-0.060000002 I0.062499998 J0.00000023
N1635 X9.81151587 Y-1.952756076 Z-0.080000003 I-0.062499998 J-0.00000023
N1640 X9.936515866 Y-1.952755615 Z-0.100000003 I0.062499998 J0.00000023
N1645 X9.81151587 Y-1.952756076 Z-0.120000004 I-0.062499998 J-0.00000023
N1650 X9.936515866 Y-1.952755615 Z-0.140000004 I0.062499998 J0.00000023
N1655 X9.81151587 Y-1.952756076 Z-0.160000005 I-0.062499998 J-0.00000023
N1660 X9.936515866 Y-1.952755615 Z-0.180000006 I0.062499998 J0.00000023
N1665 X9.81151587 Y-1.952756076 Z-0.200000006 I-0.062499998 J-0.00000023
N1670 X9.936515866 Y-1.952755615 Z-0.220000007 I0.062499998 J0.00000023
N1675 X9.81151587 Y-1.952756076 Z-0.240000008 I-0.062499998 J-0.00000023
N1680 X9.936515866 Y-1.952755615 Z-0.260000008 I0.062499998 J0.00000023
N1685 X9.81151587 Y-1.952756076 Z-0.280000009 I-0.062499998 J-0.00000023
N1690 X9.936515866 Y-1.952755615 Z-0.30000001 I0.062499998 J0.00000023
N1695 X9.81151587 Y-1.952756076 Z-0.32000001 I-0.062499998 J-0.00000023
N1700 X9.936515866 Y-1.952755615 Z-0.340000011 I0.062499998 J0.00000023
N1705 X9.81151587 Y-1.952756076 Z-0.360000011 I-0.062499998 J-0.00000023
N1710 X9.936515866 Y-1.952755615 Z-0.380000012 I0.062499998 J0.00000023
N1715 X9.81151587 Y-1.952756076 Z-0.400000013 I-0.062499998 J-0.00000023
N1720 X9.936515866 Y-1.952755615 Z-0.420000013 I0.062499998 J0.00000023
N1725 X9.81151587 Y-1.952756076 Z-0.440000014 I-0.062499998 J-0.00000023
N1730 X9.936515866 Y-1.952755615 Z-0.460000015 I0.062499998 J0.00000023
N1735 X9.81151587 Y-1.952756076 Z-0.480000015 I-0.062499998 J-0.00000023
N1740 X9.936515866 Y-1.952755845 Z-0.499999992 I0.062499998 J0.00000023
N1745 X9.81151587 I-0.062499998 J0.
N1750 X9.936515866 I0.062499998 J0.
N1755 X9.874015868 I-0.031249999 J0.
N1760 G0 Z0.199999997
N1765 X10.811516231 Y-1.952756076
N1770 G1 Z0. F10.
N1775 G3 X10.936516227 Y-1.952755615 Z-0.020000001 I0.062499998 J0.00000023
N1780 X10.811516231 Y-1.952756076 Z-0.040000001 I-0.062499998 J-0.00000023
N1785 X10.936516227 Y-1.952755615 Z-0.060000002 I0.062499998 J0.00000023
N1790 X10.811516231 Y-1.952756076 Z-0.080000003 I-0.062499998 J-0.00000023
N1795 X10.936516227 Y-1.952755615 Z-0.100000003 I0.062499998 J0.00000023
N1800 X10.811516231 Y-1.952756076 Z-0.120000004 I-0.062499998 J-0.00000023
N1805 X10.936516227 Y-1.952755615 Z-0.140000004 I0.062499998 J0.00000023
N1810 X10.811516231 Y-1.952756076 Z-0.160000005 I-0.062499998 J-0.00000023
N1815 X10.936516227 Y-1.952755615 Z-0.180000006 I0.062499998 J0.00000023
N1820 X10.811516231 Y-1.952756076 Z-0.200000006 I-0.062499998 J-0.00000023
N1825 X10.936516227 Y-1.952755615 Z-0.220000007 I0.062499998 J0.00000023
N1830 X10.811516231 Y-1.952756076 Z-0.240000008 I-0.062499998 J-0.00000023
N1835 X10.936516227 Y-1.952755615 Z-0.260000008 I0.062499998 J0.00000023
N1840 X10.811516231 Y-1.952756076 Z-0.280000009 I-0.062499998 J-0.00000023
N1845 X10.936516227 Y-1.952755615 Z-0.30000001 I0.062499998 J0.00000023
N1850 X10.811516231 Y-1.952756076 Z-0.32000001 I-0.062499998 J-0.00000023
N1855 X10.936516227 Y-1.952755615 Z-0.340000011 I0.062499998 J0.00000023
N1860 X10.811516231 Y-1.952756076 Z-0.360000011 I-0.062499998 J-0.00000023
N1865 X10.936516227 Y-1.952755615 Z-0.380000012 I0.062499998 J0.00000023
N1870 X10.811516231 Y-1.952756076 Z-0.400000013 I-0.062499998 J-0.00000023
N1875 X10.936516227 Y-1.952755615 Z-0.420000013 I0.062499998 J0.00000023
N1880 X10.811516231 Y-1.952756076 Z-0.440000014 I-0.062499998 J-0.00000023
N1885 X10.936516227 Y-1.952755615 Z-0.460000015 I0.062499998 J0.00000023
N1890 X10.811516231 Y-1.952756076 Z-0.480000015 I-0.062499998 J-0.00000023
N1895 X10.936516227 Y-1.952755845 Z-0.499999992 I0.062499998 J0.00000023
N1900 X10.811516231 I-0.062499998 J0.
N1905 X10.936516227 I0.062499998 J0.
N1910 X10.874016229 I-0.031249999 J0.
N1915 G0 Z0.199999997
N1920 X11.81151599 Y-1.952756076
N1925 G1 Z0. F10.
N1930 G3 X11.936515986 Y-1.952755615 Z-0.020000001 I0.062499998 J0.00000023
N1935 X11.81151599 Y-1.952756076 Z-0.040000001 I-0.062499998 J-0.00000023
N1940 X11.936515986 Y-1.952755615 Z-0.060000002 I0.062499998 J0.00000023
N1945 X11.81151599 Y-1.952756076 Z-0.080000003 I-0.062499998 J-0.00000023
N1950 X11.936515986 Y-1.952755615 Z-0.100000003 I0.062499998 J0.00000023
N1955 X11.81151599 Y-1.952756076 Z-0.120000004 I-0.062499998 J-0.00000023
N1960 X11.936515986 Y-1.952755615 Z-0.140000004 I0.062499998 J0.00000023
N1965 X11.81151599 Y-1.952756076 Z-0.160000005 I-0.062499998 J-0.00000023
N1970 X11.936515986 Y-1.952755615 Z-0.180000006 I0.062499998 J0.00000023
N1975 X11.81151599 Y-1.952756076 Z-0.200000006 I-0.062499998 J-0.00000023
N1980 X11.936515986 Y-1.952755615 Z-0.220000007 I0.062499998 J0.00000023
N1985 X11.81151599 Y-1.952756076 Z-0.240000008 I-0.062499998 J-0.00000023
N1990 X11.936515986 Y-1.952755615 Z-0.260000008 I0.062499998 J0.00000023
N1995 X11.81151599 Y-1.952756076 Z-0.280000009 I-0.062499998 J-0.00000023
N2000 X11.936515986 Y-1.952755615 Z-0.30000001 I0.062499998 J0.00000023
N2005 X11.81151599 Y-1.952756076 Z-0.32000001 I-0.062499998 J-0.00000023
N2010 X11.936515986 Y-1.952755615 Z-0.340000011 I0.062499998 J0.00000023
N2015 X11.81151599 Y-1.952756076 Z-0.360000011 I-0.062499998 J-0.00000023
N2020 X11.936515986 Y-1.952755615 Z-0.380000012 I0.062499998 J0.00000023
N2025 X11.81151599 Y-1.952756076 Z-0.400000013 I-0.062499998 J-0.00000023
N2030 X11.936515986 Y-1.952755615 Z-0.420000013 I0.062499998 J0.00000023
N2035 X11.81151599 Y-1.952756076 Z-0.440000014 I-0.062499998 J-0.00000023
N2040 X11.936515986 Y-1.952755615 Z-0.460000015 I0.062499998 J0.00000023
N2045 X11.81151599 Y-1.952756076 Z-0.480000015 I-0.062499998 J-0.00000023
N2050 X11.936515986 Y-1.952755845 Z-0.499999992 I0.062499998 J0.00000023
N2055 X11.81151599 I-0.062499998 J0.
N2060 X11.936515986 I0.062499998 J0.
N2065 X11.874015988 I-0.031249999 J0.
N2070 G0 Z0.199999997
N2075 X12.81151575 Y-1.952756076
N2080 G1 Z0. F10.
N2085 G3 X12.936515746 Y-1.952755615 Z-0.020000001 I0.062499998 J0.00000023
N2090 X12.81151575 Y-1.952756076 Z-0.040000001 I-0.062499998 J-0.00000023
N2095 X12.936515746 Y-1.952755615 Z-0.060000002 I0.062499998 J0.00000023
N2100 X12.81151575 Y-1.952756076 Z-0.080000003 I-0.062499998 J-0.00000023
N2105 X12.936515746 Y-1.952755615 Z-0.100000003 I0.062499998 J0.00000023
N2110 X12.81151575 Y-1.952756076 Z-0.120000004 I-0.062499998 J-0.00000023
N2115 X12.936515746 Y-1.952755615 Z-0.140000004 I0.062499998 J0.00000023
N2120 X12.81151575 Y-1.952756076 Z-0.160000005 I-0.062499998 J-0.00000023
N2125 X12.936515746 Y-1.952755615 Z-0.180000006 I0.062499998 J0.00000023
N2130 X12.81151575 Y-1.952756076 Z-0.200000006 I-0.062499998 J-0.00000023
N2135 X12.936515746 Y-1.952755615 Z-0.220000007 I0.062499998 J0.00000023
N2140 X12.81151575 Y-1.952756076 Z-0.240000008 I-0.062499998 J-0.00000023
N2145 X12.936515746 Y-1.952755615 Z-0.260000008 I0.062499998 J0.00000023
N2150 X12.81151575 Y-1.952756076 Z-0.280000009 I-0.062499998 J-0.00000023
N2155 X12.936515746 Y-1.952755615 Z-0.30000001 I0.062499998 J0.00000023
N2160 X12.81151575 Y-1.952756076 Z-0.32000001 I-0.062499998 J-0.00000023
N2165 X12.936515746 Y-1.952755615 Z-0.340000011 I0.062499998 J0.00000023
N2170 X12.81151575 Y-1.952756076 Z-0.360000011 I-0.062499998 J-0.00000023
N2175 X12.936515746 Y-1.952755615 Z-0.380000012 I0.062499998 J0.00000023
N2180 X12.81151575 Y-1.952756076 Z-0.400000013 I-0.062499998 J-0.00000023
N2185 X12.936515746 Y-1.952755615 Z-0.420000013 I0.062499998 J0.00000023
N2190 X12.81151575 Y-1.952756076 Z-0.440000014 I-0.062499998 J-0.00000023
N2195 X12.936515746 Y-1.952755615 Z-0.460000015 I0.062499998 J0.00000023
N2200 X12.81151575 Y-1.952756076 Z-0.480000015 I-0.062499998 J-0.00000023
N2205 X12.936515746 Y-1.952755845 Z-0.499999992 I0.062499998 J0.00000023
N2210 X12.81151575 I-0.062499998 J0.
N2215 X12.936515746 I0.062499998 J0.
N2220 X12.874015748 I-0.031249999 J0.
N2225 G0 Z0.199999997
N2230 X13.81151551 Y-1.952756076
N2235 G1 Z0. F10.
N2240 G3 X13.936515506 Y-1.952755615 Z-0.020000001 I0.062499998 J0.00000023
N2245 X13.81151551 Y-1.952756076 Z-0.040000001 I-0.062499998 J-0.00000023
N2250 X13.936515506 Y-1.952755615 Z-0.060000002 I0.062499998 J0.00000023
N2255 X13.81151551 Y-1.952756076 Z-0.080000003 I-0.062499998 J-0.00000023
N2260 X13.936515506 Y-1.952755615 Z-0.100000003 I0.062499998 J0.00000023
N2265 X13.81151551 Y-1.952756076 Z-0.120000004 I-0.062499998 J-0.00000023
N2270 X13.936515506 Y-1.952755615 Z-0.140000004 I0.062499998 J0.00000023
N2275 X13.81151551 Y-1.952756076 Z-0.160000005 I-0.062499998 J-0.00000023
N2280 X13.936515506 Y-1.952755615 Z-0.180000006 I0.062499998 J0.00000023
N2285 X13.81151551 Y-1.952756076 Z-0.200000006 I-0.062499998 J-0.00000023
N2290 X13.936515506 Y-1.952755615 Z-0.220000007 I0.062499998 J0.00000023
N2295 X13.81151551 Y-1.952756076 Z-0.240000008 I-0.062499998 J-0.00000023
N2300 X13.936515506 Y-1.952755615 Z-0.260000008 I0.062499998 J0.00000023
N2305 X13.81151551 Y-1.952756076 Z-0.280000009 I-0.062499998 J-0.00000023
N2310 X13.936515506 Y-1.952755615 Z-0.30000001 I0.062499998 J0.00000023
N2315 X13.81151551 Y-1.952756076 Z-0.32000001 I-0.062499998 J-0.00000023
N2320 X13.936515506 Y-1.952755615 Z-0.340000011 I0.062499998 J0.00000023
N2325 X13.81151551 Y-1.952756076 Z-0.360000011 I-0.062499998 J-0.00000023
N2330 X13.936515506 Y-1.952755615 Z-0.380000012 I0.062499998 J0.00000023
N2335 X13.81151551 Y-1.952756076 Z-0.400000013 I-0.062499998 J-0.00000023
N2340 X13.936515506 Y-1.952755615 Z-0.420000013 I0.062499998 J0.00000023
N2345 X13.81151551 Y-1.952756076 Z-0.440000014 I-0.062499998 J-0.00000023
N2350 X13.936515506 Y-1.952755615 Z-0.460000015 I0.062499998 J0.00000023
N2355 X13.81151551 Y-1.952756076 Z-0.480000015 I-0.062499998 J-0.00000023
N2360 X13.936515506 Y-1.952755845 Z-0.499999992 I0.062499998 J0.00000023
N2365 X13.81151551 I-0.062499998 J0.
N2370 X13.936515506 I0.062499998 J0.
N2375 X13.874015508 I-0.031249999 J0.
N2380 G0 Z0.199999997
N2385 X13.81151551 Y-2.952756136
N2390 G1 Z0. F10.
N2395 G3 X13.936515506 Y-2.952755675 Z-0.020000001 I0.062499998 J0.00000023
N2400 X13.81151551 Y-2.952756136 Z-0.040000001 I-0.062499998 J-0.00000023
N2405 X13.936515506 Y-2.952755675 Z-0.060000002 I0.062499998 J0.00000023
N2410 X13.81151551 Y-2.952756136 Z-0.080000003 I-0.062499998 J-0.00000023
N2415 X13.936515506 Y-2.952755675 Z-0.100000003 I0.062499998 J0.00000023
N2420 X13.81151551 Y-2.952756136 Z-0.120000004 I-0.062499998 J-0.00000023
N2425 X13.936515506 Y-2.952755675 Z-0.140000004 I0.062499998 J0.00000023
N2430 X13.81151551 Y-2.952756136 Z-0.160000005 I-0.062499998 J-0.00000023
N2435 X13.936515506 Y-2.952755675 Z-0.180000006 I0.062499998 J0.00000023
N2440 X13.81151551 Y-2.952756136 Z-0.200000006 I-0.062499998 J-0.00000023
N2445 X13.936515506 Y-2.952755675 Z-0.220000007 I0.062499998 J0.00000023
N2450 X13.81151551 Y-2.952756136 Z-0.240000008 I-0.062499998 J-0.00000023
N2455 X13.936515506 Y-2.952755675 Z-0.260000008 I0.062499998 J0.00000023
N2460 X13.81151551 Y-2.952756136 Z-0.280000009 I-0.062499998 J-0.00000023
N2465 X13.936515506 Y-2.952755675 Z-0.30000001 I0.062499998 J0.00000023
N2470 X13.81151551 Y-2.952756136 Z-0.32000001 I-0.062499998 J-0.00000023
N2475 X13.936515506 Y-2.952755675 Z-0.340000011 I0.062499998 J0.00000023
N2480 X13.81151551 Y-2.952756136 Z-0.360000011 I-0.062499998 J-0.00000023
N2485 X13.936515506 Y-2.952755675 Z-0.380000012 I0.062499998 J0.00000023
N2490 X13.81151551 Y-2.952756136 Z-0.400000013 I-0.062499998 J-0.00000023
N2495 X13.936515506 Y-2.952755675 Z-0.420000013 I0.062499998 J0.00000023
N2500 X13.81151551 Y-2.952756136 Z-0.440000014 I-0.062499998 J-0.00000023
N2505 X13.936515506 Y-2.952755675 Z-0.460000015 I0.062499998 J0.00000023
N2510 X13.81151551 Y-2.952756136 Z-0.480000015 I-0.062499998 J-0.00000023
N2515 X13.936515506 Y-2.952755906 Z-0.499999992 I0.062499998 J0.00000023
N2520 X13.81151551 I-0.062499998 J0.
N2525 X13.936515506 I0.062499998 J0.
N2530 X13.874015508 I-0.031249999 J0.
N2535 G0 Z0.199999997
N2540 X12.81151575 Y-2.952756136
N2545 G1 Z0. F10.
N2550 G3 X12.936515746 Y-2.952755675 Z-0.020000001 I0.062499998 J0.00000023
N2555 X12.81151575 Y-2.952756136 Z-0.040000001 I-0.062499998 J-0.00000023
N2560 X12.936515746 Y-2.952755675 Z-0.060000002 I0.062499998 J0.00000023
N2565 X12.81151575 Y-2.952756136 Z-0.080000003 I-0.062499998 J-0.00000023
N2570 X12.936515746 Y-2.952755675 Z-0.100000003 I0.062499998 J0.00000023
N2575 X12.81151575 Y-2.952756136 Z-0.120000004 I-0.062499998 J-0.00000023
N2580 X12.936515746 Y-2.952755675 Z-0.140000004 I0.062499998 J0.00000023
N2585 X12.81151575 Y-2.952756136 Z-0.160000005 I-0.062499998 J-0.00000023
N2590 X12.936515746 Y-2.952755675 Z-0.180000006 I0.062499998 J0.00000023
N2595 X12.81151575 Y-2.952756136 Z-0.200000006 I-0.062499998 J-0.00000023
N2600 X12.936515746 Y-2.952755675 Z-0.220000007 I0.062499998 J0.00000023
N2605 X12.81151575 Y-2.952756136 Z-0.240000008 I-0.062499998 J-0.00000023
N2610 X12.936515746 Y-2.952755675 Z-0.260000008 I0.062499998 J0.00000023
N2615 X12.81151575 Y-2.952756136 Z-0.280000009 I-0.062499998 J-0.00000023
N2620 X12.936515746 Y-2.952755675 Z-0.30000001 I0.062499998 J0.00000023
N2625 X12.81151575 Y-2.952756136 Z-0.32000001 I-0.062499998 J-0.00000023
N2630 X12.936515746 Y-2.952755675 Z-0.340000011 I0.062499998 J0.00000023
N2635 X12.81151575 Y-2.952756136 Z-0.360000011 I-0.062499998 J-0.00000023
N2640 X12.936515746 Y-2.952755675 Z-0.380000012 I0.062499998 J0.00000023
N2645 X12.81151575 Y-2.952756136 Z-0.400000013 I-0.062499998 J-0.00000023
N2650 X12.936515746 Y-2.952755675 Z-0.420000013 I0.062499998 J0.00000023
N2655 X12.81151575 Y-2.952756136 Z-0.440000014 I-0.062499998 J-0.00000023
N2660 X12.936515746 Y-2.952755675 Z-0.460000015 I0.062499998 J0.00000023
N2665 X12.81151575 Y-2.952756136 Z-0.480000015 I-0.062499998 J-0.00000023
N2670 X12.936515746 Y-2.952755906 Z-0.499999992 I0.062499998 J0.00000023
N2675 X12.81151575 I-0.062499998 J0.
N2680 X12.936515746 I0.062499998 J0.
N2685 X12.874015748 I-0.031249999 J0.
N2690 G0 Z0.199999997
N2695 X11.81151599 Y-2.952756136
N2700 G1 Z0. F10.
N2705 G3 X11.936515986 Y-2.952755675 Z-0.020000001 I0.062499998 J0.00000023
N2710 X11.81151599 Y-2.952756136 Z-0.040000001 I-0.062499998 J-0.00000023
N2715 X11.936515986 Y-2.952755675 Z-0.060000002 I0.062499998 J0.00000023
N2720 X11.81151599 Y-2.952756136 Z-0.080000003 I-0.062499998 J-0.00000023
N2725 X11.936515986 Y-2.952755675 Z-0.100000003 I0.062499998 J0.00000023
N2730 X11.81151599 Y-2.952756136 Z-0.120000004 I-0.062499998 J-0.00000023
N2735 X11.936515986 Y-2.952755675 Z-0.140000004 I0.062499998 J0.00000023
N2740 X11.81151599 Y-2.952756136 Z-0.160000005 I-0.062499998 J-0.00000023
N2745 X11.936515986 Y-2.952755675 Z-0.180000006 I0.062499998 J0.00000023
N2750 X11.81151599 Y-2.952756136 Z-0.200000006 I-0.062499998 J-0.00000023
N2755 X11.936515986 Y-2.952755675 Z-0.220000007 I0.062499998 J0.00000023
N2760 X11.81151599 Y-2.952756136 Z-0.240000008 I-0.062499998 J-0.00000023
N2765 X11.936515986 Y-2.952755675 Z-0.260000008 I0.062499998 J0.00000023
N2770 X11.81151599 Y-2.952756136 Z-0.280000009 I-0.062499998 J-0.00000023
N2775 X11.936515986 Y-2.952755675 Z-0.30000001 I0.062499998 J0.00000023
N2780 X11.81151599 Y-2.952756136 Z-0.32000001 I-0.062499998 J-0.00000023
N2785 X11.936515986 Y-2.952755675 Z-0.340000011 I0.062499998 J0.00000023
N2790 X11.81151599 Y-2.952756136 Z-0.360000011 I-0.062499998 J-0.00000023
N2795 X11.936515986 Y-2.952755675 Z-0.380000012 I0.062499998 J0.00000023
N2800 X11.81151599 Y-2.952756136 Z-0.400000013 I-0.062499998 J-0.00000023
N2805 X11.936515986 Y-2.952755675 Z-0.420000013 I0.062499998 J0.00000023
N2810 X11.81151599 Y-2.952756136 Z-0.440000014 I-0.062499998 J-0.00000023
N2815 X11.936515986 Y-2.952755675 Z-0.460000015 I0.062499998 J0.00000023
N2820 X11.81151599 Y-2.952756136 Z-0.480000015 I-0.062499998 J-0.00000023
N2825 X11.936515986 Y-2.952755906 Z-0.499999992 I0.062499998 J0.00000023
N2830 X11.81151599 I-0.062499998 J0.
N2835 X11.936515986 I0.062499998 J0.
N2840 X11.874015988 I-0.031249999 J0.
N2845 G0 Z0.199999997
N2850 X10.811516231 Y-2.952756136
N2855 G1 Z0. F10.
N2860 G3 X10.936516227 Y-2.952755675 Z-0.020000001 I0.062499998 J0.00000023
N2865 X10.811516231 Y-2.952756136 Z-0.040000001 I-0.062499998 J-0.00000023
N2870 X10.936516227 Y-2.952755675 Z-0.060000002 I0.062499998 J0.00000023
N2875 X10.811516231 Y-2.952756136 Z-0.080000003 I-0.062499998 J-0.00000023
N2880 X10.936516227 Y-2.952755675 Z-0.100000003 I0.062499998 J0.00000023
N2885 X10.811516231 Y-2.952756136 Z-0.120000004 I-0.062499998 J-0.00000023
N2890 X10.936516227 Y-2.952755675 Z-0.140000004 I0.062499998 J0.00000023
N2895 X10.811516231 Y-2.952756136 Z-0.160000005 I-0.062499998 J-0.00000023
N2900 X10.936516227 Y-2.952755675 Z-0.180000006 I0.062499998 J0.00000023
N2905 X10.811516231 Y-2.952756136 Z-0.200000006 I-0.062499998 J-0.00000023
N2910 X10.936516227 Y-2.952755675 Z-0.220000007 I0.062499998 J0.00000023
N2915 X10.811516231 Y-2.952756136 Z-0.240000008 I-0.062499998 J-0.00000023
N2920 X10.936516227 Y-2.952755675 Z-0.260000008 I0.062499998 J0.00000023
N2925 X10.811516231 Y-2.952756136 Z-0.280000009 I-0.062499998 J-0.00000023
N2930 X10.936516227 Y-2.952755675 Z-0.30000001 I0.062499998 J0.00000023
N2935 X10.811516231 Y-2.952756136 Z-0.32000001 I-0.062499998 J-0.00000023
N2940 X10.936516227 Y-2.952755675 Z-0.340000011 I0.062499998 J0.00000023
N2945 X10.811516231 Y-2.952756136 Z-0.360000011 I-0.062499998 J-0.00000023
N2950 X10.936516227 Y-2.952755675 Z-0.380000012 I0.062499998 J0.00000023
N2955 X10.811516231 Y-2.952756136 Z-0.400000013 I-0.062499998 J-0.00000023
N2960 X10.936516227 Y-2.952755675 Z-0.420000013 I0.062499998 J0.00000023
N2965 X10.811516231 Y-2.952756136 Z-0.440000014 I-0.062499998 J-0.00000023
N2970 X10.936516227 Y-2.952755675 Z-0.460000015 I0.062499998 J0.00000023
N2975 X10.811516231 Y-2.952756136 Z-0.480000015 I-0.062499998 J-0.00000023
N2980 X10.936516227 Y-2.952755906 Z-0.499999992 I0.062499998 J0.00000023
N2985 X10.811516231 I-0.062499998 J0.
N2990 X10.936516227 I0.062499998 J0.
N2995 X10.874016229 I-0.031249999 J0.
N3000 G0 Z0.199999997
N3005 X9.81151587 Y-2.952756136
N3010 G1 Z0. F10.
N3015 G3 X9.936515866 Y-2.952755675 Z-0.020000001 I0.062499998 J0.00000023
N3020 X9.81151587 Y-2.952756136 Z-0.040000001 I-0.062499998 J-0.00000023
N3025 X9.936515866 Y-2.952755675 Z-0.060000002 I0.062499998 J0.00000023
N3030 X9.81151587 Y-2.952756136 Z-0.080000003 I-0.062499998 J-0.00000023
N3035 X9.936515866 Y-2.952755675 Z-0.100000003 I0.062499998 J0.00000023
N3040 X9.81151587 Y-2.952756136 Z-0.120000004 I-0.062499998 J-0.00000023
N3045 X9.936515866 Y-2.952755675 Z-0.140000004 I0.062499998 J0.00000023
N3050 X9.81151587 Y-2.952756136 Z-0.160000005 I-0.062499998 J-0.00000023
N3055 X9.936515866 Y-2.952755675 Z-0.180000006 I0.062499998 J0.00000023
N3060 X9.81151587 Y-2.952756136 Z-0.200000006 I-0.062499998 J-0.00000023
N3065 X9.936515866 Y-2.952755675 Z-0.220000007 I0.062499998 J0.00000023
N3070 X9.81151587 Y-2.952756136 Z-0.240000008 I-0.062499998 J-0.00000023
N3075 X9.936515866 Y-2.952755675 Z-0.260000008 I0.062499998 J0.00000023
N3080 X9.81151587 Y-2.952756136 Z-0.280000009 I-0.062499998 J-0.00000023
N3085 X9.936515866 Y-2.952755675 Z-0.30000001 I0.062499998 J0.00000023
N3090 X9.81151587 Y-2.952756136 Z-0.32000001 I-0.062499998 J-0.00000023
N3095 X9.936515866 Y-2.952755675 Z-0.340000011 I0.062499998 J0.00000023
N3100 X9.81151587 Y-2.952756136 Z-0.360000011 I-0.062499998 J-0.00000023
N3105 X9.936515866 Y-2.952755675 Z-0.380000012 I0.062499998 J0.00000023
N3110 X9.81151587 Y-2.952756136 Z-0.400000013 I-0.062499998 J-0.00000023
N3115 X9.936515866 Y-2.952755675 Z-0.420000013 I0.062499998 J0.00000023
N3120 X9.81151587 Y-2.952756136 Z-0.440000014 I-0.062499998 J-0.00000023
N3125 X9.936515866 Y-2.952755675 Z-0.460000015 I0.062499998 J0.00000023
N3130 X9.81151587 Y-2.952756136 Z-0.480000015 I-0.062499998 J-0.00000023
N3135 X9.936515866 Y-2.952755906 Z-0.499999992 I0.062499998 J0.00000023
N3140 X9.81151587 I-0.062499998 J0.
N3145 X9.936515866 I0.062499998 J0.
N3150 X9.874015868 I-0.031249999 J0.
N3155 G0 Z0.199999997
N3160 X8.81151551 Y-2.952756136
N3165 G1 Z0. F10.
N3170 G3 X8.936515506 Y-2.952755675 Z-0.020000001 I0.062499998 J0.00000023
N3175 X8.81151551 Y-2.952756136 Z-0.040000001 I-0.062499998 J-0.00000023
N3180 X8.936515506 Y-2.952755675 Z-0.060000002 I0.062499998 J0.00000023
N3185 X8.81151551 Y-2.952756136 Z-0.080000003 I-0.062499998 J-0.00000023
N3190 X8.936515506 Y-2.952755675 Z-0.100000003 I0.062499998 J0.00000023
N3195 X8.81151551 Y-2.952756136 Z-0.120000004 I-0.062499998 J-0.00000023
N3200 X8.936515506 Y-2.952755675 Z-0.140000004 I0.062499998 J0.00000023
N3205 X8.81151551 Y-2.952756136 Z-0.160000005 I-0.062499998 J-0.00000023
N3210 X8.936515506 Y-2.952755675 Z-0.180000006 I0.062499998 J0.00000023
N3215 X8.81151551 Y-2.952756136 Z-0.200000006 I-0.062499998 J-0.00000023
N3220 X8.936515506 Y-2.952755675 Z-0.220000007 I0.062499998 J0.00000023
N3225 X8.81151551 Y-2.952756136 Z-0.240000008 I-0.062499998 J-0.00000023
N3230 X8.936515506 Y-2.952755675 Z-0.260000008 I0.062499998 J0.00000023
N3235 X8.81151551 Y-2.952756136 Z-0.280000009 I-0.062499998 J-0.00000023
N3240 X8.936515506 Y-2.952755675 Z-0.30000001 I0.062499998 J0.00000023
N3245 X8.81151551 Y-2.952756136 Z-0.32000001 I-0.062499998 J-0.00000023
N3250 X8.936515506 Y-2.952755675 Z-0.340000011 I0.062499998 J0.00000023
N3255 X8.81151551 Y-2.952756136 Z-0.360000011 I-0.062499998 J-0.00000023
N3260 X8.936515506 Y-2.952755675 Z-0.380000012 I0.062499998 J0.00000023
N3265 X8.81151551 Y-2.952756136 Z-0.400000013 I-0.062499998 J-0.00000023
N3270 X8.936515506 Y-2.952755675 Z-0.420000013 I0.062499998 J0.00000023
N3275 X8.81151551 Y-2.952756136 Z-0.440000014 I-0.062499998 J-0.00000023
N3280 X8.936515506 Y-2.952755675 Z-0.460000015 I0.062499998 J0.00000023
N3285 X8.81151551 Y-2.952756136 Z-0.480000015 I-0.062499998 J-0.00000023
N3290 X8.936515506 Y-2.952755906 Z-0.499999992 I0.062499998 J0.00000023
N3295 X8.81151551 I-0.062499998 J0.
N3300 X8.936515506 I0.062499998 J0.
N3305 X8.874015508 I-0.031249999 J0.
N3310 G0 Z0.199999997
N3315 X7.81151575 Y-2.952756136
N3320 G1 Z0. F10.
N3325 G3 X7.936515746 Y-2.952755675 Z-0.020000001 I0.062499998 J0.00000023
N3330 X7.81151575 Y-2.952756136 Z-0.040000001 I-0.062499998 J-0.00000023
N3335 X7.936515746 Y-2.952755675 Z-0.060000002 I0.062499998 J0.00000023
N3340 X7.81151575 Y-2.952756136 Z-0.080000003 I-0.062499998 J-0.00000023
N3345 X7.936515746 Y-2.952755675 Z-0.100000003 I0.062499998 J0.00000023
N3350 X7.81151575 Y-2.952756136 Z-0.120000004 I-0.062499998 J-0.00000023
N3355 X7.936515746 Y-2.952755675 Z-0.140000004 I0.062499998 J0.00000023
N3360 X7.81151575 Y-2.952756136 Z-0.160000005 I-0.062499998 J-0.00000023
N3365 X7.936515746 Y-2.952755675 Z-0.180000006 I0.062499998 J0.00000023
N3370 X7.81151575 Y-2.952756136 Z-0.200000006 I-0.062499998 J-0.00000023
N3375 X7.936515746 Y-2.952755675 Z-0.220000007 I0.062499998 J0.00000023
N3380 X7.81151575 Y-2.952756136 Z-0.240000008 I-0.062499998 J-0.00000023
N3385 X7.936515746 Y-2.952755675 Z-0.260000008 I0.062499998 J0.00000023
N3390 X7.81151575 Y-2.952756136 Z-0.280000009 I-0.062499998 J-0.00000023
N3395 X7.936515746 Y-2.952755675 Z-0.30000001 I0.062499998 J0.00000023
N3400 X7.81151575 Y-2.952756136 Z-0.32000001 I-0.062499998 J-0.00000023
N3405 X7.936515746 Y-2.952755675 Z-0.340000011 I0.062499998 J0.00000023
N3410 X7.81151575 Y-2.952756136 Z-0.360000011 I-0.062499998 J-0.00000023
N3415 X7.936515746 Y-2.952755675 Z-0.380000012 I0.062499998 J0.00000023
N3420 X7.81151575 Y-2.952756136 Z-0.400000013 I-0.062499998 J-0.00000023
N3425 X7.936515746 Y-2.952755675 Z-0.420000013 I0.062499998 J0.00000023
N3430 X7.81151575 Y-2.952756136 Z-0.440000014 I-0.062499998 J-0.00000023
N3435 X7.936515746 Y-2.952755675 Z-0.460000015 I0.062499998 J0.00000023
N3440 X7.81151575 Y-2.952756136 Z-0.480000015 I-0.062499998 J-0.00000023
N3445 X7.936515746 Y-2.952755906 Z-0.499999992 I0.062499998 J0.00000023
N3450 X7.81151575 I-0.062499998 J0.
N3455 X7.936515746 I0.062499998 J0.
N3460 X7.874015748 I-0.031249999 J0.
N3465 G0 Z0.199999997
N3470 X6.81151599 Y-2.952756136
N3475 G1 Z0. F10.
N3480 G3 X6.936515986 Y-2.952755675 Z-0.020000001 I0.062499998 J0.00000023
N3485 X6.81151599 Y-2.952756136 Z-0.040000001 I-0.062499998 J-0.00000023
N3490 X6.936515986 Y-2.952755675 Z-0.060000002 I0.062499998 J0.00000023
N3495 X6.81151599 Y-2.952756136 Z-0.080000003 I-0.062499998 J-0.00000023
N3500 X6.936515986 Y-2.952755675 Z-0.100000003 I0.062499998 J0.00000023
N3505 X6.81151599 Y-2.952756136 Z-0.120000004 I-0.062499998 J-0.00000023
N3510 X6.936515986 Y-2.952755675 Z-0.140000004 I0.062499998 J0.00000023
N3515 X6.81151599 Y-2.952756136 Z-0.160000005 I-0.062499998 J-0.00000023
N3520 X6.936515986 Y-2.952755675 Z-0.180000006 I0.062499998 J0.00000023
N3525 X6.81151599 Y-2.952756136 Z-0.200000006 I-0.062499998 J-0.00000023
N3530 X6.936515986 Y-2.952755675 Z-0.220000007 I0.062499998 J0.00000023
N3535 X6.81151599 Y-2.952756136 Z-0.240000008 I-0.062499998 J-0.00000023
N3540 X6.936515986 Y-2.952755675 Z-0.260000008 I0.062499998 J0.00000023
N3545 X6.81151599 Y-2.952756136 Z-0.280000009 I-0.062499998 J-0.00000023
N3550 X6.936515986 Y-2.952755675 Z-0.30000001 I0.062499998 J0.00000023
N3555 X6.81151599 Y-2.952756136 Z-0.32000001 I-0.062499998 J-0.00000023
N3560 X6.936515986 Y-2.952755675 Z-0.340000011 I0.062499998 J0.00000023
N3565 X6.81151599 Y-2.952756136 Z-0.360000011 I-0.062499998 J-0.00000023
N3570 X6.936515986 Y-2.952755675 Z-0.380000012 I0.062499998 J0.00000023
N3575 X6.81151599 Y-2.952756136 Z-0.400000013 I-0.062499998 J-0.00000023
N3580 X6.936515986 Y-2.952755675 Z-0.420000013 I0.062499998 J0.00000023
N3585 X6.81151599 Y-2.952756136 Z-0.440000014 I-0.062499998 J-0.00000023
N3590 X6.936515986 Y-2.952755675 Z-0.460000015 I0.062499998 J0.00000023
N3595 X6.81151599 Y-2.952756136 Z-0.480000015 I-0.062499998 J-0.00000023
N3600 X6.936515986 Y-2.952755906 Z-0.499999992 I0.062499998 J0.00000023
N3605 X6.81151599 I-0.062499998 J0.
N3610 X6.936515986 I0.062499998 J0.
N3615 X6.874015988 I-0.031249999 J0.
N3620 G0 Z0.199999997
N3625 X5.81151563 Y-2.952756136
N3630 G1 Z0. F10.
N3635 G3 X5.936515626 Y-2.952755675 Z-0.020000001 I0.062499998 J0.00000023
N3640 X5.81151563 Y-2.952756136 Z-0.040000001 I-0.062499998 J-0.00000023
N3645 X5.936515626 Y-2.952755675 Z-0.060000002 I0.062499998 J0.00000023
N3650 X5.81151563 Y-2.952756136 Z-0.080000003 I-0.062499998 J-0.00000023
N3655 X5.936515626 Y-2.952755675 Z-0.100000003 I0.062499998 J0.00000023
N3660 X5.81151563 Y-2.952756136 Z-0.120000004 I-0.062499998 J-0.00000023
N3665 X5.936515626 Y-2.952755675 Z-0.140000004 I0.062499998 J0.00000023
N3670 X5.81151563 Y-2.952756136 Z-0.160000005 I-0.062499998 J-0.00000023
N3675 X5.936515626 Y-2.952755675 Z-0.180000006 I0.062499998 J0.00000023
N3680 X5.81151563 Y-2.952756136 Z-0.200000006 I-0.062499998 J-0.00000023
N3685 X5.936515626 Y-2.952755675 Z-0.220000007 I0.062499998 J0.00000023
N3690 X5.81151563 Y-2.952756136 Z-0.240000008 I-0.062499998 J-0.00000023
N3695 X5.936515626 Y-2.952755675 Z-0.260000008 I0.062499998 J0.00000023
N3700 X5.81151563 Y-2.952756136 Z-0.280000009 I-0.062499998 J-0.00000023
N3705 X5.936515626 Y-2.952755675 Z-0.30000001 I0.062499998 J0.00000023
N3710 X5.81151563 Y-2.952756136 Z-0.32000001 I-0.062499998 J-0.00000023
N3715 X5.936515626 Y-2.952755675 Z-0.340000011 I0.062499998 J0.00000023
N3720 X5.81151563 Y-2.952756136 Z-0.360000011 I-0.062499998 J-0.00000023
N3725 X5.936515626 Y-2.952755675 Z-0.380000012 I0.062499998 J0.00000023
N3730 X5.81151563 Y-2.952756136 Z-0.400000013 I-0.062499998 J-0.00000023
N3735 X5.936515626 Y-2.952755675 Z-0.420000013 I0.062499998 J0.00000023
N3740 X5.81151563 Y-2.952756136 Z-0.440000014 I-0.062499998 J-0.00000023
N3745 X5.936515626 Y-2.952755675 Z-0.460000015 I0.062499998 J0.00000023
N3750 X5.81151563 Y-2.952756136 Z-0.480000015 I-0.062499998 J-0.00000023
N3755 X5.936515626 Y-2.952755906 Z-0.499999992 I0.062499998 J0.00000023
N3760 X5.81151563 I-0.062499998 J0.
N3765 X5.936515626 I0.062499998 J0.
N3770 X5.874015628 I-0.031249999 J0.
N3775 G0 Z0.199999997
N3780 X4.81151587 Y-2.952756136
N3785 G1 Z0. F10.
N3790 G3 X4.936515866 Y-2.952755675 Z-0.020000001 I0.062499998 J0.00000023
N3795 X4.81151587 Y-2.952756136 Z-0.040000001 I-0.062499998 J-0.00000023
N3800 X4.936515866 Y-2.952755675 Z-0.060000002 I0.062499998 J0.00000023
N3805 X4.81151587 Y-2.952756136 Z-0.080000003 I-0.062499998 J-0.00000023
N3810 X4.936515866 Y-2.952755675 Z-0.100000003 I0.062499998 J0.00000023
N3815 X4.81151587 Y-2.952756136 Z-0.120000004 I-0.062499998 J-0.00000023
N3820 X4.936515866 Y-2.952755675 Z-0.140000004 I0.062499998 J0.00000023
N3825 X4.81151587 Y-2.952756136 Z-0.160000005 I-0.062499998 J-0.00000023
N3830 X4.936515866 Y-2.952755675 Z-0.180000006 I0.062499998 J0.00000023
N3835 X4.81151587 Y-2.952756136 Z-0.200000006 I-0.062499998 J-0.00000023
N3840 X4.936515866 Y-2.952755675 Z-0.220000007 I0.062499998 J0.00000023
N3845 X4.81151587 Y-2.952756136 Z-0.240000008 I-0.062499998 J-0.00000023
N3850 X4.936515866 Y-2.952755675 Z-0.260000008 I0.062499998 J0.00000023
N3855 X4.81151587 Y-2.952756136 Z-0.280000009 I-0.062499998 J-0.00000023
N3860 X4.936515866 Y-2.952755675 Z-0.30000001 I0.062499998 J0.00000023
N3865 X4.81151587 Y-2.952756136 Z-0.32000001 I-0.062499998 J-0.00000023
N3870 X4.936515866 Y-2.952755675 Z-0.340000011 I0.062499998 J0.00000023
N3875 X4.81151587 Y-2.952756136 Z-0.360000011 I-0.062499998 J-0.00000023
N3880 X4.936515866 Y-2.952755675 Z-0.380000012 I0.062499998 J0.00000023
N3885 X4.81151587 Y-2.952756136 Z-0.400000013 I-0.062499998 J-0.00000023
N3890 X4.936515866 Y-2.952755675 Z-0.420000013 I0.062499998 J0.00000023
N3895 X4.81151587 Y-2.952756136 Z-0.440000014 I-0.062499998 J-0.00000023
N3900 X4.936515866 Y-2.952755675 Z-0.460000015 I0.062499998 J0.00000023
N3905 X4.81151587 Y-2.952756136 Z-0.480000015 I-0.062499998 J-0.00000023
N3910 X4.936515866 Y-2.952755906 Z-0.499999992 I0.062499998 J0.00000023
N3915 X4.81151587 I-0.062499998 J0.
N3920 X4.936515866 I0.062499998 J0.
N3925 X4.874015868 I-0.031249999 J0.
N3930 G0 Z0.199999997
N3935 X3.81151581 Y-2.952756136
N3940 G1 Z0. F10.
N3945 G3 X3.936515806 Y-2.952755675 Z-0.020000001 I0.062499998 J0.00000023
N3950 X3.81151581 Y-2.952756136 Z-0.040000001 I-0.062499998 J-0.00000023
N3955 X3.936515806 Y-2.952755675 Z-0.060000002 I0.062499998 J0.00000023
N3960 X3.81151581 Y-2.952756136 Z-0.080000003 I-0.062499998 J-0.00000023
N3965 X3.936515806 Y-2.952755675 Z-0.100000003 I0.062499998 J0.00000023
N3970 X3.81151581 Y-2.952756136 Z-0.120000004 I-0.062499998 J-0.00000023
N3975 X3.936515806 Y-2.952755675 Z-0.140000004 I0.062499998 J0.00000023
N3980 X3.81151581 Y-2.952756136 Z-0.160000005 I-0.062499998 J-0.00000023
N3985 X3.936515806 Y-2.952755675 Z-0.180000006 I0.062499998 J0.00000023
N3990 X3.81151581 Y-2.952756136 Z-0.200000006 I-0.062499998 J-0.00000023
N3995 X3.936515806 Y-2.952755675 Z-0.220000007 I0.062499998 J0.00000023
N4000 X3.81151581 Y-2.952756136 Z-0.240000008 I-0.062499998 J-0.00000023
N4005 X3.936515806 Y-2.952755675 Z-0.260000008 I0.062499998 J0.00000023
N4010 X3.81151581 Y-2.952756136 Z-0.280000009 I-0.062499998 J-0.00000023
N4015 X3.936515806 Y-2.952755675 Z-0.30000001 I0.062499998 J0.00000023
N4020 X3.81151581 Y-2.952756136 Z-0.32000001 I-0.062499998 J-0.00000023
N4025 X3.936515806 Y-2.952755675 Z-0.340000011 I0.062499998 J0.00000023
N4030 X3.81151581 Y-2.952756136 Z-0.360000011 I-0.062499998 J-0.00000023
N4035 X3.936515806 Y-2.952755675 Z-0.380000012 I0.062499998 J0.00000023
N4040 X3.81151581 Y-2.952756136 Z-0.400000013 I-0.062499998 J-0.00000023
N4045 X3.936515806 Y-2.952755675 Z-0.420000013 I0.062499998 J0.00000023
N4050 X3.81151581 Y-2.952756136 Z-0.440000014 I-0.062499998 J-0.00000023
N4055 X3.936515806 Y-2.952755675 Z-0.460000015 I0.062499998 J0.00000023
N4060 X3.81151581 Y-2.952756136 Z-0.480000015 I-0.062499998 J-0.00000023
N4065 X3.936515806 Y-2.952755906 Z-0.499999992 I0.062499998 J0.00000023
N4070 X3.81151581 I-0.062499998 J0.
N4075 X3.936515806 I0.062499998 J0.
N4080 X3.874015808 I-0.031249999 J0.
N4085 G0 Z0.199999997
N4090 X2.81151575 Y-2.952756136
N4095 G1 Z0. F10.
N4100 G3 X2.936515746 Y-2.952755675 Z-0.020000001 I0.062499998 J0.00000023
N4105 X2.81151575 Y-2.952756136 Z-0.040000001 I-0.062499998 J-0.00000023
N4110 X2.936515746 Y-2.952755675 Z-0.060000002 I0.062499998 J0.00000023
N4115 X2.81151575 Y-2.952756136 Z-0.080000003 I-0.062499998 J-0.00000023
N4120 X2.936515746 Y-2.952755675 Z-0.100000003 I0.062499998 J0.00000023
N4125 X2.81151575 Y-2.952756136 Z-0.120000004 I-0.062499998 J-0.00000023
N4130 X2.936515746 Y-2.952755675 Z-0.140000004 I0.062499998 J0.00000023
N4135 X2.81151575 Y-2.952756136 Z-0.160000005 I-0.062499998 J-0.00000023
N4140 X2.936515746 Y-2.952755675 Z-0.180000006 I0.062499998 J0.00000023
N4145 X2.81151575 Y-2.952756136 Z-0.200000006 I-0.062499998 J-0.00000023
N4150 X2.936515746 Y-2.952755675 Z-0.220000007 I0.062499998 J0.00000023
N4155 X2.81151575 Y-2.952756136 Z-0.240000008 I-0.062499998 J-0.00000023
N4160 X2.936515746 Y-2.952755675 Z-0.260000008 I0.062499998 J0.00000023
N4165 X2.81151575 Y-2.952756136 Z-0.280000009 I-0.062499998 J-0.00000023
N4170 X2.936515746 Y-2.952755675 Z-0.30000001 I0.062499998 J0.00000023
N4175 X2.81151575 Y-2.952756136 Z-0.32000001 I-0.062499998 J-0.00000023
N4180 X2.936515746 Y-2.952755675 Z-0.340000011 I0.062499998 J0.00000023
N4185 X2.81151575 Y-2.952756136 Z-0.360000011 I-0.062499998 J-0.00000023
N4190 X2.936515746 Y-2.952755675 Z-0.380000012 I0.062499998 J0.00000023
N4195 X2.81151575 Y-2.952756136 Z-0.400000013 I-0.062499998 J-0.00000023
N4200 X2.936515746 Y-2.952755675 Z-0.420000013 I0.062499998 J0.00000023
N4205 X2.81151575 Y-2.952756136 Z-0.440000014 I-0.062499998 J-0.00000023
N4210 X2.936515746 Y-2.952755675 Z-0.460000015 I0.062499998 J0.00000023
N4215 X2.81151575 Y-2.952756136 Z-0.480000015 I-0.062499998 J-0.00000023
N4220 X2.936515746 Y-2.952755906 Z-0.499999992 I0.062499998 J0.00000023
N4225 X2.81151575 I-0.062499998 J0.
N4230 X2.936515746 I0.062499998 J0.
N4235 X2.874015748 I-0.031249999 J0.
N4240 G0 Z0.199999997
N4245 X1.81151569 Y-2.952756136
N4250 G1 Z0. F10.
N4255 G3 X1.936515686 Y-2.952755675 Z-0.020000001 I0.062499998 J0.00000023
N4260 X1.81151569 Y-2.952756136 Z-0.040000001 I-0.062499998 J-0.00000023
N4265 X1.936515686 Y-2.952755675 Z-0.060000002 I0.062499998 J0.00000023
N4270 X1.81151569 Y-2.952756136 Z-0.080000003 I-0.062499998 J-0.00000023
N4275 X1.936515686 Y-2.952755675 Z-0.100000003 I0.062499998 J0.00000023
N4280 X1.81151569 Y-2.952756136 Z-0.120000004 I-0.062499998 J-0.00000023
N4285 X1.936515686 Y-2.952755675 Z-0.140000004 I0.062499998 J0.00000023
N4290 X1.81151569 Y-2.952756136 Z-0.160000005 I-0.062499998 J-0.00000023
N4295 X1.936515686 Y-2.952755675 Z-0.180000006 I0.062499998 J0.00000023
N4300 X1.81151569 Y-2.952756136 Z-0.200000006 I-0.062499998 J-0.00000023
N4305 X1.936515686 Y-2.952755675 Z-0.220000007 I0.062499998 J0.00000023
N4310 X1.81151569 Y-2.952756136 Z-0.240000008 I-0.062499998 J-0.00000023
N4315 X1.936515686 Y-2.952755675 Z-0.260000008 I0.062499998 J0.00000023
N4320 X1.81151569 Y-2.952756136 Z-0.280000009 I-0.062499998 J-0.00000023
N4325 X1.936515686 Y-2.952755675 Z-0.30000001 I0.062499998 J0.00000023
N4330 X1.81151569 Y-2.952756136 Z-0.32000001 I-0.062499998 J-0.00000023
N4335 X1.936515686 Y-2.952755675 Z-0.340000011 I0.062499998 J0.00000023
N4340 X1.81151569 Y-2.952756136 Z-0.360000011 I-0.062499998 J-0.00000023
N4345 X1.936515686 Y-2.952755675 Z-0.380000012 I0.062499998 J0.00000023
N4350 X1.81151569 Y-2.952756136 Z-0.400000013 I-0.062499998 J-0.00000023
N4355 X1.936515686 Y-2.952755675 Z-0.420000013 I0.062499998 J0.00000023
N4360 X1.81151569 Y-2.952756136 Z-0.440000014 I-0.062499998 J-0.00000023
N4365 X1.936515686 Y-2.952755675 Z-0.460000015 I0.062499998 J0.00000023
N4370 X1.81151569 Y-2.952756136 Z-0.480000015 I-0.062499998 J-0.00000023
N4375 X1.936515686 Y-2.952755906 Z-0.499999992 I0.062499998 J0.00000023
N4380 X1.81151569 I-0.062499998 J0.
N4385 X1.936515686 I0.062499998 J0.
N4390 X1.874015688 I-0.031249999 J0.
N4395 G0 Z0.199999997
N4400 X0.686515735 Y-2.952756136
N4405 G1 Z0. F10.
N4410 G3 X0.811515731 Y-2.952755675 Z-0.020000001 I0.062499998 J0.00000023
N4415 X0.686515735 Y-2.952756136 Z-0.040000001 I-0.062499998 J-0.00000023
N4420 X0.811515731 Y-2.952755675 Z-0.060000002 I0.062499998 J0.00000023
N4425 X0.686515735 Y-2.952756136 Z-0.080000003 I-0.062499998 J-0.00000023
N4430 X0.811515731 Y-2.952755675 Z-0.100000003 I0.062499998 J0.00000023
N4435 X0.686515735 Y-2.952756136 Z-0.120000004 I-0.062499998 J-0.00000023
N4440 X0.811515731 Y-2.952755675 Z-0.140000004 I0.062499998 J0.00000023
N4445 X0.686515735 Y-2.952756136 Z-0.160000005 I-0.062499998 J-0.00000023
N4450 X0.811515731 Y-2.952755675 Z-0.180000006 I0.062499998 J0.00000023
N4455 X0.686515735 Y-2.952756136 Z-0.200000006 I-0.062499998 J-0.00000023
N4460 X0.811515731 Y-2.952755675 Z-0.220000007 I0.062499998 J0.00000023
N4465 X0.686515735 Y-2.952756136 Z-0.240000008 I-0.062499998 J-0.00000023
N4470 X0.811515731 Y-2.952755675 Z-0.260000008 I0.062499998 J0.00000023
N4475 X0.686515735 Y-2.952756136 Z-0.280000009 I-0.062499998 J-0.00000023
N4480 X0.811515731 Y-2.952755675 Z-0.30000001 I0.062499998 J0.00000023
N4485 X0.686515735 Y-2.952756136 Z-0.32000001 I-0.062499998 J-0.00000023
N4490 X0.811515731 Y-2.952755675 Z-0.340000011 I0.062499998 J0.00000023
N4495 X0.686515735 Y-2.952756136 Z-0.360000011 I-0.062499998 J-0.00000023
N4500 X0.811515731 Y-2.952755675 Z-0.380000012 I0.062499998 J0.00000023
N4505 X0.686515735 Y-2.952756136 Z-0.400000013 I-0.062499998 J-0.00000023
N4510 X0.811515731 Y-2.952755675 Z-0.420000013 I0.062499998 J0.00000023
N4515 X0.686515735 Y-2.952756136 Z-0.440000014 I-0.062499998 J-0.00000023
N4520 X0.811515731 Y-2.952755675 Z-0.460000015 I0.062499998 J0.00000023
N4525 X0.686515735 Y-2.952756136 Z-0.480000015 I-0.062499998 J-0.00000023
N4530 X0.811515731 Y-2.952755906 Z-0.499999992 I0.062499998 J0.00000023
N4535 X0.686515735 I-0.062499998 J0.
N4540 X0.811515731 I0.062499998 J0.
N4545 X0.749015733 I-0.031249999 J0.
N4550 G0 Z0.199999997
N4555 X0.686515735 Y-2.044241828
N4560 G1 Z0. F10.
N4565 G3 X0.811515731 Y-2.044241367 Z-0.020000001 I0.062499998 J0.00000023
N4570 X0.686515735 Y-2.044241828 Z-0.040000001 I-0.062499998 J-0.00000023
N4575 X0.811515731 Y-2.044241367 Z-0.060000002 I0.062499998 J0.00000023
N4580 X0.686515735 Y-2.044241828 Z-0.080000003 I-0.062499998 J-0.00000023
N4585 X0.811515731 Y-2.044241367 Z-0.100000003 I0.062499998 J0.00000023
N4590 X0.686515735 Y-2.044241828 Z-0.120000004 I-0.062499998 J-0.00000023
N4595 X0.811515731 Y-2.044241367 Z-0.140000004 I0.062499998 J0.00000023
N4600 X0.686515735 Y-2.044241828 Z-0.160000005 I-0.062499998 J-0.00000023
N4605 X0.811515731 Y-2.044241367 Z-0.180000006 I0.062499998 J0.00000023
N4610 X0.686515735 Y-2.044241828 Z-0.200000006 I-0.062499998 J-0.00000023
N4615 X0.811515731 Y-2.044241367 Z-0.220000007 I0.062499998 J0.00000023
N4620 X0.686515735 Y-2.044241828 Z-0.240000008 I-0.062499998 J-0.00000023
N4625 X0.811515731 Y-2.044241367 Z-0.260000008 I0.062499998 J0.00000023
N4630 X0.686515735 Y-2.044241828 Z-0.280000009 I-0.062499998 J-0.00000023
N4635 X0.811515731 Y-2.044241367 Z-0.30000001 I0.062499998 J0.00000023
N4640 X0.686515735 Y-2.044241828 Z-0.32000001 I-0.062499998 J-0.00000023
N4645 X0.811515731 Y-2.044241367 Z-0.340000011 I0.062499998 J0.00000023
N4650 X0.686515735 Y-2.044241828 Z-0.360000011 I-0.062499998 J-0.00000023
N4655 X0.811515731 Y-2.044241367 Z-0.380000012 I0.062499998 J0.00000023
N4660 X0.686515735 Y-2.044241828 Z-0.400000013 I-0.062499998 J-0.00000023
N4665 X0.811515731 Y-2.044241367 Z-0.420000013 I0.062499998 J0.00000023
N4670 X0.686515735 Y-2.044241828 Z-0.440000014 I-0.062499998 J-0.00000023
N4675 X0.811515731 Y-2.044241367 Z-0.460000015 I0.062499998 J0.00000023
N4680 X0.686515735 Y-2.044241828 Z-0.480000015 I-0.062499998 J-0.00000023
N4685 X0.811515731 Y-2.044241597 Z-0.499999992 I0.062499998 J0.00000023
N4690 X0.686515735 I-0.062499998 J0.
N4695 X0.811515731 I0.062499998 J0.
N4700 X0.749015733 I-0.031249999 J0.
N4705 G0 Z0.199999997
N4710 X0.686515735 Y-0.799369967
N4715 G1 Z0. F10.
N4720 G3 X0.811515731 Y-0.799369507 Z-0.020000001 I0.062499998 J0.00000023
N4725 X0.686515735 Y-0.799369967 Z-0.040000001 I-0.062499998 J-0.00000023
N4730 X0.811515731 Y-0.799369507 Z-0.060000002 I0.062499998 J0.00000023
N4735 X0.686515735 Y-0.799369967 Z-0.080000003 I-0.062499998 J-0.00000023
N4740 X0.811515731 Y-0.799369507 Z-0.100000003 I0.062499998 J0.00000023
N4745 X0.686515735 Y-0.799369967 Z-0.120000004 I-0.062499998 J-0.00000023
N4750 X0.811515731 Y-0.799369507 Z-0.140000004 I0.062499998 J0.00000023
N4755 X0.686515735 Y-0.799369967 Z-0.160000005 I-0.062499998 J-0.00000023
N4760 X0.811515731 Y-0.799369507 Z-0.180000006 I0.062499998 J0.00000023
N4765 X0.686515735 Y-0.799369967 Z-0.200000006 I-0.062499998 J-0.00000023
N4770 X0.811515731 Y-0.799369507 Z-0.220000007 I0.062499998 J0.00000023
N4775 X0.686515735 Y-0.799369967 Z-0.240000008 I-0.062499998 J-0.00000023
N4780 X0.811515731 Y-0.799369507 Z-0.260000008 I0.062499998 J0.00000023
N4785 X0.686515735 Y-0.799369967 Z-0.280000009 I-0.062499998 J-0.00000023
N4790 X0.811515731 Y-0.799369507 Z-0.30000001 I0.062499998 J0.00000023
N4795 X0.686515735 Y-0.799369967 Z-0.32000001 I-0.062499998 J-0.00000023
N4800 X0.811515731 Y-0.799369507 Z-0.340000011 I0.062499998 J0.00000023
N4805 X0.686515735 Y-0.799369967 Z-0.360000011 I-0.062499998 J-0.00000023
N4810 X0.811515731 Y-0.799369507 Z-0.380000012 I0.062499998 J0.00000023
N4815 X0.686515735 Y-0.799369967 Z-0.400000013 I-0.062499998 J-0.00000023
N4820 X0.811515731 Y-0.799369507 Z-0.420000013 I0.062499998 J0.00000023
N4825 X0.686515735 Y-0.799369967 Z-0.440000014 I-0.062499998 J-0.00000023
N4830 X0.811515731 Y-0.799369507 Z-0.460000015 I0.062499998 J0.00000023
N4835 X0.686515735 Y-0.799369967 Z-0.480000015 I-0.062499998 J-0.00000023
N4840 X0.811515731 Y-0.799369737 Z-0.499999992 I0.062499998 J0.00000023
N4845 X0.686515735 I-0.062499998 J0.
N4850 X0.811515731 I0.062499998 J0.
N4855 X0.749015733 I-0.031249999 J0.
N4860 G0 Z0.199999997
N4865 X14.93651599 Y-2.952756136
N4870 G1 Z0. F10.
N4875 G3 X15.061515986 Y-2.952755675 Z-0.020000001 I0.062499998 J0.00000023
N4880 X14.93651599 Y-2.952756136 Z-0.040000001 I-0.062499998 J-0.00000023
N4885 X15.061515986 Y-2.952755675 Z-0.060000002 I0.062499998 J0.00000023
N4890 X14.93651599 Y-2.952756136 Z-0.080000003 I-0.062499998 J-0.00000023
N4895 X15.061515986 Y-2.952755675 Z-0.100000003 I0.062499998 J0.00000023
N4900 X14.93651599 Y-2.952756136 Z-0.120000004 I-0.062499998 J-0.00000023
N4905 X15.061515986 Y-2.952755675 Z-0.140000004 I0.062499998 J0.00000023
N4910 X14.93651599 Y-2.952756136 Z-0.160000005 I-0.062499998 J-0.00000023
N4915 X15.061515986 Y-2.952755675 Z-0.180000006 I0.062499998 J0.00000023
N4920 X14.93651599 Y-2.952756136 Z-0.200000006 I-0.062499998 J-0.00000023
N4925 X15.061515986 Y-2.952755675 Z-0.220000007 I0.062499998 J0.00000023
N4930 X14.93651599 Y-2.952756136 Z-0.240000008 I-0.062499998 J-0.00000023
N4935 X15.061515986 Y-2.952755675 Z-0.260000008 I0.062499998 J0.00000023
N4940 X14.93651599 Y-2.952756136 Z-0.280000009 I-0.062499998 J-0.00000023
N4945 X15.061515986 Y-2.952755675 Z-0.30000001 I0.062499998 J0.00000023
N4950 X14.93651599 Y-2.952756136 Z-0.32000001 I-0.062499998 J-0.00000023
N4955 X15.061515986 Y-2.952755675 Z-0.340000011 I0.062499998 J0.00000023
N4960 X14.93651599 Y-2.952756136 Z-0.360000011 I-0.062499998 J-0.00000023
N4965 X15.061515986 Y-2.952755675 Z-0.380000012 I0.062499998 J0.00000023
N4970 X14.93651599 Y-2.952756136 Z-0.400000013 I-0.062499998 J-0.00000023
N4975 X15.061515986 Y-2.952755675 Z-0.420000013 I0.062499998 J0.00000023
N4980 X14.93651599 Y-2.952756136 Z-0.440000014 I-0.062499998 J-0.00000023
N4985 X15.061515986 Y-2.952755675 Z-0.460000015 I0.062499998 J0.00000023
N4990 X14.93651599 Y-2.952756136 Z-0.480000015 I-0.062499998 J-0.00000023
N4995 X15.061515986 Y-2.952755906 Z-0.499999992 I0.062499998 J0.00000023
N5000 X14.93651599 I-0.062499998 J0.
N5005 X15.061515986 I0.062499998 J0.
N5010 X14.999015988 I-0.031249999 J0.
N5015 G0 Z0.199999997
N5020 Z0.599999991
N5025 G53 Z0.
N5030 M30
%
