%
(PANTOROUTER ROUTER MOUNT)
(T1  D=3.175 CR=0. - ZMIN=-12.7 - FLAT END MILL)
N10 G90 G94 G17 G91.1
N15 G21
N20 G53 G0 Z0.
(BORE1)
N25 M9
N30 T1 M6
N35 S3000 M3
N40 G54
N45 M8
N50 G0 X-0.794 Y0.317
N55 G43 Z35. H1
N60 G0 Z2.
N65 G1 Z0.317 F254.
N70 G18 G3 X-1.111 Z0. I-0.318 K0.
N75 G1 X-1.27
N80 G17 G3 X-1.587 Y0. I0. J-0.317
N85 X1.587 Z-0.5 I1.587 J0.
N90 X-1.587 Z-1. I-1.587 J0.
N95 X1.587 Z-1.5 I1.587 J0.
N100 X-1.587 Z-2. I-1.587 J0.
N105 X1.588 Z-2.5 I1.587 J0.
N110 X-1.588 Z-3. I-1.588 J0.
N115 X1.588 Z-3.5 I1.588 J0.
N120 X-1.588 Z-4. I-1.588 J0.
N125 X1.588 Z-4.5 I1.588 J0.
N130 X-1.588 Z-5. I-1.588 J0.
N135 X1.588 Z-5.5 I1.588 J0.
N140 X-1.588 Z-6. I-1.588 J0.
N145 X0.933 Y-1.284 Z-6.35 I1.588 J0.
N150 X-0.933 Y1.284 I-0.933 J1.284
N155 X0.933 Y-1.284 I0.933 J-1.284
N160 X1.003 Y-0.841 I-0.187 J0.257
N165 G1 X0.91 Y-0.712
N170 X0.869 Y-0.655 Z-6.342
N175 X0.829 Y-0.601 Z-6.319
N180 X0.794 Y-0.552 Z-6.281
N185 X0.764 Y-0.512 Z-6.23
N190 X0.742 Y-0.481 Z-6.17
N195 X0.728 Y-0.462 Z-6.103
N200 X0.723 Y-0.456 Z-6.032
N205 G0 Z25.
N210 X239.206 Y0.317
N215 Z2.
N220 G1 Z0.317 F254.
N225 G18 G3 X238.889 Z0. I-0.318 K0.
N230 G1 X238.73
N235 G17 G3 X238.413 Y0. I0. J-0.317
N240 X241.587 Z-0.5 I1.587 J0.
N245 X238.413 Z-1. I-1.587 J0.
N250 X241.587 Z-1.5 I1.587 J0.
N255 X238.413 Z-2. I-1.587 J0.
N260 X241.587 Z-2.5 I1.587 J0.
N265 X238.413 Z-3. I-1.587 J0.
N270 X241.587 Z-3.5 I1.587 J0.
N275 X238.413 Z-4. I-1.587 J0.
N280 X241.587 Z-4.5 I1.587 J0.
N285 X238.413 Z-5. I-1.587 J0.
N290 X241.587 Z-5.5 I1.587 J0.
N295 X238.413 Z-6. I-1.587 J0.
N300 X240.933 Y-1.284 Z-6.35 I1.587 J0.
N305 X239.067 Y1.284 I-0.933 J1.284
N310 X240.933 Y-1.284 I0.933 J-1.284
N315 X241.003 Y-0.841 I-0.187 J0.257
N320 G1 X240.91 Y-0.712
N325 X240.869 Y-0.655 Z-6.342
N330 X240.829 Y-0.601 Z-6.319
N335 X240.794 Y-0.552 Z-6.281
N340 X240.764 Y-0.512 Z-6.23
N345 X240.742 Y-0.481 Z-6.17
N350 X240.728 Y-0.462 Z-6.103
N355 X240.723 Y-0.456 Z-6.032
N360 G0 Z35.
(2D CONTOUR1)
N365 G0 X153.645 Y21.136
N370 Z15.
N375 Z6.
N380 G1 Z-4. F84.67
N385 X153.648 Y21.129 Z-4.121
N390 X153.657 Y21.109 Z-4.239
N395 X153.671 Y21.077 Z-4.355
N400 X153.691 Y21.031 Z-4.465
N405 X153.716 Y20.974 Z-4.568
N410 X153.746 Y20.905 Z-4.663
N415 X153.78 Y20.827 Z-4.749
N420 X153.817 Y20.74 Z-4.823
N425 X153.859 Y20.645 Z-4.885
N430 X153.902 Y20.544 Z-4.935
N435 X153.948 Y20.438 Z-4.971
N440 X153.995 Y20.329 Z-4.993
N445 X154.043 Y20.219 Z-5.
N450 X156.033 Y15.632 F254.
N455 G2 X83.967 Y-15.632 I-36.033 J-15.632
N460 Y15.632 I36.033 J15.632
N465 G0 Z6.
N470 X84.955 Y20.021
N475 G1 Z-4. F84.67
N480 X84.952 Y20.014 Z-4.121
N485 X84.944 Y19.993 Z-4.239
N490 X84.931 Y19.96 Z-4.355
N495 X84.913 Y19.914 Z-4.465
N500 X84.891 Y19.856 Z-4.568
N505 X84.864 Y19.786 Z-4.663
N510 X84.833 Y19.706 Z-4.749
N515 X84.798 Y19.618 Z-4.823
N520 X84.761 Y19.521 Z-4.885
N525 X84.721 Y19.419 Z-4.935
N530 X84.68 Y19.311 Z-4.971
N535 X84.637 Y19.201 Z-4.993
N540 X84.593 Y19.088 Z-5.
N545 X82.786 Y14.426 F254.
N550 G3 X157.214 Y-14.426 I37.214 J-14.426
N555 Y14.426 I-37.214 J14.426
N560 G0 Z5.
N565 X153.645 Y21.136
N570 G1 Z1. F84.67
N575 Z-9.
N580 X153.648 Y21.129 Z-9.121
N585 X153.657 Y21.109 Z-9.239
N590 X153.671 Y21.077 Z-9.355
N595 X153.691 Y21.031 Z-9.465
N600 X153.716 Y20.974 Z-9.568
N605 X153.746 Y20.905 Z-9.663
N610 X153.78 Y20.827 Z-9.749
N615 X153.817 Y20.74 Z-9.823
N620 X153.859 Y20.645 Z-9.885
N625 X153.902 Y20.544 Z-9.935
N630 X153.948 Y20.438 Z-9.971
N635 X153.995 Y20.329 Z-9.993
N640 X154.043 Y20.219 Z-10.
N645 X156.033 Y15.632 F254.
N650 G2 X83.967 Y-15.632 I-36.033 J-15.632
N655 Y15.632 I36.033 J15.632
N660 G0 Z5.
N665 X84.955 Y20.021
N670 G1 Z1. F84.67
N675 Z-9.
N680 X84.952 Y20.014 Z-9.121
N685 X84.944 Y19.993 Z-9.239
N690 X84.931 Y19.96 Z-9.355
N695 X84.913 Y19.914 Z-9.465
N700 X84.891 Y19.856 Z-9.568
N705 X84.864 Y19.786 Z-9.663
N710 X84.833 Y19.706 Z-9.749
N715 X84.798 Y19.618 Z-9.823
N720 X84.761 Y19.521 Z-9.885
N725 X84.721 Y19.419 Z-9.935
N730 X84.68 Y19.311 Z-9.971
N735 X84.637 Y19.201 Z-9.993
N740 X84.593 Y19.088 Z-10.
N745 X82.786 Y14.426 F254.
N750 G3 X157.214 Y-14.426 I37.214 J-14.426
N755 Y14.426 I-37.214 J14.426
N760 G0 Z5.
N765 X153.645 Y21.136
N770 G1 Z-4. F84.67
N775 Z-11.7
N780 X153.648 Y21.129 Z-11.821
N785 X153.657 Y21.109 Z-11.939
N790 X153.671 Y21.077 Z-12.055
N795 X153.691 Y21.031 Z-12.165
N800 X153.716 Y20.974 Z-12.268
N805 X153.746 Y20.905 Z-12.363
N810 X153.78 Y20.827 Z-12.449
N815 X153.817 Y20.74 Z-12.523
N820 X153.859 Y20.645 Z-12.585
N825 X153.902 Y20.544 Z-12.635
N830 X153.948 Y20.438 Z-12.671
N835 X153.995 Y20.329 Z-12.693
N840 X154.043 Y20.219 Z-12.7
N845 X156.033 Y15.632 F254.
N850 G2 X83.967 Y-15.632 I-36.033 J-15.632
N855 Y15.632 I36.033 J15.632
N860 G0 Z5.
N865 X84.955 Y20.021
N870 G1 Z-4. F84.67
N875 Z-11.7
N880 X84.952 Y20.014 Z-11.821
N885 X84.944 Y19.993 Z-11.939
N890 X84.931 Y19.96 Z-12.055
N895 X84.913 Y19.914 Z-12.165
N900 X84.891 Y19.856 Z-12.268
N905 X84.864 Y19.786 Z-12.363
N910 X84.833 Y19.706 Z-12.449
N915 X84.798 Y19.618 Z-12.523
N920 X84.761 Y19.521 Z-12.585
N925 X84.721 Y19.419 Z-12.635
N930 X84.68 Y19.311 Z-12.671
N935 X84.637 Y19.201 Z-12.693
N940 X84.593 Y19.088 Z-12.7
N945 X82.786 Y14.426 F254.
N950 G3 X157.214 Y-14.426 I37.214 J-14.426
N955 Y14.426 I-37.214 J14.426
N960 G0 Z15.
N965 M9
N970 G53 Z0.
N975 M30
%
