%
(PCB FIXTURE BIG FACE)
(T3  D=0.25 CR=0. - ZMIN=-0.01 - FLAT END MILL)
N10 G90 G94 G17 G91.1
N15 G20
N20 G53 G0 Z0.
(FACE5)
N25 T3 M6
N30 S3000 M3
N35 G54
N40 G0 X5.725 Y0.1733
N45 G43 Z0.6 H3
N50 G0 Z0.2
N55 G1 Z0.015 F15.
N60 G18 G3 X5.7 Z-0.01 I-0.025 K0.
N65 G1 X5.6875
N70 X-0.0625
N75 G17 G2 Y0.4067 I0. J0.1167
N80 G1 X5.6875
N85 G3 Y0.6402 I0. J0.1167
N90 G1 X-0.0625
N95 G2 Y0.8736 I0. J0.1167
N100 G1 X5.6875
N105 G3 Y1.107 I0. J0.1167
N110 G1 X-0.0625
N115 G2 Y1.3405 I0. J0.1167
N120 G1 X5.6875
N125 G3 Y1.5739 I0. J0.1167
N130 G1 X-0.0625
N135 G2 Y1.8073 I0. J0.1167
N140 G1 X5.6875
N145 G3 Y2.0408 I0. J0.1167
N150 G1 X-0.0625
N155 G2 Y2.2742 I0. J0.1167
N160 G1 X5.6875
N165 G3 Y2.5076 I0. J0.1167
N170 G1 X-0.0625
N175 G2 Y2.7411 I0. J0.1167
N180 G1 X5.6875
N185 G3 Y2.9745 I0. J0.1167
N190 G1 X-0.0625
N195 G2 Y3.2079 I0. J0.1167
N200 G1 X5.6875
N205 G3 Y3.4414 I0. J0.1167
N210 G1 X-0.0625
N215 G18 G3 X-0.0875 Z0.015 I0. K0.025
N220 G0 Z0.6
N225 G17
N230 G53 G0 Z0.
N235 M30
%
