%
(PCB FIXTURE VACCUUM CONNECTOR)
(T3  D=0.25 CR=0. - ZMIN=-1.5 - FLAT END MILL)
N10 G90 G94 G17 G91.1
N15 G20
N20 G53 G0 Z0.
(2D ADAPTIVE1)
N25 T3 M6
N30 S3000 M3
N35 G54
N40 G0 X1.6125 Y1.038
N45 G43 Z0.6 H3
N50 G0 Z0.2
N55 Z0.1
N60 G3 X1.3875 Y0.962 Z0.087 I-0.1125 J-0.038 F10.
N65 X1.6125 Y1.038 Z0.0739 I0.1125 J0.038
N70 X1.3875 Y0.962 Z0.0609 I-0.1125 J-0.038
N75 X1.6125 Y1.038 Z0.0479 I0.1125 J0.038
N80 X1.3875 Y0.962 Z0.0349 I-0.1125 J-0.038
N85 X1.6125 Y1.038 Z0.0218 I0.1125 J0.038
N90 X1.3875 Y0.962 Z0.0088 I-0.1125 J-0.038
N95 X1.6125 Y1.038 Z-0.0042 I0.1125 J0.038
N100 X1.3875 Y0.962 Z-0.0172 I-0.1125 J-0.038
N105 X1.6125 Y1.038 Z-0.0303 I0.1125 J0.038
N110 X1.3875 Y0.962 Z-0.0433 I-0.1125 J-0.038
N115 X1.6125 Y1.038 Z-0.0563 I0.1125 J0.038
N120 X1.3875 Y0.962 Z-0.0694 I-0.1125 J-0.038
N125 X1.6125 Y1.038 Z-0.0824 I0.1125 J0.038
N130 X1.3875 Y0.962 Z-0.0954 I-0.1125 J-0.038
N135 X1.6125 Y1.038 Z-0.1084 I0.1125 J0.038
N140 X1.3875 Y0.962 Z-0.1215 I-0.1125 J-0.038
N145 X1.6125 Y1.038 Z-0.1345 I0.1125 J0.038
N150 X1.3875 Y0.962 Z-0.1475 I-0.1125 J-0.038
N155 X1.6125 Y1.038 Z-0.1606 I0.1125 J0.038
N160 X1.3875 Y0.962 Z-0.1736 I-0.1125 J-0.038
N165 X1.6125 Y1.038 Z-0.1866 I0.1125 J0.038
N170 X1.3875 Y0.962 Z-0.1996 I-0.1125 J-0.038
N175 X1.6125 Y1.038 Z-0.2127 I0.1125 J0.038
N180 X1.3875 Y0.962 Z-0.2257 I-0.1125 J-0.038
N185 X1.6125 Y1.038 Z-0.2387 I0.1125 J0.038
N190 X1.3875 Y0.962 Z-0.2517 I-0.1125 J-0.038
N195 X1.6125 Y1.038 Z-0.2648 I0.1125 J0.038
N200 X1.3875 Y0.962 Z-0.2778 I-0.1125 J-0.038
N205 X1.6125 Y1.038 Z-0.2908 I0.1125 J0.038
N210 X1.3875 Y0.962 Z-0.3039 I-0.1125 J-0.038
N215 X1.6125 Y1.038 Z-0.3169 I0.1125 J0.038
N220 X1.3875 Y0.962 Z-0.3299 I-0.1125 J-0.038
N225 X1.6125 Y1.038 Z-0.3429 I0.1125 J0.038
N230 X1.3875 Y0.962 Z-0.356 I-0.1125 J-0.038
N235 X1.6125 Y1.038 Z-0.369 I0.1125 J0.038
N240 X1.3875 Y0.962 Z-0.382 I-0.1125 J-0.038
N245 X1.6187 Y1. Z-0.3937 I0.1125 J0.038
N250 X1.3812 I-0.1188 J0.
N255 X1.6187 I0.1188 J0.
N260 G1 X1.6189 Y1.0097 F15.
N265 X1.626 Y1.0481
N270 X1.6278 Y1.0538
N275 X1.6289 Y1.0597
N280 X1.6295 Y1.0657
N285 Y1.0717
N290 X1.629 Y1.0782
N295 X1.6279 Y1.0851
N300 X1.6262 Y1.0924
N305 X1.6237 Y1.0999
N310 X1.6205 Y1.1076
N315 X1.6165 Y1.1154
N320 X1.6116 Y1.1233
N325 X1.6058 Y1.131
N330 X1.5992 Y1.1386
N335 X1.5917 Y1.146
N340 X1.5833 Y1.1529
N345 X1.5741 Y1.1594
N350 X1.564 Y1.1653
N355 X1.5533 Y1.1705
N360 X1.5419 Y1.1749
N365 X1.5298 Y1.1785
N370 X1.5173 Y1.1812
N375 X1.5043 Y1.1829
N380 X1.491 Y1.1836
N385 X1.4775 Y1.1832
N390 X1.4638 Y1.1816
N395 X1.4502 Y1.179
N400 X1.4367 Y1.1752
N405 X1.4233 Y1.1703
N410 X1.4103 Y1.1643
N415 X1.3978 Y1.1572
N420 X1.3857 Y1.1491
N425 X1.3743 Y1.14
N430 X1.3636 Y1.1299
N435 X1.3536 Y1.119
N440 X1.3446 Y1.1072
N445 X1.3365 Y1.0948
N450 X1.3294 Y1.0816
N455 X1.3233 Y1.0679
N460 X1.3184 Y1.0537
N465 X1.3146 Y1.0392
N470 X1.312 Y1.0243
N475 X1.3106 Y1.0093
N480 X1.3104 Y0.9942
N485 X1.3114 Y0.9791
N490 X1.3136 Y0.9641
N495 X1.317 Y0.9493
N500 X1.3216 Y0.9348
N505 X1.3274 Y0.9208
N510 X1.3343 Y0.9072
N515 X1.3422 Y0.8942
N520 X1.3512 Y0.8819
N525 X1.3611 Y0.8703
N530 X1.3719 Y0.8596
N535 X1.3836 Y0.8498
N540 X1.396 Y0.8409
N545 X1.409 Y0.8331
N550 X1.4227 Y0.8263
N555 X1.4369 Y0.8207
N560 X1.4515 Y0.8162
N565 X1.4664 Y0.8129
N570 X1.4815 Y0.8108
N575 X1.4967 Y0.8099
N580 X1.512 Y0.8102
N585 X1.5272 Y0.8118
N590 X1.5422 Y0.8146
N595 X1.5569 Y0.8186
N600 X1.5713 Y0.8237
N605 X1.5852 Y0.83
N610 X1.5986 Y0.8374
N615 X1.6113 Y0.8458
N620 X1.6233 Y0.8553
N625 X1.6345 Y0.8656
N630 X1.6449 Y0.8768
N635 X1.6543 Y0.8889
N640 X1.6627 Y0.9016
N645 X1.6773 Y0.928
N650 X1.6897 Y0.9555
N655 X1.6976 Y0.9776
N660 X1.7029 Y0.9975
N665 X1.7063 Y1.016
N670 X1.7082 Y1.034
N675 X1.7085 Y1.0513
N680 X1.7075 Y1.0682
N685 X1.7052 Y1.0847
N690 X1.7017 Y1.1008
N695 X1.6968 Y1.1165
N700 X1.6907 Y1.1318
N705 X1.6833 Y1.1466
N710 X1.6748 Y1.1609
N715 X1.665 Y1.1746
N720 X1.654 Y1.1875
N725 X1.6419 Y1.1997
N730 X1.6288 Y1.211
N735 X1.6145 Y1.2214
N740 X1.5993 Y1.2307
N745 X1.5831 Y1.2388
N750 X1.5661 Y1.2458
N755 X1.5484 Y1.2514
N760 X1.53 Y1.2556
N765 X1.5111 Y1.2584
N770 X1.4919 Y1.2597
N775 X1.4724 Y1.2594
N780 X1.4528 Y1.2576
N785 X1.4332 Y1.2541
N790 X1.4139 Y1.249
N795 X1.3948 Y1.2424
N800 X1.3763 Y1.2342
N805 X1.3583 Y1.2245
N810 X1.341 Y1.2133
N815 X1.3247 Y1.2006
N820 X1.3093 Y1.1867
N825 X1.295 Y1.1714
N830 X1.282 Y1.155
N835 X1.2702 Y1.1376
N840 X1.2599 Y1.1192
N845 X1.251 Y1.0999
N850 X1.2437 Y1.08
N855 X1.238 Y1.0595
N860 X1.234 Y1.0385
N865 X1.2316 Y1.0173
N870 X1.231 Y0.9959
N875 X1.232 Y0.9745
N880 X1.2348 Y0.9532
N885 X1.2393 Y0.9322
N890 X1.2455 Y0.9115
N895 X1.2534 Y0.8915
N900 X1.2628 Y0.8721
N905 X1.2737 Y0.8535
N910 X1.2861 Y0.8358
N915 X1.2999 Y0.8192
N920 X1.315 Y0.8038
N925 X1.3313 Y0.7896
N930 X1.3487 Y0.7767
N935 X1.3671 Y0.7653
N940 X1.3863 Y0.7554
N945 X1.4063 Y0.747
N950 X1.4269 Y0.7403
N955 X1.4479 Y0.7353
N960 X1.4693 Y0.7319
N965 X1.4909 Y0.7303
N970 X1.5126 Y0.7305
N975 X1.5342 Y0.7323
N980 X1.5555 Y0.7359
N985 X1.5765 Y0.7412
N990 X1.597 Y0.7482
N995 X1.6169 Y0.7568
N1000 X1.6361 Y0.767
N1005 X1.6543 Y0.7786
N1010 X1.6716 Y0.7917
N1015 X1.6899 Y0.8081
N1020 X1.7082 Y0.8273
N1025 X1.7254 Y0.8485
N1030 X1.7411 Y0.8715
N1035 X1.7549 Y0.8955
N1040 X1.7664 Y0.9199
N1045 X1.7757 Y0.9446
N1050 X1.7828 Y0.9694
N1055 X1.7877 Y0.9941
N1060 X1.7907 Y1.0187
N1065 X1.7916 Y1.0431
N1070 X1.7906 Y1.0672
N1075 X1.7877 Y1.091
N1080 X1.7829 Y1.1143
N1085 X1.7762 Y1.1371
N1090 X1.7678 Y1.1592
N1095 X1.7576 Y1.1806
N1100 X1.7458 Y1.2012
N1105 X1.7322 Y1.2208
N1110 X1.7171 Y1.2393
N1115 X1.7004 Y1.2567
N1120 X1.6823 Y1.2728
N1125 X1.6627 Y1.2874
N1130 X1.6419 Y1.3006
N1135 X1.6199 Y1.3122
N1140 X1.5969 Y1.322
N1145 X1.5729 Y1.3301
N1150 X1.5482 Y1.3362
N1155 X1.5229 Y1.3404
N1160 X1.4971 Y1.3425
N1165 X1.4711
N1170 X1.4449 Y1.3405
N1175 X1.4189 Y1.3363
N1180 X1.393 Y1.33
N1185 X1.3677 Y1.3216
N1190 X1.3429 Y1.3112
N1195 X1.3189 Y1.2987
N1200 X1.2959 Y1.2843
N1205 X1.274 Y1.268
N1210 X1.2535 Y1.2499
N1215 X1.2343 Y1.2301
N1220 X1.2167 Y1.2088
N1225 X1.2009 Y1.1861
N1230 X1.1869 Y1.162
N1235 X1.1748 Y1.1369
N1240 X1.1647 Y1.1108
N1245 X1.1568 Y1.084
N1250 X1.151 Y1.0565
N1255 X1.1475 Y1.0286
N1260 X1.1462 Y1.0004
N1265 X1.1471 Y0.9722
N1270 X1.1503 Y0.9442
N1275 X1.1558 Y0.9164
N1280 X1.1635 Y0.8892
N1285 X1.1734 Y0.8626
N1290 X1.1853 Y0.8369
N1295 X1.1993 Y0.8123
N1300 X1.2153 Y0.7888
N1305 X1.233 Y0.7666
N1310 X1.2526 Y0.746
N1315 X1.2737 Y0.7269
N1320 X1.2963 Y0.7097
N1325 X1.3202 Y0.6943
N1330 X1.3452 Y0.6808
N1335 X1.3713 Y0.6694
N1340 X1.3982 Y0.6601
N1345 X1.4258 Y0.6531
N1350 X1.4539 Y0.6482
N1355 X1.4822 Y0.6456
N1360 X1.5107 Y0.6453
N1365 X1.5391 Y0.6473
N1370 X1.5673 Y0.6516
N1375 X1.595 Y0.6581
N1380 X1.6221 Y0.6668
N1385 X1.6485 Y0.6777
N1390 X1.6745 Y0.691
N1395 X1.7002 Y0.7068
N1400 X1.7254 Y0.7252
N1405 X1.7496 Y0.7462
N1410 X1.7725 Y0.7695
N1415 X1.7937 Y0.7948
N1420 X1.8129 Y0.8218
N1425 X1.8298 Y0.8502
N1430 X1.8443 Y0.8796
N1435 X1.8562 Y0.9099
N1440 X1.8656 Y0.9408
N1445 X1.8725 Y0.9721
N1450 X1.8767 Y1.0036
N1455 X1.8785 Y1.0351
N1460 X1.8777 Y1.0664
N1465 X1.8744 Y1.0973
N1470 X1.8686 Y1.1278
N1475 X1.8605 Y1.1577
N1480 X1.8499 Y1.1867
N1485 X1.8371 Y1.2148
N1490 X1.8221 Y1.2419
N1495 X1.8049 Y1.2676
N1500 X1.7857 Y1.292
N1505 X1.7644 Y1.3149
N1510 X1.7413 Y1.336
N1515 X1.7165 Y1.3554
N1520 X1.69 Y1.3728
N1525 X1.662 Y1.3881
N1530 X1.6328 Y1.4011
N1535 X1.6024 Y1.4119
N1540 X1.571 Y1.4202
N1545 X1.5389 Y1.426
N1550 X1.5063 Y1.4293
N1555 X1.4733 Y1.4299
N1560 X1.4401 Y1.4278
N1565 X1.4071 Y1.4231
N1570 X1.3744 Y1.4157
N1575 X1.3423 Y1.4057
N1580 X1.3109 Y1.393
N1585 X1.2804 Y1.3778
N1590 X1.2512 Y1.3602
N1595 X1.2234 Y1.3401
N1600 X1.1972 Y1.3178
N1605 X1.1728 Y1.2934
N1610 X1.1503 Y1.2671
N1615 X1.13 Y1.2389
N1620 X1.112 Y1.2092
N1625 X1.0963 Y1.178
N1630 X1.0832 Y1.1455
N1635 X1.0727 Y1.1121
N1640 X1.0649 Y1.0778
N1645 X1.0599 Y1.043
N1650 X1.0577 Y1.0079
N1655 X1.0583 Y0.9726
N1660 X1.0618 Y0.9374
N1665 X1.068 Y0.9026
N1670 X1.0771 Y0.8684
N1675 X1.0888 Y0.835
N1680 X1.1033 Y0.8026
N1685 X1.1203 Y0.7715
N1690 X1.1397 Y0.7418
N1695 X1.1615 Y0.7138
N1700 X1.1855 Y0.6875
N1705 X1.2115 Y0.6633
N1710 X1.2393 Y0.6413
N1715 X1.2689 Y0.6215
N1720 X1.3 Y0.6042
N1725 X1.3323 Y0.5894
N1730 X1.3658 Y0.5772
N1735 X1.4001 Y0.5678
N1740 X1.4351 Y0.5612
N1745 X1.4705 Y0.5574
N1750 X1.5061 Y0.5564
N1755 X1.5416 Y0.5583
N1760 X1.5769 Y0.5631
N1765 X1.6119 Y0.5707
N1770 X1.6463 Y0.5811
N1775 X1.6802 Y0.5945
N1780 X1.7134 Y0.6107
N1785 X1.7457 Y0.6299
N1790 X1.7769 Y0.652
N1795 X1.8068 Y0.6769
N1800 X1.8346 Y0.7043
N1805 X1.8601 Y0.7337
N1810 X1.8833 Y0.7651
N1815 X1.9039 Y0.7982
N1820 X1.9176 Y0.8247
N1825 X1.9184 Y0.8262
N1830 X1.9191 Y0.8277
N1835 X1.9198 Y0.8293
N1840 X1.9317 Y0.8584
N1845 X1.9342 Y0.8673
N1850 X1.9469 Y0.9204
N1855 X1.9482 Y0.9292
N1860 X1.9501 Y0.9469
N1865 X1.9511 Y0.9558
N1870 X1.9532 Y0.9823
N1875 X1.9533 Y0.9912
N1880 Y1.0088
N1885 X1.9532 Y1.0177
N1890 X1.9511 Y1.0442
N1895 X1.9501 Y1.0531
N1900 X1.9482 Y1.0708
N1905 X1.9469 Y1.0798
N1910 X1.9342 Y1.1327
N1915 X1.9317 Y1.1416
N1920 X1.9203 Y1.1693
N1925 X1.9098 Y1.1947
N1930 X1.9061 Y1.2035
N1935 X1.9026 Y1.2095
N1940 X1.8904 Y1.2301
N1945 X1.8796 Y1.2478
N1950 X1.8742 Y1.2566
N1955 X1.8683 Y1.2655
N1960 X1.8465 Y1.292
N1965 X1.8407 Y1.2987
N1970 X1.8229 Y1.3186
N1975 X1.8144 Y1.3274
N1980 X1.7833 Y1.354
N1985 X1.7787 Y1.3576
N1990 X1.7522 Y1.3767
N1995 X1.7463 Y1.3805
N2000 X1.7257 Y1.3932
N2005 X1.7172 Y1.3982
N2010 X1.6903 Y1.4115
N2015 X1.6814 Y1.4153
N2020 X1.6587 Y1.4248
N2025 X1.6549 Y1.4262
N2030 X1.6283 Y1.4349
N2035 X1.6195 Y1.4373
N2040 X1.5929 Y1.4437
N2045 X1.5752 Y1.4478
N2050 X1.5664 Y1.4493
N2055 X1.5044 Y1.4542
N2060 X1.4956
N2065 X1.4336 Y1.4493
N2070 X1.4248 Y1.4478
N2075 X1.4071 Y1.4437
N2080 X1.3805 Y1.4373
N2085 X1.3717 Y1.4349
N2090 X1.3451 Y1.4262
N2095 X1.3413 Y1.4248
N2100 X1.3186 Y1.4153
N2105 X1.3097 Y1.4115
N2110 X1.2828 Y1.3982
N2115 X1.2743 Y1.3932
N2120 X1.2537 Y1.3805
N2125 X1.2478 Y1.3767
N2130 X1.2213 Y1.3576
N2135 X1.2167 Y1.354
N2140 X1.1856 Y1.3274
N2145 X1.177 Y1.3185
N2150 X1.1593 Y1.2987
N2155 X1.1535 Y1.292
N2160 X1.1317 Y1.2655
N2165 X1.1258 Y1.2566
N2170 X1.1149 Y1.2389
N2175 X1.1096 Y1.2301
N2180 X1.0974 Y1.2095
N2185 X1.0939 Y1.2035
N2190 X1.0885 Y1.1907
N2195 X1.0792 Y1.1681
N2200 X1.0683 Y1.1416
N2205 X1.0658 Y1.1327
N2210 X1.0531 Y1.0796
N2215 X1.0518 Y1.0708
N2220 X1.0499 Y1.0531
N2225 X1.0489 Y1.0442
N2230 X1.0468 Y1.0177
N2235 X1.0467 Y1.0088
N2240 Y0.9912
N2245 X1.0468 Y0.9823
N2250 X1.0489 Y0.9558
N2255 X1.0499 Y0.9469
N2260 X1.0518 Y0.9292
N2265 X1.0531 Y0.9202
N2270 X1.0658 Y0.8673
N2275 X1.0683 Y0.8584
N2280 X1.0797 Y0.8307
N2285 X1.0902 Y0.8053
N2290 X1.0939 Y0.7965
N2295 X1.0974 Y0.7905
N2300 X1.1096 Y0.7699
N2305 X1.1204 Y0.7522
N2310 X1.1258 Y0.7434
N2315 X1.1317 Y0.7345
N2320 X1.1535 Y0.708
N2325 X1.1593 Y0.7013
N2330 X1.1771 Y0.6814
N2335 X1.1856 Y0.6726
N2340 X1.2167 Y0.646
N2345 X1.2213 Y0.6424
N2350 X1.2478 Y0.6233
N2355 X1.2537 Y0.6195
N2360 X1.2743 Y0.6068
N2365 X1.2828 Y0.6018
N2370 X1.3097 Y0.5885
N2375 X1.3186 Y0.5847
N2380 X1.3413 Y0.5752
N2385 X1.3451 Y0.5738
N2390 X1.3717 Y0.5651
N2395 X1.3805 Y0.5627
N2400 X1.4071 Y0.5563
N2405 X1.4248 Y0.5522
N2410 X1.4336 Y0.5507
N2415 X1.4956 Y0.5458
N2420 X1.5044
N2425 X1.5664 Y0.5507
N2430 X1.5752 Y0.5522
N2435 X1.5929 Y0.5563
N2440 X1.6195 Y0.5627
N2445 X1.6283 Y0.5651
N2450 X1.6549 Y0.5738
N2455 X1.6587 Y0.5752
N2460 X1.6814 Y0.5847
N2465 X1.6903 Y0.5885
N2470 X1.7172 Y0.6018
N2475 X1.7257 Y0.6068
N2480 X1.7463 Y0.6195
N2485 X1.7522 Y0.6233
N2490 X1.7787 Y0.6424
N2495 X1.7833 Y0.646
N2500 X1.8144 Y0.6726
N2505 X1.823 Y0.6815
N2510 X1.8407 Y0.7013
N2515 X1.8465 Y0.708
N2520 X1.8683 Y0.7345
N2525 X1.8742 Y0.7434
N2530 X1.8851 Y0.7611
N2535 X1.8904 Y0.7699
N2540 X1.9026 Y0.7905
N2545 X1.9061 Y0.7965
N2550 X1.9115 Y0.8093
N2555 X1.9198 Y0.8293
N2560 X1.9206 Y0.8321
N2565 X1.9212 Y0.835
N2570 X1.9213 Y0.838 Z-0.3935
N2575 X1.9208 Y0.841 Z-0.393
N2580 X1.9203 Y0.8439 Z-0.392
N2585 X1.9198 Y0.8467 Z-0.3907
N2590 X1.9185 Y0.8489 Z-0.3891
N2595 X1.9173 Y0.8509 Z-0.3873
N2600 X1.9163 Y0.8527 Z-0.3851
N2605 X1.9153 Y0.8542 Z-0.3827
N2610 X1.914 Y0.8555 Z-0.3795
N2615 X1.9131 Y0.8565 Z-0.3761
N2620 X1.9125 Y0.8571 Z-0.3724
N2625 X1.9123 Y0.8573 Z-0.3687
N2630 G0 Z0.2
N2635 X1.6125 Y1.038
N2640 Z-0.2937
N2645 G3 X1.3875 Y0.962 Z-0.3067 I-0.1125 J-0.038 F10.
N2650 X1.6125 Y1.038 Z-0.3198 I0.1125 J0.038
N2655 X1.3875 Y0.962 Z-0.3328 I-0.1125 J-0.038
N2660 X1.6125 Y1.038 Z-0.3458 I0.1125 J0.038
N2665 X1.3875 Y0.962 Z-0.3588 I-0.1125 J-0.038
N2670 X1.6125 Y1.038 Z-0.3719 I0.1125 J0.038
N2675 X1.3875 Y0.962 Z-0.3849 I-0.1125 J-0.038
N2680 X1.6125 Y1.038 Z-0.3979 I0.1125 J0.038
N2685 X1.3875 Y0.962 Z-0.4109 I-0.1125 J-0.038
N2690 X1.6125 Y1.038 Z-0.424 I0.1125 J0.038
N2695 X1.3875 Y0.962 Z-0.437 I-0.1125 J-0.038
N2700 X1.6125 Y1.038 Z-0.45 I0.1125 J0.038
N2705 X1.3875 Y0.962 Z-0.4631 I-0.1125 J-0.038
N2710 X1.6125 Y1.038 Z-0.4761 I0.1125 J0.038
N2715 X1.3875 Y0.962 Z-0.4891 I-0.1125 J-0.038
N2720 X1.6125 Y1.038 Z-0.5021 I0.1125 J0.038
N2725 X1.3875 Y0.962 Z-0.5152 I-0.1125 J-0.038
N2730 X1.6125 Y1.038 Z-0.5282 I0.1125 J0.038
N2735 X1.3875 Y0.962 Z-0.5412 I-0.1125 J-0.038
N2740 X1.6125 Y1.038 Z-0.5543 I0.1125 J0.038
N2745 X1.3875 Y0.962 Z-0.5673 I-0.1125 J-0.038
N2750 X1.6125 Y1.038 Z-0.5803 I0.1125 J0.038
N2755 X1.3875 Y0.962 Z-0.5933 I-0.1125 J-0.038
N2760 X1.6125 Y1.038 Z-0.6064 I0.1125 J0.038
N2765 X1.3875 Y0.962 Z-0.6194 I-0.1125 J-0.038
N2770 X1.6125 Y1.038 Z-0.6324 I0.1125 J0.038
N2775 X1.3875 Y0.962 Z-0.6454 I-0.1125 J-0.038
N2780 X1.6125 Y1.038 Z-0.6585 I0.1125 J0.038
N2785 X1.3875 Y0.962 Z-0.6715 I-0.1125 J-0.038
N2790 X1.6125 Y1.038 Z-0.6845 I0.1125 J0.038
N2795 X1.3875 Y0.962 Z-0.6976 I-0.1125 J-0.038
N2800 X1.6125 Y1.038 Z-0.7106 I0.1125 J0.038
N2805 X1.3875 Y0.962 Z-0.7236 I-0.1125 J-0.038
N2810 X1.6125 Y1.038 Z-0.7366 I0.1125 J0.038
N2815 X1.3875 Y0.962 Z-0.7497 I-0.1125 J-0.038
N2820 X1.6125 Y1.038 Z-0.7627 I0.1125 J0.038
N2825 X1.3875 Y0.962 Z-0.7757 I-0.1125 J-0.038
N2830 X1.6187 Y1. Z-0.7874 I0.1125 J0.038
N2835 X1.3812 I-0.1188 J0.
N2840 X1.6187 I0.1188 J0.
N2845 G1 X1.6189 Y1.0097 F15.
N2850 X1.626 Y1.0481
N2855 X1.6278 Y1.0538
N2860 X1.6289 Y1.0597
N2865 X1.6295 Y1.0657
N2870 Y1.0717
N2875 X1.629 Y1.0782
N2880 X1.6279 Y1.0851
N2885 X1.6262 Y1.0924
N2890 X1.6237 Y1.0999
N2895 X1.6205 Y1.1076
N2900 X1.6165 Y1.1154
N2905 X1.6116 Y1.1233
N2910 X1.6058 Y1.131
N2915 X1.5992 Y1.1386
N2920 X1.5917 Y1.146
N2925 X1.5833 Y1.1529
N2930 X1.5741 Y1.1594
N2935 X1.564 Y1.1653
N2940 X1.5533 Y1.1705
N2945 X1.5419 Y1.1749
N2950 X1.5298 Y1.1785
N2955 X1.5173 Y1.1812
N2960 X1.5043 Y1.1829
N2965 X1.491 Y1.1836
N2970 X1.4775 Y1.1832
N2975 X1.4638 Y1.1816
N2980 X1.4502 Y1.179
N2985 X1.4367 Y1.1752
N2990 X1.4233 Y1.1703
N2995 X1.4103 Y1.1643
N3000 X1.3978 Y1.1572
N3005 X1.3857 Y1.1491
N3010 X1.3743 Y1.14
N3015 X1.3636 Y1.1299
N3020 X1.3536 Y1.119
N3025 X1.3446 Y1.1072
N3030 X1.3365 Y1.0948
N3035 X1.3294 Y1.0816
N3040 X1.3233 Y1.0679
N3045 X1.3184 Y1.0537
N3050 X1.3146 Y1.0392
N3055 X1.312 Y1.0243
N3060 X1.3106 Y1.0093
N3065 X1.3104 Y0.9942
N3070 X1.3114 Y0.9791
N3075 X1.3136 Y0.9641
N3080 X1.317 Y0.9493
N3085 X1.3216 Y0.9348
N3090 X1.3274 Y0.9208
N3095 X1.3343 Y0.9072
N3100 X1.3422 Y0.8942
N3105 X1.3512 Y0.8819
N3110 X1.3611 Y0.8703
N3115 X1.3719 Y0.8596
N3120 X1.3836 Y0.8498
N3125 X1.396 Y0.8409
N3130 X1.409 Y0.8331
N3135 X1.4227 Y0.8263
N3140 X1.4369 Y0.8207
N3145 X1.4515 Y0.8162
N3150 X1.4664 Y0.8129
N3155 X1.4815 Y0.8108
N3160 X1.4967 Y0.8099
N3165 X1.512 Y0.8102
N3170 X1.5272 Y0.8118
N3175 X1.5422 Y0.8146
N3180 X1.5569 Y0.8186
N3185 X1.5713 Y0.8237
N3190 X1.5852 Y0.83
N3195 X1.5986 Y0.8374
N3200 X1.6113 Y0.8458
N3205 X1.6233 Y0.8553
N3210 X1.6345 Y0.8656
N3215 X1.6449 Y0.8768
N3220 X1.6543 Y0.8889
N3225 X1.6627 Y0.9016
N3230 X1.6773 Y0.928
N3235 X1.6897 Y0.9555
N3240 X1.6976 Y0.9776
N3245 X1.7029 Y0.9975
N3250 X1.7063 Y1.016
N3255 X1.7082 Y1.034
N3260 X1.7085 Y1.0513
N3265 X1.7075 Y1.0682
N3270 X1.7052 Y1.0847
N3275 X1.7017 Y1.1008
N3280 X1.6968 Y1.1165
N3285 X1.6907 Y1.1318
N3290 X1.6833 Y1.1466
N3295 X1.6748 Y1.1609
N3300 X1.665 Y1.1746
N3305 X1.654 Y1.1875
N3310 X1.6419 Y1.1997
N3315 X1.6288 Y1.211
N3320 X1.6145 Y1.2214
N3325 X1.5993 Y1.2307
N3330 X1.5831 Y1.2388
N3335 X1.5661 Y1.2458
N3340 X1.5484 Y1.2514
N3345 X1.53 Y1.2556
N3350 X1.5111 Y1.2584
N3355 X1.4919 Y1.2597
N3360 X1.4724 Y1.2594
N3365 X1.4528 Y1.2576
N3370 X1.4332 Y1.2541
N3375 X1.4139 Y1.249
N3380 X1.3948 Y1.2424
N3385 X1.3763 Y1.2342
N3390 X1.3583 Y1.2245
N3395 X1.341 Y1.2133
N3400 X1.3247 Y1.2006
N3405 X1.3093 Y1.1867
N3410 X1.295 Y1.1714
N3415 X1.282 Y1.155
N3420 X1.2702 Y1.1376
N3425 X1.2599 Y1.1192
N3430 X1.251 Y1.0999
N3435 X1.2437 Y1.08
N3440 X1.238 Y1.0595
N3445 X1.234 Y1.0385
N3450 X1.2316 Y1.0173
N3455 X1.231 Y0.9959
N3460 X1.232 Y0.9745
N3465 X1.2348 Y0.9532
N3470 X1.2393 Y0.9322
N3475 X1.2455 Y0.9115
N3480 X1.2534 Y0.8915
N3485 X1.2628 Y0.8721
N3490 X1.2737 Y0.8535
N3495 X1.2861 Y0.8358
N3500 X1.2999 Y0.8192
N3505 X1.315 Y0.8038
N3510 X1.3313 Y0.7896
N3515 X1.3487 Y0.7767
N3520 X1.3671 Y0.7653
N3525 X1.3863 Y0.7554
N3530 X1.4063 Y0.747
N3535 X1.4269 Y0.7403
N3540 X1.4479 Y0.7353
N3545 X1.4693 Y0.7319
N3550 X1.4909 Y0.7303
N3555 X1.5126 Y0.7305
N3560 X1.5342 Y0.7323
N3565 X1.5555 Y0.7359
N3570 X1.5765 Y0.7412
N3575 X1.597 Y0.7482
N3580 X1.6169 Y0.7568
N3585 X1.6361 Y0.767
N3590 X1.6543 Y0.7786
N3595 X1.6716 Y0.7917
N3600 X1.6899 Y0.8081
N3605 X1.7082 Y0.8273
N3610 X1.7254 Y0.8485
N3615 X1.7411 Y0.8715
N3620 X1.7549 Y0.8955
N3625 X1.7664 Y0.9199
N3630 X1.7757 Y0.9446
N3635 X1.7828 Y0.9694
N3640 X1.7877 Y0.9941
N3645 X1.7907 Y1.0187
N3650 X1.7916 Y1.0431
N3655 X1.7906 Y1.0672
N3660 X1.7877 Y1.091
N3665 X1.7829 Y1.1143
N3670 X1.7762 Y1.1371
N3675 X1.7678 Y1.1592
N3680 X1.7576 Y1.1806
N3685 X1.7458 Y1.2012
N3690 X1.7322 Y1.2208
N3695 X1.7171 Y1.2393
N3700 X1.7004 Y1.2567
N3705 X1.6823 Y1.2728
N3710 X1.6627 Y1.2874
N3715 X1.6419 Y1.3006
N3720 X1.6199 Y1.3122
N3725 X1.5969 Y1.322
N3730 X1.5729 Y1.3301
N3735 X1.5482 Y1.3362
N3740 X1.5229 Y1.3404
N3745 X1.4971 Y1.3425
N3750 X1.4711
N3755 X1.4449 Y1.3405
N3760 X1.4189 Y1.3363
N3765 X1.393 Y1.33
N3770 X1.3677 Y1.3216
N3775 X1.3429 Y1.3112
N3780 X1.3189 Y1.2987
N3785 X1.2959 Y1.2843
N3790 X1.274 Y1.268
N3795 X1.2535 Y1.2499
N3800 X1.2343 Y1.2301
N3805 X1.2167 Y1.2088
N3810 X1.2009 Y1.1861
N3815 X1.1869 Y1.162
N3820 X1.1748 Y1.1369
N3825 X1.1647 Y1.1108
N3830 X1.1568 Y1.084
N3835 X1.151 Y1.0565
N3840 X1.1475 Y1.0286
N3845 X1.1462 Y1.0004
N3850 X1.1471 Y0.9722
N3855 X1.1503 Y0.9442
N3860 X1.1558 Y0.9164
N3865 X1.1635 Y0.8892
N3870 X1.1734 Y0.8626
N3875 X1.1853 Y0.8369
N3880 X1.1993 Y0.8123
N3885 X1.2153 Y0.7888
N3890 X1.233 Y0.7666
N3895 X1.2526 Y0.746
N3900 X1.2737 Y0.7269
N3905 X1.2963 Y0.7097
N3910 X1.3202 Y0.6943
N3915 X1.3452 Y0.6808
N3920 X1.3713 Y0.6694
N3925 X1.3982 Y0.6601
N3930 X1.4258 Y0.6531
N3935 X1.4539 Y0.6482
N3940 X1.4822 Y0.6456
N3945 X1.5107 Y0.6453
N3950 X1.5391 Y0.6473
N3955 X1.5673 Y0.6516
N3960 X1.595 Y0.6581
N3965 X1.6221 Y0.6668
N3970 X1.6485 Y0.6777
N3975 X1.6745 Y0.691
N3980 X1.7002 Y0.7068
N3985 X1.7254 Y0.7252
N3990 X1.7496 Y0.7462
N3995 X1.7725 Y0.7695
N4000 X1.7937 Y0.7948
N4005 X1.8129 Y0.8218
N4010 X1.8298 Y0.8502
N4015 X1.8443 Y0.8796
N4020 X1.8562 Y0.9099
N4025 X1.8656 Y0.9408
N4030 X1.8725 Y0.9721
N4035 X1.8767 Y1.0036
N4040 X1.8785 Y1.0351
N4045 X1.8777 Y1.0664
N4050 X1.8744 Y1.0973
N4055 X1.8686 Y1.1278
N4060 X1.8605 Y1.1577
N4065 X1.8499 Y1.1867
N4070 X1.8371 Y1.2148
N4075 X1.8221 Y1.2419
N4080 X1.8049 Y1.2676
N4085 X1.7857 Y1.292
N4090 X1.7644 Y1.3149
N4095 X1.7413 Y1.336
N4100 X1.7165 Y1.3554
N4105 X1.69 Y1.3728
N4110 X1.662 Y1.3881
N4115 X1.6328 Y1.4011
N4120 X1.6024 Y1.4119
N4125 X1.571 Y1.4202
N4130 X1.5389 Y1.426
N4135 X1.5063 Y1.4293
N4140 X1.4733 Y1.4299
N4145 X1.4401 Y1.4278
N4150 X1.4071 Y1.4231
N4155 X1.3744 Y1.4157
N4160 X1.3423 Y1.4057
N4165 X1.3109 Y1.393
N4170 X1.2804 Y1.3778
N4175 X1.2512 Y1.3602
N4180 X1.2234 Y1.3401
N4185 X1.1972 Y1.3178
N4190 X1.1728 Y1.2934
N4195 X1.1503 Y1.2671
N4200 X1.13 Y1.2389
N4205 X1.112 Y1.2092
N4210 X1.0963 Y1.178
N4215 X1.0832 Y1.1455
N4220 X1.0727 Y1.1121
N4225 X1.0649 Y1.0778
N4230 X1.0599 Y1.043
N4235 X1.0577 Y1.0079
N4240 X1.0583 Y0.9726
N4245 X1.0618 Y0.9374
N4250 X1.068 Y0.9026
N4255 X1.0771 Y0.8684
N4260 X1.0888 Y0.835
N4265 X1.1033 Y0.8026
N4270 X1.1203 Y0.7715
N4275 X1.1397 Y0.7418
N4280 X1.1615 Y0.7138
N4285 X1.1855 Y0.6875
N4290 X1.2115 Y0.6633
N4295 X1.2393 Y0.6413
N4300 X1.2689 Y0.6215
N4305 X1.3 Y0.6042
N4310 X1.3323 Y0.5894
N4315 X1.3658 Y0.5772
N4320 X1.4001 Y0.5678
N4325 X1.4351 Y0.5612
N4330 X1.4705 Y0.5574
N4335 X1.5061 Y0.5564
N4340 X1.5416 Y0.5583
N4345 X1.5769 Y0.5631
N4350 X1.6119 Y0.5707
N4355 X1.6463 Y0.5811
N4360 X1.6802 Y0.5945
N4365 X1.7134 Y0.6107
N4370 X1.7457 Y0.6299
N4375 X1.7769 Y0.652
N4380 X1.8068 Y0.6769
N4385 X1.8346 Y0.7043
N4390 X1.8601 Y0.7337
N4395 X1.8833 Y0.7651
N4400 X1.9039 Y0.7982
N4405 X1.9176 Y0.8247
N4410 X1.9184 Y0.8262
N4415 X1.9191 Y0.8277
N4420 X1.9198 Y0.8293
N4425 X1.9317 Y0.8584
N4430 X1.9342 Y0.8673
N4435 X1.9469 Y0.9204
N4440 X1.9482 Y0.9292
N4445 X1.9501 Y0.9469
N4450 X1.9511 Y0.9558
N4455 X1.9532 Y0.9823
N4460 X1.9533 Y0.9912
N4465 Y1.0088
N4470 X1.9532 Y1.0177
N4475 X1.9511 Y1.0442
N4480 X1.9501 Y1.0531
N4485 X1.9482 Y1.0708
N4490 X1.9469 Y1.0798
N4495 X1.9342 Y1.1327
N4500 X1.9317 Y1.1416
N4505 X1.9203 Y1.1693
N4510 X1.9098 Y1.1947
N4515 X1.9061 Y1.2035
N4520 X1.9026 Y1.2095
N4525 X1.8904 Y1.2301
N4530 X1.8796 Y1.2478
N4535 X1.8742 Y1.2566
N4540 X1.8683 Y1.2655
N4545 X1.8465 Y1.292
N4550 X1.8407 Y1.2987
N4555 X1.8229 Y1.3186
N4560 X1.8144 Y1.3274
N4565 X1.7833 Y1.354
N4570 X1.7787 Y1.3576
N4575 X1.7522 Y1.3767
N4580 X1.7463 Y1.3805
N4585 X1.7257 Y1.3932
N4590 X1.7172 Y1.3982
N4595 X1.6903 Y1.4115
N4600 X1.6814 Y1.4153
N4605 X1.6587 Y1.4248
N4610 X1.6549 Y1.4262
N4615 X1.6283 Y1.4349
N4620 X1.6195 Y1.4373
N4625 X1.5929 Y1.4437
N4630 X1.5752 Y1.4478
N4635 X1.5664 Y1.4493
N4640 X1.5044 Y1.4542
N4645 X1.4956
N4650 X1.4336 Y1.4493
N4655 X1.4248 Y1.4478
N4660 X1.4071 Y1.4437
N4665 X1.3805 Y1.4373
N4670 X1.3717 Y1.4349
N4675 X1.3451 Y1.4262
N4680 X1.3413 Y1.4248
N4685 X1.3186 Y1.4153
N4690 X1.3097 Y1.4115
N4695 X1.2828 Y1.3982
N4700 X1.2743 Y1.3932
N4705 X1.2537 Y1.3805
N4710 X1.2478 Y1.3767
N4715 X1.2213 Y1.3576
N4720 X1.2167 Y1.354
N4725 X1.1856 Y1.3274
N4730 X1.177 Y1.3185
N4735 X1.1593 Y1.2987
N4740 X1.1535 Y1.292
N4745 X1.1317 Y1.2655
N4750 X1.1258 Y1.2566
N4755 X1.1149 Y1.2389
N4760 X1.1096 Y1.2301
N4765 X1.0974 Y1.2095
N4770 X1.0939 Y1.2035
N4775 X1.0885 Y1.1907
N4780 X1.0792 Y1.1681
N4785 X1.0683 Y1.1416
N4790 X1.0658 Y1.1327
N4795 X1.0531 Y1.0796
N4800 X1.0518 Y1.0708
N4805 X1.0499 Y1.0531
N4810 X1.0489 Y1.0442
N4815 X1.0468 Y1.0177
N4820 X1.0467 Y1.0088
N4825 Y0.9912
N4830 X1.0468 Y0.9823
N4835 X1.0489 Y0.9558
N4840 X1.0499 Y0.9469
N4845 X1.0518 Y0.9292
N4850 X1.0531 Y0.9202
N4855 X1.0658 Y0.8673
N4860 X1.0683 Y0.8584
N4865 X1.0797 Y0.8307
N4870 X1.0902 Y0.8053
N4875 X1.0939 Y0.7965
N4880 X1.0974 Y0.7905
N4885 X1.1096 Y0.7699
N4890 X1.1204 Y0.7522
N4895 X1.1258 Y0.7434
N4900 X1.1317 Y0.7345
N4905 X1.1535 Y0.708
N4910 X1.1593 Y0.7013
N4915 X1.1771 Y0.6814
N4920 X1.1856 Y0.6726
N4925 X1.2167 Y0.646
N4930 X1.2213 Y0.6424
N4935 X1.2478 Y0.6233
N4940 X1.2537 Y0.6195
N4945 X1.2743 Y0.6068
N4950 X1.2828 Y0.6018
N4955 X1.3097 Y0.5885
N4960 X1.3186 Y0.5847
N4965 X1.3413 Y0.5752
N4970 X1.3451 Y0.5738
N4975 X1.3717 Y0.5651
N4980 X1.3805 Y0.5627
N4985 X1.4071 Y0.5563
N4990 X1.4248 Y0.5522
N4995 X1.4336 Y0.5507
N5000 X1.4956 Y0.5458
N5005 X1.5044
N5010 X1.5664 Y0.5507
N5015 X1.5752 Y0.5522
N5020 X1.5929 Y0.5563
N5025 X1.6195 Y0.5627
N5030 X1.6283 Y0.5651
N5035 X1.6549 Y0.5738
N5040 X1.6587 Y0.5752
N5045 X1.6814 Y0.5847
N5050 X1.6903 Y0.5885
N5055 X1.7172 Y0.6018
N5060 X1.7257 Y0.6068
N5065 X1.7463 Y0.6195
N5070 X1.7522 Y0.6233
N5075 X1.7787 Y0.6424
N5080 X1.7833 Y0.646
N5085 X1.8144 Y0.6726
N5090 X1.823 Y0.6815
N5095 X1.8407 Y0.7013
N5100 X1.8465 Y0.708
N5105 X1.8683 Y0.7345
N5110 X1.8742 Y0.7434
N5115 X1.8851 Y0.7611
N5120 X1.8904 Y0.7699
N5125 X1.9026 Y0.7905
N5130 X1.9061 Y0.7965
N5135 X1.9115 Y0.8093
N5140 X1.9198 Y0.8293
N5145 X1.9206 Y0.8321
N5150 X1.9212 Y0.835
N5155 X1.9213 Y0.838 Z-0.7872
N5160 X1.9208 Y0.841 Z-0.7867
N5165 X1.9203 Y0.8439 Z-0.7857
N5170 X1.9198 Y0.8467 Z-0.7844
N5175 X1.9185 Y0.8489 Z-0.7828
N5180 X1.9173 Y0.8509 Z-0.781
N5185 X1.9163 Y0.8527 Z-0.7788
N5190 X1.9153 Y0.8542 Z-0.7764
N5195 X1.914 Y0.8555 Z-0.7732
N5200 X1.9131 Y0.8565 Z-0.7698
N5205 X1.9125 Y0.8571 Z-0.7661
N5210 X1.9123 Y0.8573 Z-0.7624
N5215 G0 Z0.2
N5220 X1.6125 Y1.038
N5225 Z-0.6874
N5230 G3 X1.3875 Y0.962 Z-0.7004 I-0.1125 J-0.038 F10.
N5235 X1.6125 Y1.038 Z-0.7135 I0.1125 J0.038
N5240 X1.3875 Y0.962 Z-0.7265 I-0.1125 J-0.038
N5245 X1.6125 Y1.038 Z-0.7395 I0.1125 J0.038
N5250 X1.3875 Y0.962 Z-0.7525 I-0.1125 J-0.038
N5255 X1.6125 Y1.038 Z-0.7656 I0.1125 J0.038
N5260 X1.3875 Y0.962 Z-0.7786 I-0.1125 J-0.038
N5265 X1.6125 Y1.038 Z-0.7916 I0.1125 J0.038
N5270 X1.3875 Y0.962 Z-0.8047 I-0.1125 J-0.038
N5275 X1.6125 Y1.038 Z-0.8177 I0.1125 J0.038
N5280 X1.3875 Y0.962 Z-0.8307 I-0.1125 J-0.038
N5285 X1.6125 Y1.038 Z-0.8437 I0.1125 J0.038
N5290 X1.3875 Y0.962 Z-0.8568 I-0.1125 J-0.038
N5295 X1.6125 Y1.038 Z-0.8698 I0.1125 J0.038
N5300 X1.3875 Y0.962 Z-0.8828 I-0.1125 J-0.038
N5305 X1.6125 Y1.038 Z-0.8958 I0.1125 J0.038
N5310 X1.3875 Y0.962 Z-0.9089 I-0.1125 J-0.038
N5315 X1.6125 Y1.038 Z-0.9219 I0.1125 J0.038
N5320 X1.3875 Y0.962 Z-0.9349 I-0.1125 J-0.038
N5325 X1.6125 Y1.038 Z-0.948 I0.1125 J0.038
N5330 X1.3875 Y0.962 Z-0.961 I-0.1125 J-0.038
N5335 X1.6125 Y1.038 Z-0.974 I0.1125 J0.038
N5340 X1.3875 Y0.962 Z-0.987 I-0.1125 J-0.038
N5345 X1.6125 Y1.038 Z-1.0001 I0.1125 J0.038
N5350 X1.3875 Y0.962 Z-1.0131 I-0.1125 J-0.038
N5355 X1.6125 Y1.038 Z-1.0261 I0.1125 J0.038
N5360 X1.3875 Y0.962 Z-1.0391 I-0.1125 J-0.038
N5365 X1.6125 Y1.038 Z-1.0522 I0.1125 J0.038
N5370 X1.3875 Y0.962 Z-1.0652 I-0.1125 J-0.038
N5375 X1.6125 Y1.038 Z-1.0782 I0.1125 J0.038
N5380 X1.3875 Y0.962 Z-1.0913 I-0.1125 J-0.038
N5385 X1.6125 Y1.038 Z-1.1043 I0.1125 J0.038
N5390 X1.3875 Y0.962 Z-1.1173 I-0.1125 J-0.038
N5395 X1.6125 Y1.038 Z-1.1303 I0.1125 J0.038
N5400 X1.3875 Y0.962 Z-1.1434 I-0.1125 J-0.038
N5405 X1.6125 Y1.038 Z-1.1564 I0.1125 J0.038
N5410 X1.3875 Y0.962 Z-1.1694 I-0.1125 J-0.038
N5415 X1.6187 Y1. Z-1.1811 I0.1125 J0.038
N5420 X1.3812 I-0.1188 J0.
N5425 X1.6187 I0.1188 J0.
N5430 G1 X1.6189 Y1.0097 F15.
N5435 X1.626 Y1.0481
N5440 X1.6278 Y1.0538
N5445 X1.6289 Y1.0597
N5450 X1.6295 Y1.0657
N5455 Y1.0717
N5460 X1.629 Y1.0782
N5465 X1.6279 Y1.0851
N5470 X1.6262 Y1.0924
N5475 X1.6237 Y1.0999
N5480 X1.6205 Y1.1076
N5485 X1.6165 Y1.1154
N5490 X1.6116 Y1.1233
N5495 X1.6058 Y1.131
N5500 X1.5992 Y1.1386
N5505 X1.5917 Y1.146
N5510 X1.5833 Y1.1529
N5515 X1.5741 Y1.1594
N5520 X1.564 Y1.1653
N5525 X1.5533 Y1.1705
N5530 X1.5419 Y1.1749
N5535 X1.5298 Y1.1785
N5540 X1.5173 Y1.1812
N5545 X1.5043 Y1.1829
N5550 X1.491 Y1.1836
N5555 X1.4775 Y1.1832
N5560 X1.4638 Y1.1816
N5565 X1.4502 Y1.179
N5570 X1.4367 Y1.1752
N5575 X1.4233 Y1.1703
N5580 X1.4103 Y1.1643
N5585 X1.3978 Y1.1572
N5590 X1.3857 Y1.1491
N5595 X1.3743 Y1.14
N5600 X1.3636 Y1.1299
N5605 X1.3536 Y1.119
N5610 X1.3446 Y1.1072
N5615 X1.3365 Y1.0948
N5620 X1.3294 Y1.0816
N5625 X1.3233 Y1.0679
N5630 X1.3184 Y1.0537
N5635 X1.3146 Y1.0392
N5640 X1.312 Y1.0243
N5645 X1.3106 Y1.0093
N5650 X1.3104 Y0.9942
N5655 X1.3114 Y0.9791
N5660 X1.3136 Y0.9641
N5665 X1.317 Y0.9493
N5670 X1.3216 Y0.9348
N5675 X1.3274 Y0.9208
N5680 X1.3343 Y0.9072
N5685 X1.3422 Y0.8942
N5690 X1.3512 Y0.8819
N5695 X1.3611 Y0.8703
N5700 X1.3719 Y0.8596
N5705 X1.3836 Y0.8498
N5710 X1.396 Y0.8409
N5715 X1.409 Y0.8331
N5720 X1.4227 Y0.8263
N5725 X1.4369 Y0.8207
N5730 X1.4515 Y0.8162
N5735 X1.4664 Y0.8129
N5740 X1.4815 Y0.8108
N5745 X1.4967 Y0.8099
N5750 X1.512 Y0.8102
N5755 X1.5272 Y0.8118
N5760 X1.5422 Y0.8146
N5765 X1.5569 Y0.8186
N5770 X1.5713 Y0.8237
N5775 X1.5852 Y0.83
N5780 X1.5986 Y0.8374
N5785 X1.6113 Y0.8458
N5790 X1.6233 Y0.8553
N5795 X1.6345 Y0.8656
N5800 X1.6449 Y0.8768
N5805 X1.6543 Y0.8889
N5810 X1.6627 Y0.9016
N5815 X1.6773 Y0.928
N5820 X1.6897 Y0.9555
N5825 X1.6976 Y0.9776
N5830 X1.7029 Y0.9975
N5835 X1.7063 Y1.016
N5840 X1.7082 Y1.034
N5845 X1.7085 Y1.0513
N5850 X1.7075 Y1.0682
N5855 X1.7052 Y1.0847
N5860 X1.7017 Y1.1008
N5865 X1.6968 Y1.1165
N5870 X1.6907 Y1.1318
N5875 X1.6833 Y1.1466
N5880 X1.6748 Y1.1609
N5885 X1.665 Y1.1746
N5890 X1.654 Y1.1875
N5895 X1.6419 Y1.1997
N5900 X1.6288 Y1.211
N5905 X1.6145 Y1.2214
N5910 X1.5993 Y1.2307
N5915 X1.5831 Y1.2388
N5920 X1.5661 Y1.2458
N5925 X1.5484 Y1.2514
N5930 X1.53 Y1.2556
N5935 X1.5111 Y1.2584
N5940 X1.4919 Y1.2597
N5945 X1.4724 Y1.2594
N5950 X1.4528 Y1.2576
N5955 X1.4332 Y1.2541
N5960 X1.4139 Y1.249
N5965 X1.3948 Y1.2424
N5970 X1.3763 Y1.2342
N5975 X1.3583 Y1.2245
N5980 X1.341 Y1.2133
N5985 X1.3247 Y1.2006
N5990 X1.3093 Y1.1867
N5995 X1.295 Y1.1714
N6000 X1.282 Y1.155
N6005 X1.2702 Y1.1376
N6010 X1.2599 Y1.1192
N6015 X1.251 Y1.0999
N6020 X1.2437 Y1.08
N6025 X1.238 Y1.0595
N6030 X1.234 Y1.0385
N6035 X1.2316 Y1.0173
N6040 X1.231 Y0.9959
N6045 X1.232 Y0.9745
N6050 X1.2348 Y0.9532
N6055 X1.2393 Y0.9322
N6060 X1.2455 Y0.9115
N6065 X1.2534 Y0.8915
N6070 X1.2628 Y0.8721
N6075 X1.2737 Y0.8535
N6080 X1.2861 Y0.8358
N6085 X1.2999 Y0.8192
N6090 X1.315 Y0.8038
N6095 X1.3313 Y0.7896
N6100 X1.3487 Y0.7767
N6105 X1.3671 Y0.7653
N6110 X1.3863 Y0.7554
N6115 X1.4063 Y0.747
N6120 X1.4269 Y0.7403
N6125 X1.4479 Y0.7353
N6130 X1.4693 Y0.7319
N6135 X1.4909 Y0.7303
N6140 X1.5126 Y0.7305
N6145 X1.5342 Y0.7323
N6150 X1.5555 Y0.7359
N6155 X1.5765 Y0.7412
N6160 X1.597 Y0.7482
N6165 X1.6169 Y0.7568
N6170 X1.6361 Y0.767
N6175 X1.6543 Y0.7786
N6180 X1.6716 Y0.7917
N6185 X1.6899 Y0.8081
N6190 X1.7082 Y0.8273
N6195 X1.7254 Y0.8485
N6200 X1.7411 Y0.8715
N6205 X1.7549 Y0.8955
N6210 X1.7664 Y0.9199
N6215 X1.7757 Y0.9446
N6220 X1.7828 Y0.9694
N6225 X1.7877 Y0.9941
N6230 X1.7907 Y1.0187
N6235 X1.7916 Y1.0431
N6240 X1.7906 Y1.0672
N6245 X1.7877 Y1.091
N6250 X1.7829 Y1.1143
N6255 X1.7762 Y1.1371
N6260 X1.7678 Y1.1592
N6265 X1.7576 Y1.1806
N6270 X1.7458 Y1.2012
N6275 X1.7322 Y1.2208
N6280 X1.7171 Y1.2393
N6285 X1.7004 Y1.2567
N6290 X1.6823 Y1.2728
N6295 X1.6627 Y1.2874
N6300 X1.6419 Y1.3006
N6305 X1.6199 Y1.3122
N6310 X1.5969 Y1.322
N6315 X1.5729 Y1.3301
N6320 X1.5482 Y1.3362
N6325 X1.5229 Y1.3404
N6330 X1.4971 Y1.3425
N6335 X1.4711
N6340 X1.4449 Y1.3405
N6345 X1.4189 Y1.3363
N6350 X1.393 Y1.33
N6355 X1.3677 Y1.3216
N6360 X1.3429 Y1.3112
N6365 X1.3189 Y1.2987
N6370 X1.2959 Y1.2843
N6375 X1.274 Y1.268
N6380 X1.2535 Y1.2499
N6385 X1.2343 Y1.2301
N6390 X1.2167 Y1.2088
N6395 X1.2009 Y1.1861
N6400 X1.1869 Y1.162
N6405 X1.1748 Y1.1369
N6410 X1.1647 Y1.1108
N6415 X1.1568 Y1.084
N6420 X1.151 Y1.0565
N6425 X1.1475 Y1.0286
N6430 X1.1462 Y1.0004
N6435 X1.1471 Y0.9722
N6440 X1.1503 Y0.9442
N6445 X1.1558 Y0.9164
N6450 X1.1635 Y0.8892
N6455 X1.1734 Y0.8626
N6460 X1.1853 Y0.8369
N6465 X1.1993 Y0.8123
N6470 X1.2153 Y0.7888
N6475 X1.233 Y0.7666
N6480 X1.2526 Y0.746
N6485 X1.2737 Y0.7269
N6490 X1.2963 Y0.7097
N6495 X1.3202 Y0.6943
N6500 X1.3452 Y0.6808
N6505 X1.3713 Y0.6694
N6510 X1.3982 Y0.6601
N6515 X1.4258 Y0.6531
N6520 X1.4539 Y0.6482
N6525 X1.4822 Y0.6456
N6530 X1.5107 Y0.6453
N6535 X1.5391 Y0.6473
N6540 X1.5673 Y0.6516
N6545 X1.595 Y0.6581
N6550 X1.6221 Y0.6668
N6555 X1.6485 Y0.6777
N6560 X1.6745 Y0.691
N6565 X1.7002 Y0.7068
N6570 X1.7254 Y0.7252
N6575 X1.7496 Y0.7462
N6580 X1.7725 Y0.7695
N6585 X1.7937 Y0.7948
N6590 X1.8129 Y0.8218
N6595 X1.8298 Y0.8502
N6600 X1.8443 Y0.8796
N6605 X1.8562 Y0.9099
N6610 X1.8656 Y0.9408
N6615 X1.8725 Y0.9721
N6620 X1.8767 Y1.0036
N6625 X1.8785 Y1.0351
N6630 X1.8777 Y1.0664
N6635 X1.8744 Y1.0973
N6640 X1.8686 Y1.1278
N6645 X1.8605 Y1.1577
N6650 X1.8499 Y1.1867
N6655 X1.8371 Y1.2148
N6660 X1.8221 Y1.2419
N6665 X1.8049 Y1.2676
N6670 X1.7857 Y1.292
N6675 X1.7644 Y1.3149
N6680 X1.7413 Y1.336
N6685 X1.7165 Y1.3554
N6690 X1.69 Y1.3728
N6695 X1.662 Y1.3881
N6700 X1.6328 Y1.4011
N6705 X1.6024 Y1.4119
N6710 X1.571 Y1.4202
N6715 X1.5389 Y1.426
N6720 X1.5063 Y1.4293
N6725 X1.4733 Y1.4299
N6730 X1.4401 Y1.4278
N6735 X1.4071 Y1.4231
N6740 X1.3744 Y1.4157
N6745 X1.3423 Y1.4057
N6750 X1.3109 Y1.393
N6755 X1.2804 Y1.3778
N6760 X1.2512 Y1.3602
N6765 X1.2234 Y1.3401
N6770 X1.1972 Y1.3178
N6775 X1.1728 Y1.2934
N6780 X1.1503 Y1.2671
N6785 X1.13 Y1.2389
N6790 X1.112 Y1.2092
N6795 X1.0963 Y1.178
N6800 X1.0832 Y1.1455
N6805 X1.0727 Y1.1121
N6810 X1.0649 Y1.0778
N6815 X1.0599 Y1.043
N6820 X1.0577 Y1.0079
N6825 X1.0583 Y0.9726
N6830 X1.0618 Y0.9374
N6835 X1.068 Y0.9026
N6840 X1.0771 Y0.8684
N6845 X1.0888 Y0.835
N6850 X1.1033 Y0.8026
N6855 X1.1203 Y0.7715
N6860 X1.1397 Y0.7418
N6865 X1.1615 Y0.7138
N6870 X1.1855 Y0.6875
N6875 X1.2115 Y0.6633
N6880 X1.2393 Y0.6413
N6885 X1.2689 Y0.6215
N6890 X1.3 Y0.6042
N6895 X1.3323 Y0.5894
N6900 X1.3658 Y0.5772
N6905 X1.4001 Y0.5678
N6910 X1.4351 Y0.5612
N6915 X1.4705 Y0.5574
N6920 X1.5061 Y0.5564
N6925 X1.5416 Y0.5583
N6930 X1.5769 Y0.5631
N6935 X1.6119 Y0.5707
N6940 X1.6463 Y0.5811
N6945 X1.6802 Y0.5945
N6950 X1.7134 Y0.6107
N6955 X1.7457 Y0.6299
N6960 X1.7769 Y0.652
N6965 X1.8068 Y0.6769
N6970 X1.8346 Y0.7043
N6975 X1.8601 Y0.7337
N6980 X1.8833 Y0.7651
N6985 X1.9039 Y0.7982
N6990 X1.9176 Y0.8247
N6995 X1.9184 Y0.8262
N7000 X1.9191 Y0.8277
N7005 X1.9198 Y0.8293
N7010 X1.9317 Y0.8584
N7015 X1.9342 Y0.8673
N7020 X1.9469 Y0.9204
N7025 X1.9482 Y0.9292
N7030 X1.9501 Y0.9469
N7035 X1.9511 Y0.9558
N7040 X1.9532 Y0.9823
N7045 X1.9533 Y0.9912
N7050 Y1.0088
N7055 X1.9532 Y1.0177
N7060 X1.9511 Y1.0442
N7065 X1.9501 Y1.0531
N7070 X1.9482 Y1.0708
N7075 X1.9469 Y1.0798
N7080 X1.9342 Y1.1327
N7085 X1.9317 Y1.1416
N7090 X1.9203 Y1.1693
N7095 X1.9098 Y1.1947
N7100 X1.9061 Y1.2035
N7105 X1.9026 Y1.2095
N7110 X1.8904 Y1.2301
N7115 X1.8796 Y1.2478
N7120 X1.8742 Y1.2566
N7125 X1.8683 Y1.2655
N7130 X1.8465 Y1.292
N7135 X1.8407 Y1.2987
N7140 X1.8229 Y1.3186
N7145 X1.8144 Y1.3274
N7150 X1.7833 Y1.354
N7155 X1.7787 Y1.3576
N7160 X1.7522 Y1.3767
N7165 X1.7463 Y1.3805
N7170 X1.7257 Y1.3932
N7175 X1.7172 Y1.3982
N7180 X1.6903 Y1.4115
N7185 X1.6814 Y1.4153
N7190 X1.6587 Y1.4248
N7195 X1.6549 Y1.4262
N7200 X1.6283 Y1.4349
N7205 X1.6195 Y1.4373
N7210 X1.5929 Y1.4437
N7215 X1.5752 Y1.4478
N7220 X1.5664 Y1.4493
N7225 X1.5044 Y1.4542
N7230 X1.4956
N7235 X1.4336 Y1.4493
N7240 X1.4248 Y1.4478
N7245 X1.4071 Y1.4437
N7250 X1.3805 Y1.4373
N7255 X1.3717 Y1.4349
N7260 X1.3451 Y1.4262
N7265 X1.3413 Y1.4248
N7270 X1.3186 Y1.4153
N7275 X1.3097 Y1.4115
N7280 X1.2828 Y1.3982
N7285 X1.2743 Y1.3932
N7290 X1.2537 Y1.3805
N7295 X1.2478 Y1.3767
N7300 X1.2213 Y1.3576
N7305 X1.2167 Y1.354
N7310 X1.1856 Y1.3274
N7315 X1.177 Y1.3185
N7320 X1.1593 Y1.2987
N7325 X1.1535 Y1.292
N7330 X1.1317 Y1.2655
N7335 X1.1258 Y1.2566
N7340 X1.1149 Y1.2389
N7345 X1.1096 Y1.2301
N7350 X1.0974 Y1.2095
N7355 X1.0939 Y1.2035
N7360 X1.0885 Y1.1907
N7365 X1.0792 Y1.1681
N7370 X1.0683 Y1.1416
N7375 X1.0658 Y1.1327
N7380 X1.0531 Y1.0796
N7385 X1.0518 Y1.0708
N7390 X1.0499 Y1.0531
N7395 X1.0489 Y1.0442
N7400 X1.0468 Y1.0177
N7405 X1.0467 Y1.0088
N7410 Y0.9912
N7415 X1.0468 Y0.9823
N7420 X1.0489 Y0.9558
N7425 X1.0499 Y0.9469
N7430 X1.0518 Y0.9292
N7435 X1.0531 Y0.9202
N7440 X1.0658 Y0.8673
N7445 X1.0683 Y0.8584
N7450 X1.0797 Y0.8307
N7455 X1.0902 Y0.8053
N7460 X1.0939 Y0.7965
N7465 X1.0974 Y0.7905
N7470 X1.1096 Y0.7699
N7475 X1.1204 Y0.7522
N7480 X1.1258 Y0.7434
N7485 X1.1317 Y0.7345
N7490 X1.1535 Y0.708
N7495 X1.1593 Y0.7013
N7500 X1.1771 Y0.6814
N7505 X1.1856 Y0.6726
N7510 X1.2167 Y0.646
N7515 X1.2213 Y0.6424
N7520 X1.2478 Y0.6233
N7525 X1.2537 Y0.6195
N7530 X1.2743 Y0.6068
N7535 X1.2828 Y0.6018
N7540 X1.3097 Y0.5885
N7545 X1.3186 Y0.5847
N7550 X1.3413 Y0.5752
N7555 X1.3451 Y0.5738
N7560 X1.3717 Y0.5651
N7565 X1.3805 Y0.5627
N7570 X1.4071 Y0.5563
N7575 X1.4248 Y0.5522
N7580 X1.4336 Y0.5507
N7585 X1.4956 Y0.5458
N7590 X1.5044
N7595 X1.5664 Y0.5507
N7600 X1.5752 Y0.5522
N7605 X1.5929 Y0.5563
N7610 X1.6195 Y0.5627
N7615 X1.6283 Y0.5651
N7620 X1.6549 Y0.5738
N7625 X1.6587 Y0.5752
N7630 X1.6814 Y0.5847
N7635 X1.6903 Y0.5885
N7640 X1.7172 Y0.6018
N7645 X1.7257 Y0.6068
N7650 X1.7463 Y0.6195
N7655 X1.7522 Y0.6233
N7660 X1.7787 Y0.6424
N7665 X1.7833 Y0.646
N7670 X1.8144 Y0.6726
N7675 X1.823 Y0.6815
N7680 X1.8407 Y0.7013
N7685 X1.8465 Y0.708
N7690 X1.8683 Y0.7345
N7695 X1.8742 Y0.7434
N7700 X1.8851 Y0.7611
N7705 X1.8904 Y0.7699
N7710 X1.9026 Y0.7905
N7715 X1.9061 Y0.7965
N7720 X1.9115 Y0.8093
N7725 X1.9198 Y0.8293
N7730 X1.9206 Y0.8321
N7735 X1.9212 Y0.835
N7740 X1.9213 Y0.838 Z-1.1809
N7745 X1.9208 Y0.841 Z-1.1804
N7750 X1.9203 Y0.8439 Z-1.1794
N7755 X1.9198 Y0.8467 Z-1.1781
N7760 X1.9185 Y0.8489 Z-1.1765
N7765 X1.9173 Y0.8509 Z-1.1747
N7770 X1.9163 Y0.8527 Z-1.1725
N7775 X1.9153 Y0.8542 Z-1.1701
N7780 X1.914 Y0.8555 Z-1.1669
N7785 X1.9131 Y0.8565 Z-1.1635
N7790 X1.9125 Y0.8571 Z-1.1598
N7795 X1.9123 Y0.8573 Z-1.1561
N7800 G0 Z0.2
N7805 X1.605 Y0.9446
N7810 Z-1.0811
N7815 G3 X1.395 Y1.0554 Z-1.0941 I-0.105 J0.0554 F10.
N7820 X1.605 Y0.9446 Z-1.1072 I0.105 J-0.0554
N7825 X1.395 Y1.0554 Z-1.1202 I-0.105 J0.0554
N7830 X1.605 Y0.9446 Z-1.1332 I0.105 J-0.0554
N7835 X1.395 Y1.0554 Z-1.1462 I-0.105 J0.0554
N7840 X1.605 Y0.9446 Z-1.1593 I0.105 J-0.0554
N7845 X1.395 Y1.0554 Z-1.1723 I-0.105 J0.0554
N7850 X1.605 Y0.9446 Z-1.1853 I0.105 J-0.0554
N7855 X1.395 Y1.0554 Z-1.1984 I-0.105 J0.0554
N7860 X1.605 Y0.9446 Z-1.2114 I0.105 J-0.0554
N7865 X1.395 Y1.0554 Z-1.2244 I-0.105 J0.0554
N7870 X1.605 Y0.9446 Z-1.2374 I0.105 J-0.0554
N7875 X1.395 Y1.0554 Z-1.2505 I-0.105 J0.0554
N7880 X1.605 Y0.9446 Z-1.2635 I0.105 J-0.0554
N7885 X1.395 Y1.0554 Z-1.2765 I-0.105 J0.0554
N7890 X1.605 Y0.9446 Z-1.2895 I0.105 J-0.0554
N7895 X1.395 Y1.0554 Z-1.3026 I-0.105 J0.0554
N7900 X1.605 Y0.9446 Z-1.3156 I0.105 J-0.0554
N7905 X1.395 Y1.0554 Z-1.3286 I-0.105 J0.0554
N7910 X1.605 Y0.9446 Z-1.3417 I0.105 J-0.0554
N7915 X1.395 Y1.0554 Z-1.3547 I-0.105 J0.0554
N7920 X1.605 Y0.9446 Z-1.3677 I0.105 J-0.0554
N7925 X1.395 Y1.0554 Z-1.3807 I-0.105 J0.0554
N7930 X1.605 Y0.9446 Z-1.3938 I0.105 J-0.0554
N7935 X1.395 Y1.0554 Z-1.4068 I-0.105 J0.0554
N7940 X1.605 Y0.9446 Z-1.4198 I0.105 J-0.0554
N7945 X1.395 Y1.0554 Z-1.4328 I-0.105 J0.0554
N7950 X1.605 Y0.9446 Z-1.4459 I0.105 J-0.0554
N7955 X1.395 Y1.0554 Z-1.4589 I-0.105 J0.0554
N7960 X1.605 Y0.9446 Z-1.4719 I0.105 J-0.0554
N7965 X1.395 Y1.0554 Z-1.485 I-0.105 J0.0554
N7970 X1.605 Y0.9446 Z-1.498 I0.105 J-0.0554
N7975 X1.6187 Y1. Z-1.5 I-0.105 J0.0554
N7980 X1.3812 I-0.1188 J0.
N7985 X1.6187 I0.1188 J0.
N7990 G1 X1.6189 Y1.0097 F15.
N7995 X1.626 Y1.0481
N8000 X1.6278 Y1.0538
N8005 X1.6289 Y1.0597
N8010 X1.6295 Y1.0657
N8015 Y1.0717
N8020 X1.629 Y1.0782
N8025 X1.6279 Y1.0851
N8030 X1.6262 Y1.0924
N8035 X1.6237 Y1.0999
N8040 X1.6205 Y1.1076
N8045 X1.6165 Y1.1154
N8050 X1.6116 Y1.1233
N8055 X1.6058 Y1.131
N8060 X1.5992 Y1.1386
N8065 X1.5917 Y1.146
N8070 X1.5833 Y1.1529
N8075 X1.5741 Y1.1594
N8080 X1.564 Y1.1653
N8085 X1.5533 Y1.1705
N8090 X1.5419 Y1.1749
N8095 X1.5298 Y1.1785
N8100 X1.5173 Y1.1812
N8105 X1.5043 Y1.1829
N8110 X1.491 Y1.1836
N8115 X1.4775 Y1.1832
N8120 X1.4638 Y1.1816
N8125 X1.4502 Y1.179
N8130 X1.4367 Y1.1752
N8135 X1.4233 Y1.1703
N8140 X1.4103 Y1.1643
N8145 X1.3978 Y1.1572
N8150 X1.3857 Y1.1491
N8155 X1.3743 Y1.14
N8160 X1.3636 Y1.1299
N8165 X1.3536 Y1.119
N8170 X1.3446 Y1.1072
N8175 X1.3365 Y1.0948
N8180 X1.3294 Y1.0816
N8185 X1.3233 Y1.0679
N8190 X1.3184 Y1.0537
N8195 X1.3146 Y1.0392
N8200 X1.312 Y1.0243
N8205 X1.3106 Y1.0093
N8210 X1.3104 Y0.9942
N8215 X1.3114 Y0.9791
N8220 X1.3136 Y0.9641
N8225 X1.317 Y0.9493
N8230 X1.3216 Y0.9348
N8235 X1.3274 Y0.9208
N8240 X1.3343 Y0.9072
N8245 X1.3422 Y0.8942
N8250 X1.3512 Y0.8819
N8255 X1.3611 Y0.8703
N8260 X1.3719 Y0.8596
N8265 X1.3836 Y0.8498
N8270 X1.396 Y0.8409
N8275 X1.409 Y0.8331
N8280 X1.4227 Y0.8263
N8285 X1.4369 Y0.8207
N8290 X1.4515 Y0.8162
N8295 X1.4664 Y0.8129
N8300 X1.4815 Y0.8108
N8305 X1.4967 Y0.8099
N8310 X1.512 Y0.8102
N8315 X1.5272 Y0.8118
N8320 X1.5422 Y0.8146
N8325 X1.5569 Y0.8186
N8330 X1.5713 Y0.8237
N8335 X1.5852 Y0.83
N8340 X1.5986 Y0.8374
N8345 X1.6113 Y0.8458
N8350 X1.6233 Y0.8553
N8355 X1.6345 Y0.8656
N8360 X1.6449 Y0.8768
N8365 X1.6543 Y0.8889
N8370 X1.6627 Y0.9016
N8375 X1.6773 Y0.928
N8380 X1.6897 Y0.9555
N8385 X1.6976 Y0.9776
N8390 X1.7029 Y0.9975
N8395 X1.7063 Y1.016
N8400 X1.7082 Y1.034
N8405 X1.7085 Y1.0513
N8410 X1.7075 Y1.0682
N8415 X1.7052 Y1.0847
N8420 X1.7017 Y1.1008
N8425 X1.6968 Y1.1165
N8430 X1.6907 Y1.1318
N8435 X1.6833 Y1.1466
N8440 X1.6748 Y1.1609
N8445 X1.665 Y1.1746
N8450 X1.654 Y1.1875
N8455 X1.6419 Y1.1997
N8460 X1.6288 Y1.211
N8465 X1.6145 Y1.2214
N8470 X1.5993 Y1.2307
N8475 X1.5831 Y1.2388
N8480 X1.5661 Y1.2458
N8485 X1.5484 Y1.2514
N8490 X1.53 Y1.2556
N8495 X1.5111 Y1.2584
N8500 X1.4919 Y1.2597
N8505 X1.4724 Y1.2594
N8510 X1.4528 Y1.2576
N8515 X1.4332 Y1.2541
N8520 X1.4139 Y1.249
N8525 X1.3948 Y1.2424
N8530 X1.3763 Y1.2342
N8535 X1.3583 Y1.2245
N8540 X1.341 Y1.2133
N8545 X1.3247 Y1.2006
N8550 X1.3093 Y1.1867
N8555 X1.295 Y1.1714
N8560 X1.282 Y1.155
N8565 X1.2702 Y1.1376
N8570 X1.2599 Y1.1192
N8575 X1.251 Y1.0999
N8580 X1.2437 Y1.08
N8585 X1.238 Y1.0595
N8590 X1.234 Y1.0385
N8595 X1.2316 Y1.0173
N8600 X1.231 Y0.9959
N8605 X1.232 Y0.9745
N8610 X1.2348 Y0.9532
N8615 X1.2393 Y0.9322
N8620 X1.2455 Y0.9115
N8625 X1.2534 Y0.8915
N8630 X1.2628 Y0.8721
N8635 X1.2737 Y0.8535
N8640 X1.2861 Y0.8358
N8645 X1.2999 Y0.8192
N8650 X1.315 Y0.8038
N8655 X1.3313 Y0.7896
N8660 X1.3487 Y0.7767
N8665 X1.3671 Y0.7653
N8670 X1.3863 Y0.7554
N8675 X1.4063 Y0.747
N8680 X1.4269 Y0.7403
N8685 X1.4479 Y0.7353
N8690 X1.4693 Y0.7319
N8695 X1.4909 Y0.7303
N8700 X1.5126 Y0.7305
N8705 X1.5342 Y0.7323
N8710 X1.5555 Y0.7359
N8715 X1.5765 Y0.7412
N8720 X1.597 Y0.7482
N8725 X1.6169 Y0.7568
N8730 X1.6361 Y0.767
N8735 X1.6543 Y0.7786
N8740 X1.6716 Y0.7917
N8745 X1.6899 Y0.8081
N8750 X1.7082 Y0.8273
N8755 X1.7254 Y0.8485
N8760 X1.7411 Y0.8715
N8765 X1.7549 Y0.8955
N8770 X1.7664 Y0.9199
N8775 X1.7757 Y0.9446
N8780 X1.7828 Y0.9694
N8785 X1.7877 Y0.9941
N8790 X1.7907 Y1.0187
N8795 X1.7916 Y1.0431
N8800 X1.7906 Y1.0672
N8805 X1.7877 Y1.091
N8810 X1.7829 Y1.1143
N8815 X1.7762 Y1.1371
N8820 X1.7678 Y1.1592
N8825 X1.7576 Y1.1806
N8830 X1.7458 Y1.2012
N8835 X1.7322 Y1.2208
N8840 X1.7171 Y1.2393
N8845 X1.7004 Y1.2567
N8850 X1.6823 Y1.2728
N8855 X1.6627 Y1.2874
N8860 X1.6419 Y1.3006
N8865 X1.6199 Y1.3122
N8870 X1.5969 Y1.322
N8875 X1.5729 Y1.3301
N8880 X1.5482 Y1.3362
N8885 X1.5229 Y1.3404
N8890 X1.4971 Y1.3425
N8895 X1.4711
N8900 X1.4449 Y1.3405
N8905 X1.4189 Y1.3363
N8910 X1.393 Y1.33
N8915 X1.3677 Y1.3216
N8920 X1.3429 Y1.3112
N8925 X1.3189 Y1.2987
N8930 X1.2959 Y1.2843
N8935 X1.274 Y1.268
N8940 X1.2535 Y1.2499
N8945 X1.2343 Y1.2301
N8950 X1.2167 Y1.2088
N8955 X1.2009 Y1.1861
N8960 X1.1869 Y1.162
N8965 X1.1748 Y1.1369
N8970 X1.1647 Y1.1108
N8975 X1.1568 Y1.084
N8980 X1.151 Y1.0565
N8985 X1.1475 Y1.0286
N8990 X1.1462 Y1.0004
N8995 X1.1471 Y0.9722
N9000 X1.1503 Y0.9442
N9005 X1.1558 Y0.9164
N9010 X1.1635 Y0.8892
N9015 X1.1734 Y0.8626
N9020 X1.1853 Y0.8369
N9025 X1.1993 Y0.8123
N9030 X1.2153 Y0.7888
N9035 X1.233 Y0.7666
N9040 X1.2526 Y0.746
N9045 X1.2737 Y0.7269
N9050 X1.2963 Y0.7097
N9055 X1.3202 Y0.6943
N9060 X1.3452 Y0.6808
N9065 X1.3713 Y0.6694
N9070 X1.3982 Y0.6601
N9075 X1.4258 Y0.6531
N9080 X1.4539 Y0.6482
N9085 X1.4822 Y0.6456
N9090 X1.5107 Y0.6453
N9095 X1.5391 Y0.6473
N9100 X1.5673 Y0.6516
N9105 X1.595 Y0.6581
N9110 X1.6221 Y0.6668
N9115 X1.6485 Y0.6777
N9120 X1.6745 Y0.691
N9125 X1.7002 Y0.7068
N9130 X1.7254 Y0.7252
N9135 X1.7496 Y0.7462
N9140 X1.7725 Y0.7695
N9145 X1.7937 Y0.7948
N9150 X1.8129 Y0.8218
N9155 X1.8298 Y0.8502
N9160 X1.8443 Y0.8796
N9165 X1.8562 Y0.9099
N9170 X1.8656 Y0.9408
N9175 X1.8725 Y0.9721
N9180 X1.8767 Y1.0036
N9185 X1.8785 Y1.0351
N9190 X1.8777 Y1.0664
N9195 X1.8744 Y1.0973
N9200 X1.8686 Y1.1278
N9205 X1.8605 Y1.1577
N9210 X1.8499 Y1.1867
N9215 X1.8371 Y1.2148
N9220 X1.8221 Y1.2419
N9225 X1.8049 Y1.2676
N9230 X1.7857 Y1.292
N9235 X1.7644 Y1.3149
N9240 X1.7413 Y1.336
N9245 X1.7165 Y1.3554
N9250 X1.69 Y1.3728
N9255 X1.662 Y1.3881
N9260 X1.6328 Y1.4011
N9265 X1.6024 Y1.4119
N9270 X1.571 Y1.4202
N9275 X1.5389 Y1.426
N9280 X1.5063 Y1.4293
N9285 X1.4733 Y1.4299
N9290 X1.4401 Y1.4278
N9295 X1.4071 Y1.4231
N9300 X1.3744 Y1.4157
N9305 X1.3423 Y1.4057
N9310 X1.3109 Y1.393
N9315 X1.2804 Y1.3778
N9320 X1.2512 Y1.3602
N9325 X1.2234 Y1.3401
N9330 X1.1972 Y1.3178
N9335 X1.1728 Y1.2934
N9340 X1.1503 Y1.2671
N9345 X1.13 Y1.2389
N9350 X1.112 Y1.2092
N9355 X1.0963 Y1.178
N9360 X1.0832 Y1.1455
N9365 X1.0727 Y1.1121
N9370 X1.0649 Y1.0778
N9375 X1.0599 Y1.043
N9380 X1.0577 Y1.0079
N9385 X1.0583 Y0.9726
N9390 X1.0618 Y0.9374
N9395 X1.068 Y0.9026
N9400 X1.0771 Y0.8684
N9405 X1.0888 Y0.835
N9410 X1.1033 Y0.8026
N9415 X1.1203 Y0.7715
N9420 X1.1397 Y0.7418
N9425 X1.1615 Y0.7138
N9430 X1.1855 Y0.6875
N9435 X1.2115 Y0.6633
N9440 X1.2393 Y0.6413
N9445 X1.2689 Y0.6215
N9450 X1.3 Y0.6042
N9455 X1.3323 Y0.5894
N9460 X1.3658 Y0.5772
N9465 X1.4001 Y0.5678
N9470 X1.4351 Y0.5612
N9475 X1.4705 Y0.5574
N9480 X1.5061 Y0.5564
N9485 X1.5416 Y0.5583
N9490 X1.5769 Y0.5631
N9495 X1.6119 Y0.5707
N9500 X1.6463 Y0.5811
N9505 X1.6802 Y0.5945
N9510 X1.7134 Y0.6107
N9515 X1.7457 Y0.6299
N9520 X1.7769 Y0.652
N9525 X1.8068 Y0.6769
N9530 X1.8346 Y0.7043
N9535 X1.8601 Y0.7337
N9540 X1.8833 Y0.7651
N9545 X1.9039 Y0.7982
N9550 X1.9176 Y0.8247
N9555 X1.9184 Y0.8262
N9560 X1.9191 Y0.8277
N9565 X1.9198 Y0.8293
N9570 X1.9317 Y0.8584
N9575 X1.9342 Y0.8673
N9580 X1.9469 Y0.9204
N9585 X1.9482 Y0.9292
N9590 X1.9501 Y0.9469
N9595 X1.9511 Y0.9558
N9600 X1.9532 Y0.9823
N9605 X1.9533 Y0.9912
N9610 Y1.0088
N9615 X1.9532 Y1.0177
N9620 X1.9511 Y1.0442
N9625 X1.9501 Y1.0531
N9630 X1.9482 Y1.0708
N9635 X1.9469 Y1.0798
N9640 X1.9342 Y1.1327
N9645 X1.9317 Y1.1416
N9650 X1.9203 Y1.1693
N9655 X1.9098 Y1.1947
N9660 X1.9061 Y1.2035
N9665 X1.9026 Y1.2095
N9670 X1.8904 Y1.2301
N9675 X1.8796 Y1.2478
N9680 X1.8742 Y1.2566
N9685 X1.8683 Y1.2655
N9690 X1.8465 Y1.292
N9695 X1.8407 Y1.2987
N9700 X1.8229 Y1.3186
N9705 X1.8144 Y1.3274
N9710 X1.7833 Y1.354
N9715 X1.7787 Y1.3576
N9720 X1.7522 Y1.3767
N9725 X1.7463 Y1.3805
N9730 X1.7257 Y1.3932
N9735 X1.7172 Y1.3982
N9740 X1.6903 Y1.4115
N9745 X1.6814 Y1.4153
N9750 X1.6587 Y1.4248
N9755 X1.6549 Y1.4262
N9760 X1.6283 Y1.4349
N9765 X1.6195 Y1.4373
N9770 X1.5929 Y1.4437
N9775 X1.5752 Y1.4478
N9780 X1.5664 Y1.4493
N9785 X1.5044 Y1.4542
N9790 X1.4956
N9795 X1.4336 Y1.4493
N9800 X1.4248 Y1.4478
N9805 X1.4071 Y1.4437
N9810 X1.3805 Y1.4373
N9815 X1.3717 Y1.4349
N9820 X1.3451 Y1.4262
N9825 X1.3413 Y1.4248
N9830 X1.3186 Y1.4153
N9835 X1.3097 Y1.4115
N9840 X1.2828 Y1.3982
N9845 X1.2743 Y1.3932
N9850 X1.2537 Y1.3805
N9855 X1.2478 Y1.3767
N9860 X1.2213 Y1.3576
N9865 X1.2167 Y1.354
N9870 X1.1856 Y1.3274
N9875 X1.177 Y1.3185
N9880 X1.1593 Y1.2987
N9885 X1.1535 Y1.292
N9890 X1.1317 Y1.2655
N9895 X1.1258 Y1.2566
N9900 X1.1149 Y1.2389
N9905 X1.1096 Y1.2301
N9910 X1.0974 Y1.2095
N9915 X1.0939 Y1.2035
N9920 X1.0885 Y1.1907
N9925 X1.0792 Y1.1681
N9930 X1.0683 Y1.1416
N9935 X1.0658 Y1.1327
N9940 X1.0531 Y1.0796
N9945 X1.0518 Y1.0708
N9950 X1.0499 Y1.0531
N9955 X1.0489 Y1.0442
N9960 X1.0468 Y1.0177
N9965 X1.0467 Y1.0088
N9970 Y0.9912
N9975 X1.0468 Y0.9823
N9980 X1.0489 Y0.9558
N9985 X1.0499 Y0.9469
N9990 X1.0518 Y0.9292
N9995 X1.0531 Y0.9202
N10000 X1.0658 Y0.8673
N10005 X1.0683 Y0.8584
N10010 X1.0797 Y0.8307
N10015 X1.0902 Y0.8053
N10020 X1.0939 Y0.7965
N10025 X1.0974 Y0.7905
N10030 X1.1096 Y0.7699
N10035 X1.1204 Y0.7522
N10040 X1.1258 Y0.7434
N10045 X1.1317 Y0.7345
N10050 X1.1535 Y0.708
N10055 X1.1593 Y0.7013
N10060 X1.1771 Y0.6814
N10065 X1.1856 Y0.6726
N10070 X1.2167 Y0.646
N10075 X1.2213 Y0.6424
N10080 X1.2478 Y0.6233
N10085 X1.2537 Y0.6195
N10090 X1.2743 Y0.6068
N10095 X1.2828 Y0.6018
N10100 X1.3097 Y0.5885
N10105 X1.3186 Y0.5847
N10110 X1.3413 Y0.5752
N10115 X1.3451 Y0.5738
N10120 X1.3717 Y0.5651
N10125 X1.3805 Y0.5627
N10130 X1.4071 Y0.5563
N10135 X1.4248 Y0.5522
N10140 X1.4336 Y0.5507
N10145 X1.4956 Y0.5458
N10150 X1.5044
N10155 X1.5664 Y0.5507
N10160 X1.5752 Y0.5522
N10165 X1.5929 Y0.5563
N10170 X1.6195 Y0.5627
N10175 X1.6283 Y0.5651
N10180 X1.6549 Y0.5738
N10185 X1.6587 Y0.5752
N10190 X1.6814 Y0.5847
N10195 X1.6903 Y0.5885
N10200 X1.7172 Y0.6018
N10205 X1.7257 Y0.6068
N10210 X1.7463 Y0.6195
N10215 X1.7522 Y0.6233
N10220 X1.7787 Y0.6424
N10225 X1.7833 Y0.646
N10230 X1.8144 Y0.6726
N10235 X1.823 Y0.6815
N10240 X1.8407 Y0.7013
N10245 X1.8465 Y0.708
N10250 X1.8683 Y0.7345
N10255 X1.8742 Y0.7434
N10260 X1.8851 Y0.7611
N10265 X1.8904 Y0.7699
N10270 X1.9026 Y0.7905
N10275 X1.9061 Y0.7965
N10280 X1.9115 Y0.8093
N10285 X1.9198 Y0.8293
N10290 G3 X1.9123 Y0.8573 I-0.0234 J0.0087
N10295 G1 X1.9093 Y0.8598 Z-1.4997
N10300 X1.9063 Y0.8622 Z-1.4988
N10305 X1.9035 Y0.8645 Z-1.4973
N10310 X1.9009 Y0.8666 Z-1.4952
N10315 X1.8986 Y0.8685 Z-1.4927
N10320 X1.8967 Y0.8702 Z-1.4897
N10325 X1.8951 Y0.8715 Z-1.4863
N10330 X1.8939 Y0.8724 Z-1.4827
N10335 X1.8932 Y0.873 Z-1.4789
N10340 X1.893 Y0.8732 Z-1.475
N10345 G0 Z0.6
(BORE4)
N10350 G0 X1.525 Y1.4125
N10355 Z0.6
N10360 Z0.08
N10365 G1 Z0.025 F15.
N10370 G19 G3 Y1.4375 Z0. J0.025 K0.
N10375 G1 Y1.45
N10380 G17 G3 X1.5 Y1.475 I-0.025 J0.
N10385 Y0.525 Z-0.0197 I0. J-0.475
N10390 Y1.475 Z-0.0394 I0. J0.475
N10395 Y0.525 Z-0.0591 I0. J-0.475
N10400 Y1.475 Z-0.0787 I0. J0.475
N10405 Y0.525 Z-0.0984 I0. J-0.475
N10410 Y1.475 Z-0.1181 I0. J0.475
N10415 Y0.525 Z-0.1378 I0. J-0.475
N10420 Y1.475 Z-0.1575 I0. J0.475
N10425 Y0.525 Z-0.1772 I0. J-0.475
N10430 Y1.475 Z-0.1969 I0. J0.475
N10435 Y0.525 Z-0.2165 I0. J-0.475
N10440 Y1.475 Z-0.2362 I0. J0.475
N10445 Y0.525 Z-0.2559 I0. J-0.475
N10450 Y1.475 Z-0.2756 I0. J0.475
N10455 Y0.525 Z-0.2953 I0. J-0.475
N10460 Y1.475 Z-0.315 I0. J0.475
N10465 Y0.525 Z-0.3346 I0. J-0.475
N10470 Y1.475 Z-0.3543 I0. J0.475
N10475 Y0.525 Z-0.374 I0. J-0.475
N10480 Y1.475 Z-0.3937 I0. J0.475
N10485 Y0.525 Z-0.4134 I0. J-0.475
N10490 Y1.475 Z-0.4331 I0. J0.475
N10495 Y0.525 Z-0.4528 I0. J-0.475
N10500 Y1.475 Z-0.4724 I0. J0.475
N10505 Y0.525 Z-0.4921 I0. J-0.475
N10510 Y1.475 Z-0.5118 I0. J0.475
N10515 Y0.525 Z-0.5315 I0. J-0.475
N10520 Y1.475 Z-0.5512 I0. J0.475
N10525 Y0.525 Z-0.5709 I0. J-0.475
N10530 Y1.475 Z-0.5906 I0. J0.475
N10535 Y0.525 Z-0.6102 I0. J-0.475
N10540 Y1.475 Z-0.6299 I0. J0.475
N10545 Y0.525 Z-0.6496 I0. J-0.475
N10550 Y1.475 Z-0.6693 I0. J0.475
N10555 Y0.525 Z-0.689 I0. J-0.475
N10560 Y1.475 Z-0.7087 I0. J0.475
N10565 Y0.525 Z-0.7283 I0. J-0.475
N10570 Y1.475 Z-0.748 I0. J0.475
N10575 Y0.525 Z-0.7677 I0. J-0.475
N10580 Y1.475 Z-0.7874 I0. J0.475
N10585 Y0.525 Z-0.8071 I0. J-0.475
N10590 Y1.475 Z-0.8268 I0. J0.475
N10595 Y0.525 Z-0.8465 I0. J-0.475
N10600 Y1.475 Z-0.8661 I0. J0.475
N10605 Y0.525 Z-0.8858 I0. J-0.475
N10610 Y1.475 Z-0.9055 I0. J0.475
N10615 Y0.525 Z-0.9252 I0. J-0.475
N10620 Y1.475 Z-0.9449 I0. J0.475
N10625 Y0.525 Z-0.9646 I0. J-0.475
N10630 Y1.475 Z-0.9843 I0. J0.475
N10635 Y0.525 Z-1.0039 I0. J-0.475
N10640 Y1.475 Z-1.0236 I0. J0.475
N10645 Y0.525 Z-1.0433 I0. J-0.475
N10650 Y1.475 Z-1.063 I0. J0.475
N10655 Y0.525 Z-1.0827 I0. J-0.475
N10660 Y1.475 Z-1.1024 I0. J0.475
N10665 Y0.525 Z-1.122 I0. J-0.475
N10670 Y1.475 Z-1.1417 I0. J0.475
N10675 Y0.525 Z-1.1614 I0. J-0.475
N10680 Y1.475 Z-1.1811 I0. J0.475
N10685 Y0.525 Z-1.2008 I0. J-0.475
N10690 Y1.475 Z-1.2205 I0. J0.475
N10695 Y0.525 Z-1.2402 I0. J-0.475
N10700 Y1.475 Z-1.2598 I0. J0.475
N10705 Y0.525 Z-1.2795 I0. J-0.475
N10710 Y1.475 Z-1.2992 I0. J0.475
N10715 Y0.525 Z-1.3189 I0. J-0.475
N10720 Y1.475 Z-1.3386 I0. J0.475
N10725 Y0.525 Z-1.3583 I0. J-0.475
N10730 Y1.475 Z-1.378 I0. J0.475
N10735 Y0.525 Z-1.3976 I0. J-0.475
N10740 Y1.475 Z-1.4173 I0. J0.475
N10745 Y0.525 Z-1.437 I0. J-0.475
N10750 Y1.475 Z-1.4567 I0. J0.475
N10755 Y0.525 Z-1.4764 I0. J-0.475
N10760 Y1.475 Z-1.4961 I0. J0.475
N10765 X1.2208 Y1.3843 Z-1.5 I0. J-0.475
N10770 X1.7792 Y0.6157 I0.2792 J-0.3843
N10775 X1.2208 Y1.3843 I-0.2792 J0.3843
N10780 X1.2153 Y1.3494 I0.0147 J-0.0202
N10785 G1 X1.2226 Y1.3393
N10790 X1.2249 Y1.3361 Z-1.4997
N10795 X1.2272 Y1.333 Z-1.4988
N10800 X1.2293 Y1.3301 Z-1.4973
N10805 X1.2313 Y1.3274 Z-1.4952
N10810 X1.233 Y1.3249 Z-1.4927
N10815 X1.2345 Y1.3229 Z-1.4897
N10820 X1.2357 Y1.3212 Z-1.4863
N10825 X1.2366 Y1.32 Z-1.4827
N10830 X1.2371 Y1.3193 Z-1.4789
N10835 X1.2373 Y1.319 Z-1.475
N10840 G0 Z0.6
N10845 G53 Z0.
N10850 M30
%
