%
(PCB FIXTURE VACCUUM HOLD DOWN HOLES)
(T1  D=0.25 CR=0. TAPER=118DEG - ZMIN=-1.3 - DRILL)
N10 G90 G94 G17 G91.1
N15 G20
N20 G53 G0 Z0.
(DRILL2)
N25 T1 M6
N30 S3000 M3
N35 G54
N40 G0 X0.75 Y2.35
N45 G43 Z0.55 H1
N50 G0 Z0.15
N55 G98 G83 X0.75 Y2.35 Z-1.3 R0.15 Q0.0625 F5.
N60 Y1.95
N65 Y1.55
N70 Y1.15
N75 X1.25
N80 Y1.55
N85 Y1.95
N90 Y2.35
N95 X1.75
N100 Y1.95
N105 Y1.55
N110 Y1.15
N115 X2.25
N120 Y1.55
N125 Y1.95
N130 Y2.35
N135 X2.75
N140 Y1.95
N145 Y1.55
N150 Y1.15
N155 X3.25
N160 Y1.55
N165 Y1.95
N170 Y2.35
N175 X3.75
N180 Y1.95
N185 Y1.55
N190 Y1.15
N195 G80
N200 G0 Z0.55
N205 G53 Z0.
N210 M30
%
