%
(PCB FIXTURE VACCUUM)
(T3  D=0.25 CR=0. - ZMIN=-1. - FLAT END MILL)
N10 G90 G94 G17 G91.1
N15 G20
N20 G53 G0 Z0.
(2D ADAPTIVE1)
N25 T3 M6
N30 S3000 M3
N35 G54
N40 G0 X1.8625 Y1.038
N45 G43 Z0.6 H3
N50 G0 Z0.2
N55 Z0.1
N60 G3 X1.6375 Y0.962 Z0.087 I-0.1125 J-0.038 F10.
N65 X1.8625 Y1.038 Z0.0739 I0.1125 J0.038
N70 X1.6375 Y0.962 Z0.0609 I-0.1125 J-0.038
N75 X1.8625 Y1.038 Z0.0479 I0.1125 J0.038
N80 X1.6375 Y0.962 Z0.0349 I-0.1125 J-0.038
N85 X1.8625 Y1.038 Z0.0218 I0.1125 J0.038
N90 X1.6375 Y0.962 Z0.0088 I-0.1125 J-0.038
N95 X1.8625 Y1.038 Z-0.0042 I0.1125 J0.038
N100 X1.6375 Y0.962 Z-0.0172 I-0.1125 J-0.038
N105 X1.8625 Y1.038 Z-0.0303 I0.1125 J0.038
N110 X1.6375 Y0.962 Z-0.0433 I-0.1125 J-0.038
N115 X1.8625 Y1.038 Z-0.0563 I0.1125 J0.038
N120 X1.6375 Y0.962 Z-0.0694 I-0.1125 J-0.038
N125 X1.8625 Y1.038 Z-0.0824 I0.1125 J0.038
N130 X1.6375 Y0.962 Z-0.0954 I-0.1125 J-0.038
N135 X1.8625 Y1.038 Z-0.1084 I0.1125 J0.038
N140 X1.6375 Y0.962 Z-0.1215 I-0.1125 J-0.038
N145 X1.8625 Y1.038 Z-0.1345 I0.1125 J0.038
N150 X1.6375 Y0.962 Z-0.1475 I-0.1125 J-0.038
N155 X1.8625 Y1.038 Z-0.1606 I0.1125 J0.038
N160 X1.6375 Y0.962 Z-0.1736 I-0.1125 J-0.038
N165 X1.8625 Y1.038 Z-0.1866 I0.1125 J0.038
N170 X1.6375 Y0.962 Z-0.1996 I-0.1125 J-0.038
N175 X1.8625 Y1.038 Z-0.2127 I0.1125 J0.038
N180 X1.6375 Y0.962 Z-0.2257 I-0.1125 J-0.038
N185 X1.8625 Y1.038 Z-0.2387 I0.1125 J0.038
N190 X1.6375 Y0.962 Z-0.2517 I-0.1125 J-0.038
N195 X1.8625 Y1.038 Z-0.2648 I0.1125 J0.038
N200 X1.6375 Y0.962 Z-0.2778 I-0.1125 J-0.038
N205 X1.8625 Y1.038 Z-0.2908 I0.1125 J0.038
N210 X1.6375 Y0.962 Z-0.3039 I-0.1125 J-0.038
N215 X1.8625 Y1.038 Z-0.3169 I0.1125 J0.038
N220 X1.6375 Y0.962 Z-0.3299 I-0.1125 J-0.038
N225 X1.8625 Y1.038 Z-0.3429 I0.1125 J0.038
N230 X1.6375 Y0.962 Z-0.356 I-0.1125 J-0.038
N235 X1.8625 Y1.038 Z-0.369 I0.1125 J0.038
N240 X1.6375 Y0.962 Z-0.382 I-0.1125 J-0.038
N245 X1.8688 Y1. Z-0.3937 I0.1125 J0.038
N250 X1.6313 I-0.1188 J0.
N255 X1.8688 I0.1188 J0.
N260 G1 X1.8689 Y1.0097 F15.
N265 X1.876 Y1.0481
N270 X1.8778 Y1.0538
N275 X1.8789 Y1.0597
N280 X1.8795 Y1.0657
N285 Y1.0717
N290 X1.879 Y1.0782
N295 X1.8779 Y1.0851
N300 X1.8762 Y1.0924
N305 X1.8737 Y1.0999
N310 X1.8705 Y1.1076
N315 X1.8665 Y1.1154
N320 X1.8616 Y1.1233
N325 X1.8558 Y1.131
N330 X1.8492 Y1.1386
N335 X1.8417 Y1.146
N340 X1.8333 Y1.1529
N345 X1.8241 Y1.1594
N350 X1.814 Y1.1653
N355 X1.8033 Y1.1705
N360 X1.7919 Y1.1749
N365 X1.7798 Y1.1785
N370 X1.7673 Y1.1812
N375 X1.7543 Y1.1829
N380 X1.741 Y1.1836
N385 X1.7275 Y1.1832
N390 X1.7138 Y1.1816
N395 X1.7002 Y1.179
N400 X1.6867 Y1.1752
N405 X1.6733 Y1.1703
N410 X1.6603 Y1.1643
N415 X1.6478 Y1.1572
N420 X1.6357 Y1.1491
N425 X1.6243 Y1.14
N430 X1.6136 Y1.1299
N435 X1.6036 Y1.119
N440 X1.5946 Y1.1072
N445 X1.5865 Y1.0948
N450 X1.5794 Y1.0816
N455 X1.5733 Y1.0679
N460 X1.5684 Y1.0537
N465 X1.5646 Y1.0392
N470 X1.562 Y1.0243
N475 X1.5606 Y1.0093
N480 X1.5604 Y0.9942
N485 X1.5614 Y0.9791
N490 X1.5636 Y0.9641
N495 X1.567 Y0.9493
N500 X1.5716 Y0.9348
N505 X1.5774 Y0.9208
N510 X1.5843 Y0.9072
N515 X1.5922 Y0.8942
N520 X1.6012 Y0.8819
N525 X1.6111 Y0.8703
N530 X1.6219 Y0.8596
N535 X1.6336 Y0.8498
N540 X1.646 Y0.8409
N545 X1.659 Y0.8331
N550 X1.6727 Y0.8263
N555 X1.6869 Y0.8207
N560 X1.7015 Y0.8162
N565 X1.7164 Y0.8129
N570 X1.7315 Y0.8108
N575 X1.7467 Y0.8099
N580 X1.762 Y0.8102
N585 X1.7772 Y0.8118
N590 X1.7922 Y0.8146
N595 X1.8069 Y0.8186
N600 X1.8213 Y0.8237
N605 X1.8352 Y0.83
N610 X1.8486 Y0.8374
N615 X1.8613 Y0.8458
N620 X1.8733 Y0.8553
N625 X1.8845 Y0.8656
N630 X1.8949 Y0.8768
N635 X1.9043 Y0.8889
N640 X1.9127 Y0.9016
N645 X1.9273 Y0.928
N650 X1.9397 Y0.9555
N655 X1.9476 Y0.9776
N660 X1.9529 Y0.9975
N665 X1.9563 Y1.016
N670 X1.9582 Y1.034
N675 X1.9585 Y1.0513
N680 X1.9575 Y1.0682
N685 X1.9552 Y1.0847
N690 X1.9517 Y1.1008
N695 X1.9468 Y1.1165
N700 X1.9407 Y1.1318
N705 X1.9333 Y1.1466
N710 X1.9248 Y1.1609
N715 X1.915 Y1.1746
N720 X1.904 Y1.1875
N725 X1.8919 Y1.1997
N730 X1.8788 Y1.211
N735 X1.8645 Y1.2214
N740 X1.8493 Y1.2307
N745 X1.8331 Y1.2388
N750 X1.8161 Y1.2458
N755 X1.7984 Y1.2514
N760 X1.78 Y1.2556
N765 X1.7611 Y1.2584
N770 X1.7419 Y1.2597
N775 X1.7224 Y1.2594
N780 X1.7028 Y1.2576
N785 X1.6832 Y1.2541
N790 X1.6639 Y1.249
N795 X1.6448 Y1.2424
N800 X1.6263 Y1.2342
N805 X1.6083 Y1.2245
N810 X1.591 Y1.2133
N815 X1.5747 Y1.2006
N820 X1.5593 Y1.1867
N825 X1.545 Y1.1714
N830 X1.532 Y1.155
N835 X1.5202 Y1.1376
N840 X1.5099 Y1.1192
N845 X1.501 Y1.0999
N850 X1.4937 Y1.08
N855 X1.488 Y1.0595
N860 X1.484 Y1.0385
N865 X1.4816 Y1.0173
N870 X1.481 Y0.9959
N875 X1.482 Y0.9745
N880 X1.4848 Y0.9532
N885 X1.4893 Y0.9322
N890 X1.4955 Y0.9115
N895 X1.5034 Y0.8915
N900 X1.5128 Y0.8721
N905 X1.5237 Y0.8535
N910 X1.5361 Y0.8358
N915 X1.5499 Y0.8192
N920 X1.565 Y0.8038
N925 X1.5813 Y0.7896
N930 X1.5987 Y0.7767
N935 X1.6171 Y0.7653
N940 X1.6363 Y0.7554
N945 X1.6563 Y0.747
N950 X1.6769 Y0.7403
N955 X1.6979 Y0.7353
N960 X1.7193 Y0.7319
N965 X1.7409 Y0.7303
N970 X1.7626 Y0.7305
N975 X1.7842 Y0.7323
N980 X1.8055 Y0.7359
N985 X1.8265 Y0.7412
N990 X1.847 Y0.7482
N995 X1.8669 Y0.7568
N1000 X1.8861 Y0.767
N1005 X1.9043 Y0.7786
N1010 X1.9216 Y0.7917
N1015 X1.9399 Y0.8081
N1020 X1.9582 Y0.8273
N1025 X1.9754 Y0.8485
N1030 X1.9911 Y0.8715
N1035 X2.0049 Y0.8955
N1040 X2.0164 Y0.9199
N1045 X2.0257 Y0.9446
N1050 X2.0328 Y0.9694
N1055 X2.0377 Y0.9941
N1060 X2.0407 Y1.0187
N1065 X2.0416 Y1.0431
N1070 X2.0406 Y1.0672
N1075 X2.0377 Y1.091
N1080 X2.0329 Y1.1143
N1085 X2.0262 Y1.1371
N1090 X2.0178 Y1.1592
N1095 X2.0076 Y1.1806
N1100 X1.9958 Y1.2012
N1105 X1.9822 Y1.2208
N1110 X1.9671 Y1.2393
N1115 X1.9504 Y1.2567
N1120 X1.9323 Y1.2728
N1125 X1.9127 Y1.2874
N1130 X1.8919 Y1.3006
N1135 X1.8699 Y1.3122
N1140 X1.8469 Y1.322
N1145 X1.8229 Y1.3301
N1150 X1.7982 Y1.3362
N1155 X1.7729 Y1.3404
N1160 X1.7471 Y1.3425
N1165 X1.7211
N1170 X1.6949 Y1.3405
N1175 X1.6689 Y1.3363
N1180 X1.643 Y1.33
N1185 X1.6177 Y1.3216
N1190 X1.5929 Y1.3112
N1195 X1.5689 Y1.2987
N1200 X1.5459 Y1.2843
N1205 X1.524 Y1.268
N1210 X1.5035 Y1.2499
N1215 X1.4843 Y1.2301
N1220 X1.4667 Y1.2088
N1225 X1.4509 Y1.1861
N1230 X1.4369 Y1.162
N1235 X1.4248 Y1.1369
N1240 X1.4147 Y1.1108
N1245 X1.4068 Y1.084
N1250 X1.401 Y1.0565
N1255 X1.3975 Y1.0286
N1260 X1.3962 Y1.0004
N1265 X1.3971 Y0.9722
N1270 X1.4003 Y0.9442
N1275 X1.4058 Y0.9164
N1280 X1.4135 Y0.8892
N1285 X1.4234 Y0.8626
N1290 X1.4353 Y0.8369
N1295 X1.4493 Y0.8123
N1300 X1.4653 Y0.7888
N1305 X1.483 Y0.7666
N1310 X1.5026 Y0.746
N1315 X1.5237 Y0.7269
N1320 X1.5463 Y0.7097
N1325 X1.5702 Y0.6943
N1330 X1.5952 Y0.6808
N1335 X1.6213 Y0.6694
N1340 X1.6482 Y0.6601
N1345 X1.6758 Y0.6531
N1350 X1.7039 Y0.6482
N1355 X1.7322 Y0.6456
N1360 X1.7607 Y0.6453
N1365 X1.7891 Y0.6473
N1370 X1.8173 Y0.6516
N1375 X1.845 Y0.6581
N1380 X1.8721 Y0.6668
N1385 X1.8985 Y0.6777
N1390 X1.9245 Y0.691
N1395 X1.9502 Y0.7068
N1400 X1.9754 Y0.7252
N1405 X1.9996 Y0.7462
N1410 X2.0225 Y0.7695
N1415 X2.0437 Y0.7948
N1420 X2.0629 Y0.8218
N1425 X2.0798 Y0.8502
N1430 X2.0943 Y0.8796
N1435 X2.1062 Y0.9099
N1440 X2.1156 Y0.9408
N1445 X2.1225 Y0.9721
N1450 X2.1267 Y1.0036
N1455 X2.1285 Y1.0351
N1460 X2.1277 Y1.0664
N1465 X2.1244 Y1.0973
N1470 X2.1186 Y1.1278
N1475 X2.1105 Y1.1577
N1480 X2.0999 Y1.1867
N1485 X2.0871 Y1.2148
N1490 X2.0721 Y1.2419
N1495 X2.0549 Y1.2676
N1500 X2.0357 Y1.292
N1505 X2.0144 Y1.3149
N1510 X1.9913 Y1.336
N1515 X1.9665 Y1.3554
N1520 X1.94 Y1.3728
N1525 X1.912 Y1.3881
N1530 X1.8828 Y1.4011
N1535 X1.8524 Y1.4119
N1540 X1.821 Y1.4202
N1545 X1.7889 Y1.426
N1550 X1.7563 Y1.4293
N1555 X1.7233 Y1.4299
N1560 X1.6901 Y1.4278
N1565 X1.6571 Y1.4231
N1570 X1.6244 Y1.4157
N1575 X1.5923 Y1.4057
N1580 X1.5609 Y1.393
N1585 X1.5304 Y1.3778
N1590 X1.5012 Y1.3602
N1595 X1.4734 Y1.3401
N1600 X1.4472 Y1.3178
N1605 X1.4228 Y1.2934
N1610 X1.4003 Y1.2671
N1615 X1.38 Y1.2389
N1620 X1.362 Y1.2092
N1625 X1.3463 Y1.178
N1630 X1.3332 Y1.1455
N1635 X1.3227 Y1.1121
N1640 X1.3149 Y1.0778
N1645 X1.3099 Y1.043
N1650 X1.3077 Y1.0079
N1655 X1.3083 Y0.9726
N1660 X1.3118 Y0.9374
N1665 X1.318 Y0.9026
N1670 X1.3271 Y0.8684
N1675 X1.3388 Y0.835
N1680 X1.3533 Y0.8026
N1685 X1.3703 Y0.7715
N1690 X1.3897 Y0.7418
N1695 X1.4115 Y0.7138
N1700 X1.4355 Y0.6875
N1705 X1.4615 Y0.6633
N1710 X1.4893 Y0.6413
N1715 X1.5189 Y0.6215
N1720 X1.55 Y0.6042
N1725 X1.5823 Y0.5894
N1730 X1.6158 Y0.5772
N1735 X1.6501 Y0.5678
N1740 X1.6851 Y0.5612
N1745 X1.7205 Y0.5574
N1750 X1.7561 Y0.5564
N1755 X1.7916 Y0.5583
N1760 X1.8269 Y0.5631
N1765 X1.8619 Y0.5707
N1770 X1.8963 Y0.5811
N1775 X1.9302 Y0.5945
N1780 X1.9634 Y0.6107
N1785 X1.9957 Y0.6299
N1790 X2.0269 Y0.652
N1795 X2.0568 Y0.6769
N1800 X2.0846 Y0.7043
N1805 X2.1101 Y0.7337
N1810 X2.1333 Y0.7651
N1815 X2.1539 Y0.7982
N1820 X2.1677 Y0.8248
N1825 X2.1684 Y0.8262
N1830 X2.1691 Y0.8278
N1835 X2.1698 Y0.8293
N1840 X2.1817 Y0.8584
N1845 X2.1842 Y0.8673
N1850 X2.1969 Y0.9204
N1855 X2.1973 Y0.9222
N1860 X2.1982 Y0.9292
N1865 X2.2001 Y0.9469
N1870 X2.2011 Y0.9558
N1875 X2.2032 Y0.9823
N1880 X2.2033 Y0.9912
N1885 Y1.0088
N1890 X2.2032 Y1.0177
N1895 X2.2011 Y1.0442
N1900 X2.2001 Y1.0531
N1905 X2.1982 Y1.0708
N1910 X2.1973 Y1.0778
N1915 X2.1969 Y1.0796
N1920 X2.1842 Y1.1327
N1925 X2.1817 Y1.1416
N1930 X2.1708 Y1.1683
N1935 X2.1598 Y1.1947
N1940 X2.1558 Y1.2035
N1945 X2.1405 Y1.2301
N1950 X2.1242 Y1.2566
N1955 X2.1184 Y1.2655
N1960 X2.1087 Y1.2777
N1965 X2.0814 Y1.3097
N1970 X2.0733 Y1.3186
N1975 X2.0644 Y1.3274
N1980 X2.0333 Y1.354
N1985 X2.029 Y1.3576
N1990 X2.0202 Y1.3649
N1995 X2.0113 Y1.3713
N2000 X1.9847 Y1.3876
N2005 X1.9582 Y1.4033
N2010 X1.9514 Y1.4071
N2015 X1.8962 Y1.4299
N2020 X1.8873 Y1.4331
N2025 X1.8342 Y1.4458
N2030 X1.8253 Y1.4478
N2035 X1.8164 Y1.4493
N2040 X1.7721 Y1.4528
N2045 X1.7633 Y1.4533
N2050 X1.7367
N2055 X1.7279 Y1.4528
N2060 X1.6836 Y1.4493
N2065 X1.6747 Y1.4478
N2070 X1.6658 Y1.4458
N2075 X1.6127 Y1.4331
N2080 X1.6038 Y1.4299
N2085 X1.5486 Y1.4071
N2090 X1.5418 Y1.4033
N2095 X1.5153 Y1.3876
N2100 X1.4887 Y1.3713
N2105 X1.4798 Y1.3649
N2110 X1.471 Y1.3576
N2115 X1.4667 Y1.354
N2120 X1.4355 Y1.3274
N2125 X1.4267 Y1.3185
N2130 X1.4186 Y1.3097
N2135 X1.3913 Y1.2777
N2140 X1.3816 Y1.2655
N2145 X1.3758 Y1.2566
N2150 X1.3595 Y1.2301
N2155 X1.3442 Y1.2035
N2160 X1.3402 Y1.1947
N2165 X1.3292 Y1.1681
N2170 X1.3183 Y1.1416
N2175 X1.3158 Y1.1327
N2180 X1.3031 Y1.0796
N2185 X1.3027 Y1.0778
N2190 X1.3018 Y1.0708
N2195 X1.2999 Y1.0531
N2200 X1.2989 Y1.0442
N2205 X1.2968 Y1.0177
N2210 X1.2967 Y1.0088
N2215 Y0.9912
N2220 X1.2968 Y0.9823
N2225 X1.2989 Y0.9558
N2230 X1.2999 Y0.9469
N2235 X1.3018 Y0.9292
N2240 X1.3027 Y0.9222
N2245 X1.3031 Y0.9204
N2250 X1.3158 Y0.8673
N2255 X1.3183 Y0.8584
N2260 X1.3292 Y0.8317
N2265 X1.3402 Y0.8053
N2270 X1.3442 Y0.7965
N2275 X1.3595 Y0.7699
N2280 X1.3758 Y0.7434
N2285 X1.3816 Y0.7345
N2290 X1.3913 Y0.7223
N2295 X1.4186 Y0.6903
N2300 X1.4267 Y0.6814
N2305 X1.4356 Y0.6726
N2310 X1.4667 Y0.646
N2315 X1.471 Y0.6424
N2320 X1.4798 Y0.6351
N2325 X1.4887 Y0.6287
N2330 X1.5153 Y0.6124
N2335 X1.5418 Y0.5967
N2340 X1.5486 Y0.5929
N2345 X1.6038 Y0.5701
N2350 X1.6127 Y0.5669
N2355 X1.6658 Y0.5542
N2360 X1.6747 Y0.5522
N2365 X1.6836 Y0.5507
N2370 X1.7279 Y0.5472
N2375 X1.7367 Y0.5467
N2380 X1.7633
N2385 X1.7721 Y0.5472
N2390 X1.8164 Y0.5507
N2395 X1.8253 Y0.5522
N2400 X1.8342 Y0.5542
N2405 X1.8873 Y0.5669
N2410 X1.8962 Y0.5701
N2415 X1.9514 Y0.5929
N2420 X1.9582 Y0.5967
N2425 X1.9847 Y0.6124
N2430 X2.0113 Y0.6287
N2435 X2.0202 Y0.6351
N2440 X2.029 Y0.6424
N2445 X2.0333 Y0.646
N2450 X2.0645 Y0.6726
N2455 X2.0733 Y0.6815
N2460 X2.0814 Y0.6903
N2465 X2.1087 Y0.7223
N2470 X2.1184 Y0.7345
N2475 X2.1242 Y0.7434
N2480 X2.1405 Y0.7699
N2485 X2.1558 Y0.7965
N2490 X2.1598 Y0.8053
N2495 X2.1698 Y0.8293
N2500 X2.1706 Y0.8321
N2505 X2.1712 Y0.835
N2510 X2.1714 Y0.838 Z-0.3935
N2515 X2.1708 Y0.841 Z-0.3929
N2520 X2.1703 Y0.8439 Z-0.392
N2525 X2.1698 Y0.8467 Z-0.3907
N2530 X2.1685 Y0.8489 Z-0.3891
N2535 X2.1673 Y0.8509 Z-0.3872
N2540 X2.1663 Y0.8527 Z-0.3851
N2545 X2.1654 Y0.8543 Z-0.3827
N2550 X2.164 Y0.8556 Z-0.3795
N2555 X2.1631 Y0.8565 Z-0.376
N2560 X2.1625 Y0.8571 Z-0.3724
N2565 X2.1623 Y0.8573 Z-0.3687
N2570 G0 Z0.2
N2575 X1.8625 Y1.038
N2580 Z-0.2937
N2585 G3 X1.6375 Y0.962 Z-0.3067 I-0.1125 J-0.038 F10.
N2590 X1.8625 Y1.038 Z-0.3198 I0.1125 J0.038
N2595 X1.6375 Y0.962 Z-0.3328 I-0.1125 J-0.038
N2600 X1.8625 Y1.038 Z-0.3458 I0.1125 J0.038
N2605 X1.6375 Y0.962 Z-0.3588 I-0.1125 J-0.038
N2610 X1.8625 Y1.038 Z-0.3719 I0.1125 J0.038
N2615 X1.6375 Y0.962 Z-0.3849 I-0.1125 J-0.038
N2620 X1.8625 Y1.038 Z-0.3979 I0.1125 J0.038
N2625 X1.6375 Y0.962 Z-0.4109 I-0.1125 J-0.038
N2630 X1.8625 Y1.038 Z-0.424 I0.1125 J0.038
N2635 X1.6375 Y0.962 Z-0.437 I-0.1125 J-0.038
N2640 X1.8625 Y1.038 Z-0.45 I0.1125 J0.038
N2645 X1.6375 Y0.962 Z-0.4631 I-0.1125 J-0.038
N2650 X1.8625 Y1.038 Z-0.4761 I0.1125 J0.038
N2655 X1.6375 Y0.962 Z-0.4891 I-0.1125 J-0.038
N2660 X1.8625 Y1.038 Z-0.5021 I0.1125 J0.038
N2665 X1.6375 Y0.962 Z-0.5152 I-0.1125 J-0.038
N2670 X1.8625 Y1.038 Z-0.5282 I0.1125 J0.038
N2675 X1.6375 Y0.962 Z-0.5412 I-0.1125 J-0.038
N2680 X1.8625 Y1.038 Z-0.5543 I0.1125 J0.038
N2685 X1.6375 Y0.962 Z-0.5673 I-0.1125 J-0.038
N2690 X1.8625 Y1.038 Z-0.5803 I0.1125 J0.038
N2695 X1.6375 Y0.962 Z-0.5933 I-0.1125 J-0.038
N2700 X1.8625 Y1.038 Z-0.6064 I0.1125 J0.038
N2705 X1.6375 Y0.962 Z-0.6194 I-0.1125 J-0.038
N2710 X1.8625 Y1.038 Z-0.6324 I0.1125 J0.038
N2715 X1.6375 Y0.962 Z-0.6454 I-0.1125 J-0.038
N2720 X1.8625 Y1.038 Z-0.6585 I0.1125 J0.038
N2725 X1.6375 Y0.962 Z-0.6715 I-0.1125 J-0.038
N2730 X1.8625 Y1.038 Z-0.6845 I0.1125 J0.038
N2735 X1.6375 Y0.962 Z-0.6976 I-0.1125 J-0.038
N2740 X1.8625 Y1.038 Z-0.7106 I0.1125 J0.038
N2745 X1.6375 Y0.962 Z-0.7236 I-0.1125 J-0.038
N2750 X1.8625 Y1.038 Z-0.7366 I0.1125 J0.038
N2755 X1.6375 Y0.962 Z-0.7497 I-0.1125 J-0.038
N2760 X1.8625 Y1.038 Z-0.7627 I0.1125 J0.038
N2765 X1.6375 Y0.962 Z-0.7757 I-0.1125 J-0.038
N2770 X1.8688 Y1. Z-0.7874 I0.1125 J0.038
N2775 X1.6313 I-0.1188 J0.
N2780 X1.8688 I0.1188 J0.
N2785 G1 X1.8689 Y1.0097 F15.
N2790 X1.876 Y1.0481
N2795 X1.8778 Y1.0538
N2800 X1.8789 Y1.0597
N2805 X1.8795 Y1.0657
N2810 Y1.0717
N2815 X1.879 Y1.0782
N2820 X1.8779 Y1.0851
N2825 X1.8762 Y1.0924
N2830 X1.8737 Y1.0999
N2835 X1.8705 Y1.1076
N2840 X1.8665 Y1.1154
N2845 X1.8616 Y1.1233
N2850 X1.8558 Y1.131
N2855 X1.8492 Y1.1386
N2860 X1.8417 Y1.146
N2865 X1.8333 Y1.1529
N2870 X1.8241 Y1.1594
N2875 X1.814 Y1.1653
N2880 X1.8033 Y1.1705
N2885 X1.7919 Y1.1749
N2890 X1.7798 Y1.1785
N2895 X1.7673 Y1.1812
N2900 X1.7543 Y1.1829
N2905 X1.741 Y1.1836
N2910 X1.7275 Y1.1832
N2915 X1.7138 Y1.1816
N2920 X1.7002 Y1.179
N2925 X1.6867 Y1.1752
N2930 X1.6733 Y1.1703
N2935 X1.6603 Y1.1643
N2940 X1.6478 Y1.1572
N2945 X1.6357 Y1.1491
N2950 X1.6243 Y1.14
N2955 X1.6136 Y1.1299
N2960 X1.6036 Y1.119
N2965 X1.5946 Y1.1072
N2970 X1.5865 Y1.0948
N2975 X1.5794 Y1.0816
N2980 X1.5733 Y1.0679
N2985 X1.5684 Y1.0537
N2990 X1.5646 Y1.0392
N2995 X1.562 Y1.0243
N3000 X1.5606 Y1.0093
N3005 X1.5604 Y0.9942
N3010 X1.5614 Y0.9791
N3015 X1.5636 Y0.9641
N3020 X1.567 Y0.9493
N3025 X1.5716 Y0.9348
N3030 X1.5774 Y0.9208
N3035 X1.5843 Y0.9072
N3040 X1.5922 Y0.8942
N3045 X1.6012 Y0.8819
N3050 X1.6111 Y0.8703
N3055 X1.6219 Y0.8596
N3060 X1.6336 Y0.8498
N3065 X1.646 Y0.8409
N3070 X1.659 Y0.8331
N3075 X1.6727 Y0.8263
N3080 X1.6869 Y0.8207
N3085 X1.7015 Y0.8162
N3090 X1.7164 Y0.8129
N3095 X1.7315 Y0.8108
N3100 X1.7467 Y0.8099
N3105 X1.762 Y0.8102
N3110 X1.7772 Y0.8118
N3115 X1.7922 Y0.8146
N3120 X1.8069 Y0.8186
N3125 X1.8213 Y0.8237
N3130 X1.8352 Y0.83
N3135 X1.8486 Y0.8374
N3140 X1.8613 Y0.8458
N3145 X1.8733 Y0.8553
N3150 X1.8845 Y0.8656
N3155 X1.8949 Y0.8768
N3160 X1.9043 Y0.8889
N3165 X1.9127 Y0.9016
N3170 X1.9273 Y0.928
N3175 X1.9397 Y0.9555
N3180 X1.9476 Y0.9776
N3185 X1.9529 Y0.9975
N3190 X1.9563 Y1.016
N3195 X1.9582 Y1.034
N3200 X1.9585 Y1.0513
N3205 X1.9575 Y1.0682
N3210 X1.9552 Y1.0847
N3215 X1.9517 Y1.1008
N3220 X1.9468 Y1.1165
N3225 X1.9407 Y1.1318
N3230 X1.9333 Y1.1466
N3235 X1.9248 Y1.1609
N3240 X1.915 Y1.1746
N3245 X1.904 Y1.1875
N3250 X1.8919 Y1.1997
N3255 X1.8788 Y1.211
N3260 X1.8645 Y1.2214
N3265 X1.8493 Y1.2307
N3270 X1.8331 Y1.2388
N3275 X1.8161 Y1.2458
N3280 X1.7984 Y1.2514
N3285 X1.78 Y1.2556
N3290 X1.7611 Y1.2584
N3295 X1.7419 Y1.2597
N3300 X1.7224 Y1.2594
N3305 X1.7028 Y1.2576
N3310 X1.6832 Y1.2541
N3315 X1.6639 Y1.249
N3320 X1.6448 Y1.2424
N3325 X1.6263 Y1.2342
N3330 X1.6083 Y1.2245
N3335 X1.591 Y1.2133
N3340 X1.5747 Y1.2006
N3345 X1.5593 Y1.1867
N3350 X1.545 Y1.1714
N3355 X1.532 Y1.155
N3360 X1.5202 Y1.1376
N3365 X1.5099 Y1.1192
N3370 X1.501 Y1.0999
N3375 X1.4937 Y1.08
N3380 X1.488 Y1.0595
N3385 X1.484 Y1.0385
N3390 X1.4816 Y1.0173
N3395 X1.481 Y0.9959
N3400 X1.482 Y0.9745
N3405 X1.4848 Y0.9532
N3410 X1.4893 Y0.9322
N3415 X1.4955 Y0.9115
N3420 X1.5034 Y0.8915
N3425 X1.5128 Y0.8721
N3430 X1.5237 Y0.8535
N3435 X1.5361 Y0.8358
N3440 X1.5499 Y0.8192
N3445 X1.565 Y0.8038
N3450 X1.5813 Y0.7896
N3455 X1.5987 Y0.7767
N3460 X1.6171 Y0.7653
N3465 X1.6363 Y0.7554
N3470 X1.6563 Y0.747
N3475 X1.6769 Y0.7403
N3480 X1.6979 Y0.7353
N3485 X1.7193 Y0.7319
N3490 X1.7409 Y0.7303
N3495 X1.7626 Y0.7305
N3500 X1.7842 Y0.7323
N3505 X1.8055 Y0.7359
N3510 X1.8265 Y0.7412
N3515 X1.847 Y0.7482
N3520 X1.8669 Y0.7568
N3525 X1.8861 Y0.767
N3530 X1.9043 Y0.7786
N3535 X1.9216 Y0.7917
N3540 X1.9399 Y0.8081
N3545 X1.9582 Y0.8273
N3550 X1.9754 Y0.8485
N3555 X1.9911 Y0.8715
N3560 X2.0049 Y0.8955
N3565 X2.0164 Y0.9199
N3570 X2.0257 Y0.9446
N3575 X2.0328 Y0.9694
N3580 X2.0377 Y0.9941
N3585 X2.0407 Y1.0187
N3590 X2.0416 Y1.0431
N3595 X2.0406 Y1.0672
N3600 X2.0377 Y1.091
N3605 X2.0329 Y1.1143
N3610 X2.0262 Y1.1371
N3615 X2.0178 Y1.1592
N3620 X2.0076 Y1.1806
N3625 X1.9958 Y1.2012
N3630 X1.9822 Y1.2208
N3635 X1.9671 Y1.2393
N3640 X1.9504 Y1.2567
N3645 X1.9323 Y1.2728
N3650 X1.9127 Y1.2874
N3655 X1.8919 Y1.3006
N3660 X1.8699 Y1.3122
N3665 X1.8469 Y1.322
N3670 X1.8229 Y1.3301
N3675 X1.7982 Y1.3362
N3680 X1.7729 Y1.3404
N3685 X1.7471 Y1.3425
N3690 X1.7211
N3695 X1.6949 Y1.3405
N3700 X1.6689 Y1.3363
N3705 X1.643 Y1.33
N3710 X1.6177 Y1.3216
N3715 X1.5929 Y1.3112
N3720 X1.5689 Y1.2987
N3725 X1.5459 Y1.2843
N3730 X1.524 Y1.268
N3735 X1.5035 Y1.2499
N3740 X1.4843 Y1.2301
N3745 X1.4667 Y1.2088
N3750 X1.4509 Y1.1861
N3755 X1.4369 Y1.162
N3760 X1.4248 Y1.1369
N3765 X1.4147 Y1.1108
N3770 X1.4068 Y1.084
N3775 X1.401 Y1.0565
N3780 X1.3975 Y1.0286
N3785 X1.3962 Y1.0004
N3790 X1.3971 Y0.9722
N3795 X1.4003 Y0.9442
N3800 X1.4058 Y0.9164
N3805 X1.4135 Y0.8892
N3810 X1.4234 Y0.8626
N3815 X1.4353 Y0.8369
N3820 X1.4493 Y0.8123
N3825 X1.4653 Y0.7888
N3830 X1.483 Y0.7666
N3835 X1.5026 Y0.746
N3840 X1.5237 Y0.7269
N3845 X1.5463 Y0.7097
N3850 X1.5702 Y0.6943
N3855 X1.5952 Y0.6808
N3860 X1.6213 Y0.6694
N3865 X1.6482 Y0.6601
N3870 X1.6758 Y0.6531
N3875 X1.7039 Y0.6482
N3880 X1.7322 Y0.6456
N3885 X1.7607 Y0.6453
N3890 X1.7891 Y0.6473
N3895 X1.8173 Y0.6516
N3900 X1.845 Y0.6581
N3905 X1.8721 Y0.6668
N3910 X1.8985 Y0.6777
N3915 X1.9245 Y0.691
N3920 X1.9502 Y0.7068
N3925 X1.9754 Y0.7252
N3930 X1.9996 Y0.7462
N3935 X2.0225 Y0.7695
N3940 X2.0437 Y0.7948
N3945 X2.0629 Y0.8218
N3950 X2.0798 Y0.8502
N3955 X2.0943 Y0.8796
N3960 X2.1062 Y0.9099
N3965 X2.1156 Y0.9408
N3970 X2.1225 Y0.9721
N3975 X2.1267 Y1.0036
N3980 X2.1285 Y1.0351
N3985 X2.1277 Y1.0664
N3990 X2.1244 Y1.0973
N3995 X2.1186 Y1.1278
N4000 X2.1105 Y1.1577
N4005 X2.0999 Y1.1867
N4010 X2.0871 Y1.2148
N4015 X2.0721 Y1.2419
N4020 X2.0549 Y1.2676
N4025 X2.0357 Y1.292
N4030 X2.0144 Y1.3149
N4035 X1.9913 Y1.336
N4040 X1.9665 Y1.3554
N4045 X1.94 Y1.3728
N4050 X1.912 Y1.3881
N4055 X1.8828 Y1.4011
N4060 X1.8524 Y1.4119
N4065 X1.821 Y1.4202
N4070 X1.7889 Y1.426
N4075 X1.7563 Y1.4293
N4080 X1.7233 Y1.4299
N4085 X1.6901 Y1.4278
N4090 X1.6571 Y1.4231
N4095 X1.6244 Y1.4157
N4100 X1.5923 Y1.4057
N4105 X1.5609 Y1.393
N4110 X1.5304 Y1.3778
N4115 X1.5012 Y1.3602
N4120 X1.4734 Y1.3401
N4125 X1.4472 Y1.3178
N4130 X1.4228 Y1.2934
N4135 X1.4003 Y1.2671
N4140 X1.38 Y1.2389
N4145 X1.362 Y1.2092
N4150 X1.3463 Y1.178
N4155 X1.3332 Y1.1455
N4160 X1.3227 Y1.1121
N4165 X1.3149 Y1.0778
N4170 X1.3099 Y1.043
N4175 X1.3077 Y1.0079
N4180 X1.3083 Y0.9726
N4185 X1.3118 Y0.9374
N4190 X1.318 Y0.9026
N4195 X1.3271 Y0.8684
N4200 X1.3388 Y0.835
N4205 X1.3533 Y0.8026
N4210 X1.3703 Y0.7715
N4215 X1.3897 Y0.7418
N4220 X1.4115 Y0.7138
N4225 X1.4355 Y0.6875
N4230 X1.4615 Y0.6633
N4235 X1.4893 Y0.6413
N4240 X1.5189 Y0.6215
N4245 X1.55 Y0.6042
N4250 X1.5823 Y0.5894
N4255 X1.6158 Y0.5772
N4260 X1.6501 Y0.5678
N4265 X1.6851 Y0.5612
N4270 X1.7205 Y0.5574
N4275 X1.7561 Y0.5564
N4280 X1.7916 Y0.5583
N4285 X1.8269 Y0.5631
N4290 X1.8619 Y0.5707
N4295 X1.8963 Y0.5811
N4300 X1.9302 Y0.5945
N4305 X1.9634 Y0.6107
N4310 X1.9957 Y0.6299
N4315 X2.0269 Y0.652
N4320 X2.0568 Y0.6769
N4325 X2.0846 Y0.7043
N4330 X2.1101 Y0.7337
N4335 X2.1333 Y0.7651
N4340 X2.1539 Y0.7982
N4345 X2.1677 Y0.8248
N4350 X2.1684 Y0.8262
N4355 X2.1691 Y0.8278
N4360 X2.1698 Y0.8293
N4365 X2.1817 Y0.8584
N4370 X2.1842 Y0.8673
N4375 X2.1969 Y0.9204
N4380 X2.1973 Y0.9222
N4385 X2.1982 Y0.9292
N4390 X2.2001 Y0.9469
N4395 X2.2011 Y0.9558
N4400 X2.2032 Y0.9823
N4405 X2.2033 Y0.9912
N4410 Y1.0088
N4415 X2.2032 Y1.0177
N4420 X2.2011 Y1.0442
N4425 X2.2001 Y1.0531
N4430 X2.1982 Y1.0708
N4435 X2.1973 Y1.0778
N4440 X2.1969 Y1.0796
N4445 X2.1842 Y1.1327
N4450 X2.1817 Y1.1416
N4455 X2.1708 Y1.1683
N4460 X2.1598 Y1.1947
N4465 X2.1558 Y1.2035
N4470 X2.1405 Y1.2301
N4475 X2.1242 Y1.2566
N4480 X2.1184 Y1.2655
N4485 X2.1087 Y1.2777
N4490 X2.0814 Y1.3097
N4495 X2.0733 Y1.3186
N4500 X2.0644 Y1.3274
N4505 X2.0333 Y1.354
N4510 X2.029 Y1.3576
N4515 X2.0202 Y1.3649
N4520 X2.0113 Y1.3713
N4525 X1.9847 Y1.3876
N4530 X1.9582 Y1.4033
N4535 X1.9514 Y1.4071
N4540 X1.8962 Y1.4299
N4545 X1.8873 Y1.4331
N4550 X1.8342 Y1.4458
N4555 X1.8253 Y1.4478
N4560 X1.8164 Y1.4493
N4565 X1.7721 Y1.4528
N4570 X1.7633 Y1.4533
N4575 X1.7367
N4580 X1.7279 Y1.4528
N4585 X1.6836 Y1.4493
N4590 X1.6747 Y1.4478
N4595 X1.6658 Y1.4458
N4600 X1.6127 Y1.4331
N4605 X1.6038 Y1.4299
N4610 X1.5486 Y1.4071
N4615 X1.5418 Y1.4033
N4620 X1.5153 Y1.3876
N4625 X1.4887 Y1.3713
N4630 X1.4798 Y1.3649
N4635 X1.471 Y1.3576
N4640 X1.4667 Y1.354
N4645 X1.4355 Y1.3274
N4650 X1.4267 Y1.3185
N4655 X1.4186 Y1.3097
N4660 X1.3913 Y1.2777
N4665 X1.3816 Y1.2655
N4670 X1.3758 Y1.2566
N4675 X1.3595 Y1.2301
N4680 X1.3442 Y1.2035
N4685 X1.3402 Y1.1947
N4690 X1.3292 Y1.1681
N4695 X1.3183 Y1.1416
N4700 X1.3158 Y1.1327
N4705 X1.3031 Y1.0796
N4710 X1.3027 Y1.0778
N4715 X1.3018 Y1.0708
N4720 X1.2999 Y1.0531
N4725 X1.2989 Y1.0442
N4730 X1.2968 Y1.0177
N4735 X1.2967 Y1.0088
N4740 Y0.9912
N4745 X1.2968 Y0.9823
N4750 X1.2989 Y0.9558
N4755 X1.2999 Y0.9469
N4760 X1.3018 Y0.9292
N4765 X1.3027 Y0.9222
N4770 X1.3031 Y0.9204
N4775 X1.3158 Y0.8673
N4780 X1.3183 Y0.8584
N4785 X1.3292 Y0.8317
N4790 X1.3402 Y0.8053
N4795 X1.3442 Y0.7965
N4800 X1.3595 Y0.7699
N4805 X1.3758 Y0.7434
N4810 X1.3816 Y0.7345
N4815 X1.3913 Y0.7223
N4820 X1.4186 Y0.6903
N4825 X1.4267 Y0.6814
N4830 X1.4356 Y0.6726
N4835 X1.4667 Y0.646
N4840 X1.471 Y0.6424
N4845 X1.4798 Y0.6351
N4850 X1.4887 Y0.6287
N4855 X1.5153 Y0.6124
N4860 X1.5418 Y0.5967
N4865 X1.5486 Y0.5929
N4870 X1.6038 Y0.5701
N4875 X1.6127 Y0.5669
N4880 X1.6658 Y0.5542
N4885 X1.6747 Y0.5522
N4890 X1.6836 Y0.5507
N4895 X1.7279 Y0.5472
N4900 X1.7367 Y0.5467
N4905 X1.7633
N4910 X1.7721 Y0.5472
N4915 X1.8164 Y0.5507
N4920 X1.8253 Y0.5522
N4925 X1.8342 Y0.5542
N4930 X1.8873 Y0.5669
N4935 X1.8962 Y0.5701
N4940 X1.9514 Y0.5929
N4945 X1.9582 Y0.5967
N4950 X1.9847 Y0.6124
N4955 X2.0113 Y0.6287
N4960 X2.0202 Y0.6351
N4965 X2.029 Y0.6424
N4970 X2.0333 Y0.646
N4975 X2.0645 Y0.6726
N4980 X2.0733 Y0.6815
N4985 X2.0814 Y0.6903
N4990 X2.1087 Y0.7223
N4995 X2.1184 Y0.7345
N5000 X2.1242 Y0.7434
N5005 X2.1405 Y0.7699
N5010 X2.1558 Y0.7965
N5015 X2.1598 Y0.8053
N5020 X2.1698 Y0.8293
N5025 X2.1706 Y0.8321
N5030 X2.1712 Y0.835
N5035 X2.1714 Y0.838 Z-0.7872
N5040 X2.1708 Y0.841 Z-0.7866
N5045 X2.1703 Y0.8439 Z-0.7857
N5050 X2.1698 Y0.8467 Z-0.7844
N5055 X2.1685 Y0.8489 Z-0.7828
N5060 X2.1673 Y0.8509 Z-0.7809
N5065 X2.1663 Y0.8527 Z-0.7788
N5070 X2.1654 Y0.8543 Z-0.7764
N5075 X2.164 Y0.8556 Z-0.7732
N5080 X2.1631 Y0.8565 Z-0.7697
N5085 X2.1625 Y0.8571 Z-0.7661
N5090 X2.1623 Y0.8573 Z-0.7624
N5095 G0 Z0.2
N5100 X1.8687 Y1.0019
N5105 Z-0.6874
N5110 G3 X1.6313 Y0.9981 Z-0.7004 I-0.1187 J-0.0019 F10.
N5115 X1.8687 Y1.0019 Z-0.7135 I0.1187 J0.0019
N5120 X1.6313 Y0.9981 Z-0.7265 I-0.1187 J-0.0019
N5125 X1.8687 Y1.0019 Z-0.7395 I0.1187 J0.0019
N5130 X1.6313 Y0.9981 Z-0.7525 I-0.1187 J-0.0019
N5135 X1.8687 Y1.0019 Z-0.7656 I0.1187 J0.0019
N5140 X1.6313 Y0.9981 Z-0.7786 I-0.1187 J-0.0019
N5145 X1.8687 Y1.0019 Z-0.7916 I0.1187 J0.0019
N5150 X1.6313 Y0.9981 Z-0.8047 I-0.1187 J-0.0019
N5155 X1.8687 Y1.0019 Z-0.8177 I0.1187 J0.0019
N5160 X1.6313 Y0.9981 Z-0.8307 I-0.1187 J-0.0019
N5165 X1.8687 Y1.0019 Z-0.8437 I0.1187 J0.0019
N5170 X1.6313 Y0.9981 Z-0.8568 I-0.1187 J-0.0019
N5175 X1.8687 Y1.0019 Z-0.8698 I0.1187 J0.0019
N5180 X1.6313 Y0.9981 Z-0.8828 I-0.1187 J-0.0019
N5185 X1.8687 Y1.0019 Z-0.8958 I0.1187 J0.0019
N5190 X1.6313 Y0.9981 Z-0.9089 I-0.1187 J-0.0019
N5195 X1.8687 Y1.0019 Z-0.9219 I0.1187 J0.0019
N5200 X1.6313 Y0.9981 Z-0.9349 I-0.1187 J-0.0019
N5205 X1.8687 Y1.0019 Z-0.948 I0.1187 J0.0019
N5210 X1.6313 Y0.9981 Z-0.961 I-0.1187 J-0.0019
N5215 X1.8687 Y1.0019 Z-0.974 I0.1187 J0.0019
N5220 X1.6313 Y0.9981 Z-0.987 I-0.1187 J-0.0019
N5225 X1.8688 Y1. Z-1. I0.1187 J0.0019
N5230 X1.6313 I-0.1188 J0.
N5235 X1.8688 I0.1188 J0.
N5240 G1 X1.8689 Y1.0097 F15.
N5245 X1.876 Y1.0481
N5250 X1.8778 Y1.0538
N5255 X1.8789 Y1.0597
N5260 X1.8795 Y1.0657
N5265 Y1.0717
N5270 X1.879 Y1.0782
N5275 X1.8779 Y1.0851
N5280 X1.8762 Y1.0924
N5285 X1.8737 Y1.0999
N5290 X1.8705 Y1.1076
N5295 X1.8665 Y1.1154
N5300 X1.8616 Y1.1233
N5305 X1.8558 Y1.131
N5310 X1.8492 Y1.1386
N5315 X1.8417 Y1.146
N5320 X1.8333 Y1.1529
N5325 X1.8241 Y1.1594
N5330 X1.814 Y1.1653
N5335 X1.8033 Y1.1705
N5340 X1.7919 Y1.1749
N5345 X1.7798 Y1.1785
N5350 X1.7673 Y1.1812
N5355 X1.7543 Y1.1829
N5360 X1.741 Y1.1836
N5365 X1.7275 Y1.1832
N5370 X1.7138 Y1.1816
N5375 X1.7002 Y1.179
N5380 X1.6867 Y1.1752
N5385 X1.6733 Y1.1703
N5390 X1.6603 Y1.1643
N5395 X1.6478 Y1.1572
N5400 X1.6357 Y1.1491
N5405 X1.6243 Y1.14
N5410 X1.6136 Y1.1299
N5415 X1.6036 Y1.119
N5420 X1.5946 Y1.1072
N5425 X1.5865 Y1.0948
N5430 X1.5794 Y1.0816
N5435 X1.5733 Y1.0679
N5440 X1.5684 Y1.0537
N5445 X1.5646 Y1.0392
N5450 X1.562 Y1.0243
N5455 X1.5606 Y1.0093
N5460 X1.5604 Y0.9942
N5465 X1.5614 Y0.9791
N5470 X1.5636 Y0.9641
N5475 X1.567 Y0.9493
N5480 X1.5716 Y0.9348
N5485 X1.5774 Y0.9208
N5490 X1.5843 Y0.9072
N5495 X1.5922 Y0.8942
N5500 X1.6012 Y0.8819
N5505 X1.6111 Y0.8703
N5510 X1.6219 Y0.8596
N5515 X1.6336 Y0.8498
N5520 X1.646 Y0.8409
N5525 X1.659 Y0.8331
N5530 X1.6727 Y0.8263
N5535 X1.6869 Y0.8207
N5540 X1.7015 Y0.8162
N5545 X1.7164 Y0.8129
N5550 X1.7315 Y0.8108
N5555 X1.7467 Y0.8099
N5560 X1.762 Y0.8102
N5565 X1.7772 Y0.8118
N5570 X1.7922 Y0.8146
N5575 X1.8069 Y0.8186
N5580 X1.8213 Y0.8237
N5585 X1.8352 Y0.83
N5590 X1.8486 Y0.8374
N5595 X1.8613 Y0.8458
N5600 X1.8733 Y0.8553
N5605 X1.8845 Y0.8656
N5610 X1.8949 Y0.8768
N5615 X1.9043 Y0.8889
N5620 X1.9127 Y0.9016
N5625 X1.9273 Y0.928
N5630 X1.9397 Y0.9555
N5635 X1.9476 Y0.9776
N5640 X1.9529 Y0.9975
N5645 X1.9563 Y1.016
N5650 X1.9582 Y1.034
N5655 X1.9585 Y1.0513
N5660 X1.9575 Y1.0682
N5665 X1.9552 Y1.0847
N5670 X1.9517 Y1.1008
N5675 X1.9468 Y1.1165
N5680 X1.9407 Y1.1318
N5685 X1.9333 Y1.1466
N5690 X1.9248 Y1.1609
N5695 X1.915 Y1.1746
N5700 X1.904 Y1.1875
N5705 X1.8919 Y1.1997
N5710 X1.8788 Y1.211
N5715 X1.8645 Y1.2214
N5720 X1.8493 Y1.2307
N5725 X1.8331 Y1.2388
N5730 X1.8161 Y1.2458
N5735 X1.7984 Y1.2514
N5740 X1.78 Y1.2556
N5745 X1.7611 Y1.2584
N5750 X1.7419 Y1.2597
N5755 X1.7224 Y1.2594
N5760 X1.7028 Y1.2576
N5765 X1.6832 Y1.2541
N5770 X1.6639 Y1.249
N5775 X1.6448 Y1.2424
N5780 X1.6263 Y1.2342
N5785 X1.6083 Y1.2245
N5790 X1.591 Y1.2133
N5795 X1.5747 Y1.2006
N5800 X1.5593 Y1.1867
N5805 X1.545 Y1.1714
N5810 X1.532 Y1.155
N5815 X1.5202 Y1.1376
N5820 X1.5099 Y1.1192
N5825 X1.501 Y1.0999
N5830 X1.4937 Y1.08
N5835 X1.488 Y1.0595
N5840 X1.484 Y1.0385
N5845 X1.4816 Y1.0173
N5850 X1.481 Y0.9959
N5855 X1.482 Y0.9745
N5860 X1.4848 Y0.9532
N5865 X1.4893 Y0.9322
N5870 X1.4955 Y0.9115
N5875 X1.5034 Y0.8915
N5880 X1.5128 Y0.8721
N5885 X1.5237 Y0.8535
N5890 X1.5361 Y0.8358
N5895 X1.5499 Y0.8192
N5900 X1.565 Y0.8038
N5905 X1.5813 Y0.7896
N5910 X1.5987 Y0.7767
N5915 X1.6171 Y0.7653
N5920 X1.6363 Y0.7554
N5925 X1.6563 Y0.747
N5930 X1.6769 Y0.7403
N5935 X1.6979 Y0.7353
N5940 X1.7193 Y0.7319
N5945 X1.7409 Y0.7303
N5950 X1.7626 Y0.7305
N5955 X1.7842 Y0.7323
N5960 X1.8055 Y0.7359
N5965 X1.8265 Y0.7412
N5970 X1.847 Y0.7482
N5975 X1.8669 Y0.7568
N5980 X1.8861 Y0.767
N5985 X1.9043 Y0.7786
N5990 X1.9216 Y0.7917
N5995 X1.9399 Y0.8081
N6000 X1.9582 Y0.8273
N6005 X1.9754 Y0.8485
N6010 X1.9911 Y0.8715
N6015 X2.0049 Y0.8955
N6020 X2.0164 Y0.9199
N6025 X2.0257 Y0.9446
N6030 X2.0328 Y0.9694
N6035 X2.0377 Y0.9941
N6040 X2.0407 Y1.0187
N6045 X2.0416 Y1.0431
N6050 X2.0406 Y1.0672
N6055 X2.0377 Y1.091
N6060 X2.0329 Y1.1143
N6065 X2.0262 Y1.1371
N6070 X2.0178 Y1.1592
N6075 X2.0076 Y1.1806
N6080 X1.9958 Y1.2012
N6085 X1.9822 Y1.2208
N6090 X1.9671 Y1.2393
N6095 X1.9504 Y1.2567
N6100 X1.9323 Y1.2728
N6105 X1.9127 Y1.2874
N6110 X1.8919 Y1.3006
N6115 X1.8699 Y1.3122
N6120 X1.8469 Y1.322
N6125 X1.8229 Y1.3301
N6130 X1.7982 Y1.3362
N6135 X1.7729 Y1.3404
N6140 X1.7471 Y1.3425
N6145 X1.7211
N6150 X1.6949 Y1.3405
N6155 X1.6689 Y1.3363
N6160 X1.643 Y1.33
N6165 X1.6177 Y1.3216
N6170 X1.5929 Y1.3112
N6175 X1.5689 Y1.2987
N6180 X1.5459 Y1.2843
N6185 X1.524 Y1.268
N6190 X1.5035 Y1.2499
N6195 X1.4843 Y1.2301
N6200 X1.4667 Y1.2088
N6205 X1.4509 Y1.1861
N6210 X1.4369 Y1.162
N6215 X1.4248 Y1.1369
N6220 X1.4147 Y1.1108
N6225 X1.4068 Y1.084
N6230 X1.401 Y1.0565
N6235 X1.3975 Y1.0286
N6240 X1.3962 Y1.0004
N6245 X1.3971 Y0.9722
N6250 X1.4003 Y0.9442
N6255 X1.4058 Y0.9164
N6260 X1.4135 Y0.8892
N6265 X1.4234 Y0.8626
N6270 X1.4353 Y0.8369
N6275 X1.4493 Y0.8123
N6280 X1.4653 Y0.7888
N6285 X1.483 Y0.7666
N6290 X1.5026 Y0.746
N6295 X1.5237 Y0.7269
N6300 X1.5463 Y0.7097
N6305 X1.5702 Y0.6943
N6310 X1.5952 Y0.6808
N6315 X1.6213 Y0.6694
N6320 X1.6482 Y0.6601
N6325 X1.6758 Y0.6531
N6330 X1.7039 Y0.6482
N6335 X1.7322 Y0.6456
N6340 X1.7607 Y0.6453
N6345 X1.7891 Y0.6473
N6350 X1.8173 Y0.6516
N6355 X1.845 Y0.6581
N6360 X1.8721 Y0.6668
N6365 X1.8985 Y0.6777
N6370 X1.9245 Y0.691
N6375 X1.9502 Y0.7068
N6380 X1.9754 Y0.7252
N6385 X1.9996 Y0.7462
N6390 X2.0225 Y0.7695
N6395 X2.0437 Y0.7948
N6400 X2.0629 Y0.8218
N6405 X2.0798 Y0.8502
N6410 X2.0943 Y0.8796
N6415 X2.1062 Y0.9099
N6420 X2.1156 Y0.9408
N6425 X2.1225 Y0.9721
N6430 X2.1267 Y1.0036
N6435 X2.1285 Y1.0351
N6440 X2.1277 Y1.0664
N6445 X2.1244 Y1.0973
N6450 X2.1186 Y1.1278
N6455 X2.1105 Y1.1577
N6460 X2.0999 Y1.1867
N6465 X2.0871 Y1.2148
N6470 X2.0721 Y1.2419
N6475 X2.0549 Y1.2676
N6480 X2.0357 Y1.292
N6485 X2.0144 Y1.3149
N6490 X1.9913 Y1.336
N6495 X1.9665 Y1.3554
N6500 X1.94 Y1.3728
N6505 X1.912 Y1.3881
N6510 X1.8828 Y1.4011
N6515 X1.8524 Y1.4119
N6520 X1.821 Y1.4202
N6525 X1.7889 Y1.426
N6530 X1.7563 Y1.4293
N6535 X1.7233 Y1.4299
N6540 X1.6901 Y1.4278
N6545 X1.6571 Y1.4231
N6550 X1.6244 Y1.4157
N6555 X1.5923 Y1.4057
N6560 X1.5609 Y1.393
N6565 X1.5304 Y1.3778
N6570 X1.5012 Y1.3602
N6575 X1.4734 Y1.3401
N6580 X1.4472 Y1.3178
N6585 X1.4228 Y1.2934
N6590 X1.4003 Y1.2671
N6595 X1.38 Y1.2389
N6600 X1.362 Y1.2092
N6605 X1.3463 Y1.178
N6610 X1.3332 Y1.1455
N6615 X1.3227 Y1.1121
N6620 X1.3149 Y1.0778
N6625 X1.3099 Y1.043
N6630 X1.3077 Y1.0079
N6635 X1.3083 Y0.9726
N6640 X1.3118 Y0.9374
N6645 X1.318 Y0.9026
N6650 X1.3271 Y0.8684
N6655 X1.3388 Y0.835
N6660 X1.3533 Y0.8026
N6665 X1.3703 Y0.7715
N6670 X1.3897 Y0.7418
N6675 X1.4115 Y0.7138
N6680 X1.4355 Y0.6875
N6685 X1.4615 Y0.6633
N6690 X1.4893 Y0.6413
N6695 X1.5189 Y0.6215
N6700 X1.55 Y0.6042
N6705 X1.5823 Y0.5894
N6710 X1.6158 Y0.5772
N6715 X1.6501 Y0.5678
N6720 X1.6851 Y0.5612
N6725 X1.7205 Y0.5574
N6730 X1.7561 Y0.5564
N6735 X1.7916 Y0.5583
N6740 X1.8269 Y0.5631
N6745 X1.8619 Y0.5707
N6750 X1.8963 Y0.5811
N6755 X1.9302 Y0.5945
N6760 X1.9634 Y0.6107
N6765 X1.9957 Y0.6299
N6770 X2.0269 Y0.652
N6775 X2.0568 Y0.6769
N6780 X2.0846 Y0.7043
N6785 X2.1101 Y0.7337
N6790 X2.1333 Y0.7651
N6795 X2.1539 Y0.7982
N6800 X2.1677 Y0.8248
N6805 X2.1684 Y0.8262
N6810 X2.1691 Y0.8278
N6815 X2.1698 Y0.8293
N6820 X2.1817 Y0.8584
N6825 X2.1842 Y0.8673
N6830 X2.1969 Y0.9204
N6835 X2.1973 Y0.9222
N6840 X2.1982 Y0.9292
N6845 X2.2001 Y0.9469
N6850 X2.2011 Y0.9558
N6855 X2.2032 Y0.9823
N6860 X2.2033 Y0.9912
N6865 Y1.0088
N6870 X2.2032 Y1.0177
N6875 X2.2011 Y1.0442
N6880 X2.2001 Y1.0531
N6885 X2.1982 Y1.0708
N6890 X2.1973 Y1.0778
N6895 X2.1969 Y1.0796
N6900 X2.1842 Y1.1327
N6905 X2.1817 Y1.1416
N6910 X2.1708 Y1.1683
N6915 X2.1598 Y1.1947
N6920 X2.1558 Y1.2035
N6925 X2.1405 Y1.2301
N6930 X2.1242 Y1.2566
N6935 X2.1184 Y1.2655
N6940 X2.1087 Y1.2777
N6945 X2.0814 Y1.3097
N6950 X2.0733 Y1.3186
N6955 X2.0644 Y1.3274
N6960 X2.0333 Y1.354
N6965 X2.029 Y1.3576
N6970 X2.0202 Y1.3649
N6975 X2.0113 Y1.3713
N6980 X1.9847 Y1.3876
N6985 X1.9582 Y1.4033
N6990 X1.9514 Y1.4071
N6995 X1.8962 Y1.4299
N7000 X1.8873 Y1.4331
N7005 X1.8342 Y1.4458
N7010 X1.8253 Y1.4478
N7015 X1.8164 Y1.4493
N7020 X1.7721 Y1.4528
N7025 X1.7633 Y1.4533
N7030 X1.7367
N7035 X1.7279 Y1.4528
N7040 X1.6836 Y1.4493
N7045 X1.6747 Y1.4478
N7050 X1.6658 Y1.4458
N7055 X1.6127 Y1.4331
N7060 X1.6038 Y1.4299
N7065 X1.5486 Y1.4071
N7070 X1.5418 Y1.4033
N7075 X1.5153 Y1.3876
N7080 X1.4887 Y1.3713
N7085 X1.4798 Y1.3649
N7090 X1.471 Y1.3576
N7095 X1.4667 Y1.354
N7100 X1.4355 Y1.3274
N7105 X1.4267 Y1.3185
N7110 X1.4186 Y1.3097
N7115 X1.3913 Y1.2777
N7120 X1.3816 Y1.2655
N7125 X1.3758 Y1.2566
N7130 X1.3595 Y1.2301
N7135 X1.3442 Y1.2035
N7140 X1.3402 Y1.1947
N7145 X1.3292 Y1.1681
N7150 X1.3183 Y1.1416
N7155 X1.3158 Y1.1327
N7160 X1.3031 Y1.0796
N7165 X1.3027 Y1.0778
N7170 X1.3018 Y1.0708
N7175 X1.2999 Y1.0531
N7180 X1.2989 Y1.0442
N7185 X1.2968 Y1.0177
N7190 X1.2967 Y1.0088
N7195 Y0.9912
N7200 X1.2968 Y0.9823
N7205 X1.2989 Y0.9558
N7210 X1.2999 Y0.9469
N7215 X1.3018 Y0.9292
N7220 X1.3027 Y0.9222
N7225 X1.3031 Y0.9204
N7230 X1.3158 Y0.8673
N7235 X1.3183 Y0.8584
N7240 X1.3292 Y0.8317
N7245 X1.3402 Y0.8053
N7250 X1.3442 Y0.7965
N7255 X1.3595 Y0.7699
N7260 X1.3758 Y0.7434
N7265 X1.3816 Y0.7345
N7270 X1.3913 Y0.7223
N7275 X1.4186 Y0.6903
N7280 X1.4267 Y0.6814
N7285 X1.4356 Y0.6726
N7290 X1.4667 Y0.646
N7295 X1.471 Y0.6424
N7300 X1.4798 Y0.6351
N7305 X1.4887 Y0.6287
N7310 X1.5153 Y0.6124
N7315 X1.5418 Y0.5967
N7320 X1.5486 Y0.5929
N7325 X1.6038 Y0.5701
N7330 X1.6127 Y0.5669
N7335 X1.6658 Y0.5542
N7340 X1.6747 Y0.5522
N7345 X1.6836 Y0.5507
N7350 X1.7279 Y0.5472
N7355 X1.7367 Y0.5467
N7360 X1.7633
N7365 X1.7721 Y0.5472
N7370 X1.8164 Y0.5507
N7375 X1.8253 Y0.5522
N7380 X1.8342 Y0.5542
N7385 X1.8873 Y0.5669
N7390 X1.8962 Y0.5701
N7395 X1.9514 Y0.5929
N7400 X1.9582 Y0.5967
N7405 X1.9847 Y0.6124
N7410 X2.0113 Y0.6287
N7415 X2.0202 Y0.6351
N7420 X2.029 Y0.6424
N7425 X2.0333 Y0.646
N7430 X2.0645 Y0.6726
N7435 X2.0733 Y0.6815
N7440 X2.0814 Y0.6903
N7445 X2.1087 Y0.7223
N7450 X2.1184 Y0.7345
N7455 X2.1242 Y0.7434
N7460 X2.1405 Y0.7699
N7465 X2.1558 Y0.7965
N7470 X2.1598 Y0.8053
N7475 X2.1698 Y0.8293
N7480 G3 X2.1623 Y0.8573 I-0.0234 J0.0088
N7485 G1 X2.1593 Y0.8598 Z-0.9997
N7490 X2.1564 Y0.8622 Z-0.9988
N7495 X2.1536 Y0.8645 Z-0.9973
N7500 X2.151 Y0.8667 Z-0.9952
N7505 X2.1487 Y0.8686 Z-0.9927
N7510 X2.1467 Y0.8702 Z-0.9897
N7515 X2.1451 Y0.8715 Z-0.9863
N7520 X2.144 Y0.8725 Z-0.9827
N7525 X2.1433 Y0.873 Z-0.9789
N7530 X2.143 Y0.8732 Z-0.975
N7535 G0 Z0.6
(BORE4)
N7540 G0 X1.775 Y1.4125
N7545 Z0.6
N7550 Z0.08
N7555 G1 Z0.025 F15.
N7560 G19 G3 Y1.4375 Z0. J0.025 K0.
N7565 G1 Y1.45
N7570 G17 G3 X1.75 Y1.475 I-0.025 J0.
N7575 Y0.525 Z-0.0197 I0. J-0.475
N7580 Y1.475 Z-0.0394 I0. J0.475
N7585 Y0.525 Z-0.0591 I0. J-0.475
N7590 Y1.475 Z-0.0787 I0. J0.475
N7595 Y0.525 Z-0.0984 I0. J-0.475
N7600 Y1.475 Z-0.1181 I0. J0.475
N7605 Y0.525 Z-0.1378 I0. J-0.475
N7610 Y1.475 Z-0.1575 I0. J0.475
N7615 Y0.525 Z-0.1772 I0. J-0.475
N7620 Y1.475 Z-0.1969 I0. J0.475
N7625 Y0.525 Z-0.2165 I0. J-0.475
N7630 Y1.475 Z-0.2362 I0. J0.475
N7635 Y0.525 Z-0.2559 I0. J-0.475
N7640 Y1.475 Z-0.2756 I0. J0.475
N7645 Y0.525 Z-0.2953 I0. J-0.475
N7650 Y1.475 Z-0.315 I0. J0.475
N7655 Y0.525 Z-0.3346 I0. J-0.475
N7660 Y1.475 Z-0.3543 I0. J0.475
N7665 Y0.525 Z-0.374 I0. J-0.475
N7670 Y1.475 Z-0.3937 I0. J0.475
N7675 Y0.525 Z-0.4134 I0. J-0.475
N7680 Y1.475 Z-0.4331 I0. J0.475
N7685 Y0.525 Z-0.4528 I0. J-0.475
N7690 Y1.475 Z-0.4724 I0. J0.475
N7695 Y0.525 Z-0.4921 I0. J-0.475
N7700 Y1.475 Z-0.5118 I0. J0.475
N7705 Y0.525 Z-0.5315 I0. J-0.475
N7710 Y1.475 Z-0.5512 I0. J0.475
N7715 Y0.525 Z-0.5709 I0. J-0.475
N7720 Y1.475 Z-0.5906 I0. J0.475
N7725 Y0.525 Z-0.6102 I0. J-0.475
N7730 Y1.475 Z-0.6299 I0. J0.475
N7735 Y0.525 Z-0.6496 I0. J-0.475
N7740 Y1.475 Z-0.6693 I0. J0.475
N7745 Y0.525 Z-0.689 I0. J-0.475
N7750 Y1.475 Z-0.7087 I0. J0.475
N7755 Y0.525 Z-0.7283 I0. J-0.475
N7760 Y1.475 Z-0.748 I0. J0.475
N7765 Y0.525 Z-0.7677 I0. J-0.475
N7770 Y1.475 Z-0.7874 I0. J0.475
N7775 Y0.525 Z-0.8071 I0. J-0.475
N7780 Y1.475 Z-0.8268 I0. J0.475
N7785 Y0.525 Z-0.8465 I0. J-0.475
N7790 Y1.475 Z-0.8661 I0. J0.475
N7795 Y0.525 Z-0.8858 I0. J-0.475
N7800 Y1.475 Z-0.9055 I0. J0.475
N7805 Y0.525 Z-0.9252 I0. J-0.475
N7810 Y1.475 Z-0.9449 I0. J0.475
N7815 Y0.525 Z-0.9646 I0. J-0.475
N7820 Y1.475 Z-0.9843 I0. J0.475
N7825 X1.4708 Y0.6157 Z-1. I0. J-0.475
N7830 X2.0292 Y1.3843 I0.2792 J0.3843
N7835 X1.4708 Y0.6157 I-0.2792 J-0.3843
N7840 X1.5057 Y0.6212 I0.0147 J0.0202
N7845 G1 X1.5131 Y0.6314
N7850 X1.5154 Y0.6345 Z-0.9997
N7855 X1.5176 Y0.6376 Z-0.9988
N7860 X1.5197 Y0.6405 Z-0.9973
N7865 X1.5217 Y0.6432 Z-0.9952
N7870 X1.5235 Y0.6457 Z-0.9927
N7875 X1.525 Y0.6477 Z-0.9897
N7880 X1.5262 Y0.6494 Z-0.9863
N7885 X1.527 Y0.6506 Z-0.9827
N7890 X1.5276 Y0.6513 Z-0.9789
N7895 X1.5278 Y0.6516 Z-0.975
N7900 G0 Z0.6
N7905 G53 Z0.
N7910 M30
%
