%
(PCB FACE SHORT SIDE)
(T3  D=0.25 CR=0. - ZMIN=-0.0625 - FLAT END MILL)
N10 G90 G94 G17 G91.1
N15 G20
N20 G53 G0 Z0.
(FACE4)
N25 T3 M6
N30 S3000 M3
N35 G54
N40 G0 X-0.1625 Y1.9002
N45 G43 Z0.6 H3
N50 G0 Z0.2
N55 G1 Z-0.0375 F15.
N60 G18 G2 X-0.1375 Z-0.0625 I0.025 K0.
N65 G1 X0.
N70 X3.5
N75 G17 G2 Y1.6778 I0. J-0.1112
N80 G1 X0.
N85 G3 Y1.4555 I0. J-0.1112
N90 G1 X3.5
N95 G2 Y1.2331 I0. J-0.1112
N100 G1 X0.
N105 G3 Y1.0107 I0. J-0.1112
N110 G1 X3.5
N115 G2 Y0.7883 I0. J-0.1112
N120 G1 X0.
N125 G3 Y0.5659 I0. J-0.1112
N130 G1 X3.5
N135 G2 Y0.3435 I0. J-0.1112
N140 G1 X0.
N145 G3 Y0.1211 I0. J-0.1112
N150 G1 X3.5
N155 G18 G2 X3.525 Z-0.0375 I0. K0.025
N160 G0 Z0.6
N165 G17
N170 G53 G0 Z0.
N175 M30
%
