%
(PCB FIXTURE TAP HOLES)
(T2  D=0.0787 CR=0. - ZMIN=-0.4437 - FLAT END MILL)
N10 G90 G94 G17 G91.1
N15 G20
N20 G53 G0 Z0.
(BORE1)
N25 T2 M6
N30 S4000 M3
N35 G54
N40 G0 X4.1214 Y0.3671
N45 G43 Z0.6 H2
N50 G0 Z0.03
N55 G1 Z-0.0421 F15.
N60 G18 G2 X4.1293 Z-0.05 I0.0079 K0.
N65 G1 X4.1333
N70 G17 G3 X4.1411 Y0.375 I0. J0.0079
N75 X4.1089 Z-0.0697 I-0.0161 J0.
N80 X4.1411 Z-0.0894 I0.0161 J0.
N85 X4.1089 Z-0.1091 I-0.0161 J0.
N90 X4.1411 Z-0.1287 I0.0161 J0.
N95 X4.1089 Z-0.1484 I-0.0161 J0.
N100 X4.1411 Z-0.1681 I0.0161 J0.
N105 X4.1089 Z-0.1878 I-0.0161 J0.
N110 X4.1411 Z-0.2075 I0.0161 J0.
N115 X4.1089 Z-0.2272 I-0.0161 J0.
N120 X4.1411 Z-0.2469 I0.0161 J0.
N125 X4.1089 Z-0.2665 I-0.0161 J0.
N130 X4.1411 Z-0.2862 I0.0161 J0.
N135 X4.1089 Z-0.3059 I-0.0161 J0.
N140 X4.1411 Z-0.3256 I0.0161 J0.
N145 X4.1089 Z-0.3453 I-0.0161 J0.
N150 X4.1411 Z-0.365 I0.0161 J0.
N155 X4.1089 Z-0.3846 I-0.0161 J0.
N160 X4.1411 Z-0.4043 I0.0161 J0.
N165 X4.1089 Z-0.424 I-0.0161 J0.
N170 X4.1411 Z-0.4437 I0.0161 J0.
N175 X4.1089 I-0.0161 J0.
N180 X4.1411 I0.0161 J0.
N185 X4.1333 Y0.3829 I-0.0079 J0.
N190 G1 X4.1293
N195 G18 G3 X4.1214 Z-0.4358 I0. K0.0079
N200 G0 Z0.2
N205 Y3.1171
N210 Z0.03
N215 G1 Z-0.0421 F15.
N220 G2 X4.1293 Z-0.05 I0.0079 K0.
N225 G1 X4.1333
N230 G17 G3 X4.1411 Y3.125 I0. J0.0079
N235 X4.1089 Z-0.0697 I-0.0161 J0.
N240 X4.1411 Z-0.0894 I0.0161 J0.
N245 X4.1089 Z-0.1091 I-0.0161 J0.
N250 X4.1411 Z-0.1287 I0.0161 J0.
N255 X4.1089 Z-0.1484 I-0.0161 J0.
N260 X4.1411 Z-0.1681 I0.0161 J0.
N265 X4.1089 Z-0.1878 I-0.0161 J0.
N270 X4.1411 Z-0.2075 I0.0161 J0.
N275 X4.1089 Z-0.2272 I-0.0161 J0.
N280 X4.1411 Z-0.2469 I0.0161 J0.
N285 X4.1089 Z-0.2665 I-0.0161 J0.
N290 X4.1411 Z-0.2862 I0.0161 J0.
N295 X4.1089 Z-0.3059 I-0.0161 J0.
N300 X4.1411 Z-0.3256 I0.0161 J0.
N305 X4.1089 Z-0.3453 I-0.0161 J0.
N310 X4.1411 Z-0.365 I0.0161 J0.
N315 X4.1089 Z-0.3846 I-0.0161 J0.
N320 X4.1411 Z-0.4043 I0.0161 J0.
N325 X4.1089 Z-0.424 I-0.0161 J0.
N330 X4.1411 Z-0.4437 I0.0161 J0.
N335 X4.1089 I-0.0161 J0.
N340 X4.1411 I0.0161 J0.
N345 X4.1333 Y3.1329 I-0.0079 J0.
N350 G1 X4.1293
N355 G18 G3 X4.1214 Z-0.4358 I0. K0.0079
N360 G0 Z0.2
N365 X0.3714 Y3.1171
N370 Z0.03
N375 G1 Z-0.0421 F15.
N380 G2 X0.3793 Z-0.05 I0.0079 K0.
N385 G1 X0.3833
N390 G17 G3 X0.3911 Y3.125 I0. J0.0079
N395 X0.3589 Z-0.0697 I-0.0161 J0.
N400 X0.3911 Z-0.0894 I0.0161 J0.
N405 X0.3589 Z-0.1091 I-0.0161 J0.
N410 X0.3911 Z-0.1287 I0.0161 J0.
N415 X0.3589 Z-0.1484 I-0.0161 J0.
N420 X0.3911 Z-0.1681 I0.0161 J0.
N425 X0.3589 Z-0.1878 I-0.0161 J0.
N430 X0.3911 Z-0.2075 I0.0161 J0.
N435 X0.3589 Z-0.2272 I-0.0161 J0.
N440 X0.3911 Z-0.2469 I0.0161 J0.
N445 X0.3589 Z-0.2665 I-0.0161 J0.
N450 X0.3911 Z-0.2862 I0.0161 J0.
N455 X0.3589 Z-0.3059 I-0.0161 J0.
N460 X0.3911 Z-0.3256 I0.0161 J0.
N465 X0.3589 Z-0.3453 I-0.0161 J0.
N470 X0.3911 Z-0.365 I0.0161 J0.
N475 X0.3589 Z-0.3846 I-0.0161 J0.
N480 X0.3911 Z-0.4043 I0.0161 J0.
N485 X0.3589 Z-0.424 I-0.0161 J0.
N490 X0.3911 Z-0.4437 I0.0161 J0.
N495 X0.3589 I-0.0161 J0.
N500 X0.3911 I0.0161 J0.
N505 X0.3833 Y3.1329 I-0.0079 J0.
N510 G1 X0.3793
N515 G18 G3 X0.3714 Z-0.4358 I0. K0.0079
N520 G0 Z0.2
N525 Y0.3671
N530 Z0.03
N535 G1 Z-0.0421 F15.
N540 G2 X0.3793 Z-0.05 I0.0079 K0.
N545 G1 X0.3833
N550 G17 G3 X0.3911 Y0.375 I0. J0.0079
N555 X0.3589 Z-0.0697 I-0.0161 J0.
N560 X0.3911 Z-0.0894 I0.0161 J0.
N565 X0.3589 Z-0.1091 I-0.0161 J0.
N570 X0.3911 Z-0.1287 I0.0161 J0.
N575 X0.3589 Z-0.1484 I-0.0161 J0.
N580 X0.3911 Z-0.1681 I0.0161 J0.
N585 X0.3589 Z-0.1878 I-0.0161 J0.
N590 X0.3911 Z-0.2075 I0.0161 J0.
N595 X0.3589 Z-0.2272 I-0.0161 J0.
N600 X0.3911 Z-0.2469 I0.0161 J0.
N605 X0.3589 Z-0.2665 I-0.0161 J0.
N610 X0.3911 Z-0.2862 I0.0161 J0.
N615 X0.3589 Z-0.3059 I-0.0161 J0.
N620 X0.3911 Z-0.3256 I0.0161 J0.
N625 X0.3589 Z-0.3453 I-0.0161 J0.
N630 X0.3911 Z-0.365 I0.0161 J0.
N635 X0.3589 Z-0.3846 I-0.0161 J0.
N640 X0.3911 Z-0.4043 I0.0161 J0.
N645 X0.3589 Z-0.424 I-0.0161 J0.
N650 X0.3911 Z-0.4437 I0.0161 J0.
N655 X0.3589 I-0.0161 J0.
N660 X0.3911 I0.0161 J0.
N665 X0.3833 Y0.3829 I-0.0079 J0.
N670 G1 X0.3793
N675 G18 G3 X0.3714 Z-0.4358 I0. K0.0079
N680 G0 Z0.6
N685 G17
N690 G53 G0 Z0.
N695 M30
%
