%
(PCB FIXTURE VACCUUM REBORE)
(T3  D=0.25 CR=0. - ZMIN=-1.5 - FLAT END MILL)
N10 G90 G94 G17 G91.1
N15 G20
N20 G53 G0 Z0.
(BORE4 2)
N25 T3 M6
N30 S3000 M3
N35 G54
N40 G0 X1.525 Y1.4375
N45 G43 Z0.6 H3
N50 G0 Z0.08
N55 G1 Z0.025 F15.
N60 G19 G3 Y1.4625 Z0. J0.025 K0.
N65 G1 Y1.475
N70 G17 G3 X1.5 Y1.5 I-0.025 J0.
N75 Y0.5 Z-0.0197 I0. J-0.5
N80 Y1.5 Z-0.0394 I0. J0.5
N85 Y0.5 Z-0.0591 I0. J-0.5
N90 Y1.5 Z-0.0787 I0. J0.5
N95 Y0.5 Z-0.0984 I0. J-0.5
N100 Y1.5 Z-0.1181 I0. J0.5
N105 Y0.5 Z-0.1378 I0. J-0.5
N110 Y1.5 Z-0.1575 I0. J0.5
N115 Y0.5 Z-0.1772 I0. J-0.5
N120 Y1.5 Z-0.1969 I0. J0.5
N125 Y0.5 Z-0.2165 I0. J-0.5
N130 Y1.5 Z-0.2362 I0. J0.5
N135 Y0.5 Z-0.2559 I0. J-0.5
N140 Y1.5 Z-0.2756 I0. J0.5
N145 Y0.5 Z-0.2953 I0. J-0.5
N150 Y1.5 Z-0.315 I0. J0.5
N155 Y0.5 Z-0.3346 I0. J-0.5
N160 Y1.5 Z-0.3543 I0. J0.5
N165 Y0.5 Z-0.374 I0. J-0.5
N170 Y1.5 Z-0.3937 I0. J0.5
N175 Y0.5 Z-0.4134 I0. J-0.5
N180 Y1.5 Z-0.4331 I0. J0.5
N185 Y0.5 Z-0.4528 I0. J-0.5
N190 Y1.5 Z-0.4724 I0. J0.5
N195 Y0.5 Z-0.4921 I0. J-0.5
N200 Y1.5 Z-0.5118 I0. J0.5
N205 Y0.5 Z-0.5315 I0. J-0.5
N210 Y1.5 Z-0.5512 I0. J0.5
N215 Y0.5 Z-0.5709 I0. J-0.5
N220 Y1.5 Z-0.5906 I0. J0.5
N225 Y0.5 Z-0.6102 I0. J-0.5
N230 Y1.5 Z-0.6299 I0. J0.5
N235 Y0.5 Z-0.6496 I0. J-0.5
N240 Y1.5 Z-0.6693 I0. J0.5
N245 Y0.5 Z-0.689 I0. J-0.5
N250 Y1.5 Z-0.7087 I0. J0.5
N255 Y0.5 Z-0.7283 I0. J-0.5
N260 Y1.5 Z-0.748 I0. J0.5
N265 Y0.5 Z-0.7677 I0. J-0.5
N270 Y1.5 Z-0.7874 I0. J0.5
N275 Y0.5 Z-0.8071 I0. J-0.5
N280 Y1.5 Z-0.8268 I0. J0.5
N285 Y0.5 Z-0.8465 I0. J-0.5
N290 Y1.5 Z-0.8661 I0. J0.5
N295 Y0.5 Z-0.8858 I0. J-0.5
N300 Y1.5 Z-0.9055 I0. J0.5
N305 Y0.5 Z-0.9252 I0. J-0.5
N310 Y1.5 Z-0.9449 I0. J0.5
N315 Y0.5 Z-0.9646 I0. J-0.5
N320 Y1.5 Z-0.9843 I0. J0.5
N325 X1.2061 Y0.5955 Z-1. I0. J-0.5
N330 X1.7939 Y1.4045 I0.2939 J0.4045
N335 X1.2061 Y0.5955 I-0.2939 J-0.4045
N340 X1.241 Y0.601 I0.0147 J0.0202
N345 G1 X1.2484 Y0.6111
N350 X1.2507 Y0.6143 Z-0.9997
N355 X1.2529 Y0.6174 Z-0.9988
N360 X1.255 Y0.6203 Z-0.9973
N365 X1.257 Y0.623 Z-0.9952
N370 X1.2588 Y0.6254 Z-0.9927
N375 X1.2603 Y0.6275 Z-0.9897
N380 X1.2615 Y0.6292 Z-0.9863
N385 X1.2624 Y0.6304 Z-0.9827
N390 X1.2629 Y0.6311 Z-0.9789
N395 X1.2631 Y0.6314 Z-0.975
N400 G0 Z0.6
(2D ADAPTIVE1 2)
N405 G0 X1.6125 Y1.038
N410 Z0.6
N415 Z0.2
N420 Z-0.9
N425 G3 X1.3875 Y0.962 Z-0.913 I-0.1125 J-0.038 F10.
N430 X1.6125 Y1.038 Z-0.9261 I0.1125 J0.038
N435 X1.3875 Y0.962 Z-0.9391 I-0.1125 J-0.038
N440 X1.6125 Y1.038 Z-0.9521 I0.1125 J0.038
N445 X1.3875 Y0.962 Z-0.9651 I-0.1125 J-0.038
N450 X1.6125 Y1.038 Z-0.9782 I0.1125 J0.038
N455 X1.3875 Y0.962 Z-0.9912 I-0.1125 J-0.038
N460 X1.6125 Y1.038 Z-1.0042 I0.1125 J0.038
N465 X1.3875 Y0.962 Z-1.0172 I-0.1125 J-0.038
N470 X1.6125 Y1.038 Z-1.0303 I0.1125 J0.038
N475 X1.3875 Y0.962 Z-1.0433 I-0.1125 J-0.038
N480 X1.6125 Y1.038 Z-1.0563 I0.1125 J0.038
N485 X1.3875 Y0.962 Z-1.0694 I-0.1125 J-0.038
N490 X1.6125 Y1.038 Z-1.0824 I0.1125 J0.038
N495 X1.3875 Y0.962 Z-1.0954 I-0.1125 J-0.038
N500 X1.6125 Y1.038 Z-1.1084 I0.1125 J0.038
N505 X1.3875 Y0.962 Z-1.1215 I-0.1125 J-0.038
N510 X1.6125 Y1.038 Z-1.1345 I0.1125 J0.038
N515 X1.3875 Y0.962 Z-1.1475 I-0.1125 J-0.038
N520 X1.6125 Y1.038 Z-1.1606 I0.1125 J0.038
N525 X1.3875 Y0.962 Z-1.1736 I-0.1125 J-0.038
N530 X1.6125 Y1.038 Z-1.1866 I0.1125 J0.038
N535 X1.3875 Y0.962 Z-1.1996 I-0.1125 J-0.038
N540 X1.6125 Y1.038 Z-1.2127 I0.1125 J0.038
N545 X1.3875 Y0.962 Z-1.2257 I-0.1125 J-0.038
N550 X1.6125 Y1.038 Z-1.2387 I0.1125 J0.038
N555 X1.3875 Y0.962 Z-1.2517 I-0.1125 J-0.038
N560 X1.6125 Y1.038 Z-1.2648 I0.1125 J0.038
N565 X1.3875 Y0.962 Z-1.2778 I-0.1125 J-0.038
N570 X1.6125 Y1.038 Z-1.2908 I0.1125 J0.038
N575 X1.3875 Y0.962 Z-1.3039 I-0.1125 J-0.038
N580 X1.6125 Y1.038 Z-1.3169 I0.1125 J0.038
N585 X1.3875 Y0.962 Z-1.3299 I-0.1125 J-0.038
N590 X1.6125 Y1.038 Z-1.3429 I0.1125 J0.038
N595 X1.3875 Y0.962 Z-1.356 I-0.1125 J-0.038
N600 X1.6125 Y1.038 Z-1.369 I0.1125 J0.038
N605 X1.3875 Y0.962 Z-1.382 I-0.1125 J-0.038
N610 X1.6187 Y1. Z-1.3937 I0.1125 J0.038
N615 X1.3812 I-0.1188 J0.
N620 X1.6187 I0.1188 J0.
N625 G1 X1.6189 Y1.0097 F15.
N630 X1.626 Y1.0481
N635 X1.6278 Y1.0538
N640 X1.6289 Y1.0597
N645 X1.6295 Y1.0657
N650 Y1.0717
N655 X1.629 Y1.0782
N660 X1.6279 Y1.0851
N665 X1.6262 Y1.0924
N670 X1.6237 Y1.0999
N675 X1.6205 Y1.1076
N680 X1.6165 Y1.1154
N685 X1.6116 Y1.1233
N690 X1.6058 Y1.131
N695 X1.5992 Y1.1386
N700 X1.5917 Y1.146
N705 X1.5833 Y1.1529
N710 X1.5741 Y1.1594
N715 X1.564 Y1.1653
N720 X1.5533 Y1.1705
N725 X1.5419 Y1.1749
N730 X1.5298 Y1.1785
N735 X1.5173 Y1.1812
N740 X1.5043 Y1.1829
N745 X1.491 Y1.1836
N750 X1.4775 Y1.1832
N755 X1.4638 Y1.1816
N760 X1.4502 Y1.179
N765 X1.4367 Y1.1752
N770 X1.4233 Y1.1703
N775 X1.4103 Y1.1643
N780 X1.3978 Y1.1572
N785 X1.3857 Y1.1491
N790 X1.3743 Y1.14
N795 X1.3636 Y1.1299
N800 X1.3536 Y1.119
N805 X1.3446 Y1.1072
N810 X1.3365 Y1.0948
N815 X1.3294 Y1.0816
N820 X1.3233 Y1.0679
N825 X1.3184 Y1.0537
N830 X1.3146 Y1.0392
N835 X1.312 Y1.0243
N840 X1.3106 Y1.0093
N845 X1.3104 Y0.9942
N850 X1.3114 Y0.9791
N855 X1.3136 Y0.9641
N860 X1.317 Y0.9493
N865 X1.3216 Y0.9348
N870 X1.3274 Y0.9208
N875 X1.3343 Y0.9072
N880 X1.3422 Y0.8942
N885 X1.3512 Y0.8819
N890 X1.3611 Y0.8703
N895 X1.3719 Y0.8596
N900 X1.3836 Y0.8498
N905 X1.396 Y0.8409
N910 X1.409 Y0.8331
N915 X1.4227 Y0.8263
N920 X1.4369 Y0.8207
N925 X1.4515 Y0.8162
N930 X1.4664 Y0.8129
N935 X1.4815 Y0.8108
N940 X1.4967 Y0.8099
N945 X1.512 Y0.8102
N950 X1.5272 Y0.8118
N955 X1.5422 Y0.8146
N960 X1.5569 Y0.8186
N965 X1.5713 Y0.8237
N970 X1.5852 Y0.83
N975 X1.5986 Y0.8374
N980 X1.6113 Y0.8458
N985 X1.6233 Y0.8553
N990 X1.6345 Y0.8656
N995 X1.6449 Y0.8768
N1000 X1.6543 Y0.8889
N1005 X1.6627 Y0.9016
N1010 X1.6773 Y0.928
N1015 X1.6897 Y0.9555
N1020 X1.6976 Y0.9776
N1025 X1.7029 Y0.9975
N1030 X1.7063 Y1.016
N1035 X1.7082 Y1.034
N1040 X1.7085 Y1.0513
N1045 X1.7075 Y1.0682
N1050 X1.7052 Y1.0847
N1055 X1.7017 Y1.1008
N1060 X1.6968 Y1.1165
N1065 X1.6907 Y1.1318
N1070 X1.6833 Y1.1466
N1075 X1.6748 Y1.1609
N1080 X1.665 Y1.1746
N1085 X1.654 Y1.1875
N1090 X1.6419 Y1.1997
N1095 X1.6288 Y1.211
N1100 X1.6145 Y1.2214
N1105 X1.5993 Y1.2307
N1110 X1.5831 Y1.2388
N1115 X1.5661 Y1.2458
N1120 X1.5484 Y1.2514
N1125 X1.53 Y1.2556
N1130 X1.5111 Y1.2584
N1135 X1.4919 Y1.2597
N1140 X1.4724 Y1.2594
N1145 X1.4528 Y1.2576
N1150 X1.4332 Y1.2541
N1155 X1.4139 Y1.249
N1160 X1.3948 Y1.2424
N1165 X1.3763 Y1.2342
N1170 X1.3583 Y1.2245
N1175 X1.341 Y1.2133
N1180 X1.3247 Y1.2006
N1185 X1.3093 Y1.1867
N1190 X1.295 Y1.1714
N1195 X1.282 Y1.155
N1200 X1.2702 Y1.1376
N1205 X1.2599 Y1.1192
N1210 X1.251 Y1.0999
N1215 X1.2437 Y1.08
N1220 X1.238 Y1.0595
N1225 X1.234 Y1.0385
N1230 X1.2316 Y1.0173
N1235 X1.231 Y0.9959
N1240 X1.232 Y0.9745
N1245 X1.2348 Y0.9532
N1250 X1.2393 Y0.9322
N1255 X1.2455 Y0.9115
N1260 X1.2534 Y0.8915
N1265 X1.2628 Y0.8721
N1270 X1.2737 Y0.8535
N1275 X1.2861 Y0.8358
N1280 X1.2999 Y0.8192
N1285 X1.315 Y0.8038
N1290 X1.3313 Y0.7896
N1295 X1.3487 Y0.7767
N1300 X1.3671 Y0.7653
N1305 X1.3863 Y0.7554
N1310 X1.4063 Y0.747
N1315 X1.4269 Y0.7403
N1320 X1.4479 Y0.7353
N1325 X1.4693 Y0.7319
N1330 X1.4909 Y0.7303
N1335 X1.5126 Y0.7305
N1340 X1.5342 Y0.7323
N1345 X1.5555 Y0.7359
N1350 X1.5765 Y0.7412
N1355 X1.597 Y0.7482
N1360 X1.6169 Y0.7568
N1365 X1.6361 Y0.767
N1370 X1.6543 Y0.7786
N1375 X1.6716 Y0.7917
N1380 X1.6899 Y0.8081
N1385 X1.7082 Y0.8273
N1390 X1.7254 Y0.8485
N1395 X1.7411 Y0.8715
N1400 X1.7549 Y0.8955
N1405 X1.7664 Y0.9199
N1410 X1.7757 Y0.9446
N1415 X1.7828 Y0.9694
N1420 X1.7877 Y0.9941
N1425 X1.7907 Y1.0187
N1430 X1.7916 Y1.0431
N1435 X1.7906 Y1.0672
N1440 X1.7877 Y1.091
N1445 X1.7829 Y1.1143
N1450 X1.7762 Y1.1371
N1455 X1.7678 Y1.1592
N1460 X1.7576 Y1.1806
N1465 X1.7458 Y1.2012
N1470 X1.7322 Y1.2208
N1475 X1.7171 Y1.2393
N1480 X1.7004 Y1.2567
N1485 X1.6823 Y1.2728
N1490 X1.6627 Y1.2874
N1495 X1.6419 Y1.3006
N1500 X1.6199 Y1.3122
N1505 X1.5969 Y1.322
N1510 X1.5729 Y1.3301
N1515 X1.5482 Y1.3362
N1520 X1.5229 Y1.3404
N1525 X1.4971 Y1.3425
N1530 X1.4711
N1535 X1.4449 Y1.3405
N1540 X1.4189 Y1.3363
N1545 X1.393 Y1.33
N1550 X1.3677 Y1.3216
N1555 X1.3429 Y1.3112
N1560 X1.3189 Y1.2987
N1565 X1.2959 Y1.2843
N1570 X1.274 Y1.268
N1575 X1.2535 Y1.2499
N1580 X1.2343 Y1.2301
N1585 X1.2167 Y1.2088
N1590 X1.2009 Y1.1861
N1595 X1.1869 Y1.162
N1600 X1.1748 Y1.1369
N1605 X1.1647 Y1.1108
N1610 X1.1568 Y1.084
N1615 X1.151 Y1.0565
N1620 X1.1475 Y1.0286
N1625 X1.1462 Y1.0004
N1630 X1.1471 Y0.9722
N1635 X1.1503 Y0.9442
N1640 X1.1558 Y0.9164
N1645 X1.1635 Y0.8892
N1650 X1.1734 Y0.8626
N1655 X1.1853 Y0.8369
N1660 X1.1993 Y0.8123
N1665 X1.2153 Y0.7888
N1670 X1.233 Y0.7666
N1675 X1.2526 Y0.746
N1680 X1.2737 Y0.7269
N1685 X1.2963 Y0.7097
N1690 X1.3202 Y0.6943
N1695 X1.3452 Y0.6808
N1700 X1.3713 Y0.6694
N1705 X1.3982 Y0.6601
N1710 X1.4258 Y0.6531
N1715 X1.4539 Y0.6482
N1720 X1.4822 Y0.6456
N1725 X1.5107 Y0.6453
N1730 X1.5391 Y0.6473
N1735 X1.5673 Y0.6516
N1740 X1.595 Y0.6581
N1745 X1.6221 Y0.6668
N1750 X1.6485 Y0.6777
N1755 X1.6745 Y0.691
N1760 X1.7002 Y0.7068
N1765 X1.7254 Y0.7252
N1770 X1.7496 Y0.7462
N1775 X1.7725 Y0.7695
N1780 X1.7937 Y0.7948
N1785 X1.8129 Y0.8218
N1790 X1.8298 Y0.8502
N1795 X1.8443 Y0.8796
N1800 X1.8562 Y0.9099
N1805 X1.8656 Y0.9408
N1810 X1.8725 Y0.9721
N1815 X1.8767 Y1.0036
N1820 X1.8785 Y1.0351
N1825 X1.8777 Y1.0664
N1830 X1.8744 Y1.0973
N1835 X1.8686 Y1.1278
N1840 X1.8605 Y1.1577
N1845 X1.8499 Y1.1867
N1850 X1.8371 Y1.2148
N1855 X1.8221 Y1.2419
N1860 X1.8049 Y1.2676
N1865 X1.7857 Y1.292
N1870 X1.7644 Y1.3149
N1875 X1.7413 Y1.336
N1880 X1.7165 Y1.3554
N1885 X1.69 Y1.3728
N1890 X1.662 Y1.3881
N1895 X1.6328 Y1.4011
N1900 X1.6024 Y1.4119
N1905 X1.571 Y1.4202
N1910 X1.5389 Y1.426
N1915 X1.5063 Y1.4293
N1920 X1.4733 Y1.4299
N1925 X1.4401 Y1.4278
N1930 X1.4071 Y1.4231
N1935 X1.3744 Y1.4157
N1940 X1.3423 Y1.4057
N1945 X1.3109 Y1.393
N1950 X1.2804 Y1.3778
N1955 X1.2512 Y1.3602
N1960 X1.2234 Y1.3401
N1965 X1.1972 Y1.3178
N1970 X1.1728 Y1.2934
N1975 X1.1503 Y1.2671
N1980 X1.13 Y1.2389
N1985 X1.112 Y1.2092
N1990 X1.0963 Y1.178
N1995 X1.0832 Y1.1455
N2000 X1.0727 Y1.1121
N2005 X1.0649 Y1.0778
N2010 X1.0599 Y1.043
N2015 X1.0577 Y1.0079
N2020 X1.0583 Y0.9726
N2025 X1.0618 Y0.9374
N2030 X1.068 Y0.9026
N2035 X1.0771 Y0.8684
N2040 X1.0888 Y0.835
N2045 X1.1033 Y0.8026
N2050 X1.1203 Y0.7715
N2055 X1.1397 Y0.7418
N2060 X1.1615 Y0.7138
N2065 X1.1855 Y0.6875
N2070 X1.2115 Y0.6633
N2075 X1.2393 Y0.6413
N2080 X1.2689 Y0.6215
N2085 X1.3 Y0.6042
N2090 X1.3323 Y0.5894
N2095 X1.3658 Y0.5772
N2100 X1.4001 Y0.5678
N2105 X1.4351 Y0.5612
N2110 X1.4705 Y0.5574
N2115 X1.5061 Y0.5564
N2120 X1.5416 Y0.5583
N2125 X1.5769 Y0.5631
N2130 X1.6119 Y0.5707
N2135 X1.6463 Y0.5811
N2140 X1.6802 Y0.5945
N2145 X1.7134 Y0.6107
N2150 X1.7457 Y0.6299
N2155 X1.7769 Y0.652
N2160 X1.8068 Y0.6769
N2165 X1.8346 Y0.7043
N2170 X1.8601 Y0.7337
N2175 X1.8833 Y0.7651
N2180 X1.9039 Y0.7982
N2185 X1.9176 Y0.8247
N2190 X1.9184 Y0.8262
N2195 X1.9191 Y0.8277
N2200 X1.9198 Y0.8293
N2205 X1.9317 Y0.8584
N2210 X1.9342 Y0.8673
N2215 X1.9469 Y0.9204
N2220 X1.9482 Y0.9292
N2225 X1.9501 Y0.9469
N2230 X1.9511 Y0.9558
N2235 X1.9532 Y0.9823
N2240 X1.9533 Y0.9912
N2245 Y1.0088
N2250 X1.9532 Y1.0177
N2255 X1.9511 Y1.0442
N2260 X1.9501 Y1.0531
N2265 X1.9482 Y1.0708
N2270 X1.9469 Y1.0798
N2275 X1.9342 Y1.1327
N2280 X1.9317 Y1.1416
N2285 X1.9203 Y1.1693
N2290 X1.9098 Y1.1947
N2295 X1.9061 Y1.2035
N2300 X1.9026 Y1.2095
N2305 X1.8904 Y1.2301
N2310 X1.8796 Y1.2478
N2315 X1.8742 Y1.2566
N2320 X1.8683 Y1.2655
N2325 X1.8465 Y1.292
N2330 X1.8407 Y1.2987
N2335 X1.8229 Y1.3186
N2340 X1.8144 Y1.3274
N2345 X1.7833 Y1.354
N2350 X1.7787 Y1.3576
N2355 X1.7522 Y1.3767
N2360 X1.7463 Y1.3805
N2365 X1.7257 Y1.3932
N2370 X1.7172 Y1.3982
N2375 X1.6903 Y1.4115
N2380 X1.6814 Y1.4153
N2385 X1.6587 Y1.4248
N2390 X1.6549 Y1.4262
N2395 X1.6283 Y1.4349
N2400 X1.6195 Y1.4373
N2405 X1.5929 Y1.4437
N2410 X1.5752 Y1.4478
N2415 X1.5664 Y1.4493
N2420 X1.5044 Y1.4542
N2425 X1.4956
N2430 X1.4336 Y1.4493
N2435 X1.4248 Y1.4478
N2440 X1.4071 Y1.4437
N2445 X1.3805 Y1.4373
N2450 X1.3717 Y1.4349
N2455 X1.3451 Y1.4262
N2460 X1.3413 Y1.4248
N2465 X1.3186 Y1.4153
N2470 X1.3097 Y1.4115
N2475 X1.2828 Y1.3982
N2480 X1.2743 Y1.3932
N2485 X1.2537 Y1.3805
N2490 X1.2478 Y1.3767
N2495 X1.2213 Y1.3576
N2500 X1.2167 Y1.354
N2505 X1.1856 Y1.3274
N2510 X1.177 Y1.3185
N2515 X1.1593 Y1.2987
N2520 X1.1535 Y1.292
N2525 X1.1317 Y1.2655
N2530 X1.1258 Y1.2566
N2535 X1.1149 Y1.2389
N2540 X1.1096 Y1.2301
N2545 X1.0974 Y1.2095
N2550 X1.0939 Y1.2035
N2555 X1.0885 Y1.1907
N2560 X1.0792 Y1.1681
N2565 X1.0683 Y1.1416
N2570 X1.0658 Y1.1327
N2575 X1.0531 Y1.0796
N2580 X1.0518 Y1.0708
N2585 X1.0499 Y1.0531
N2590 X1.0489 Y1.0442
N2595 X1.0468 Y1.0177
N2600 X1.0467 Y1.0088
N2605 Y0.9912
N2610 X1.0468 Y0.9823
N2615 X1.0489 Y0.9558
N2620 X1.0499 Y0.9469
N2625 X1.0518 Y0.9292
N2630 X1.0531 Y0.9202
N2635 X1.0658 Y0.8673
N2640 X1.0683 Y0.8584
N2645 X1.0797 Y0.8307
N2650 X1.0902 Y0.8053
N2655 X1.0939 Y0.7965
N2660 X1.0974 Y0.7905
N2665 X1.1096 Y0.7699
N2670 X1.1204 Y0.7522
N2675 X1.1258 Y0.7434
N2680 X1.1317 Y0.7345
N2685 X1.1535 Y0.708
N2690 X1.1593 Y0.7013
N2695 X1.1771 Y0.6814
N2700 X1.1856 Y0.6726
N2705 X1.2167 Y0.646
N2710 X1.2213 Y0.6424
N2715 X1.2478 Y0.6233
N2720 X1.2537 Y0.6195
N2725 X1.2743 Y0.6068
N2730 X1.2828 Y0.6018
N2735 X1.3097 Y0.5885
N2740 X1.3186 Y0.5847
N2745 X1.3413 Y0.5752
N2750 X1.3451 Y0.5738
N2755 X1.3717 Y0.5651
N2760 X1.3805 Y0.5627
N2765 X1.4071 Y0.5563
N2770 X1.4248 Y0.5522
N2775 X1.4336 Y0.5507
N2780 X1.4956 Y0.5458
N2785 X1.5044
N2790 X1.5664 Y0.5507
N2795 X1.5752 Y0.5522
N2800 X1.5929 Y0.5563
N2805 X1.6195 Y0.5627
N2810 X1.6283 Y0.5651
N2815 X1.6549 Y0.5738
N2820 X1.6587 Y0.5752
N2825 X1.6814 Y0.5847
N2830 X1.6903 Y0.5885
N2835 X1.7172 Y0.6018
N2840 X1.7257 Y0.6068
N2845 X1.7463 Y0.6195
N2850 X1.7522 Y0.6233
N2855 X1.7787 Y0.6424
N2860 X1.7833 Y0.646
N2865 X1.8144 Y0.6726
N2870 X1.823 Y0.6815
N2875 X1.8407 Y0.7013
N2880 X1.8465 Y0.708
N2885 X1.8683 Y0.7345
N2890 X1.8742 Y0.7434
N2895 X1.8851 Y0.7611
N2900 X1.8904 Y0.7699
N2905 X1.9026 Y0.7905
N2910 X1.9061 Y0.7965
N2915 X1.9115 Y0.8093
N2920 X1.9198 Y0.8293
N2925 X1.9206 Y0.8321
N2930 X1.9212 Y0.835
N2935 X1.9213 Y0.838 Z-1.3935
N2940 X1.9208 Y0.841 Z-1.393
N2945 X1.9203 Y0.8439 Z-1.392
N2950 X1.9198 Y0.8467 Z-1.3907
N2955 X1.9185 Y0.8489 Z-1.3891
N2960 X1.9173 Y0.8509 Z-1.3873
N2965 X1.9163 Y0.8527 Z-1.3851
N2970 X1.9153 Y0.8542 Z-1.3827
N2975 X1.914 Y0.8555 Z-1.3795
N2980 X1.9131 Y0.8565 Z-1.3761
N2985 X1.9125 Y0.8571 Z-1.3724
N2990 X1.9123 Y0.8573 Z-1.3687
N2995 G0 Z0.2
N3000 X1.6032 Y1.0587
N3005 Z-1.2937
N3010 G3 X1.3968 Y0.9413 Z-1.3067 I-0.1032 J-0.0587 F10.
N3015 X1.6032 Y1.0587 Z-1.3198 I0.1032 J0.0587
N3020 X1.3968 Y0.9413 Z-1.3328 I-0.1032 J-0.0587
N3025 X1.6032 Y1.0587 Z-1.3458 I0.1032 J0.0587
N3030 X1.3968 Y0.9413 Z-1.3588 I-0.1032 J-0.0587
N3035 X1.6032 Y1.0587 Z-1.3719 I0.1032 J0.0587
N3040 X1.3968 Y0.9413 Z-1.3849 I-0.1032 J-0.0587
N3045 X1.6032 Y1.0587 Z-1.3979 I0.1032 J0.0587
N3050 X1.3968 Y0.9413 Z-1.4109 I-0.1032 J-0.0587
N3055 X1.6032 Y1.0587 Z-1.424 I0.1032 J0.0587
N3060 X1.3968 Y0.9413 Z-1.437 I-0.1032 J-0.0587
N3065 X1.6032 Y1.0587 Z-1.45 I0.1032 J0.0587
N3070 X1.3968 Y0.9413 Z-1.4631 I-0.1032 J-0.0587
N3075 X1.6032 Y1.0587 Z-1.4761 I0.1032 J0.0587
N3080 X1.3968 Y0.9413 Z-1.4891 I-0.1032 J-0.0587
N3085 X1.6187 Y1. Z-1.5 I0.1032 J0.0587
N3090 X1.3812 I-0.1188 J0.
N3095 X1.6187 I0.1188 J0.
N3100 G1 X1.6189 Y1.0097 F15.
N3105 X1.626 Y1.0481
N3110 X1.6278 Y1.0538
N3115 X1.6289 Y1.0597
N3120 X1.6295 Y1.0657
N3125 Y1.0717
N3130 X1.629 Y1.0782
N3135 X1.6279 Y1.0851
N3140 X1.6262 Y1.0924
N3145 X1.6237 Y1.0999
N3150 X1.6205 Y1.1076
N3155 X1.6165 Y1.1154
N3160 X1.6116 Y1.1233
N3165 X1.6058 Y1.131
N3170 X1.5992 Y1.1386
N3175 X1.5917 Y1.146
N3180 X1.5833 Y1.1529
N3185 X1.5741 Y1.1594
N3190 X1.564 Y1.1653
N3195 X1.5533 Y1.1705
N3200 X1.5419 Y1.1749
N3205 X1.5298 Y1.1785
N3210 X1.5173 Y1.1812
N3215 X1.5043 Y1.1829
N3220 X1.491 Y1.1836
N3225 X1.4775 Y1.1832
N3230 X1.4638 Y1.1816
N3235 X1.4502 Y1.179
N3240 X1.4367 Y1.1752
N3245 X1.4233 Y1.1703
N3250 X1.4103 Y1.1643
N3255 X1.3978 Y1.1572
N3260 X1.3857 Y1.1491
N3265 X1.3743 Y1.14
N3270 X1.3636 Y1.1299
N3275 X1.3536 Y1.119
N3280 X1.3446 Y1.1072
N3285 X1.3365 Y1.0948
N3290 X1.3294 Y1.0816
N3295 X1.3233 Y1.0679
N3300 X1.3184 Y1.0537
N3305 X1.3146 Y1.0392
N3310 X1.312 Y1.0243
N3315 X1.3106 Y1.0093
N3320 X1.3104 Y0.9942
N3325 X1.3114 Y0.9791
N3330 X1.3136 Y0.9641
N3335 X1.317 Y0.9493
N3340 X1.3216 Y0.9348
N3345 X1.3274 Y0.9208
N3350 X1.3343 Y0.9072
N3355 X1.3422 Y0.8942
N3360 X1.3512 Y0.8819
N3365 X1.3611 Y0.8703
N3370 X1.3719 Y0.8596
N3375 X1.3836 Y0.8498
N3380 X1.396 Y0.8409
N3385 X1.409 Y0.8331
N3390 X1.4227 Y0.8263
N3395 X1.4369 Y0.8207
N3400 X1.4515 Y0.8162
N3405 X1.4664 Y0.8129
N3410 X1.4815 Y0.8108
N3415 X1.4967 Y0.8099
N3420 X1.512 Y0.8102
N3425 X1.5272 Y0.8118
N3430 X1.5422 Y0.8146
N3435 X1.5569 Y0.8186
N3440 X1.5713 Y0.8237
N3445 X1.5852 Y0.83
N3450 X1.5986 Y0.8374
N3455 X1.6113 Y0.8458
N3460 X1.6233 Y0.8553
N3465 X1.6345 Y0.8656
N3470 X1.6449 Y0.8768
N3475 X1.6543 Y0.8889
N3480 X1.6627 Y0.9016
N3485 X1.6773 Y0.928
N3490 X1.6897 Y0.9555
N3495 X1.6976 Y0.9776
N3500 X1.7029 Y0.9975
N3505 X1.7063 Y1.016
N3510 X1.7082 Y1.034
N3515 X1.7085 Y1.0513
N3520 X1.7075 Y1.0682
N3525 X1.7052 Y1.0847
N3530 X1.7017 Y1.1008
N3535 X1.6968 Y1.1165
N3540 X1.6907 Y1.1318
N3545 X1.6833 Y1.1466
N3550 X1.6748 Y1.1609
N3555 X1.665 Y1.1746
N3560 X1.654 Y1.1875
N3565 X1.6419 Y1.1997
N3570 X1.6288 Y1.211
N3575 X1.6145 Y1.2214
N3580 X1.5993 Y1.2307
N3585 X1.5831 Y1.2388
N3590 X1.5661 Y1.2458
N3595 X1.5484 Y1.2514
N3600 X1.53 Y1.2556
N3605 X1.5111 Y1.2584
N3610 X1.4919 Y1.2597
N3615 X1.4724 Y1.2594
N3620 X1.4528 Y1.2576
N3625 X1.4332 Y1.2541
N3630 X1.4139 Y1.249
N3635 X1.3948 Y1.2424
N3640 X1.3763 Y1.2342
N3645 X1.3583 Y1.2245
N3650 X1.341 Y1.2133
N3655 X1.3247 Y1.2006
N3660 X1.3093 Y1.1867
N3665 X1.295 Y1.1714
N3670 X1.282 Y1.155
N3675 X1.2702 Y1.1376
N3680 X1.2599 Y1.1192
N3685 X1.251 Y1.0999
N3690 X1.2437 Y1.08
N3695 X1.238 Y1.0595
N3700 X1.234 Y1.0385
N3705 X1.2316 Y1.0173
N3710 X1.231 Y0.9959
N3715 X1.232 Y0.9745
N3720 X1.2348 Y0.9532
N3725 X1.2393 Y0.9322
N3730 X1.2455 Y0.9115
N3735 X1.2534 Y0.8915
N3740 X1.2628 Y0.8721
N3745 X1.2737 Y0.8535
N3750 X1.2861 Y0.8358
N3755 X1.2999 Y0.8192
N3760 X1.315 Y0.8038
N3765 X1.3313 Y0.7896
N3770 X1.3487 Y0.7767
N3775 X1.3671 Y0.7653
N3780 X1.3863 Y0.7554
N3785 X1.4063 Y0.747
N3790 X1.4269 Y0.7403
N3795 X1.4479 Y0.7353
N3800 X1.4693 Y0.7319
N3805 X1.4909 Y0.7303
N3810 X1.5126 Y0.7305
N3815 X1.5342 Y0.7323
N3820 X1.5555 Y0.7359
N3825 X1.5765 Y0.7412
N3830 X1.597 Y0.7482
N3835 X1.6169 Y0.7568
N3840 X1.6361 Y0.767
N3845 X1.6543 Y0.7786
N3850 X1.6716 Y0.7917
N3855 X1.6899 Y0.8081
N3860 X1.7082 Y0.8273
N3865 X1.7254 Y0.8485
N3870 X1.7411 Y0.8715
N3875 X1.7549 Y0.8955
N3880 X1.7664 Y0.9199
N3885 X1.7757 Y0.9446
N3890 X1.7828 Y0.9694
N3895 X1.7877 Y0.9941
N3900 X1.7907 Y1.0187
N3905 X1.7916 Y1.0431
N3910 X1.7906 Y1.0672
N3915 X1.7877 Y1.091
N3920 X1.7829 Y1.1143
N3925 X1.7762 Y1.1371
N3930 X1.7678 Y1.1592
N3935 X1.7576 Y1.1806
N3940 X1.7458 Y1.2012
N3945 X1.7322 Y1.2208
N3950 X1.7171 Y1.2393
N3955 X1.7004 Y1.2567
N3960 X1.6823 Y1.2728
N3965 X1.6627 Y1.2874
N3970 X1.6419 Y1.3006
N3975 X1.6199 Y1.3122
N3980 X1.5969 Y1.322
N3985 X1.5729 Y1.3301
N3990 X1.5482 Y1.3362
N3995 X1.5229 Y1.3404
N4000 X1.4971 Y1.3425
N4005 X1.4711
N4010 X1.4449 Y1.3405
N4015 X1.4189 Y1.3363
N4020 X1.393 Y1.33
N4025 X1.3677 Y1.3216
N4030 X1.3429 Y1.3112
N4035 X1.3189 Y1.2987
N4040 X1.2959 Y1.2843
N4045 X1.274 Y1.268
N4050 X1.2535 Y1.2499
N4055 X1.2343 Y1.2301
N4060 X1.2167 Y1.2088
N4065 X1.2009 Y1.1861
N4070 X1.1869 Y1.162
N4075 X1.1748 Y1.1369
N4080 X1.1647 Y1.1108
N4085 X1.1568 Y1.084
N4090 X1.151 Y1.0565
N4095 X1.1475 Y1.0286
N4100 X1.1462 Y1.0004
N4105 X1.1471 Y0.9722
N4110 X1.1503 Y0.9442
N4115 X1.1558 Y0.9164
N4120 X1.1635 Y0.8892
N4125 X1.1734 Y0.8626
N4130 X1.1853 Y0.8369
N4135 X1.1993 Y0.8123
N4140 X1.2153 Y0.7888
N4145 X1.233 Y0.7666
N4150 X1.2526 Y0.746
N4155 X1.2737 Y0.7269
N4160 X1.2963 Y0.7097
N4165 X1.3202 Y0.6943
N4170 X1.3452 Y0.6808
N4175 X1.3713 Y0.6694
N4180 X1.3982 Y0.6601
N4185 X1.4258 Y0.6531
N4190 X1.4539 Y0.6482
N4195 X1.4822 Y0.6456
N4200 X1.5107 Y0.6453
N4205 X1.5391 Y0.6473
N4210 X1.5673 Y0.6516
N4215 X1.595 Y0.6581
N4220 X1.6221 Y0.6668
N4225 X1.6485 Y0.6777
N4230 X1.6745 Y0.691
N4235 X1.7002 Y0.7068
N4240 X1.7254 Y0.7252
N4245 X1.7496 Y0.7462
N4250 X1.7725 Y0.7695
N4255 X1.7937 Y0.7948
N4260 X1.8129 Y0.8218
N4265 X1.8298 Y0.8502
N4270 X1.8443 Y0.8796
N4275 X1.8562 Y0.9099
N4280 X1.8656 Y0.9408
N4285 X1.8725 Y0.9721
N4290 X1.8767 Y1.0036
N4295 X1.8785 Y1.0351
N4300 X1.8777 Y1.0664
N4305 X1.8744 Y1.0973
N4310 X1.8686 Y1.1278
N4315 X1.8605 Y1.1577
N4320 X1.8499 Y1.1867
N4325 X1.8371 Y1.2148
N4330 X1.8221 Y1.2419
N4335 X1.8049 Y1.2676
N4340 X1.7857 Y1.292
N4345 X1.7644 Y1.3149
N4350 X1.7413 Y1.336
N4355 X1.7165 Y1.3554
N4360 X1.69 Y1.3728
N4365 X1.662 Y1.3881
N4370 X1.6328 Y1.4011
N4375 X1.6024 Y1.4119
N4380 X1.571 Y1.4202
N4385 X1.5389 Y1.426
N4390 X1.5063 Y1.4293
N4395 X1.4733 Y1.4299
N4400 X1.4401 Y1.4278
N4405 X1.4071 Y1.4231
N4410 X1.3744 Y1.4157
N4415 X1.3423 Y1.4057
N4420 X1.3109 Y1.393
N4425 X1.2804 Y1.3778
N4430 X1.2512 Y1.3602
N4435 X1.2234 Y1.3401
N4440 X1.1972 Y1.3178
N4445 X1.1728 Y1.2934
N4450 X1.1503 Y1.2671
N4455 X1.13 Y1.2389
N4460 X1.112 Y1.2092
N4465 X1.0963 Y1.178
N4470 X1.0832 Y1.1455
N4475 X1.0727 Y1.1121
N4480 X1.0649 Y1.0778
N4485 X1.0599 Y1.043
N4490 X1.0577 Y1.0079
N4495 X1.0583 Y0.9726
N4500 X1.0618 Y0.9374
N4505 X1.068 Y0.9026
N4510 X1.0771 Y0.8684
N4515 X1.0888 Y0.835
N4520 X1.1033 Y0.8026
N4525 X1.1203 Y0.7715
N4530 X1.1397 Y0.7418
N4535 X1.1615 Y0.7138
N4540 X1.1855 Y0.6875
N4545 X1.2115 Y0.6633
N4550 X1.2393 Y0.6413
N4555 X1.2689 Y0.6215
N4560 X1.3 Y0.6042
N4565 X1.3323 Y0.5894
N4570 X1.3658 Y0.5772
N4575 X1.4001 Y0.5678
N4580 X1.4351 Y0.5612
N4585 X1.4705 Y0.5574
N4590 X1.5061 Y0.5564
N4595 X1.5416 Y0.5583
N4600 X1.5769 Y0.5631
N4605 X1.6119 Y0.5707
N4610 X1.6463 Y0.5811
N4615 X1.6802 Y0.5945
N4620 X1.7134 Y0.6107
N4625 X1.7457 Y0.6299
N4630 X1.7769 Y0.652
N4635 X1.8068 Y0.6769
N4640 X1.8346 Y0.7043
N4645 X1.8601 Y0.7337
N4650 X1.8833 Y0.7651
N4655 X1.9039 Y0.7982
N4660 X1.9176 Y0.8247
N4665 X1.9184 Y0.8262
N4670 X1.9191 Y0.8277
N4675 X1.9198 Y0.8293
N4680 X1.9317 Y0.8584
N4685 X1.9342 Y0.8673
N4690 X1.9469 Y0.9204
N4695 X1.9482 Y0.9292
N4700 X1.9501 Y0.9469
N4705 X1.9511 Y0.9558
N4710 X1.9532 Y0.9823
N4715 X1.9533 Y0.9912
N4720 Y1.0088
N4725 X1.9532 Y1.0177
N4730 X1.9511 Y1.0442
N4735 X1.9501 Y1.0531
N4740 X1.9482 Y1.0708
N4745 X1.9469 Y1.0798
N4750 X1.9342 Y1.1327
N4755 X1.9317 Y1.1416
N4760 X1.9203 Y1.1693
N4765 X1.9098 Y1.1947
N4770 X1.9061 Y1.2035
N4775 X1.9026 Y1.2095
N4780 X1.8904 Y1.2301
N4785 X1.8796 Y1.2478
N4790 X1.8742 Y1.2566
N4795 X1.8683 Y1.2655
N4800 X1.8465 Y1.292
N4805 X1.8407 Y1.2987
N4810 X1.8229 Y1.3186
N4815 X1.8144 Y1.3274
N4820 X1.7833 Y1.354
N4825 X1.7787 Y1.3576
N4830 X1.7522 Y1.3767
N4835 X1.7463 Y1.3805
N4840 X1.7257 Y1.3932
N4845 X1.7172 Y1.3982
N4850 X1.6903 Y1.4115
N4855 X1.6814 Y1.4153
N4860 X1.6587 Y1.4248
N4865 X1.6549 Y1.4262
N4870 X1.6283 Y1.4349
N4875 X1.6195 Y1.4373
N4880 X1.5929 Y1.4437
N4885 X1.5752 Y1.4478
N4890 X1.5664 Y1.4493
N4895 X1.5044 Y1.4542
N4900 X1.4956
N4905 X1.4336 Y1.4493
N4910 X1.4248 Y1.4478
N4915 X1.4071 Y1.4437
N4920 X1.3805 Y1.4373
N4925 X1.3717 Y1.4349
N4930 X1.3451 Y1.4262
N4935 X1.3413 Y1.4248
N4940 X1.3186 Y1.4153
N4945 X1.3097 Y1.4115
N4950 X1.2828 Y1.3982
N4955 X1.2743 Y1.3932
N4960 X1.2537 Y1.3805
N4965 X1.2478 Y1.3767
N4970 X1.2213 Y1.3576
N4975 X1.2167 Y1.354
N4980 X1.1856 Y1.3274
N4985 X1.177 Y1.3185
N4990 X1.1593 Y1.2987
N4995 X1.1535 Y1.292
N5000 X1.1317 Y1.2655
N5005 X1.1258 Y1.2566
N5010 X1.1149 Y1.2389
N5015 X1.1096 Y1.2301
N5020 X1.0974 Y1.2095
N5025 X1.0939 Y1.2035
N5030 X1.0885 Y1.1907
N5035 X1.0792 Y1.1681
N5040 X1.0683 Y1.1416
N5045 X1.0658 Y1.1327
N5050 X1.0531 Y1.0796
N5055 X1.0518 Y1.0708
N5060 X1.0499 Y1.0531
N5065 X1.0489 Y1.0442
N5070 X1.0468 Y1.0177
N5075 X1.0467 Y1.0088
N5080 Y0.9912
N5085 X1.0468 Y0.9823
N5090 X1.0489 Y0.9558
N5095 X1.0499 Y0.9469
N5100 X1.0518 Y0.9292
N5105 X1.0531 Y0.9202
N5110 X1.0658 Y0.8673
N5115 X1.0683 Y0.8584
N5120 X1.0797 Y0.8307
N5125 X1.0902 Y0.8053
N5130 X1.0939 Y0.7965
N5135 X1.0974 Y0.7905
N5140 X1.1096 Y0.7699
N5145 X1.1204 Y0.7522
N5150 X1.1258 Y0.7434
N5155 X1.1317 Y0.7345
N5160 X1.1535 Y0.708
N5165 X1.1593 Y0.7013
N5170 X1.1771 Y0.6814
N5175 X1.1856 Y0.6726
N5180 X1.2167 Y0.646
N5185 X1.2213 Y0.6424
N5190 X1.2478 Y0.6233
N5195 X1.2537 Y0.6195
N5200 X1.2743 Y0.6068
N5205 X1.2828 Y0.6018
N5210 X1.3097 Y0.5885
N5215 X1.3186 Y0.5847
N5220 X1.3413 Y0.5752
N5225 X1.3451 Y0.5738
N5230 X1.3717 Y0.5651
N5235 X1.3805 Y0.5627
N5240 X1.4071 Y0.5563
N5245 X1.4248 Y0.5522
N5250 X1.4336 Y0.5507
N5255 X1.4956 Y0.5458
N5260 X1.5044
N5265 X1.5664 Y0.5507
N5270 X1.5752 Y0.5522
N5275 X1.5929 Y0.5563
N5280 X1.6195 Y0.5627
N5285 X1.6283 Y0.5651
N5290 X1.6549 Y0.5738
N5295 X1.6587 Y0.5752
N5300 X1.6814 Y0.5847
N5305 X1.6903 Y0.5885
N5310 X1.7172 Y0.6018
N5315 X1.7257 Y0.6068
N5320 X1.7463 Y0.6195
N5325 X1.7522 Y0.6233
N5330 X1.7787 Y0.6424
N5335 X1.7833 Y0.646
N5340 X1.8144 Y0.6726
N5345 X1.823 Y0.6815
N5350 X1.8407 Y0.7013
N5355 X1.8465 Y0.708
N5360 X1.8683 Y0.7345
N5365 X1.8742 Y0.7434
N5370 X1.8851 Y0.7611
N5375 X1.8904 Y0.7699
N5380 X1.9026 Y0.7905
N5385 X1.9061 Y0.7965
N5390 X1.9115 Y0.8093
N5395 X1.9198 Y0.8293
N5400 G3 X1.9123 Y0.8573 I-0.0234 J0.0087
N5405 G1 X1.9093 Y0.8598 Z-1.4997
N5410 X1.9063 Y0.8622 Z-1.4988
N5415 X1.9035 Y0.8645 Z-1.4973
N5420 X1.9009 Y0.8666 Z-1.4952
N5425 X1.8986 Y0.8685 Z-1.4927
N5430 X1.8967 Y0.8702 Z-1.4897
N5435 X1.8951 Y0.8715 Z-1.4863
N5440 X1.8939 Y0.8724 Z-1.4827
N5445 X1.8932 Y0.873 Z-1.4789
N5450 X1.893 Y0.8732 Z-1.475
N5455 G0 Z0.6
N5460 G53 Z0.
N5465 M30
%
