%
(PCB FACE LONG SIDE)
(T3  D=0.25 CR=0. - ZMIN=-0.04 - FLAT END MILL)
N10 G90 G94 G17 G91.1
N15 G20
N20 G53 G0 Z0.
(FACE3)
N25 T3 M6
N30 S3000 M3
N35 G54
N40 G0 X-0.1 Y1.9627
N45 G43 Z0.6 H3
N50 G0 Z0.2
N55 G1 Z-0.015 F15.
N60 G18 G2 X-0.075 Z-0.04 I0.025 K0.
N65 G1 X-0.0625
N70 X5.6875
N75 G17 G2 Y1.7403 I0. J-0.1112
N80 G1 X-0.0625
N85 G3 Y1.518 I0. J-0.1112
N90 G1 X5.6875
N95 G2 Y1.2956 I0. J-0.1112
N100 G1 X-0.0625
N105 G3 Y1.0732 I0. J-0.1112
N110 G1 X5.6875
N115 G2 Y0.8508 I0. J-0.1112
N120 G1 X-0.0625
N125 G3 Y0.6284 I0. J-0.1112
N130 G1 X5.6875
N135 G2 Y0.406 I0. J-0.1112
N140 G1 X-0.0625
N145 G3 Y0.1836 I0. J-0.1112
N150 G1 X5.6875
N155 G18 G2 X5.7125 Z-0.015 I0. K0.025
N160 G0 Z0.6
N165 G17
N170 G53 G0 Z0.
N175 M30
%
