%
(PINEWOODDERBY)
(T1  D=0.625 CR=0. - ZMIN=-1.249606291 - FLAT END MILL)
(T2  D=0.24 CR=0. - ZMIN=-1.249606291 - FLAT END MILL)
(T3  D=0.25 CR=0.125 - ZMIN=-1.035041884 - BALL END MILL)
N10 G90 G94 G17 G91.1
N15 G20
N20 G53 G0 Z0.
(ADAPTIVE1)
N25 M9
N30 T1 M6
N35 T2
N40 S3000 M3
N45 G54
N50 M8
N55 G0 X4.952042347 Y-2.136772937
N60 G43 Z0.599999991 H1
N65 G0 Z0.199999997
N70 Z-0.26870078
N75 G1 Z-0.331200802 F15.
N80 X4.952331747 Y-2.136690342 Z-0.337326874
N85 X4.95319716 Y-2.13644336 Z-0.343393948
N90 X4.954630251 Y-2.136034369 Z-0.349343595
N95 X4.95661722 Y-2.135467307 Z-0.355118516
N100 X4.959138929 Y-2.134747637 Z-0.360663097
N105 X4.962171094 Y-2.133882288 Z-0.36592394
N110 X4.965684514 Y-2.132879595 Z-0.370850379
N115 X4.969645352 Y-2.131749214 Z-0.375394971
N120 X4.974015462 Y-2.130502032 Z-0.37951395
N125 X4.97875276 Y-2.129150058 Z-0.383167646
N130 X4.983811621 Y-2.127706313 Z-0.386320872
N135 X4.989143326 Y-2.126184702 Z-0.388943263
N140 X4.994696528 Y-2.124599879 Z-0.391009561
N145 X5.000417747 Y-2.122967105 Z-0.392499869
N150 X5.006251883 Y-2.121302106 Z-0.393399833
N155 X5.012142752 Y-2.119620916 Z-0.393700786
N160 G2 X5.350933526 Y-2.061440175 Z-0.393700787 I0.437886997 J-1.534353241
N165 G1 X5.353577982 Y-2.061368086
N170 X5.372300636 Y-2.060535911
N175 X5.391023891 Y-2.059558808
N180 X5.46591571 Y-2.054786682
N185 X5.488108838 Y-2.052497113
N190 X5.503361619 Y-2.050851687
N195 X5.522084874 Y-2.047616703
N200 X5.540808129 Y-2.044012415
N205 X5.596976693 Y-2.033017827
N210 X5.615699948 Y-2.029343402
N215 X5.634423203 Y-2.025547028
N220 X5.671869113 Y-2.015467666
N225 X5.690591767 Y-2.009024132
N230 X5.746760932 Y-1.989611228
N235 X5.765484187 Y-1.983007146
N240 X5.784206841 Y-1.976263542
N245 X5.802930096 Y-1.96871765
N250 X5.82295996 Y-1.95904499
N255 X5.840376005 Y-1.95041281
N260 X5.85909926 Y-1.94047207
N265 X5.911030807 Y-1.916145865
N270 X5.964631809 Y-1.895760514
N275 X6.019618117 Y-1.87947491
N280 X6.075457475 Y-1.866412876
N285 X6.131833294 Y-1.855906089
N290 X6.188551535 Y-1.847436109
N295 X6.245489045 Y-1.840596687
N300 X6.302568331 Y-1.835066277
N305 X6.35974013 Y-1.830589865
N310 X6.416972603 Y-1.82696335
N315 X6.474243525 Y-1.824023329
N320 X6.531540878 Y-1.821638543
N325 X6.588855053 Y-1.81970311
N330 X6.646180641 Y-1.818131574
N335 X6.703513438 Y-1.816855153
N340 X6.717733548 Y-1.81503401
N345 X6.773625772 Y-1.802199056
N350 X6.822136106 Y-1.771614345
N355 X6.863439965 Y-1.731832009
N360 X6.898199968 Y-1.686220394
N365 X6.92723492 Y-1.6367672
N370 X6.951358825 Y-1.584741187
N375 X6.971320205 Y-1.530980538
N380 X6.987783477 Y-1.476047696
N385 X7.001327154 Y-1.420323079
N390 X7.012444444 Y-1.364064104
N395 X7.021554061 Y-1.307445436
N400 X7.02900864 Y-1.250585196
N405 X7.035101943 Y-1.193562906
N410 X7.04007727 Y-1.136432332
N415 X7.044137669 Y-1.07922937
N420 X7.047448346 Y-1.021978198
N425 X7.05014747 Y-0.964694887
N430 X7.052346778 Y-0.907390249
N435 X7.054138784 Y-0.850071419
N440 X7.055598582 Y-0.792743127
N445 X7.056788047 Y-0.735408603
N450 X7.05775704 Y-0.678069948
N455 X7.058547012 Y-0.620728515
N460 X7.059190405 Y-0.56338528
N465 X7.059715451 Y-0.506040843
N470 X7.060143779 Y-0.448695581
N475 X7.06049401 Y-0.391349792
N480 X7.060779962 Y-0.334003666
N485 X7.06101365 Y-0.276657277
N490 X7.045034574 Y-0.221581628
N495 X7.013540193 Y-0.173657109
N500 X6.973193912 Y-0.132903884
N505 X6.927212092 Y-0.098635202
N510 X6.877510491 Y-0.070027376
N515 X6.825315821 Y-0.046270569
N520 X6.771440281 Y-0.026621898
N525 X6.716428742 Y-0.010423225
N530 X6.660650058 Y0.002896357
N535 X6.604354138 Y0.013825096
N540 X6.547710389 Y0.022776244
N545 X6.490832351 Y0.030096842
N550 X6.433798122 Y0.036076528
N555 X6.376659363 Y0.040955849
N560 X6.319450919 Y0.044933778
N565 X6.262195617 Y0.048174379
N570 X6.204909678 Y0.050812561
N575 X6.147602712 Y0.052959037
N580 X6.100442841 Y0.054395086
N585 X6.083971759 Y0.055950505
N590 X6.067832286 Y0.059586468
N595 X6.052285743 Y0.065244023
N600 X6.037583839 Y0.072831427
N605 X6.02396507 Y0.082225649
N610 X5.98163815 Y0.115592818
N615 X5.971436989 Y0.123534043
N620 X5.957547886 Y0.134283248
N625 X5.928690753 Y0.152973678
N630 X5.915267824 Y0.160636451
N635 X5.840376005 Y0.200412762
N640 X5.82165275 Y0.209676074
N645 X5.802930096 Y0.218717601
N650 X5.784206841 Y0.226263587
N655 X5.765484187 Y0.233007097
N660 X5.746760932 Y0.23961131
N665 X5.672951045 Y0.26511626
N670 X5.671869113 Y0.265467655
N675 X5.634423203 Y0.275547016
N680 X5.615699948 Y0.279343353
N685 X5.559530784 Y0.290366552
N690 X5.540808129 Y0.294012366
N695 X5.522084874 Y0.29761673
N700 X5.503361619 Y0.300851675
N705 X5.484638965 Y0.302871438
N710 X5.46591571 Y0.304786633
N715 X5.391023891 Y0.309558722
N720 X5.372300636 Y0.310535919
N725 X5.353577982 Y0.311368037
N730 X5.334854727 Y0.311878159
N735 X5.07273276 Y0.311879586
N740 G2 X5.043337364 Y0.320404871 I0.002181286 J0.062461913
N745 G1 X5.038050646 Y0.323499926 Z-0.393399843
N750 X5.032814841 Y0.326565175 Z-0.392499889
N755 X5.027680372 Y0.329571097 Z-0.391009589
N760 X5.022696686 Y0.332488745 Z-0.388943298
N765 X5.017911779 Y0.335290019 Z-0.386320915
N770 X5.013371733 Y0.337947941 Z-0.383167694
N775 X5.009120271 Y0.340436915 Z-0.379514001
N780 X5.005198336 Y0.34273297 Z-0.375395026
N785 X5.0016437 Y0.344813993 Z-0.370850434
N790 X4.998490595 Y0.346659944 Z-0.365923993
N795 X4.995769388 Y0.348253044 Z-0.360663146
N800 X4.993506285 Y0.34957795 Z-0.35511856
N805 X4.991723082 Y0.350621904 Z-0.34934363
N810 X4.990436951 Y0.351374851 Z-0.343393974
N815 X4.98966028 Y0.35182954 Z-0.337326888
N820 X4.989400548 Y0.351981591 Z-0.331200802
N825 G0 Z0.199999997
N830 X4.724391727 Y0.377573479
N835 Z-0.26870078
N840 G1 Z-0.331200802 F15.
N845 X4.724100433 Y0.377497834 Z-0.337326873
N850 X4.723229359 Y0.377271631 Z-0.343393946
N855 X4.721786892 Y0.376897048 Z-0.349343593
N860 X4.719786925 Y0.376377693 Z-0.355118514
N865 X4.717248718 Y0.375718567 Z-0.360663095
N870 X4.714196716 Y0.374926017 Z-0.365923937
N875 X4.710660312 Y0.374007678 Z-0.370850377
N880 X4.706673562 Y0.372972391 Z-0.375394969
N885 X4.702274861 Y0.371830129 Z-0.379513948
N890 X4.697506572 Y0.370591892 Z-0.383167644
N895 X4.692414615 Y0.369269604 Z-0.386320871
N900 X4.687048029 Y0.367876 Z-0.388943261
N905 X4.681458497 Y0.366424501 Z-0.391009561
N910 X4.67569985 Y0.364929086 Z-0.392499869
N915 X4.669827545 Y0.363404156 Z-0.393399833
N920 X4.663898138 Y0.361864398 Z-0.393700787
N925 G2 X4.32381247 Y0.311806333 I-0.401049937 J1.544391039
N930 G1 X4.211474441 Y0.311381742
N935 X4.174028231 Y0.311168704
N940 X4.080413158 Y0.310106052
N945 X4.042967248 Y0.309634077
N950 X4.005521339 Y0.309098612
N955 X3.949352174 Y0.308078218
N960 X3.911906265 Y0.307332643
N965 X3.837014146 Y0.305656392
N970 X3.818291191 Y0.305195756
N975 X3.799568236 Y0.304686009
N980 X3.780845282 Y0.303918677
N985 X3.743399072 Y0.300779662
N990 X3.612338089 Y0.288779867
N995 X3.574892179 Y0.285108258
N1000 X3.556169225 Y0.28309732
N1005 X3.537445969 Y0.281047821
N1010 X3.518723015 Y0.278646533
N1015 X3.50000006 Y0.275498751
N1020 X3.481277105 Y0.271905464
N1025 X3.446480158 Y0.26511626
N1030 X3.331492867 Y0.241688199
N1035 X3.312769912 Y0.237732778
N1040 X3.294046958 Y0.232926316
N1045 X3.275324003 Y0.227373172
N1050 X3.156987889 Y0.190354539
N1055 X3.14426302 Y0.186337242
N1060 X3.125539765 Y0.180363486
N1065 X3.10681681 Y0.174084573
N1070 X3.101122698 Y0.171664118
N1075 X3.047290111 Y0.151897115
N1080 X2.992656137 Y0.134467497
N1085 X2.937036049 Y0.120501687
N1090 X2.8807987 Y0.109275589
N1095 X2.82416967 Y0.100230119
N1100 X2.76728953 Y0.092928184
N1105 X2.71024749 Y0.0870251
N1110 X2.653100021 Y0.082247267
N1115 X2.595883767 Y0.078376452
N1120 X2.538623059 Y0.075237948
N1125 X2.481332614 Y0.072691436
N1130 X2.424023095 Y0.070623995
N1135 X2.366700811 Y0.068944547
N1140 X2.309370266 Y0.06757954
N1145 X2.252034165 Y0.066469509
N1150 X2.194694309 Y0.065566311
N1155 X2.1373522 Y0.064830963
N1160 X2.080008439 Y0.064231857
N1165 X2.022663777 Y0.063743371
N1170 X1.965318214 Y0.063344714
N1175 X1.907972351 Y0.063019015
N1180 X1.850626037 Y0.062752577
N1185 X1.735933109 Y0.062355103
N1190 X1.62123973 Y0.062086108
N1195 X1.449199286 Y0.061832239
N1200 X1.219812003 Y0.061646808
N1205 X1.105118323 Y0.061588973
N1210 X0.416956136 Y0.061404766
N1215 X0.302262438 Y0.061383426
N1220 X0.287955314 Y0.06046259
N1225 X0.273807762 Y0.058141388
N1230 X0.218402682 Y0.043344854
N1235 X0.171030826 Y0.011025066
N1240 X0.130787271 Y-0.029829773
N1245 X0.096965512 Y-0.076141226
N1250 X0.06874016 Y-0.126061064
N1255 X0.045305613 Y-0.178401151
N1260 X0.025925355 Y-0.232373974
N1265 X0.009948114 Y-0.287450186
N1270 X-0.003190375 Y-0.343271691
N1275 X-0.013972265 Y-0.399595884
N1280 X-0.022805389 Y-0.456258368
N1285 X-0.030032061 Y-0.513148045
N1290 X-0.035937863 Y-0.570190009
N1295 X-0.040759899 Y-0.627333761
N1300 X-0.044694243 Y-0.684545472
N1305 X-0.047902531 Y-0.741802501
N1310 X-0.050517663 Y-0.799089717
N1315 X-0.052648675 Y-0.856396983
N1320 X-0.05438486 Y-0.91371754
N1325 X-0.055799264 Y-0.971046958
N1330 X-0.056951543 Y-1.028382234
N1335 X-0.057890392 Y-1.085721339
N1340 X-0.058655514 Y-1.143063147
N1345 X-0.059279279 Y-1.200406608
N1350 X-0.059788039 Y-1.257751195
N1355 X-0.060203258 Y-1.315096457
N1360 X-0.060542404 Y-1.372442321
N1365 X-0.06093319 Y-1.458461792
N1370 X-0.051058709 Y-1.514952051
N1375 X-0.022490623 Y-1.56467663
N1380 X0.016067086 Y-1.607126101
N1385 X0.060885887 Y-1.642902404
N1390 X0.109812913 Y-1.672815638
N1395 X0.161486085 Y-1.697686263
N1400 X0.215009366 Y-1.718275566
N1405 X0.269782412 Y-1.735262983
N1410 X0.325399797 Y-1.749240395
N1415 X0.381586833 Y-1.760715575
N1420 X0.43815748 Y-1.770118954
N1425 X0.494985843 Y-1.777813078
N1430 X0.551986957 Y-1.78410072
N1435 X0.609103638 Y-1.78923344
N1440 X0.666297477 Y-1.793419996
N1445 X0.723542717 Y-1.796832047
N1450 X0.780822198 Y-1.799611369
N1455 X0.838124358 Y-1.801874056
N1460 X0.895441686 Y-1.803715173
N1465 X0.952769002 Y-1.805212817
N1470 X1.010102925 Y-1.806430666
N1475 X1.067441204 Y-1.807420535
N1480 X1.124782412 Y-1.808224776
N1485 X1.182125572 Y-1.80887808
N1490 X1.239469934 Y-1.809408533
N1495 X1.296815196 Y-1.809838963
N1500 X1.35416091 Y-1.810188293
N1505 X1.411507073 Y-1.810471392
N1510 X1.468853537 Y-1.810700875
N1515 X1.583546766 Y-1.811036838
N1520 X1.698240145 Y-1.811256108
N1525 X1.870280589 Y-1.811448946
N1530 X2.157014862 Y-1.81158216
N1535 X2.787830323 Y-1.811613699
N1540 X2.815971375 Y-1.811612647
N1545 X2.830759484 Y-1.812456386
N1550 X2.845355056 Y-1.814977691
N1555 X2.859569159 Y-1.819144121
N1560 X2.873216464 Y-1.82490116
N1565 X2.900863708 Y-1.8384552
N1570 X2.938309917 Y-1.856608654
N1575 X2.957032872 Y-1.863837956
N1580 X2.975755827 Y-1.870796774
N1585 X2.994478781 Y-1.878247749
N1590 X3.013201736 Y-1.885864228
N1595 X3.031924991 Y-1.893534623
N1600 X3.069370901 Y-1.909049928
N1605 X3.10681681 Y-1.924350018
N1610 X3.125539765 Y-1.930465999
N1615 X3.162985974 Y-1.942230885
N1620 X3.276481929 Y-1.977735504
N1625 X3.294046958 Y-1.982926346
N1630 X3.312769912 Y-1.987732865
N1635 X3.331492867 Y-1.991688285
N1640 X3.446480158 Y-2.015116234
N1645 X3.481277105 Y-2.021771078
N1650 X3.50000006 Y-2.025245757
N1655 X3.518723015 Y-2.028394984
N1660 X3.537445969 Y-2.030778419
N1665 X3.631061043 Y-2.040469402
N1670 X3.649783998 Y-2.042401532
N1675 X3.668507253 Y-2.044220271
N1680 X3.687230208 Y-2.045952504
N1685 X3.705953162 Y-2.047614751
N1690 X3.780845282 Y-2.053564778
N1695 X3.799568236 Y-2.054428791
N1700 X3.818291191 Y-2.055086151
N1705 X3.837014146 Y-2.055655202
N1710 X3.874460356 Y-2.056603469
N1715 X3.949352174 Y-2.058031578
N1720 X4.005521339 Y-2.05904863
N1725 X4.042967248 Y-2.059672949
N1730 X4.174028231 Y-2.061142058
N1735 X4.175800726 Y-2.061506178
N1740 X4.177373934 Y-2.062400218
N1745 X4.178593853 Y-2.063736653
N1750 G3 X4.343401691 Y-2.254063764 I0.805242944 J0.530756703
N1755 X4.389389519 Y-2.269672634 I0.041503606 J0.046730042
N1760 G1 X5.677601972 Y-2.177008982
N1765 G3 X5.720882266 Y-2.154978955 I-0.004484522 J0.062338912
N1770 X5.856753372 Y-1.943023411 I-0.737045468 J0.621999005
N1775 G1 X5.857730681 Y-1.941567878
N1780 X5.85909926 Y-1.94047207
N1785 X5.915267824 Y-1.910636481
N1790 X5.928690753 Y-1.902973746
N1795 X5.957547886 Y-1.884283231
N1800 X5.971436989 Y-1.873534045
N1805 X5.98163815 Y-1.865592866
N1810 X6.02905694 Y-1.828211987
N1815 X6.046329408 Y-1.813835234
N1820 X6.071436724 Y-1.790831108
N1825 X6.083775318 Y-1.777973626
N1830 X6.087929433 Y-1.773644545
N1835 X6.109449732 Y-1.754561447
N1840 X6.136784591 Y-1.733991818
N1845 X6.171259242 Y-1.712148471
N1850 X6.21486033 Y-1.689203818
N1855 X6.267589058 Y-1.666656704
N1860 X6.321872501 Y-1.648165485
N1865 X6.377169391 Y-1.632969473
N1870 X6.432134073 Y-1.616612081
N1875 X6.483346534 Y-1.590806556
N1880 X6.529741663 Y-1.5570998
N1885 X6.570958415 Y-1.517226452
N1890 X6.607070683 Y-1.472678297
N1895 X6.638408871 Y-1.424651409
N1900 X6.665401309 Y-1.374054255
N1905 X6.688513568 Y-1.32157093
N1910 X6.70820882 Y-1.26771236
N1915 X6.724926205 Y-1.212856263
N1920 X6.739070021 Y-1.157280929
N1925 X6.751003115 Y-1.101189411
N1930 X6.761047483 Y-1.044729038
N1935 X6.769484873 Y-0.988006291
N1940 X6.776560385 Y-0.931097616
N1945 X6.782484881 Y-0.874057605
N1950 X6.78743858 Y-0.816925079
N1955 X6.791576476 Y-0.759727748
N1960 X6.795028927 Y-0.702484912
N1965 X6.797907071 Y-0.645210311
N1970 X6.795244592 Y-0.587925273
N1975 X6.77799315 Y-0.533234829
N1980 X6.749581765 Y-0.48342044
N1985 X6.713074211 Y-0.43919552
N1990 X6.670670997 Y-0.400586654
N1995 X6.624013946 Y-0.367243797
N2000 X6.574292521 Y-0.338670288
N2005 X6.522367583 Y-0.314328915
N2010 X6.4688633 Y-0.293690182
N2015 X6.414230827 Y-0.276257485
N2020 X6.358793965 Y-0.261579104
N2025 X6.307640977 Y-0.249886625
N2030 X6.288657001 Y-0.243987174
N2035 X6.270795206 Y-0.235260509
N2040 X6.254473709 Y-0.22391094
N2045 X6.240075179 Y-0.210204218
N2050 X6.227936031 Y-0.194461214
N2055 X6.218341016 Y-0.177050538
N2060 X6.21274873 Y-0.164763646
N2065 X6.19523116 Y-0.127382785
N2070 X6.185666182 Y-0.108692355
N2075 X6.17580564 Y-0.090001925
N2080 X6.164355541 Y-0.07131149
N2085 X6.158667136 Y-0.063044617
N2090 X6.150635246 Y-0.05262106
N2095 X6.139943881 Y-0.039285466
N2100 X6.120078019 Y-0.015240199
N2105 X6.102497972 Y0.005807828
N2110 X6.083775318 Y0.027973722
N2115 X6.071436724 Y0.040831092
N2120 X6.046329408 Y0.063835284
N2125 X6.02905694 Y0.078211957
N2130 X6.02396507 Y0.082225649
N2135 G2 X6.006157943 Y0.107119027 I0.040382325 J0.047702602
N2140 G1 X6.003922267 Y0.112822576 Z-0.393399826
N2145 X6.001708122 Y0.118471196 Z-0.392499853
N2150 X5.999536833 Y0.124010487 Z-0.391009538
N2155 X5.997429309 Y0.129387103 Z-0.388943232
N2160 X5.995405848 Y0.134549265 Z-0.386320836
N2165 X5.993485937 Y0.139447257 Z-0.383167604
N2170 X5.991688066 Y0.14403391 Z-0.379513905
N2175 X5.99002955 Y0.148265052 Z-0.375394925
N2180 X5.98852636 Y0.152099935 Z-0.370850332
N2185 X5.987192974 Y0.155501627 Z-0.365923893
N2190 X5.986042233 Y0.158437368 Z-0.360663054
N2195 X5.985085219 Y0.160878886 Z-0.355118478
N2200 X5.98433115 Y0.162802666 Z-0.349343563
N2205 X5.983787287 Y0.164190184 Z-0.343393925
N2210 X5.983458868 Y0.165028076 Z-0.337326862
N2215 X5.983349057 Y0.165308273 Z-0.331200802
N2220 G0 Z0.199999997
N2225 X6.061023502 Y-1.867912473
N2230 Z-0.26870078
N2235 G1 Z-0.331200802 F15.
N2240 X6.061072907 Y-1.867615609 Z-0.337326861
N2245 X6.061220684 Y-1.866727869 Z-0.343393924
N2250 X6.061465408 Y-1.8652578 Z-0.349343562
N2255 X6.061804723 Y-1.863219562 Z-0.355118477
N2260 X6.062235361 Y-1.860632781 Z-0.360663052
N2265 X6.062753175 Y-1.857522372 Z-0.365923892
N2270 X6.063353177 Y-1.853918288 Z-0.37085033
N2275 X6.064029589 Y-1.849855239 Z-0.375394923
N2280 X6.064775897 Y-1.845372353 Z-0.379513903
N2285 X6.065584913 Y-1.840512804 Z-0.383167603
N2290 X6.066448845 Y-1.835323391 Z-0.386320835
N2295 X6.067359374 Y-1.829854092 Z-0.388943231
N2300 X6.068307731 Y-1.824157578 Z-0.391009537
N2305 X6.069284781 Y-1.818288709 Z-0.392499853
N2310 X6.070281116 Y-1.812304007 Z-0.393399825
N2315 X6.07128714 Y-1.806261108 Z-0.393700787
N2320 G2 X6.083775318 Y-1.777973626 I0.06146048 J-0.010232099
N2325 G1 X6.104489424 Y-1.753450228
N2330 X6.121221227 Y-1.73337606
N2335 X6.139943881 Y-1.710714505
N2340 X6.150635246 Y-1.697378985
N2345 X6.158667136 Y-1.686955399
N2350 X6.164355541 Y-1.67868847
N2355 X6.17580564 Y-1.659998105
N2360 X6.185666182 Y-1.641307741
N2365 X6.19523116 Y-1.622617226
N2370 X6.198046827 Y-1.617319002
N2375 X6.229211402 Y-1.569179174
N2380 X6.262659989 Y-1.522597516
N2385 X6.295233298 Y-1.475399348
N2390 X6.325929296 Y-1.426959601
N2395 X6.354362908 Y-1.377158127
N2400 X6.380268608 Y-1.325996129
N2405 X6.403622965 Y-1.273620185
N2410 X6.42449807 Y-1.220207665
N2415 X6.443021279 Y-1.165934735
N2420 X6.459355392 Y-1.110963296
N2425 X6.473682434 Y-1.05543497
N2430 X6.486190435 Y-0.999468856
N2435 X6.497066828 Y-0.943162798
N2440 X6.501512903 Y-0.885988596
N2445 X6.491141132 Y-0.829587396
N2450 X6.468558124 Y-0.776874287
N2455 X6.43679341 Y-0.729128319
N2460 X6.399027306 Y-0.68597298
N2465 X6.357930702 Y-0.64597648
N2470 X6.315149623 Y-0.60778723
N2475 X6.310377947 Y-0.603638559
N2480 X6.297315462 Y-0.590536425
N2485 X6.286246833 Y-0.575711821
N2490 X6.277396135 Y-0.559465341
N2495 X6.270942988 Y-0.542126453
N2500 X6.267017755 Y-0.524046703
N2505 X6.265700934 Y-0.505592767
N2510 X6.265696728 Y-0.407739249
N2515 X6.265002273 Y-0.389048809
N2520 X6.263818215 Y-0.370358369
N2525 X6.261821957 Y-0.351667967
N2530 X6.256252499 Y-0.314287088
N2535 X6.25228221 Y-0.288207493
N2540 X6.250449353 Y-0.276906228
N2545 G2 X6.25415832 Y-0.246525017 I0.062005351 J0.007846862
N2550 G1 X6.256367072 Y-0.240810986 Z-0.393399834
N2555 X6.258554553 Y-0.235151985 Z-0.392499869
N2560 X6.260699695 Y-0.229602511 Z-0.391009562
N2565 X6.26278184 Y-0.22421601 Z-0.388943263
N2570 X6.264780937 Y-0.219044358 Z-0.386320872
N2575 X6.266677731 Y-0.214137358 Z-0.383167645
N2580 X6.268453957 Y-0.20954227 Z-0.379513949
N2585 X6.270092509 Y-0.205303345 Z-0.375394971
N2590 X6.271577605 Y-0.201461408 Z-0.370850378
N2595 X6.272894944 Y-0.198053458 Z-0.365923939
N2600 X6.27403184 Y-0.195112315 Z-0.360663096
N2605 X6.274977342 Y-0.192666304 Z-0.355118515
N2610 X6.275722346 Y-0.190738983 Z-0.349343594
N2615 X6.276259677 Y-0.189348911 Z-0.343393947
N2620 X6.276584159 Y-0.188509477 Z-0.337326874
N2625 X6.276692669 Y-0.188228763 Z-0.331200802
N2630 G0 X6.276692668 Y-0.188228765 Z0.199999997
N2635 X6.196639294 Y-1.715378498
N2640 Z-0.26870078
N2645 G1 Z-0.331200802 F15.
N2650 X6.196609851 Y-1.715078985 Z-0.337326877
N2655 X6.196521814 Y-1.714183332 Z-0.343393953
N2660 X6.19637603 Y-1.712700167 Z-0.349343602
N2665 X6.196173904 Y-1.710643774 Z-0.355118525
N2670 X6.195917381 Y-1.708033955 Z-0.360663107
N2675 X6.195608932 Y-1.704895846 Z-0.36592395
N2680 X6.195251529 Y-1.701259668 Z-0.370850391
N2685 X6.194848612 Y-1.69716044 Z-0.375394983
N2690 X6.194404062 Y-1.692637639 Z-0.379513961
N2695 X6.19392216 Y-1.687734823 Z-0.383167656
N2700 X6.193407547 Y-1.682499208 Z-0.386320882
N2705 X6.19286518 Y-1.676981216 Z-0.388943271
N2710 X6.192300281 Y-1.671233989 Z-0.391009569
N2715 X6.19171829 Y-1.665312875 Z-0.392499875
N2720 X6.191124813 Y-1.659274898 Z-0.393399837
N2725 X6.190525566 Y-1.653178208 Z-0.393700789
N2730 G2 X6.19523116 Y-1.622617226 Z-0.393700787 I0.062007153 J0.006094655
N2735 G1 X6.21274873 Y-1.585236347
N2740 X6.229761679 Y-1.547855467
N2745 X6.233558955 Y-1.538142557
N2750 X6.236838994 Y-1.529165103
N2755 X6.242693803 Y-1.510474588
N2760 X6.250449353 Y-1.473093859
N2765 X6.25228221 Y-1.461792593
N2770 X6.256252499 Y-1.43571298
N2775 X6.261821957 Y-1.3983321
N2780 X6.263818215 Y-1.379641585
N2785 X6.265002273 Y-1.360951221
N2790 X6.265696728 Y-1.342260856
N2795 X6.265700934 Y-0.505592767
N2800 G2 X6.274226031 Y-0.476197258 I0.062461913 J-0.002181211
N2805 G1 X6.277321088 Y-0.470910543 Z-0.393399832
N2810 X6.280386339 Y-0.465674743 Z-0.392499866
N2815 X6.283392262 Y-0.46054028 Z-0.391009557
N2820 X6.286309909 Y-0.455556603 Z-0.388943257
N2825 X6.289111182 Y-0.450771706 Z-0.386320865
N2830 X6.291769102 Y-0.446231671 Z-0.383167637
N2835 X6.294258073 Y-0.441980222 Z-0.37951394
N2840 X6.296554124 Y-0.438058301 Z-0.375394962
N2845 X6.298635144 Y-0.43450368 Z-0.370850369
N2850 X6.30048109 Y-0.43135059 Z-0.36592393
N2855 X6.302074185 Y-0.428629398 Z-0.360663088
N2860 X6.303399087 Y-0.426366311 Z-0.355118508
N2865 X6.304443037 Y-0.424583122 Z-0.349343588
N2870 X6.30519598 Y-0.423297007 Z-0.343393943
N2875 X6.305650665 Y-0.422520349 Z-0.337326871
N2880 X6.305802714 Y-0.422260629 Z-0.331200802
N2885 G0 X6.305802713 Y-0.42226063 Z0.199999997
N2890 X3.161962314 Y0.24170089
N2895 Z-0.26870078
N2900 G1 Z-0.331200802 F15.
N2905 X3.161784424 Y0.241458143 Z-0.337326866
N2910 X3.161252449 Y0.240732242 Z-0.343393934
N2915 X3.160371514 Y0.239530179 Z-0.349343575
N2920 X3.159150101 Y0.237863529 Z-0.355118493
N2925 X3.157599974 Y0.235748343 Z-0.360663071
N2930 X3.155736061 Y0.233204992 Z-0.365923912
N2935 X3.153576312 Y0.230257969 Z-0.370850351
N2940 X3.151141528 Y0.226935655 Z-0.375394944
N2945 X3.148455157 Y0.223270047 Z-0.379513924
N2950 X3.145543069 Y0.219296446 Z-0.383167622
N2955 X3.142433311 Y0.215053119 Z-0.386320852
N2960 X3.13915583 Y0.210580933 Z-0.388943246
N2965 X3.13574219 Y0.205922956 Z-0.391009549
N2970 X3.132225268 Y0.201124048 Z-0.392499862
N2975 X3.128638932 Y0.196230425 Z-0.393399831
N2980 X3.125017722 Y0.191289215 Z-0.39370079
N2985 G2 X3.101122698 Y0.171664118 Z-0.393700787 I-0.050255483 J0.036830226
N2990 G1 X3.069370901 Y0.158167336
N2995 X3.057553749 Y0.152973678
N3000 X3.050647946 Y0.150090334
N3005 X3.031924991 Y0.142777736
N3010 X3.013201736 Y0.135699783
N3015 X2.994478781 Y0.128821416
N3020 X2.975755827 Y0.121871749
N3025 X2.957032872 Y0.114663342
N3030 X2.938309917 Y0.107154762
N3035 X2.900863708 Y0.087781394
N3040 X2.880517554 Y0.078211957
N3045 X2.863417798 Y0.070271347
N3050 X2.844694843 Y0.061966397
N3055 X2.825971889 Y0.054165364
N3060 X2.807248634 Y0.046287259
N3065 X2.769802724 Y0.029248522
N3070 X2.757481853 Y0.022140664
N3075 X2.694910605 Y-0.017880558
N3080 X2.684613025 Y-0.025201801
N3085 X2.655783225 Y-0.043600497
N3090 X2.615164809 Y-0.065145173
N3095 X2.56274336 Y-0.08776354
N3100 X2.508435137 Y-0.106183347
N3105 X2.45307592 Y-0.12115042
N3110 X2.397039819 Y-0.133341476
N3115 X2.340562475 Y-0.143289838
N3120 X2.283794824 Y-0.151419855
N3125 X2.226835086 Y-0.158071537
N3130 X2.16974739 Y-0.163518707
N3135 X2.11257469 Y-0.167982804
N3140 X2.055344769 Y-0.171643505
N3145 X1.998076552 Y-0.174646922
N3150 X1.940782802 Y-0.177112151
N3155 X1.883471632 Y-0.179136419
N3160 X1.826148897 Y-0.18079921
N3165 X1.768818352 Y-0.182165536
N3170 X1.711482401 Y-0.183288657
N3175 X1.654142996 Y-0.1842122
N3180 X1.596801187 Y-0.184971986
N3185 X1.539457727 Y-0.185597337
N3190 X1.482113215 Y-0.186112321
N3195 X1.424767952 Y-0.186536744
N3200 X1.367422239 Y-0.186886787
N3205 X1.310076075 Y-0.1871758
N3210 X1.252729686 Y-0.187414687
N3215 X1.138036608 Y-0.187776427
N3220 X1.023343154 Y-0.188026222
N3225 X0.851302785 Y-0.188267588
N3230 X0.736609106 Y-0.188372436
N3235 X0.621915427 Y-0.188449236
N3240 X0.565499997 Y-0.198742836
N3245 X0.512910302 Y-0.221611778
N3250 X0.46555673 Y-0.253958308
N3255 X0.423802128 Y-0.293267562
N3260 X0.387485684 Y-0.337649706
N3265 X0.356190336 Y-0.385704491
N3270 X0.329409547 Y-0.436413983
N3275 X0.306616524 Y-0.489036605
N3280 X0.287301841 Y-0.543032932
N3285 X0.270992715 Y-0.598011768
N3290 X0.257261907 Y-0.653690578
N3295 X0.245730295 Y-0.709866051
N3300 X0.236065801 Y-0.766392655
N3305 X0.227980501 Y-0.82316669
N3310 X0.221226666 Y-0.880114413
N3315 X0.215592422 Y-0.937183861
N3320 X0.21089751 Y-0.994338163
N3325 X0.206989172 Y-1.051551714
N3330 X0.203738363 Y-1.10880634
N3335 X0.207333715 Y-1.16604039
N3340 X0.225508194 Y-1.220431065
N3345 X0.254595467 Y-1.269853697
N3350 X0.291649225 Y-1.313622092
N3355 X0.334446637 Y-1.351793394
N3360 X0.38138536 Y-1.384739012
N3365 X0.43130931 Y-1.412957259
N3370 X0.48338019 Y-1.436983995
N3375 X0.536990128 Y-1.457346518
N3380 X0.59169927 Y-1.474538788
N3385 X0.647190424 Y-1.489008956
N3390 X0.703235912 Y-1.501156814
N3395 X0.759672781 Y-1.511332294
N3400 X0.816385014 Y-1.51983997
N3405 X0.87329046 Y-1.526941765
N3410 X0.930330922 Y-1.532861454
N3415 X0.987465626 Y-1.537790073
N3420 X1.04466581 Y-1.54188877
N3425 X1.101911425 Y-1.545294213
N3430 X1.159188578 Y-1.548121295
N3435 X1.216487509 Y-1.550466282
N3440 X1.273801308 Y-1.552409976
N3445 X1.331125695 Y-1.554019958
N3450 X1.38845699 Y-1.555352699
N3455 X1.445793242 Y-1.556455357
N3460 X1.503132798 Y-1.557366979
N3465 X1.560474756 Y-1.558120457
N3470 X1.617818217 Y-1.558742673
N3475 X1.675162728 Y-1.559256156
N3480 X1.732507991 Y-1.559679827
N3485 X1.789853854 Y-1.560029007
N3490 X1.847200018 Y-1.560316611
N3495 X1.904546332 Y-1.560553453
N3500 X2.019239561 Y-1.56090804
N3505 X2.13393294 Y-1.561146684
N3510 X2.305973383 Y-1.561364902
N3515 X2.465469781 Y-1.561474988
N3520 X2.484119145 Y-1.562830557
N3525 X2.502380732 Y-1.566849205
N3530 X2.519876375 Y-1.573447731
N3535 X2.536243529 Y-1.582489314
N3540 X2.551143076 Y-1.593786825
N3545 X2.564266836 Y-1.607106126
N3550 X2.575342674 Y-1.622171327
N3555 X2.57562352 Y-1.622617226
N3560 X2.601295832 Y-1.655239346
N3565 X2.605361938 Y-1.659998105
N3570 X2.620018786 Y-1.673990084
N3575 X2.638741741 Y-1.690678334
N3580 X2.646890475 Y-1.697378985
N3585 X2.67229696 Y-1.716069349
N3590 X2.67618765 Y-1.718925566
N3595 X2.694910605 Y-1.732277457
N3600 X2.727752145 Y-1.753450228
N3605 X2.732356815 Y-1.756373278
N3610 X2.757965148 Y-1.772140743
N3615 X2.769802724 Y-1.77879769
N3620 X2.807248634 Y-1.79555938
N3625 X2.840036107 Y-1.809521623
N3630 X2.844694843 Y-1.811498807
N3635 X2.863417798 Y-1.820092389
N3640 X2.873216464 Y-1.82490116
N3645 G2 X2.895849333 Y-1.845505331 I-0.029477097 J-0.055112313
N3650 G1 X2.899231715 Y-1.850612994 Z-0.393399826
N3655 X2.902581522 Y-1.855671465 Z-0.392499854
N3660 X2.905866493 Y-1.86063203 Z-0.391009539
N3665 X2.909054993 Y-1.865446916 Z-0.388943234
N3670 X2.912116315 Y-1.870069752 Z-0.386320838
N3675 X2.915020976 Y-1.874456019 Z-0.383167607
N3680 X2.917741002 Y-1.878563474 Z-0.379513907
N3685 X2.920250199 Y-1.88235256 Z-0.375394927
N3690 X2.922524402 Y-1.885786787 Z-0.370850334
N3695 X2.924541708 Y-1.888833081 Z-0.365923896
N3700 X2.92628269 Y-1.891462104 Z-0.360663056
N3705 X2.927730582 Y-1.893648538 Z-0.35511848
N3710 X2.928871439 Y-1.895371327 Z-0.349343565
N3715 X2.929694275 Y-1.896613878 Z-0.343393926
N3720 X2.930191165 Y-1.897364227 Z-0.337326862
N3725 X2.930357324 Y-1.897615146 Z-0.331200802
N3730 G0 X2.930357325 Y-1.897615147 Z0.199999997
N3735 X2.729019405 Y0.05625201
N3740 Z-0.26870078
N3745 G1 Z-0.331200802 F15.
N3750 X2.728897682 Y0.055976762 Z-0.337326883
N3755 X2.728533717 Y0.055153669 Z-0.343393964
N3760 X2.727931013 Y0.053790659 Z-0.349343617
N3765 X2.727095375 Y0.051900859 Z-0.355118544
N3770 X2.726034852 Y0.049502469 Z-0.360663129
N3775 X2.724759656 Y0.046618586 Z-0.365923974
N3780 X2.723282068 Y0.043276984 Z-0.370850414
N3785 X2.721616318 Y0.039509845 Z-0.375395006
N3790 X2.719778449 Y0.035353448 Z-0.379513983
N3795 X2.717786158 Y0.030847822 Z-0.383167677
N3800 X2.715658635 Y0.026036359 Z-0.3863209
N3805 X2.713416366 Y0.020965396 Z-0.388943286
N3810 X2.711080948 Y0.015683769 Z-0.39100958
N3815 X2.70867487 Y0.010242343 Z-0.392499883
N3820 X2.706221305 Y0.004693522 Z-0.393399841
N3825 X2.703743882 Y-0.000909255 Z-0.393700788
N3830 G2 X2.684613025 Y-0.025201801 Z-0.393700787 I-0.056984068 J0.025196939
N3835 G1 X2.67618765 Y-0.031191911
N3840 X2.657464696 Y-0.044975971
N3845 X2.647265036 Y-0.05262106
N3850 X2.638741741 Y-0.060386024
N3855 X2.620018786 Y-0.078235081
N3860 X2.608395374 Y-0.090001925
N3865 X2.601295832 Y-0.098488856
N3870 X2.577521857 Y-0.127382785
N3875 X2.564972104 Y-0.146073216
N3880 X2.553105993 Y-0.164763646
N3885 X2.549890233 Y-0.169829008
N3890 X2.535590825 Y-0.187868997
N3895 X2.517355221 Y-0.207421066
N3900 X2.494587335 Y-0.228204971
N3905 X2.465867771 Y-0.250472891
N3910 X2.429982133 Y-0.273942478
N3915 X2.385044999 Y-0.298424574
N3920 X2.332647429 Y-0.321730028
N3925 X2.278675019 Y-0.341111731
N3930 X2.223645608 Y-0.357249328
N3935 X2.167898013 Y-0.370698013
N3940 X2.111658562 Y-0.381913523
N3945 X2.055080444 Y-0.391271509
N3950 X1.998268037 Y-0.399082439
N3955 X1.941293131 Y-0.405603657
N3960 X1.884205435 Y-0.411048987
N3965 X1.827039043 Y-0.415596211
N3970 X1.769818133 Y-0.419393562
N3975 X1.712558927 Y-0.422564567
N3980 X1.655273287 Y-0.425212402
N3985 X1.597969025 Y-0.427423237
N3990 X1.540651997 Y-0.429268972
N3995 X1.483325808 Y-0.430809832
N4000 X1.425993311 Y-0.432096091
N4005 X1.368656609 Y-0.433169763
N4010 X1.311316753 Y-0.434066029
N4015 X1.253974719 Y-0.434814175
N4020 X1.196631334 Y-0.43543887
N4025 X1.139286822 Y-0.435960499
N4030 X1.081941635 Y-0.436396261
N4035 X1.024595921 Y-0.436760422
N4040 X0.967249908 Y-0.437064922
N4045 X0.909903594 Y-0.437319748
N4050 X0.85352387 Y-0.447807312
N4055 X0.800228344 Y-0.46897922
N4060 X0.751361396 Y-0.498990524
N4065 X0.707537659 Y-0.535978971
N4070 X0.668783038 Y-0.57824882
N4075 X0.634865648 Y-0.624490272
N4080 X0.605435109 Y-0.673709179
N4085 X0.580053329 Y-0.72513325
N4090 X0.558266978 Y-0.77818052
N4095 X0.539639015 Y-0.832417556
N4100 X0.537020691 Y-0.889704622
N4105 X0.550782361 Y-0.945375773
N4110 X0.576664219 Y-0.996549937
N4115 X0.611254925 Y-1.042289884
N4120 X0.65219774 Y-1.082443928
N4125 X0.697726753 Y-1.117311763
N4130 X0.746576504 Y-1.147351227
N4135 X0.797829515 Y-1.173076555
N4140 X0.850818364 Y-1.195004606
N4145 X0.905057652 Y-1.213626186
N4150 X0.960194745 Y-1.229391849
N4155 X1.015974631 Y-1.242706119
N4160 X1.072213105 Y-1.25392651
N4165 X1.128777782 Y-1.263365708
N4170 X1.185573893 Y-1.271294421
N4175 X1.242533706 Y-1.277945811
N4180 X1.299609087 Y-1.283519324
N4185 X1.356765867 Y-1.28818512
N4190 X1.413979718 Y-1.292087525
N4195 X1.471233668 Y-1.295349091
N4200 X1.528515853 Y-1.298072995
N4205 X1.585817562 Y-1.300346645
N4210 X1.643133088 Y-1.30224318
N4215 X1.700458226 Y-1.303824327
N4220 X1.757789822 Y-1.3051419
N4225 X1.815126224 Y-1.306239151
N4230 X1.872465779 Y-1.307152726
N4235 X1.929807588 Y-1.307912661
N4240 X1.987151048 Y-1.30854479
N4245 X2.04449541 Y-1.309070137
N4250 X2.101840673 Y-1.309506574
N4255 X2.159186386 Y-1.30986897
N4260 X2.216532399 Y-1.31016964
N4265 X2.273871054 Y-1.311138483
N4270 X2.33113777 Y-1.314169516
N4275 X2.38813205 Y-1.320518434
N4280 X2.397266148 Y-1.322267187
N4285 X2.416354052 Y-1.327454725
N4290 X2.434433314 Y-1.335479706
N4295 X2.451084768 Y-1.346156353
N4300 X2.465922438 Y-1.35923701
N4305 X2.478602402 Y-1.374418454
N4310 X2.488830747 Y-1.391348801
N4315 X2.496370481 Y-1.409635769
N4320 X2.501046639 Y-1.428855385
N4325 X2.502170773 Y-1.43571298
N4330 X2.507680608 Y-1.467001907
N4335 X2.509327085 Y-1.473093859
N4340 X2.51470761 Y-1.491784223
N4345 X2.520495137 Y-1.510474588
N4350 X2.531378138 Y-1.539444811
N4355 G2 X2.533781097 Y-1.569957132 I-0.059209058 J-0.020013644
N4360 G1 X2.532752036 Y-1.575996153 Z-0.393399833
N4365 X2.531732887 Y-1.581977014 Z-0.392499867
N4370 X2.530733462 Y-1.587842117 Z-0.391009558
N4375 X2.529763387 Y-1.593534977 Z-0.388943258
N4380 X2.528832005 Y-1.59900077 Z-0.386320867
N4385 X2.527948285 Y-1.604186857 Z-0.383167639
N4390 X2.527120738 Y-1.609043293 Z-0.379513942
N4395 X2.526357333 Y-1.613523307 Z-0.375394964
N4400 X2.525665422 Y-1.617583756 Z-0.370850371
N4405 X2.525051669 Y-1.621185533 Z-0.365923932
N4410 X2.524521984 Y-1.624293953 Z-0.36066309
N4415 X2.524081468 Y-1.62687908 Z-0.35511851
N4420 X2.523734365 Y-1.628916016 Z-0.349343589
N4425 X2.523484015 Y-1.630385147 Z-0.343393944
N4430 X2.523332832 Y-1.631272322 Z-0.337326872
N4435 X2.523282269 Y-1.631568998 Z-0.331200802
N4440 G0 Y-1.631568999 Z0.199999997
N4445 X2.557364937 Y-0.072089504
N4450 Z-0.26870078
N4455 G1 Z-0.331200802 F15.
N4460 X2.557376021 Y-0.072390255 Z-0.337326873
N4465 X2.557409191 Y-0.073289609 Z-0.343393946
N4470 X2.557464126 Y-0.074778906 Z-0.349343592
N4475 X2.557540297 Y-0.076843802 Z-0.355118513
N4480 X2.557636971 Y-0.079464411 Z-0.360663094
N4485 X2.557753216 Y-0.082615496 Z-0.365923936
N4490 X2.557887913 Y-0.086266709 Z-0.370850376
N4495 X2.558039765 Y-0.090382888 Z-0.375394968
N4500 X2.558207309 Y-0.094924392 Z-0.379513946
N4505 X2.558388931 Y-0.099847483 Z-0.383167643
N4510 X2.558582882 Y-0.105104749 Z-0.38632087
N4515 X2.558787294 Y-0.110645561 Z-0.388943261
N4520 X2.559000199 Y-0.116416556 Z-0.39100956
N4525 X2.559219546 Y-0.122362157 Z-0.392499868
N4530 X2.559443223 Y-0.128425105 Z-0.393399833
N4535 X2.559669074 Y-0.13454701 Z-0.393700787
N4540 G2 X2.553105993 Y-0.164763646 I-0.062263819 J-0.002297182
N4545 G1 X2.545126667 Y-0.179385519
N4550 X2.543048708 Y-0.183454067
N4555 X2.533995561 Y-0.202144506
N4560 X2.526403712 Y-0.22190599
N4565 X2.519791971 Y-0.239525367
N4570 X2.514746658 Y-0.258215807
N4575 X2.510160762 Y-0.276906228
N4580 X2.508796782 Y-0.283414717
N4585 X2.505486256 Y-0.296030476
N4590 X2.503920878 Y-0.301822677
N4595 X2.50219285 Y-0.307568434
N4600 X2.500301421 Y-0.313262489
N4605 X2.498247642 Y-0.318900056
N4610 X2.496042777 Y-0.324480214
N4615 X2.493697039 Y-0.33000274
N4620 X2.491220039 Y-0.335467519
N4625 X2.488619737 Y-0.340874777
N4630 X2.485903492 Y-0.34622474
N4635 X2.483073858 Y-0.35151568
N4640 X2.480130083 Y-0.356743843
N4645 X2.477075622 Y-0.361908139
N4650 X2.473916782 Y-0.367009283
N4655 X2.470659421 Y-0.372048175
N4660 X2.467309096 Y-0.377025604
N4665 X2.463870462 Y-0.381942471
N4670 X2.460348024 Y-0.386799677
N4675 X2.456744937 Y-0.391597335
N4680 X2.453060601 Y-0.396332891
N4685 X2.449296065 Y-0.401004994
N4690 X2.445455386 Y-0.405614733
N4695 X2.441542318 Y-0.410163159
N4700 X2.437560464 Y-0.414651398
N4705 X2.433512981 Y-0.419080577
N4710 X2.42940287 Y-0.423451747
N4715 X2.425232985 Y-0.427765921
N4720 X2.421004979 Y-0.432023176
N4725 X2.41671825 Y-0.436221258
N4730 X2.412374301 Y-0.440360167
N4735 X2.407975985 Y-0.444441067
N4740 X2.403525405 Y-0.448465047
N4745 X2.399024963 Y-0.452433271
N4750 X2.394477063 Y-0.45634679
N4755 X2.389883357 Y-0.46020673
N4760 X2.385246097 Y-0.464014068
N4765 X2.380566635 Y-0.46776933
N4770 X2.37584437 Y-0.471470713
N4775 X2.371080354 Y-0.475118254
N4780 X2.366276388 Y-0.478713006
N4785 X2.361434276 Y-0.482256018
N4790 X2.356555368 Y-0.485748381
N4795 X2.351641317 Y-0.48919107
N4800 X2.346693625 Y-0.492585137
N4805 X2.341713492 Y-0.49593152
N4810 X2.336702272 Y-0.499231158
N4815 X2.331659813 Y-0.502483
N4820 X2.326586566 Y-0.505686482
N4825 X2.321483732 Y-0.508842506
N4830 X2.316352364 Y-0.511952085
N4835 X2.311193661 Y-0.51501612
N4840 X2.306008827 Y-0.518035626
N4845 X2.300798912 Y-0.521011465
N4850 X2.295564667 Y-0.523944502
N4855 X2.290307143 Y-0.526835637
N4860 X2.285026941 Y-0.529685133
N4865 X2.279723761 Y-0.532491752
N4870 X2.274398503 Y-0.535256018
N4875 X2.26905192 Y-0.537978908
N4880 X2.263684911 Y-0.540661249
N4885 X2.258205564 Y-0.543349259
N4890 X2.252570175 Y-0.546062725
N4895 X2.246772286 Y-0.548802211
N4900 X2.240816702 Y-0.551562985
N4905 X2.234979614 Y-0.554216903
N4910 X2.229059024 Y-0.556856553
N4915 X2.222965271 Y-0.559520046
N4920 X2.216690394 Y-0.562207943
N4925 X2.210226434 Y-0.564920959
N4930 X2.203564381 Y-0.567659769
N4935 X2.196694622 Y-0.570425274
N4940 X2.189606794 Y-0.573218263
N4945 X2.182549304 Y-0.575939689
N4950 X2.175450212 Y-0.578617411
N4955 X2.16812329 Y-0.581319914
N4960 X2.160556523 Y-0.584047948
N4965 X2.152736844 Y-0.586802528
N4970 X2.144650287 Y-0.589584553
N4975 X2.136281532 Y-0.592395189
N4980 X2.127876282 Y-0.595149656
N4985 X2.119409156 Y-0.597855763
N4990 X2.110638806 Y-0.600587965
N4995 X2.10154661 Y-0.603347463
N5000 X2.092112143 Y-0.606135421
N5005 X2.082312426 Y-0.608953266
N5010 X2.072380997 Y-0.61173026
N5015 X2.062355702 Y-0.614454352
N5020 X2.05192596 Y-0.617206341
N5025 X2.041062483 Y-0.619987691
N5030 X2.029732231 Y-0.622800166
N5035 X2.018054452 Y-0.625608061
N5040 X2.006322155 Y-0.628338198
N5045 X1.994054899 Y-0.631098109
N5050 X1.981207029 Y-0.633889746
N5055 X1.96772658 Y-0.636715401
N5060 X1.954095044 Y-0.639468516
N5065 X1.939929902 Y-0.642221331
N5070 X1.925007077 Y-0.645008012
N5075 X1.909247571 Y-0.647831339
N5080 X1.893283814 Y-0.650570637
N5085 X1.876447783 Y-0.653332538
N5090 X1.858558955 Y-0.65613251
N5095 X1.839993695 Y-0.658898992
N5100 X1.820553006 Y-0.661650305
N5105 X1.799719503 Y-0.664442994
N5110 X1.778003963 Y-0.667191828
N5115 X1.754863919 Y-0.669948623
N5120 X1.730026335 Y-0.672723064
N5125 X1.703810204 Y-0.675456881
N5130 X1.682167504 Y-0.677526279
N5135 X1.644281553 Y-0.680929695
N5140 X1.610873816 Y-0.683674775
N5145 X1.574376775 Y-0.686404311
N5150 X1.534086062 Y-0.68912048
N5155 X1.488810562 Y-0.691839128
N5160 X1.437375076 Y-0.694549065
N5165 X1.380087034 Y-0.697146063
N5170 X1.322782021 Y-0.699338538
N5175 X1.265465143 Y-0.701189191
N5180 X1.208139555 Y-0.702750964
N5185 X1.151287499 Y-0.710268171
N5190 X1.144489454 Y-0.712542121
N5195 G2 X1.066482272 Y-0.670375745 I-0.018056584 J0.059834803
N5200 X1.109153342 Y-0.592643445 I0.059950597 J0.017668427
N5205 G1 X2.429936176 Y-0.212672846
N5210 G2 X2.508796782 Y-0.283414717 I0.017279527 J-0.060063873
N5215 G1 X2.507680608 Y-0.288739843
N5220 X2.502846906 Y-0.314287088
N5225 X2.499567768 Y-0.332977528
N5230 X2.497469384 Y-0.351667967
N5235 X2.496072063 Y-0.370358369
N5240 X2.495102019 Y-0.389048809
N5245 X2.49455099 Y-0.407739249
N5250 X2.494548738 Y-0.426429688
N5255 X2.493681269 Y-0.443723296
N5260 X2.493336745 Y-0.449713422
N5265 X2.492808695 Y-0.455690106
N5270 X2.492105379 Y-0.461648731
N5275 X2.491234456 Y-0.467585203
N5280 X2.490203137 Y-0.473495919
N5285 X2.489017727 Y-0.479377649
N5290 X2.487684535 Y-0.485227652
N5295 X2.486209419 Y-0.491043489
N5300 X2.484597935 Y-0.496823056
N5305 X2.482855189 Y-0.502564363
N5310 X2.480985987 Y-0.508265796
N5315 X2.478994685 Y-0.51392574
N5320 X2.476885788 Y-0.519542844
N5325 X2.474663201 Y-0.525116057
N5330 X2.47233113 Y-0.530644252
N5335 X2.469893178 Y-0.536126602
N5340 X2.4673528 Y-0.541562321
N5345 X2.46471375 Y-0.546950768
N5350 X2.461979183 Y-0.552291344
N5355 X2.459151951 Y-0.557583561
N5360 X2.45623536 Y-0.56282693
N5365 X2.453231962 Y-0.568021151
N5370 X2.45014476 Y-0.573165924
N5375 X2.446976309 Y-0.578261098
N5380 X2.44372901 Y-0.583306448
N5385 X2.440405418 Y-0.588301749
N5390 X2.437007634 Y-0.593247038
N5395 X2.433538212 Y-0.598142241
N5400 X2.429999404 Y-0.60298747
N5405 X2.426393013 Y-0.607782687
N5410 X2.422720992 Y-0.612527855
N5415 X2.418985442 Y-0.617223124
N5420 X2.415188316 Y-0.621868719
N5425 X2.411331267 Y-0.626464754
N5430 X2.407416096 Y-0.631011302
N5435 X2.403444455 Y-0.635508665
N5440 X2.399417997 Y-0.639957068
N5445 X2.395338374 Y-0.64435666
N5450 X2.391207087 Y-0.648707743
N5455 X2.387025488 Y-0.653010541
N5460 X2.382795079 Y-0.657265355
N5465 X2.378517211 Y-0.661472561
N5470 X2.374193237 Y-0.665632233
N5475 X2.369824357 Y-0.669744822
N5480 X2.365412074 Y-0.673810779
N5485 X2.360957439 Y-0.677830103
N5490 X2.356461653 Y-0.681803621
N5495 X2.351925767 Y-0.685731182
N5500 X2.347350984 Y-0.689613387
N5505 X2.342738354 Y-0.693450537
N5510 X2.338088929 Y-0.697243007
N5515 X2.33340361 Y-0.700991097
N5520 X2.328683598 Y-0.704695259
N5525 X2.323929644 Y-0.708355791
N5530 X2.319142649 Y-0.71197322
N5535 X2.314323666 Y-0.715547697
N5540 X2.309473593 Y-0.719079896
N5545 X2.304593034 Y-0.722569894
N5550 X2.299683038 Y-0.726018365
N5555 X2.294744206 Y-0.729425385
N5560 X2.289777591 Y-0.732791705
N5565 X2.284783491 Y-0.736117325
N5570 X2.279763109 Y-0.739402996
N5575 X2.274716745 Y-0.742648718
N5580 X2.269645451 Y-0.745855166
N5585 X2.264549676 Y-0.749022717
N5590 X2.259430022 Y-0.752151594
N5595 X2.25428754 Y-0.755242475
N5600 X2.249028814 Y-0.758350553
N5605 X2.243694546 Y-0.76145067
N5610 X2.238259203 Y-0.764556494
N5615 X2.232675928 Y-0.767692581
N5620 X2.227055707 Y-0.770795627
N5625 X2.221268932 Y-0.773935243
N5630 X2.215389041 Y-0.777069828
N5635 X2.209404022 Y-0.780204337
N5640 X2.203246139 Y-0.783371963
N5645 X2.197051461 Y-0.786501216
N5650 X2.1906674 Y-0.78966764
N5655 X2.184177909 Y-0.792827306
N5660 X2.177568871 Y-0.795985319
N5665 X2.170753179 Y-0.799180804
N5670 X2.16390039 Y-0.80233266
N5675 X2.156833288 Y-0.805520411
N5680 X2.149627265 Y-0.808707485
N5685 X2.142302145 Y-0.81188307
N5690 X2.134730572 Y-0.815099806
N5695 X2.127113793 Y-0.818269985
N5700 X2.119256418 Y-0.821472829
N5705 X2.111208157 Y-0.824684834
N5710 X2.103050863 Y-0.827871157
N5715 X2.094600708 Y-0.831100659
N5720 X2.086063295 Y-0.834291939
N5725 X2.077278528 Y-0.837502367
N5730 X2.068223127 Y-0.840736599
N5735 X2.059083924 Y-0.843925326
N5740 X2.049592236 Y-0.847159183
N5745 X2.039929337 Y-0.85037239
N5750 X2.030037257 Y-0.853581391
N5755 X2.019747486 Y-0.856836124
N5760 X2.009413111 Y-0.860021847
N5765 X1.998779717 Y-0.863214478
N5770 X1.987913988 Y-0.866390138
N5775 X1.976666037 Y-0.869588101
N5780 X1.973211484 Y-0.870542977
N5785 G2 X1.919478018 Y-0.761074757 I-0.014538352 J0.060785624
N5790 G1 X2.392891561 Y-0.379922296
N5795 G2 X2.494548738 Y-0.426429688 I0.039195113 J-0.048682558
N5800 G1 X2.494546935 Y-0.63202445
N5805 X2.493995907 Y-0.643029926
N5810 X2.491409122 Y-0.662760772
N5815 X2.486769008 Y-0.684455887
N5820 X2.470312794 Y-0.739390906
N5825 X2.472653727 Y-0.796689987
N5830 X2.48714447 Y-0.852175885
N5835 X2.491239413 Y-0.866274871
N5840 X2.493717464 Y-0.88074579
N5845 X2.494546935 Y-0.89540399
N5850 G2 X2.369584962 Y-0.893222779 I-0.062461913 J0.002181211
N5855 G1 Y-0.63420566
N5860 G2 X2.494546935 Y-0.63202445 I0.06250006 J0.
N5865 G1 X2.49455099 Y-1.342260856
N5870 X2.494921947 Y-1.360951221
N5875 X2.495605439 Y-1.379641585
N5880 X2.495605589 Y-1.379744462 Z-0.3937006
N5885 X2.495200645 Y-1.383342783 Z-0.393472234
N5890 X2.494801479 Y-1.38688975 Z-0.392821289
N5895 X2.494413589 Y-1.390336531 Z-0.391756726
N5900 X2.494042314 Y-1.393635667 Z-0.390293204
N5905 X2.492877126 Y-1.396969827 Z-0.388165849
N5910 X2.49181562 Y-1.400007297 Z-0.385587691
N5915 X2.490876653 Y-1.402694118 Z-0.382604528
N5920 X2.490076906 Y-1.40498256 Z-0.379269357
N5925 X2.489430585 Y-1.406831967 Z-0.375641424
N5930 X2.488879541 Y-1.407914962 Z-0.372557673
N5935 X2.48848135 Y-1.40869755 Z-0.36936157
N5940 X2.488240588 Y-1.409170739 Z-0.36608984
N5945 X2.488160021 Y-1.409329091 Z-0.362780075
N5950 G0 Z0.199999997
N5955 X6.640888725 Y-1.591168351
N5960 Z-0.229330701
N5965 G1 Z-0.291830705 F15.
N5970 X6.64058849 Y-1.591147252 Z-0.297956805
N5975 X6.639690715 Y-1.591084162 Z-0.304023904
N5980 X6.638204046 Y-1.59097969 Z-0.309973572
N5985 X6.636142802 Y-1.590834843 Z-0.31574851
N5990 X6.633526834 Y-1.590651014 Z-0.321293104
N5995 X6.630381335 Y-1.590429974 Z-0.326553955
N6000 X6.626736599 Y-1.590173853 Z-0.331480399
N6005 X6.622627726 Y-1.589885116 Z-0.336024991
N6010 X6.618094288 Y-1.589566544 Z-0.340143966
N6015 X6.613179944 Y-1.589221205 Z-0.343797655
N6020 X6.607932022 Y-1.588852426 Z-0.346950872
N6025 X6.602401064 Y-1.588463757 Z-0.34957325
N6030 X6.596640334 Y-1.588058942 Z-0.351639534
N6035 X6.590705313 Y-1.587641879 Z-0.353129825
N6040 X6.584653158 Y-1.587216585 Z-0.354029772
N6045 X6.578542154 Y-1.586787156 Z-0.354330707
N6050 G2 X6.240228368 Y-1.525894375 Z-0.354330709 I0.111849928 J1.591689151
N6055 G1 X6.236151748 Y-1.524539257
N6060 X6.226088757 Y-1.516825458
N6065 X6.217713243 Y-1.507305986
N6070 X6.211342999 Y-1.496342636
N6075 X6.207221324 Y-1.484351872
N6080 X6.205503208 Y-1.471789202
N6085 X6.206255335 Y-1.459131917
N6090 X6.207003856 Y-1.454403344
N6095 X6.20984896 Y-1.43571298
N6100 X6.215418418 Y-1.3983321
N6105 X6.217415276 Y-1.379641585
N6110 X6.218598734 Y-1.360951221
N6115 X6.219293189 Y-1.342260856
N6120 Y-0.407739249
N6125 X6.218598734 Y-0.389048809
N6130 X6.217415276 Y-0.370358369
N6135 X6.215418418 Y-0.351667967
N6140 X6.20984896 Y-0.314287088
N6145 X6.207003856 Y-0.295596667
N6150 X6.204045814 Y-0.276906228
N6155 X6.196319099 Y-0.239525367
N6160 X6.196113046 Y-0.238769787
N6165 X6.190151305 Y-0.220834946
N6170 X6.18335814 Y-0.202144506
N6175 X6.166345191 Y-0.164763646
N6180 X6.14882762 Y-0.127382785
N6185 X6.139262642 Y-0.108692355
N6190 X6.129402101 Y-0.090001925
N6195 X6.121221227 Y-0.076100587
N6200 X6.118094377 Y-0.07131149
N6205 X6.104155413 Y-0.05262106
N6210 X6.102497972 Y-0.050438704
N6215 X6.089116494 Y-0.033930629
N6220 X6.065052063 Y-0.004803992
N6225 X6.042460644 Y0.022140664
N6230 X6.027606153 Y0.038531057
N6235 X6.004931833 Y0.059521527
N6240 X5.990160244 Y0.072291634
N6245 X5.933991079 Y0.116572699
N6250 X5.915267824 Y0.131215861
N6255 X5.910766481 Y0.134283248
N6260 X5.882224736 Y0.152973678
N6265 X5.877821915 Y0.155816407
N6270 X5.82165275 Y0.18571604
N6275 X5.802930096 Y0.195656855
N6280 X5.784206841 Y0.205278378
N6285 X5.765484187 Y0.214471423
N6290 X5.746760932 Y0.222915815
N6295 X5.728038277 Y0.229749717
N6300 X5.709315022 Y0.236513746
N6305 X5.634423203 Y0.262411335
N6310 X5.626132995 Y0.26511626
N6315 X5.596976693 Y0.273226978
N6320 X5.578254039 Y0.277580595
N6325 X5.503361619 Y0.292279852
N6330 X5.46591571 Y0.299556218
N6335 X5.447193056 Y0.301861125
N6340 X5.428469801 Y0.304020221
N6345 X5.409747146 Y0.305271111
N6350 X5.391023891 Y0.306310428
N6355 X5.372300636 Y0.30706415
N6360 X5.353577982 Y0.307652519
N6365 X5.334854727 Y0.308000553
N6370 X4.342535424 Y0.307995485
N6375 X4.305089515 Y0.307923321
N6380 X4.248920351 Y0.307692073
N6385 X4.174028231 Y0.307238177
N6390 X4.136582322 Y0.306938952
N6395 X4.099136413 Y0.306499699
N6400 X3.986798384 Y0.304915285
N6405 X3.968075129 Y0.304505525
N6410 X3.949352174 Y0.303535067
N6415 X3.911906265 Y0.301238909
N6420 X3.799568236 Y0.293649651
N6425 X3.780845282 Y0.292323574
N6430 X3.743399072 Y0.289382165
N6435 X3.668507253 Y0.282532681
N6440 X3.649783998 Y0.280757363
N6445 X3.631061043 Y0.278471868
N6450 X3.612338089 Y0.275581014
N6455 X3.574892179 Y0.269540276
N6460 X3.537445969 Y0.263035785
N6465 X3.518723015 Y0.259511734
N6470 X3.450851741 Y0.246425839
N6475 X3.443830896 Y0.245034563
N6480 X3.406384986 Y0.237384331
N6485 X3.387662032 Y0.232315908
N6490 X3.368939077 Y0.226748665
N6495 X3.331492867 Y0.215073552
N6500 X3.237878094 Y0.185788279
N6505 X3.200431884 Y0.172897155
N6510 X3.197083961 Y0.171664118
N6515 X3.155906557 Y0.152973678
N6520 X3.115666307 Y0.134283248
N6525 X3.069370901 Y0.113412085
N6530 X3.050647946 Y0.104685975
N6535 X3.031924991 Y0.095399168
N6540 X2.994478781 Y0.071568508
N6545 X2.974269296 Y0.059521527
N6550 X2.957032872 Y0.04942466
N6555 X2.942239656 Y0.040831092
N6560 X2.919586963 Y0.028050992
N6565 X2.909347654 Y0.022140664
N6570 X2.900863708 Y0.016534421
N6575 X2.882140753 Y0.003030366
N6580 X2.863417798 Y-0.010877778
N6585 X2.839508357 Y-0.033930629
N6590 X2.825971889 Y-0.047043008
N6595 X2.82035317 Y-0.05262106
N6600 X2.807248634 Y-0.063925423
N6605 X2.788525679 Y-0.079818119
N6610 X2.776907673 Y-0.090001925
N6615 X2.769802724 Y-0.096620631
N6620 X2.75107977 Y-0.116725982
N6625 X2.741704325 Y-0.127382785
N6630 X2.732356815 Y-0.140776343
N6635 X2.71363386 Y-0.169198907
N6640 X2.706405459 Y-0.183454067
N6645 X2.697737086 Y-0.202144506
N6650 X2.694910605 Y-0.208754821
N6655 X2.683014757 Y-0.239525367
N6660 X2.67618765 Y-0.25617224
N6665 X2.667220409 Y-0.276906228
N6670 X2.660273454 Y-0.295596667
N6675 X2.654505151 Y-0.314287088
N6680 X2.649600112 Y-0.332977528
N6685 X2.646199024 Y-0.351667967
N6690 X2.64375942 Y-0.370358369
N6695 X2.642575662 Y-0.389048809
N6700 X2.641881207 Y-0.407739249
N6705 Y-1.342260856
N6710 X2.642575662 Y-1.360951221
N6715 X2.64375942 Y-1.379641585
N6720 X2.646196621 Y-1.3983321
N6725 X2.649595005 Y-1.417022465
N6730 X2.654192166 Y-1.43571298
N6735 X2.659576296 Y-1.454403344
N6740 X2.666067289 Y-1.473093859
N6745 X2.674281203 Y-1.491784223
N6750 X2.67618765 Y-1.495904998
N6755 X2.682143684 Y-1.510474588
N6760 X2.694910605 Y-1.544272656
N6765 X2.705315117 Y-1.566545982
N6770 X2.71363386 Y-1.58260751
N6775 X2.732356815 Y-1.611030158
N6780 X2.74053919 Y-1.622617226
N6785 X2.75107977 Y-1.634659204
N6790 X2.769802724 Y-1.654608268
N6795 X2.775749146 Y-1.659998105
N6800 X2.788525679 Y-1.671321448
N6805 X2.863417798 Y-1.736084645
N6810 X2.882140753 Y-1.750339748
N6815 X2.900863708 Y-1.764182594
N6820 X2.912970415 Y-1.772140743
N6825 X2.919586963 Y-1.77613401
N6830 X2.943173206 Y-1.790831108
N6835 X2.957032872 Y-1.799591094
N6840 X2.975755827 Y-1.811506767
N6845 X2.994478781 Y-1.823348098
N6850 X3.013201736 Y-1.834868934
N6855 X3.031924991 Y-1.846329096
N6860 X3.050647946 Y-1.855555407
N6865 X3.069370901 Y-1.863909894
N6870 X3.10681681 Y-1.880347184
N6875 X3.115666307 Y-1.884283231
N6880 X3.155906557 Y-1.902973746
N6885 X3.197083961 Y-1.92166411
N6890 X3.200431884 Y-1.922897129
N6895 X3.237878094 Y-1.935788252
N6900 X3.350216122 Y-1.970930625
N6905 X3.368939077 Y-1.976748639
N6910 X3.387662032 Y-1.982315995
N6915 X3.406384986 Y-1.987388341
N6920 X3.443830896 Y-1.99510334
N6925 X3.45067212 Y-1.996425869
N6930 X3.518723015 Y-2.008850518
N6935 X3.612338089 Y-2.025870976
N6940 X3.631061043 Y-2.028645042
N6945 X3.649783998 Y-2.030969755
N6950 X3.668507253 Y-2.032903686
N6955 X3.705953162 Y-2.036079947
N6960 X3.818291191 Y-2.045019105
N6965 X3.837014146 Y-2.046441206
N6970 X3.874460356 Y-2.049033097
N6975 X3.949352174 Y-2.053184209
N6980 X3.968075129 Y-2.054158459
N6985 X3.986798384 Y-2.054845104
N6990 X4.042967248 Y-2.055863358
N6995 X4.174028231 Y-2.057228839
N7000 X4.211474441 Y-2.057542726
N7005 X4.267643305 Y-2.057771457
N7010 X4.342535424 Y-2.05799253
N7015 X5.334854727 Y-2.05800064
N7020 X5.353577982 Y-2.057652511
N7025 X5.372300636 Y-2.057064237
N7030 X5.391023891 Y-2.056310458
N7035 X5.409747146 Y-2.055271179
N7040 X5.428469801 Y-2.054020288
N7045 X5.447193056 Y-2.05186123
N7050 X5.46591571 Y-2.049556342
N7055 X5.503361619 Y-2.042279882
N7060 X5.578254039 Y-2.027580682
N7065 X5.596976693 Y-2.023226971
N7070 X5.626132995 Y-2.015116234
N7075 X5.634423203 Y-2.012411403
N7080 X5.709315022 Y-1.986513663
N7085 X5.733556672 Y-1.977735504
N7090 X5.746760932 Y-1.97291577
N7095 X5.765484187 Y-1.964471472
N7100 X5.784206841 Y-1.955278502
N7105 X5.802930096 Y-1.945656904
N7110 X5.85909926 Y-1.915797136
N7115 X5.877821915 Y-1.905816446
N7120 X5.882224736 Y-1.902973746
N7125 X5.910766481 Y-1.884283231
N7130 X5.915267824 Y-1.881215854
N7135 X5.93523461 Y-1.865592866
N7140 X5.990160244 Y-1.822291697
N7145 X6.004931833 Y-1.809521623
N7150 X6.027606153 Y-1.788531026
N7155 X6.042460644 Y-1.772140743
N7160 X6.065052063 Y-1.745195764
N7165 X6.089116494 Y-1.716069349
N7170 X6.102497972 Y-1.699561172
N7175 X6.104155413 Y-1.697378985
N7180 X6.118094377 Y-1.67868847
N7185 X6.121221227 Y-1.673899373
N7190 X6.129402101 Y-1.659998105
N7195 X6.139943881 Y-1.64001585
N7200 X6.14882762 Y-1.622617226
N7205 X6.166345792 Y-1.585236347
N7210 X6.174852266 Y-1.566545982
N7215 X6.176817296 Y-1.563507431 Z-0.354114758
N7220 X6.178755097 Y-1.560510983 Z-0.353476801
N7225 X6.180639034 Y-1.557597819 Z-0.352425604
N7230 X6.182443213 Y-1.554807978 Z-0.350975615
N7235 X6.184962875 Y-1.552352113 Z-0.348876239
N7240 X6.187261754 Y-1.550111444 Z-0.346330273
N7245 X6.189299523 Y-1.54812528 Z-0.343382379
N7250 X6.191040431 Y-1.546428464 Z-0.340084272
N7255 X6.19245394 Y-1.545050764 Z-0.336493807
N7260 X6.193466061 Y-1.544301487 Z-0.333361799
N7265 X6.194197754 Y-1.543759819 Z-0.330111181
N7270 X6.194640296 Y-1.543432217 Z-0.326780696
N7275 X6.194788415 Y-1.543322586 Z-0.323410034
N7280 G0 Z0.199999997
N7285 X6.59428634 Y-1.591670269
N7290 Z-0.189960622
N7295 G1 Z-0.252460626 F15.
N7300 X6.593986205 Y-1.591648319 Z-0.258586674
N7305 X6.593088655 Y-1.59158269 Z-0.264653728
N7310 X6.591602334 Y-1.591474014 Z-0.270603359
N7315 X6.589541557 Y-1.591323338 Z-0.276378268
N7320 X6.586926169 Y-1.591132111 Z-0.28192284
N7325 X6.583781358 Y-1.590902177 Z-0.287183678
N7330 X6.580137409 Y-1.590635749 Z-0.292110117
N7335 X6.576029416 Y-1.590335392 Z-0.296654712
N7340 X6.571496941 Y-1.590004001 Z-0.300773695
N7345 X6.566583633 Y-1.589644765 Z-0.3044274
N7350 X6.561336811 Y-1.589261145 Z-0.307580638
N7355 X6.555807003 Y-1.588856835 Z-0.310203041
N7360 X6.550047465 Y-1.588435728 Z-0.312269355
N7365 X6.544113665 Y-1.58800188 Z-0.313759679
N7370 X6.538062747 Y-1.58755947 Z-0.31465966
N7375 X6.531952986 Y-1.587112757 Z-0.314960631
N7380 G2 X6.193812813 Y-1.525263599 Z-0.31496063 I0.11635067 J1.59136644
N7385 G1 X6.189973486 Y-1.523975162
N7390 X6.179928517 Y-1.516310174
N7395 X6.171554806 Y-1.506847622
N7400 X6.165168942 Y-1.495944947
N7405 X6.161011223 Y-1.484013204
N7410 X6.15923844 Y-1.4715028
N7415 X6.159917876 Y-1.458885764
N7420 X6.16344542 Y-1.43571298
N7425 X6.169014878 Y-1.3983321
N7430 X6.171011737 Y-1.379641585
N7435 X6.172195194 Y-1.360951221
N7440 X6.172889649 Y-1.342260856
N7445 Y-0.407739249
N7450 X6.172195194 Y-0.389048809
N7455 X6.171011737 Y-0.370358369
N7460 X6.169014878 Y-0.351667967
N7465 X6.16344542 Y-0.314287088
N7470 X6.158667136 Y-0.282899076
N7475 X6.157649483 Y-0.276906228
N7480 X6.153824573 Y-0.258215807
N7485 X6.149738943 Y-0.239525367
N7490 X6.139943881 Y-0.210335086
N7495 X6.136955201 Y-0.202144506
N7500 X6.119941651 Y-0.164763646
N7505 X6.102424081 Y-0.127382785
N7510 X6.092859103 Y-0.108692355
N7515 X6.082998561 Y-0.090001925
N7520 X6.071655994 Y-0.07131149
N7525 X6.057670773 Y-0.05262106
N7530 X6.046329408 Y-0.038307443
N7535 X6.02727094 Y-0.015240199
N7540 X6.008882898 Y0.006918448
N7545 X5.990160244 Y0.029363402
N7550 X5.97880386 Y0.040831092
N7555 X5.958823257 Y0.059521527
N7560 X5.952714334 Y0.065158315
N7565 X5.933991079 Y0.079992606
N7570 X5.877821915 Y0.124248041
N7575 X5.863985077 Y0.134283248
N7580 X5.835756317 Y0.152973678
N7585 X5.82165275 Y0.16097065
N7590 X5.784206841 Y0.180960171
N7595 X5.765484187 Y0.190900949
N7600 X5.746760932 Y0.20077987
N7605 X5.709315022 Y0.219442056
N7610 X5.671869113 Y0.233355958
N7615 X5.653145858 Y0.239890711
N7620 X5.596976693 Y0.259314203
N7625 X5.579234446 Y0.26511626
N7630 X5.559530784 Y0.270771999
N7635 X5.540808129 Y0.275753708
N7640 X5.522084874 Y0.279501949
N7645 X5.500005287 Y0.283806699
N7650 X5.46591571 Y0.290308243
N7655 X5.447193056 Y0.293173978
N7660 X5.428469801 Y0.295921573
N7665 X5.409747146 Y0.298115419
N7670 X5.391023891 Y0.300049838
N7675 X5.372300636 Y0.301482246
N7680 X5.352702103 Y0.30249712
N7685 X5.334854727 Y0.30298203
N7690 X5.297408817 Y0.302689695
N7695 X4.342535424 Y0.302679877
N7700 X4.305089515 Y0.302571687
N7705 X4.28636626 Y0.302288551
N7710 X4.230197396 Y0.301297124
N7715 X4.136582322 Y0.299558827
N7720 X4.117859367 Y0.298970609
N7725 X4.099136413 Y0.298272268
N7730 X4.080413158 Y0.297528533
N7735 X3.968075129 Y0.292674801
N7740 X3.949352174 Y0.291744011
N7745 X3.93062922 Y0.290687385
N7750 X3.911906265 Y0.289585853
N7755 X3.799568236 Y0.281983849
N7760 X3.780845282 Y0.28042553
N7765 X3.762122027 Y0.278350781
N7770 X3.743399072 Y0.276118827
N7775 X3.705953162 Y0.270568911
N7780 X3.574892179 Y0.249463104
N7785 X3.537445969 Y0.243338675
N7790 X3.518723015 Y0.239595034
N7795 X3.50000006 Y0.235650352
N7800 X3.481277105 Y0.230490467
N7805 X3.443830896 Y0.21948882
N7810 X3.406384986 Y0.208370967
N7815 X3.368939077 Y0.196901982
N7820 X3.331492867 Y0.185202764
N7825 X3.312769912 Y0.178693918
N7830 X3.293591597 Y0.171664118
N7835 X3.275324003 Y0.164017339
N7840 X3.237878094 Y0.146696211
N7845 X3.162985974 Y0.111911109
N7850 X3.14426302 Y0.102458714
N7855 X3.125539765 Y0.092729997
N7860 X3.10681681 Y0.081061801
N7865 X3.102556664 Y0.078211957
N7870 X3.088093855 Y0.068381687
N7875 X3.031924991 Y0.028325484
N7880 X2.99599595 Y0.003450232
N7885 X2.994478781 Y0.002304328
N7890 X2.975755827 Y-0.013092065
N7895 X2.973485331 Y-0.015240199
N7900 X2.957032872 Y-0.031164746
N7905 X2.938309917 Y-0.052198688
N7910 X2.906518471 Y-0.090001925
N7915 X2.900863708 Y-0.096368799
N7920 X2.882140753 Y-0.116808058
N7925 X2.872833492 Y-0.127382785
N7930 X2.863417798 Y-0.140911031
N7935 X2.844694843 Y-0.169333604
N7940 X2.837469446 Y-0.183454067
N7945 X2.828868055 Y-0.202144506
N7950 X2.825971889 Y-0.209975881
N7955 X2.816050372 Y-0.239525367
N7960 X2.810535281 Y-0.258215807
N7965 X2.805200712 Y-0.276906228
N7970 X2.799622844 Y-0.295596667
N7975 X2.794128478 Y-0.314287088
N7980 X2.78944391 Y-0.332977528
N7985 X2.786042822 Y-0.351667967
N7990 X2.783603218 Y-0.370358369
N7995 X2.78241946 Y-0.389048809
N8000 X2.781725005 Y-0.407739249
N8005 Y-1.342260856
N8010 X2.78241946 Y-1.360951221
N8015 X2.783603218 Y-1.379641585
N8020 X2.786042822 Y-1.3983321
N8025 X2.78944391 Y-1.417022465
N8030 X2.793777946 Y-1.43571298
N8035 X2.803798886 Y-1.473093859
N8040 X2.808768505 Y-1.491784223
N8045 X2.813949585 Y-1.510474588
N8050 X2.820221007 Y-1.529165103
N8055 X2.825971889 Y-1.54608704
N8060 X2.835537467 Y-1.566545982
N8065 X2.844694843 Y-1.583867862
N8070 X2.863417798 Y-1.61229036
N8075 X2.870767849 Y-1.622617226
N8080 X2.882140753 Y-1.636053371
N8085 X2.903321033 Y-1.659998105
N8090 X2.938309917 Y-1.699234369
N8095 X2.957032872 Y-1.719702022
N8100 X2.972692054 Y-1.734759864
N8105 X2.975755827 Y-1.737650023
N8110 X2.994478781 Y-1.75289109
N8115 X2.995203574 Y-1.753450228
N8120 X3.022834898 Y-1.772140743
N8125 X3.031924991 Y-1.778325509
N8130 X3.088093855 Y-1.818381632
N8135 X3.102556664 Y-1.828211987
N8140 X3.10681681 Y-1.831061746
N8145 X3.125539765 Y-1.842729914
N8150 X3.14426302 Y-1.852458744
N8155 X3.162985974 Y-1.861911083
N8160 X3.256601048 Y-1.905373851
N8165 X3.275324003 Y-1.914017294
N8170 X3.293591597 Y-1.92166411
N8175 X3.312769912 Y-1.928693967
N8180 X3.331492867 Y-1.935202831
N8185 X3.368939077 Y-1.946906593
N8190 X3.408326277 Y-1.95904499
N8195 X3.481277105 Y-1.979435297
N8200 X3.50000006 Y-1.984612172
N8205 X3.518723015 Y-1.988621359
N8210 X3.537445969 Y-1.99244747
N8215 X3.612338089 Y-2.006064738
N8220 X3.631061043 Y-2.009157947
N8225 X3.649783998 Y-2.012084751
N8230 X3.670118137 Y-2.015116234
N8235 X3.762122027 Y-2.028008258
N8240 X3.780845282 Y-2.030326513
N8245 X3.799568236 Y-2.031993415
N8250 X3.822347085 Y-2.033806748
N8255 X3.837014146 Y-2.034868856
N8260 X3.874460356 Y-2.037281277
N8265 X3.986798384 Y-2.043507944
N8270 X4.005521339 Y-2.044516886
N8275 X4.042967248 Y-2.046283211
N8280 X4.099136413 Y-2.048046833
N8285 X4.174028231 Y-2.050361934
N8290 X4.211474441 Y-2.051380638
N8295 X4.230197396 Y-2.051650671
N8300 X4.32381247 Y-2.052502069
N8305 X4.342535424 Y-2.052659763
N8310 X4.379981334 Y-2.0526898
N8315 X5.297408817
N8320 X5.334854727 Y-2.05298206
N8325 X5.352702103 Y-2.052497113
N8330 X5.372300636 Y-2.051482313
N8335 X5.391023891 Y-2.050049849
N8340 X5.409747146 Y-2.048115467
N8345 X5.428469801 Y-2.045921566
N8350 X5.447193056 Y-2.043173933
N8355 X5.46591571 Y-2.040308254
N8360 X5.503361619 Y-2.03316666
N8365 X5.522084874 Y-2.029501998
N8370 X5.540808129 Y-2.025753682
N8375 X5.559530784 Y-2.020772048
N8380 X5.579234446 Y-2.015116234
N8385 X5.596976693 Y-2.009314289
N8390 X5.653145858 Y-1.989890722
N8395 X5.671869113 Y-1.983355875
N8400 X5.709315022 Y-1.969442142
N8405 X5.746760932 Y-1.950779862
N8410 X5.766513254 Y-1.940354625
N8415 X5.802930096 Y-1.920978066
N8420 X5.82165275 Y-1.910970643
N8425 X5.835756317 Y-1.902973746
N8430 X5.863985077 Y-1.884283231
N8435 X5.877821915 Y-1.874248024
N8440 X5.936249861 Y-1.828211987
N8445 X5.952714334 Y-1.815158363
N8450 X5.958823257 Y-1.809521623
N8455 X5.978803259 Y-1.790831108
N8460 X5.990160244 Y-1.779363437
N8465 X6.011773057 Y-1.753450228
N8470 X6.027606153 Y-1.734353914
N8475 X6.046329408 Y-1.71169236
N8480 X6.057670773 Y-1.697378985
N8485 X6.071655994 Y-1.67868847
N8490 X6.082998561 Y-1.659998105
N8495 X6.092859103 Y-1.641307741
N8500 X6.102497972 Y-1.622459832
N8505 X6.119942252 Y-1.585236347
N8510 X6.128448727 Y-1.566545982
N8515 X6.130413757 Y-1.563507431 Z-0.31474468
N8520 X6.132351557 Y-1.560510983 Z-0.314106722
N8525 X6.134235494 Y-1.557597819 Z-0.313055525
N8530 X6.136039674 Y-1.554807978 Z-0.311605536
N8535 X6.138559337 Y-1.552352112 Z-0.309506157
N8540 X6.140858217 Y-1.550111442 Z-0.306960188
N8545 X6.142895985 Y-1.548125278 Z-0.304012291
N8550 X6.144636893 Y-1.546428462 Z-0.300714179
N8555 X6.146050401 Y-1.545050764 Z-0.29712371
N8560 X6.147062521 Y-1.544301488 Z-0.293991706
N8565 X6.147794213 Y-1.543759821 Z-0.290741094
N8570 X6.148236755 Y-1.543432218 Z-0.287410612
N8575 X6.148384875 Y-1.543322586 Z-0.284039956
N8580 G0 Z0.199999997
N8585 X6.547882801 Y-1.591670269
N8590 Z-0.150590553
N8595 G1 Z-0.213090547 F15.
N8600 X6.547582665 Y-1.591648319 Z-0.219216595
N8605 X6.546685115 Y-1.59158269 Z-0.225283649
N8610 X6.545198795 Y-1.591474014 Z-0.23123328
N8615 X6.543138018 Y-1.591323338 Z-0.237008189
N8620 X6.54052263 Y-1.591132111 Z-0.242552762
N8625 X6.537377819 Y-1.590902177 Z-0.247813599
N8630 X6.53373387 Y-1.590635749 Z-0.252740038
N8635 X6.529625877 Y-1.590335392 Z-0.257284633
N8640 X6.525093401 Y-1.590004001 Z-0.261403617
N8645 X6.520180094 Y-1.589644765 Z-0.265057321
N8650 X6.514933271 Y-1.589261145 Z-0.268210559
N8655 X6.509403463 Y-1.588856835 Z-0.270832963
N8660 X6.503643926 Y-1.588435728 Z-0.272899276
N8665 X6.497710125 Y-1.58800188 Z-0.2743896
N8670 X6.491659207 Y-1.58755947 Z-0.275289581
N8675 X6.485549446 Y-1.587112757 Z-0.275590552
N8680 G2 X6.147409274 Y-1.525263599 Z-0.275590551 I0.11635067 J1.59136644
N8685 G1 X6.143569346 Y-1.523975162
N8690 X6.133500347 Y-1.516280888
N8695 X6.125112218 Y-1.506781991
N8700 X6.11872275 Y-1.495838165
N8705 X6.114574042 Y-1.483864071
N8710 X6.112823486 Y-1.471313116
N8715 X6.113536564 Y-1.458660787
N8720 X6.117041881 Y-1.43571298
N8725 X6.122611939 Y-1.3983321
N8730 X6.124608198 Y-1.379641585
N8735 X6.125791655 Y-1.360951221
N8740 X6.12648611 Y-1.342260856
N8745 Y-0.407739249
N8750 X6.125791655 Y-0.389048809
N8755 X6.124608198 Y-0.370358369
N8760 X6.122611339 Y-0.351667967
N8765 X6.117041881 Y-0.314287088
N8770 X6.114196777 Y-0.295596667
N8775 X6.11129941 Y-0.276906228
N8780 X6.1077995 Y-0.258215807
N8785 X6.103335403 Y-0.239525367
N8790 X6.09706368 Y-0.220834946
N8795 X6.090551662 Y-0.202144506
N8800 X6.073538713 Y-0.164763646
N8805 X6.056020541 Y-0.127382785
N8810 X6.046329408 Y-0.108452697
N8815 X6.036595022 Y-0.090001925
N8820 X6.027606153 Y-0.074909531
N8825 X6.008882898 Y-0.049502258
N8830 X5.996309416 Y-0.033930629
N8835 X5.965402558 Y0.003450232
N8840 X5.949904074 Y0.022140664
N8845 X5.933991079 Y0.039405325
N8850 X5.912711677 Y0.059521527
N8855 X5.89654517 Y0.07292312
N8860 X5.840376005 Y0.11720999
N8865 X5.82165275 Y0.131350502
N8870 X5.789648942 Y0.152973678
N8875 X5.784206841 Y0.156176391
N8880 X5.746760932 Y0.176204321
N8885 X5.709315022 Y0.196085877
N8890 X5.690591767 Y0.205649635
N8895 X5.671869113 Y0.215105184
N8900 X5.653145858 Y0.222998923
N8905 X5.634423203 Y0.230054142
N8910 X5.615699948 Y0.236793165
N8915 X5.578254039 Y0.24975497
N8920 X5.559530784 Y0.256277295
N8925 X5.540808129 Y0.262706017
N8930 X5.503361619 Y0.272718828
N8935 X5.484638965 Y0.275872636
N8940 X5.46591571 Y0.278767282
N8945 X5.428469801 Y0.284090774
N8950 X5.409747146 Y0.286647447
N8955 X5.391023891 Y0.289144891
N8960 X5.372300636 Y0.290804304
N8965 X5.353577982 Y0.291583163
N8970 X5.334854727 Y0.291767195
N8975 X5.316132072 Y0.291201881
N8980 X5.297408817 Y0.290746914
N8985 X4.342535424 Y0.290737115
N8990 X4.305089515 Y0.290628906
N8995 X4.267643305 Y0.29004525
N9000 X4.136582322 Y0.287628474
N9005 X4.117859367 Y0.287070819
N9010 X4.099136413 Y0.286415337
N9015 X4.080413158 Y0.285697471
N9020 X4.005521339 Y0.282461643
N9025 X3.986798384 Y0.281570446
N9030 X3.968075129 Y0.280309812
N9035 X3.93062922 Y0.277452732
N9040 X3.911906265 Y0.275684604
N9045 X3.874460356 Y0.271287584
N9050 X3.762122027 Y0.257914967
N9055 X3.743399072 Y0.255627332
N9060 X3.705953162 Y0.25046617
N9065 X3.668507253 Y0.244467052
N9070 X3.649783998 Y0.241405175
N9075 X3.631061043 Y0.237804942
N9080 X3.612338089 Y0.233470136
N9085 X3.537445969 Y0.214939437
N9090 X3.50000006 Y0.205606269
N9095 X3.481277105 Y0.200352012
N9100 X3.462554151 Y0.194863954
N9105 X3.443830896 Y0.189304502
N9110 X3.425107941 Y0.183676753
N9115 X3.406384986 Y0.177492664
N9120 X3.387662032 Y0.170052709
N9125 X3.368939077 Y0.162470866
N9130 X3.34733137 Y0.152973678
N9135 X3.331492867 Y0.145820267
N9140 X3.256601048 Y0.111041754
N9145 X3.237878094 Y0.101626116
N9150 X3.219154839 Y0.091333033
N9155 X3.200431884 Y0.080064601
N9160 X3.181708929 Y0.067046895
N9165 X3.125539765 Y0.026990689
N9170 X3.088093855 Y-0.000367144
N9175 X3.070514709 Y-0.015240199
N9180 X3.050647946 Y-0.034787324
N9185 X3.03498606 Y-0.05262106
N9190 X3.005160534 Y-0.090001925
N9195 X2.97549841 Y-0.127382785
N9200 X2.962068873 Y-0.146073216
N9205 X2.950197355 Y-0.164763646
N9210 X2.940654304 Y-0.183454067
N9215 X2.931649216 Y-0.202144506
N9220 X2.924864461 Y-0.220834946
N9225 X2.91869126 Y-0.239525367
N9230 X2.913660966 Y-0.258215807
N9235 X2.899188845 Y-0.314287088
N9240 X2.894985169 Y-0.332977528
N9245 X2.891554945 Y-0.351667967
N9250 X2.889160397 Y-0.370358369
N9255 X2.887976639 Y-0.389048809
N9260 X2.887282184 Y-0.407739249
N9265 Y-1.342260856
N9270 X2.887976639 Y-1.360951221
N9275 X2.889160397 Y-1.379641585
N9280 X2.891554945 Y-1.3983321
N9285 X2.894985169 Y-1.417022465
N9290 X2.899188845 Y-1.43571298
N9295 X2.913660966 Y-1.491784223
N9300 X2.91869126 Y-1.510474588
N9305 X2.924864461 Y-1.529165103
N9310 X2.931649216 Y-1.547855467
N9315 X2.940654304 Y-1.566545982
N9320 X2.950197355 Y-1.585236347
N9325 X2.962068873 Y-1.603926861
N9330 X2.975755827 Y-1.622941475
N9335 X3.005160534 Y-1.659998105
N9340 X3.03498606 Y-1.697378985
N9345 X3.050647946 Y-1.715212694
N9350 X3.070515009 Y-1.734759864
N9355 X3.088093855 Y-1.749632828
N9360 X3.125539765 Y-1.776990665
N9365 X3.181708929 Y-1.817046939
N9370 X3.200431884 Y-1.830064668
N9375 X3.219154839 Y-1.841333044
N9380 X3.237878094 Y-1.851626118
N9385 X3.256601048 Y-1.861041812
N9390 X3.331492867 Y-1.895826295
N9395 X3.34712802 Y-1.902973746
N9400 X3.368939077 Y-1.912246914
N9405 X3.392708846 Y-1.92166411
N9410 X3.406384986 Y-1.927027665
N9415 X3.425107941 Y-1.933020044
N9420 X3.450301163 Y-1.940354625
N9425 X3.574892179 Y-1.975158031
N9430 X3.584521737 Y-1.977735504
N9435 X3.612338089 Y-1.984627641
N9440 X3.631061043 Y-1.988544764
N9445 X3.649783998 Y-1.991842375
N9450 X3.668507253 Y-1.994565378
N9455 X3.780845282 Y-2.010316623
N9460 X3.799568236 Y-2.012842434
N9465 X3.818291191 Y-2.015266719
N9470 X3.837014146 Y-2.017543372
N9475 X3.949352174 Y-2.028515132
N9480 X3.968075129 Y-2.030273798
N9485 X3.986798384 Y-2.031748013
N9490 X4.005521339 Y-2.03275275
N9495 X4.042967248 Y-2.034399228
N9500 X4.174028231 Y-2.038471342
N9505 X4.211474441 Y-2.039444991
N9510 X4.230197396 Y-2.039707965
N9515 X4.32381247 Y-2.040559213
N9520 X4.342535424 Y-2.040716907
N9525 X4.379981334 Y-2.040746944
N9530 X5.297408817
N9535 X5.316132072 Y-2.041201854
N9540 X5.334854727 Y-2.04176715
N9545 X5.353577982 Y-2.041583174
N9550 X5.372300636 Y-2.040804315
N9555 X5.391023891 Y-2.039144921
N9560 X5.409747146 Y-2.036647496
N9565 X5.430467861 Y-2.033806748
N9570 X5.46591571 Y-2.028767293
N9575 X5.484638965 Y-2.025872629
N9580 X5.503361619 Y-2.022718895
N9585 X5.540808129 Y-2.012706066
N9590 X5.559530784 Y-2.00627725
N9595 X5.596976693 Y-1.99326763
N9600 X5.615699948 Y-1.986793158
N9605 X5.634423203 Y-1.98005421
N9610 X5.653145858 Y-1.972998972
N9615 X5.671869113 Y-1.965105252
N9620 X5.690591767 Y-1.955649759
N9625 X5.709315022 Y-1.946085982
N9630 X5.746760932 Y-1.926204351
N9635 X5.784206841 Y-1.906176439
N9640 X5.789648341 Y-1.902973746
N9645 X5.82165275 Y-1.88135057
N9650 X5.840376005 Y-1.867210058
N9655 X5.89654517 Y-1.822923075
N9660 X5.912711677 Y-1.809521623
N9665 X5.933991079 Y-1.789405252
N9670 X5.949904074 Y-1.772140743
N9675 X5.980867401 Y-1.734759864
N9680 X5.996309416 Y-1.716069349
N9685 X6.008882898 Y-1.700497725
N9690 X6.027606153 Y-1.675090489
N9695 X6.036595022 Y-1.659998105
N9700 X6.046455564 Y-1.641307741
N9705 X6.056020541 Y-1.622617226
N9710 X6.073538713 Y-1.585236347
N9715 X6.082045187 Y-1.566545982
N9720 X6.084010365 Y-1.563507435 Z-0.275374629
N9725 X6.085948316 Y-1.560510986 Z-0.274736682
N9730 X6.087832404 Y-1.557597821 Z-0.273685475
N9735 X6.089636735 Y-1.554807978 Z-0.272235457
N9740 X6.092156276 Y-1.552352114 Z-0.270136033
N9745 X6.094455032 Y-1.550111449 Z-0.267590042
N9750 X6.096492677 Y-1.548125287 Z-0.264642145
N9755 X6.098233466 Y-1.546428471 Z-0.261344057
N9760 X6.099646861 Y-1.545050764 Z-0.257753631
N9765 X6.100658981 Y-1.544301488 Z-0.254621628
N9770 X6.101390673 Y-1.543759821 Z-0.251371015
N9775 X6.101833216 Y-1.543432218 Z-0.248040534
N9780 X6.101981336 Y-1.543322586 Z-0.244669877
N9785 G0 Z0.199999997
N9790 X6.501479262 Y-1.591670269
N9795 Z-0.111220474
N9800 G1 Z-0.173720469 F15.
N9805 X6.501179126 Y-1.591648319 Z-0.179846517
N9810 X6.500281576 Y-1.59158269 Z-0.18591357
N9815 X6.498795256 Y-1.591474014 Z-0.191863201
N9820 X6.496734478 Y-1.591323338 Z-0.19763811
N9825 X6.49411909 Y-1.591132111 Z-0.203182683
N9830 X6.490974279 Y-1.590902177 Z-0.208443521
N9835 X6.48733033 Y-1.590635749 Z-0.213369959
N9840 X6.483222337 Y-1.590335392 Z-0.217914554
N9845 X6.478689862 Y-1.590004001 Z-0.222033538
N9850 X6.473776554 Y-1.589644765 Z-0.225687242
N9855 X6.468529732 Y-1.589261145 Z-0.22884048
N9860 X6.462999924 Y-1.588856835 Z-0.231462884
N9865 X6.457240386 Y-1.588435728 Z-0.233529198
N9870 X6.451306586 Y-1.58800188 Z-0.235019521
N9875 X6.445255668 Y-1.58755947 Z-0.235919503
N9880 X6.439145907 Y-1.587112757 Z-0.236220473
N9885 G2 X6.101005734 Y-1.525263599 Z-0.236220472 I0.11635067 J1.59136644
N9890 G1 X6.097166407 Y-1.523975162
N9895 X6.087120236 Y-1.516304016
N9900 X6.078746525 Y-1.506835757
N9905 X6.072360662 Y-1.495927375
N9910 X6.068204144 Y-1.483990376
N9915 X6.066433163 Y-1.471475015
N9920 X6.067115003 Y-1.458853474
N9925 X6.070638942 Y-1.43571298
N9930 X6.0762084 Y-1.3983321
N9935 X6.078204658 Y-1.379641585
N9940 X6.079388115 Y-1.360951221
N9945 X6.08008257 Y-1.342260856
N9950 Y-0.407739249
N9955 X6.079388115 Y-0.389048809
N9960 X6.078204658 Y-0.370358369
N9965 X6.0762084 Y-0.351667967
N9970 X6.070638942 Y-0.314287088
N9975 X6.064934918 Y-0.276906228
N9980 X6.061404972 Y-0.258215807
N9985 X6.056931864 Y-0.239525367
N9990 X6.046329408 Y-0.207926664
N9995 X6.044148122 Y-0.202144506
N10000 X6.027135173 Y-0.164763646
N10005 X6.008882898 Y-0.125817079
N10010 X6.000052024 Y-0.108692355
N10015 X5.990160244 Y-0.089942273
N10020 X5.978245773 Y-0.07131149
N10025 X5.964686476 Y-0.05262106
N10030 X5.952714334 Y-0.037329471
N10035 X5.903568418 Y0.022140664
N10040 X5.89654517 Y0.030076734
N10045 X5.886159581 Y0.040831092
N10050 X5.866596492 Y0.059521527
N10055 X5.85909926 Y0.065666456
N10060 X5.843442782 Y0.078211957
N10065 X5.784206841 Y0.12490847
N10070 X5.765484187 Y0.13789207
N10075 X5.743583619 Y0.152973678
N10080 X5.728038277 Y0.161405173
N10085 X5.708872878 Y0.171664118
N10090 X5.671869113 Y0.191330009
N10095 X5.653145858 Y0.201107329
N10100 X5.634423203 Y0.210670073
N10105 X5.615699948 Y0.219493832
N10110 X5.59432623 Y0.227735399
N10115 X5.578254039 Y0.233869947
N10120 X5.559530784 Y0.240670565
N10125 X5.543524675 Y0.246425839
N10130 X5.540808129 Y0.247305716
N10135 X5.522084874 Y0.252234204
N10140 X5.503361619 Y0.257104682
N10145 X5.46591571 Y0.263260181
N10150 X5.428469801 Y0.268973046
N10155 X5.409747146 Y0.271561991
N10160 X5.391023891 Y0.2740006
N10165 X5.372300636 Y0.275849921
N10170 X5.353577982 Y0.276660056
N10175 X5.334854727 Y0.276585432
N10180 X5.297408817 Y0.276329255
N10185 X4.342535424 Y0.276311833
N10190 X4.305089515 Y0.276123257
N10195 X4.267643305 Y0.275173638
N10200 X4.248920351 Y0.274604155
N10205 X4.136582322 Y0.270928604
N10210 X4.117859367 Y0.270095904
N10215 X4.099136413 Y0.269181278
N10220 X4.080413158 Y0.268019335
N10225 X3.93062922 Y0.25661461
N10230 X3.911906265 Y0.254970216
N10235 X3.874460356 Y0.250754356
N10240 X3.837014146 Y0.246296811
N10245 X3.818291191 Y0.243897344
N10250 X3.799568236 Y0.24145224
N10255 X3.780845282 Y0.238452784
N10260 X3.72212808 Y0.227735399
N10265 X3.705953162 Y0.224719348
N10270 X3.668507253 Y0.216466817
N10275 X3.649783998 Y0.211900576
N10280 X3.562794483 Y0.190354539
N10285 X3.556169225 Y0.188689176
N10290 X3.537445969 Y0.183832345
N10295 X3.50000006 Y0.171296634
N10300 X3.462554151 Y0.157572059
N10305 X3.450275331 Y0.152973678
N10310 X3.443830896 Y0.150437608
N10315 X3.425107941 Y0.142341965
N10320 X3.406384986 Y0.134173866
N10325 X3.350216122 Y0.109485979
N10330 X3.331492867 Y0.100424984
N10335 X3.312769912 Y0.089379108
N10340 X3.293964656 Y0.078211957
N10345 X3.275324003 Y0.065437767
N10350 X3.256601048 Y0.052327964
N10355 X3.214225769 Y0.022140664
N10360 X3.200431884 Y0.011838394
N10365 X3.181708929 Y-0.002290353
N10370 X3.165764396 Y-0.015240199
N10375 X3.162985974 Y-0.017869311
N10380 X3.146783423 Y-0.033930629
N10385 X3.14426302 Y-0.036715642
N10390 X3.13047334 Y-0.05262106
N10395 X3.100647513 Y-0.090001925
N10400 X3.069370901 Y-0.129414318
N10405 X3.057395154 Y-0.146073216
N10410 X3.050647946 Y-0.156293563
N10415 X3.04551072 Y-0.164763646
N10420 X3.036140983 Y-0.183454067
N10425 X3.027135894 Y-0.202144506
N10430 X3.020016528 Y-0.220834946
N10435 X3.014039768 Y-0.239525367
N10440 X3.013201736 Y-0.242552138
N10445 X2.994478781 Y-0.315051717
N10450 X2.990488067 Y-0.332977528
N10455 X2.987086679 Y-0.351667967
N10460 X2.984647075 Y-0.370358369
N10465 X2.983463317 Y-0.389048809
N10470 X2.982768862 Y-0.407739249
N10475 Y-1.342260856
N10480 X2.983463317 Y-1.360951221
N10485 X2.984647075 Y-1.379641585
N10490 X2.987086679 Y-1.3983321
N10495 X2.990488067 Y-1.417022465
N10500 X2.994478781 Y-1.434948388
N10505 X3.013201736 Y-1.507447911
N10510 X3.014039768 Y-1.510474588
N10515 X3.020016528 Y-1.529165103
N10520 X3.027135894 Y-1.547855467
N10525 X3.036140983 Y-1.566545982
N10530 X3.04551072 Y-1.585236347
N10535 X3.050647946 Y-1.593706476
N10540 X3.057395154 Y-1.603926861
N10545 X3.069370901 Y-1.620585674
N10550 X3.100647513 Y-1.659998105
N10555 X3.13047334 Y-1.697378985
N10560 X3.14426302 Y-1.71328432
N10565 X3.146783423 Y-1.716069349
N10570 X3.162985974 Y-1.732130576
N10575 X3.165764696 Y-1.734759864
N10580 X3.181708929 Y-1.74770956
N10585 X3.200431884 Y-1.761838357
N10590 X3.214225769 Y-1.772140743
N10595 X3.266691373 Y-1.809521623
N10600 X3.275324003 Y-1.815653673
N10605 X3.294046958 Y-1.828348806
N10610 X3.331492867 Y-1.850294729
N10615 X3.350216122 Y-1.859296664
N10620 X3.368939077 Y-1.867118896
N10625 X3.500522704 Y-1.92166411
N10630 X3.518723015 Y-1.928461931
N10635 X3.537445969 Y-1.934248256
N10640 X3.559161209 Y-1.940354625
N10645 X3.574892179 Y-1.944716296
N10650 X3.593615134 Y-1.949182946
N10655 X3.612338089 Y-1.953372505
N10660 X3.631061043 Y-1.957483667
N10665 X3.743399072 Y-1.981667947
N10670 X3.762122027 Y-1.985603843
N10675 X3.780845282 Y-1.989299894
N10680 X3.799568236 Y-1.992404367
N10685 X3.832813173 Y-1.996425869
N10690 X3.986798384 Y-2.01145878
N10695 X4.005521339 Y-2.013215343
N10700 X4.042967248 Y-2.015457454
N10705 X4.174028231 Y-2.022611663
N10710 X4.211474441 Y-2.024077618
N10715 X4.230197396 Y-2.024516609
N10720 X4.305089515 Y-2.025738513
N10725 X4.342535424 Y-2.026275425
N10730 X4.361258379 Y-2.026329341
N10735 X5.297408817
N10740 X5.334854727 Y-2.026585406
N10745 X5.353577982 Y-2.026660048
N10750 X5.372300636 Y-2.025849951
N10755 X5.391023891 Y-2.024000573
N10760 X5.409747146 Y-2.021562021
N10765 X5.428469801 Y-2.018973133
N10770 X5.46591571 Y-2.013260248
N10775 X5.503361619 Y-2.007104618
N10780 X5.522084874 Y-2.002234271
N10785 X5.540808129 Y-1.997305652
N10790 X5.543524675 Y-1.996425869
N10795 X5.559530784 Y-1.990670632
N10800 X5.578254039 Y-1.983869958
N10805 X5.596976693 Y-1.976713346
N10810 X5.615699948 Y-1.969493806
N10815 X5.634423203 Y-1.960670141
N10820 X5.653145858 Y-1.951107416
N10825 X5.673706175 Y-1.940354625
N10830 X5.709315022 Y-1.921427419
N10835 X5.728038277 Y-1.911405128
N10840 X5.743583619 Y-1.902973746
N10845 X5.770716029 Y-1.884283231
N10850 X5.784206841 Y-1.874908537
N10855 X5.843442782 Y-1.828211987
N10860 X5.85909926 Y-1.815666439
N10865 X5.866596492 Y-1.809521623
N10870 X5.886159581 Y-1.790831108
N10875 X5.89654517 Y-1.780076665
N10880 X5.903567817 Y-1.772140743
N10885 X5.952714334 Y-1.712670364
N10890 X5.964686476 Y-1.697378985
N10895 X5.978245773 Y-1.67868847
N10900 X5.990191482 Y-1.659998105
N10905 X6.000052024 Y-1.641307741
N10910 X6.008882898 Y-1.624183054
N10915 X6.027606153 Y-1.584201572
N10920 X6.035641648 Y-1.566545982
N10925 X6.037606825 Y-1.563507435 Z-0.236004551
N10930 X6.039544776 Y-1.560510986 Z-0.235366603
N10935 X6.041428865 Y-1.557597821 Z-0.234315396
N10940 X6.043233196 Y-1.554807978 Z-0.232865379
N10945 X6.045752736 Y-1.552352114 Z-0.230765954
N10950 X6.048051492 Y-1.550111449 Z-0.228219963
N10955 X6.050089137 Y-1.548125287 Z-0.225272067
N10960 X6.051829926 Y-1.546428471 Z-0.221973978
N10965 X6.053243322 Y-1.545050764 Z-0.218383552
N10970 X6.054255442 Y-1.544301488 Z-0.215251549
N10975 X6.054987134 Y-1.543759821 Z-0.212000936
N10980 X6.055429677 Y-1.543432218 Z-0.208670455
N10985 X6.055577796 Y-1.543322586 Z-0.205299798
N10990 G0 Z0.199999997
N10995 X6.454679234 Y-1.591670269
N11000 Z-0.071513916
N11005 G1 Z-0.13401391 F15.
N11010 X6.454379098 Y-1.591648319 Z-0.140139958
N11015 X6.453481547 Y-1.59158269 Z-0.146207011
N11020 X6.451995226 Y-1.591474014 Z-0.152156642
N11025 X6.449934448 Y-1.591323337 Z-0.157931551
N11030 X6.44731906 Y-1.591132111 Z-0.163476123
N11035 X6.444174249 Y-1.590902177 Z-0.16873696
N11040 X6.4405303 Y-1.590635748 Z-0.173663398
N11045 X6.436422306 Y-1.590335392 Z-0.178207992
N11050 X6.431889831 Y-1.590004001 Z-0.182326975
N11055 X6.426976523 Y-1.589644765 Z-0.185980679
N11060 X6.421729701 Y-1.589261145 Z-0.189133916
N11065 X6.416199894 Y-1.588856835 Z-0.191756319
N11070 X6.410440356 Y-1.588435728 Z-0.193822632
N11075 X6.404506556 Y-1.58800188 Z-0.195312955
N11080 X6.398455639 Y-1.58755947 Z-0.196212935
N11085 X6.392345879 Y-1.587112757 Z-0.196513905
N11090 G2 X6.054205707 Y-1.525263599 Z-0.196513904 I0.11635067 J1.59136644
N11095 G1 X6.05053759 Y-1.524032683
N11100 X6.040395902 Y-1.516231627
N11105 X6.031957912 Y-1.506614235
N11110 X6.025542011 Y-1.495544404
N11115 X6.021392101 Y-1.483441751
N11120 X6.019664374 Y-1.47076434
N11125 X6.020425511 Y-1.457992313
N11130 X6.023838914 Y-1.43571298
N11135 X6.029408372 Y-1.3983321
N11140 X6.03140463 Y-1.379641585
N11145 X6.032588088 Y-1.360951221
N11150 X6.033282543 Y-1.342260856
N11155 Y-0.407739249
N11160 X6.032588088 Y-0.389048809
N11165 X6.03140463 Y-0.370358369
N11170 X6.029408372 Y-0.351667967
N11175 X6.023838914 Y-0.314287088
N11180 X6.02099321 Y-0.295596667
N11185 X6.018035168 Y-0.276906228
N11190 X6.014172411 Y-0.258215807
N11195 X6.010131836 Y-0.239525367
N11200 X6.003860714 Y-0.220834946
N11205 X5.997350498 Y-0.202144506
N11210 X5.980344757 Y-0.164763646
N11215 X5.962816974 Y-0.127382785
N11220 X5.952714334 Y-0.107615238
N11225 X5.943455133 Y-0.090001925
N11230 X5.933991079 Y-0.075283454
N11235 X5.915267824 Y-0.049083453
N11240 X5.903105848 Y-0.033930629
N11245 X5.872221819 Y0.003450232
N11250 X5.85909926 Y0.019287759
N11255 X5.856601385 Y0.022140664
N11260 X5.840376005 Y0.039932301
N11265 X5.82165275 Y0.057922639
N11270 X5.802930096 Y0.073243046
N11275 X5.746760932 Y0.117534568
N11280 X5.728038277 Y0.131304827
N11285 X5.709315022 Y0.144500751
N11290 X5.696740338 Y0.152973678
N11295 X5.690591767 Y0.156400016
N11300 X5.662099283 Y0.171664118
N11305 X5.623873012 Y0.190354539
N11310 X5.615699948 Y0.194321017
N11315 X5.596976693 Y0.202736836
N11320 X5.58276199 Y0.209044978
N11325 X5.578254039 Y0.210804733
N11330 X5.559530784 Y0.217321201
N11335 X5.540808129 Y0.223658085
N11340 X5.503361619 Y0.232898232
N11345 X5.46591571 Y0.240707735
N11350 X5.437406405 Y0.246425839
N11355 X5.428469801 Y0.248204329
N11360 X5.409747146 Y0.251093756
N11365 X5.391023891 Y0.253349064
N11370 X5.372300636 Y0.25469718
N11375 X5.353577982 Y0.255240099
N11380 X5.334854727 Y0.255465038
N11385 X5.297408817 Y0.255105664
N11390 X4.342535424 Y0.255088243
N11395 X4.305089515 Y0.254899667
N11400 X4.267643305 Y0.253968596
N11405 X4.248920351 Y0.253402661
N11410 X4.136582322 Y0.249727091
N11415 X4.117859367 Y0.248951424
N11420 X4.099136413 Y0.24811296
N11425 X4.080413158 Y0.24699427
N11430 X4.042967248 Y0.244114718
N11435 X4.024244293 Y0.242188446
N11440 X3.93062922 Y0.231245578
N11445 X3.911906265 Y0.228934551
N11450 X3.89318331 Y0.22645573
N11455 X3.874460356 Y0.223777707
N11460 X3.705953162 Y0.192983357
N11465 X3.691804841 Y0.190354539
N11470 X3.687230208 Y0.18945846
N11475 X3.668507253 Y0.185228971
N11480 X3.631061043 Y0.173198989
N11485 X3.626597247 Y0.171664118
N11490 X3.50000006 Y0.125153525
N11495 X3.462554151 Y0.110967676
N11500 X3.443830896 Y0.102030996
N11505 X3.425107941 Y0.092498233
N11510 X3.406384986 Y0.082039054
N11515 X3.387662032 Y0.07134018
N11520 X3.368939077 Y0.059325122
N11525 X3.341284023 Y0.040831092
N11530 X3.312769912 Y0.021594392
N11535 X3.294046958 Y0.008545373
N11540 X3.275324003 Y-0.005965961
N11545 X3.263874505 Y-0.015240199
N11550 X3.256601048 Y-0.022611266
N11555 X3.237878094 Y-0.042441295
N11560 X3.228602372 Y-0.05262106
N11565 X3.197166263 Y-0.090001925
N11570 X3.181708929 Y-0.109175904
N11575 X3.167275256 Y-0.127382785
N11580 X3.162985974 Y-0.133070383
N11585 X3.141755532 Y-0.164763646
N11590 X3.132444066 Y-0.183454067
N11595 X3.123438677 Y-0.202144506
N11600 X3.116777675 Y-0.220834946
N11605 X3.110505953 Y-0.239525367
N11610 X3.10681681 Y-0.252910843
N11615 X3.090978607 Y-0.314287088
N11620 X3.088093855 Y-0.325816598
N11625 X3.083389462 Y-0.351667967
N11630 X3.080949858 Y-0.370358369
N11635 X3.079766401 Y-0.389048809
N11640 X3.079071646 Y-0.407739249
N11645 Y-1.342260856
N11650 X3.079766401 Y-1.360951221
N11655 X3.080949858 Y-1.379641585
N11660 X3.083389462 Y-1.3983321
N11665 X3.088093855 Y-1.424183433
N11670 X3.090978607 Y-1.43571298
N11675 X3.10681681 Y-1.497089206
N11680 X3.110505953 Y-1.510474588
N11685 X3.116777675 Y-1.529165103
N11690 X3.123438978 Y-1.547855467
N11695 X3.132444066 Y-1.566545982
N11700 X3.141755532 Y-1.585236347
N11705 X3.162985974 Y-1.616929572
N11710 X3.167275256 Y-1.622617226
N11715 X3.182079285 Y-1.641307741
N11720 X3.197033499 Y-1.659998105
N11725 X3.219154839 Y-1.685809488
N11730 X3.229367414 Y-1.697378985
N11735 X3.237878094 Y-1.706498214
N11740 X3.256601048 Y-1.726223052
N11745 X3.265185919 Y-1.734759864
N11750 X3.275324003 Y-1.743065241
N11755 X3.294046958 Y-1.757639036
N11760 X3.312769912 Y-1.770257124
N11765 X3.331492867 Y-1.782287988
N11770 X3.387662032 Y-1.818035006
N11775 X3.406384986 Y-1.829859816
N11780 X3.425107941 Y-1.8413784
N11785 X3.443830896 Y-1.851010811
N11790 X3.462554151 Y-1.860355017
N11795 X3.50000006 Y-1.875912223
N11800 X3.537445969 Y-1.891003106
N11805 X3.556169225 Y-1.897586612
N11810 X3.574892179 Y-1.903630955
N11815 X3.631372527 Y-1.92166411
N11820 X3.668507253 Y-1.93334219
N11825 X3.698145649 Y-1.940354625
N11830 X3.705953162 Y-1.942133115
N11835 X3.743399072 Y-1.950194592
N11840 X3.762122027 Y-1.954081227
N11845 X3.786703095 Y-1.95904499
N11850 X3.799568236 Y-1.961292207
N11855 X3.949352174 Y-1.983763627
N11860 X3.968075129 Y-1.986474165
N11865 X4.005521339 Y-1.991186968
N11870 X4.042967248 Y-1.994238876
N11875 X4.061690203 Y-1.995356102
N11880 X4.174028231 Y-2.001480793
N11885 X4.211474441 Y-2.002868052
N11890 X4.230197396 Y-2.003292925
N11895 X4.305089515 Y-2.00451498
N11900 X4.342535424 Y-2.005051891
N11905 X4.361258379 Y-2.005105657
N11910 X5.297408817
N11915 X5.334854727 Y-2.005465049
N11920 X5.353577982 Y-2.005240072
N11925 X5.372300636 Y-2.004697154
N11930 X5.391023891 Y-2.003349094
N11935 X5.409747146 Y-2.001093767
N11940 X5.428469801 Y-1.998204359
N11945 X5.447193056 Y-1.994478271
N11950 X5.46591571 Y-1.990707728
N11955 X5.503361619 Y-1.982898262
N11960 X5.540808129 Y-1.973657983
N11965 X5.559530784 Y-1.967321231
N11970 X5.578254039 Y-1.960804706
N11975 X5.582761389 Y-1.95904499
N11980 X5.596976693 Y-1.952736772
N11985 X5.615699948 Y-1.944321009
N11990 X5.634423203 Y-1.935197275
N11995 X5.662099283 Y-1.92166411
N12000 X5.690591767 Y-1.906400065
N12005 X5.696740338 Y-1.902973746
N12010 X5.709315022 Y-1.894500762
N12015 X5.728038277 Y-1.881304763
N12020 X5.746760932 Y-1.867534607
N12025 X5.802930096 Y-1.823242968
N12030 X5.82165275 Y-1.807922604
N12035 X5.840376005 Y-1.789932251
N12040 X5.856601385 Y-1.772140743
N12045 X5.85909926 Y-1.76928768
N12050 X5.89654517 Y-1.724010227
N12055 X5.903105848 Y-1.716069349
N12060 X5.915267824 Y-1.70091644
N12065 X5.933991079 Y-1.674716529
N12070 X5.943455133 Y-1.659998105
N12075 X5.953280231 Y-1.641307741
N12080 X5.962816974 Y-1.622617226
N12085 X5.980344757 Y-1.585236347
N12090 X5.988854236 Y-1.566545982
N12095 X5.990819733 Y-1.563507698 Z-0.196297963
N12100 X5.992757994 Y-1.560511516 Z-0.195660008
N12105 X5.994642378 Y-1.557598615 Z-0.194608808
N12110 X5.996446985 Y-1.55480903 Z-0.193158811
N12115 X5.998966959 Y-1.552353502 Z-0.191059427
N12120 X6.001266119 Y-1.550113142 Z-0.188513457
N12125 X6.003304132 Y-1.548127253 Z-0.185565563
N12130 X6.005045245 Y-1.546430673 Z-0.182267459
N12135 X6.006458914 Y-1.545053166 Z-0.178677003
N12140 X6.007471079 Y-1.544304022 Z-0.175544981
N12145 X6.008202785 Y-1.54376245 Z-0.172294358
N12150 X6.008645313 Y-1.543434905 Z-0.168963877
N12155 X6.008793388 Y-1.543325289 Z-0.165593231
N12160 G0 Z0.199999997
N12165 X6.408672783 Y-1.591670269
N12170 Z-0.032480314
N12175 G1 Z-0.094980311 F15.
N12180 X6.408372607 Y-1.591648319 Z-0.101106414
N12185 X6.407475013 Y-1.59158269 Z-0.107173515
N12190 X6.405988644 Y-1.591474013 Z-0.113123185
N12195 X6.403927816 Y-1.591323335 Z-0.118898125
N12200 X6.401312376 Y-1.591132108 Z-0.12444272
N12205 X6.398167513 Y-1.590902172 Z-0.129703571
N12210 X6.394523513 Y-1.590635743 Z-0.134630016
N12215 X6.390415471 Y-1.590335386 Z-0.139174608
N12220 X6.38588295 Y-1.590003994 Z-0.143293583
N12225 X6.380969601 Y-1.589644758 Z-0.146947272
N12230 X6.375722742 Y-1.589261138 Z-0.150100488
N12235 X6.370192903 Y-1.588856828 Z-0.152722865
N12240 X6.36443334 Y-1.588435722 Z-0.154789148
N12245 X6.358499522 Y-1.588001876 Z-0.156279437
N12250 X6.352448593 Y-1.587559467 Z-0.157179382
N12255 X6.346338828 Y-1.587112757 Z-0.157480316
N12260 G2 X6.008198655 Y-1.525263599 Z-0.157480315 I0.11635067 J1.59136644
N12265 G1 X6.00419052 Y-1.523918542
N12270 X5.994135939 Y-1.516280137
N12275 X5.985761027 Y-1.50682975
N12280 X5.979387779 Y-1.495929328
N12285 X5.975258895 Y-1.483996234
N12290 X5.97353357 Y-1.471487631
N12295 X5.974277887 Y-1.45888246
N12300 X5.974986159 Y-1.454403344
N12305 X5.977831863 Y-1.43571298
N12310 X5.983401321 Y-1.3983321
N12315 X5.985397579 Y-1.379641585
N12320 X5.986581637 Y-1.360951221
N12325 X5.987276092 Y-1.342260856
N12330 Y-0.407739249
N12335 X5.986581637 Y-0.389048809
N12340 X5.985397579 Y-0.370358369
N12345 X5.983401321 Y-0.351667967
N12350 X5.977831863 Y-0.314287088
N12355 X5.974986159 Y-0.295596667
N12360 X5.972028717 Y-0.276906228
N12365 X5.96816536 Y-0.258215807
N12370 X5.964125385 Y-0.239525367
N12375 X5.952714334 Y-0.205518261
N12380 X5.95135486 Y-0.202144506
N12385 X5.942899449 Y-0.183454067
N12390 X5.933991079 Y-0.164024304
N12395 X5.915267824 Y-0.124093829
N12400 X5.907397533 Y-0.108692355
N12405 X5.89654517 Y-0.087710037
N12410 X5.885145533 Y-0.07131149
N12415 X5.871789286 Y-0.05262106
N12420 X5.85909926 Y-0.036351502
N12425 X5.82165275 Y0.008972031
N12430 X5.810488003 Y0.022140664
N12435 X5.802930096 Y0.030841201
N12440 X5.79350449 Y0.040831092
N12445 X5.784206841 Y0.049906598
N12450 X5.773538304 Y0.059521527
N12455 X5.765484187 Y0.066169693
N12460 X5.750727616 Y0.078211957
N12465 X5.746760932 Y0.081386613
N12470 X5.726821179 Y0.096902387
N12475 X5.709315022 Y0.110265317
N12480 X5.7021506 Y0.115592818
N12485 X5.690591767 Y0.122475878
N12490 X5.67048621 Y0.134283248
N12495 X5.653145858 Y0.144191896
N12500 X5.634423203 Y0.154395704
N12505 X5.615699948 Y0.164282754
N12510 X5.596976693 Y0.173598012
N12515 X5.578254039 Y0.182840467
N12520 X5.558120848 Y0.190354539
N12525 X5.540808129 Y0.196087905
N12530 X5.484638965 Y0.211589599
N12535 X5.46591571 Y0.216180997
N12540 X5.447193056 Y0.219978197
N12545 X5.428469801 Y0.223538012
N12550 X5.409747146 Y0.225969806
N12555 X5.390946396 Y0.227735399
N12560 X5.372300636 Y0.228415174
N12565 X5.334854727 Y0.228454353
N12570 X4.361258379 Y0.228434979
N12575 X4.342535424 Y0.228407965
N12580 X4.305089515 Y0.228122407
N12585 X4.28636626 Y0.227500172
N12590 X4.267643305 Y0.226842437
N12595 X4.248920351 Y0.22599087
N12600 X4.136582322 Y0.220347465
N12605 X4.099136413 Y0.218371876
N12610 X4.080413158 Y0.216797581
N12615 X4.061690203 Y0.214742469
N12620 X4.042967248 Y0.212642602
N12625 X3.93062922 Y0.199511201
N12630 X3.911906265 Y0.197269184
N12635 X3.89318331 Y0.194949653
N12640 X3.874460356 Y0.192453336
N12645 X3.863185072 Y0.190354539
N12650 X3.8557371 Y0.188758092
N12655 X3.837014146 Y0.184575235
N12660 X3.762122027 Y0.164289381
N12665 X3.668507253 Y0.138873444
N12670 X3.631061043 Y0.127696944
N12675 X3.612338089 Y0.120946413
N12680 X3.593615134 Y0.113993067
N12685 X3.574892179 Y0.105938949
N12690 X3.556169225 Y0.096610653
N12695 X3.537445969 Y0.086390653
N12700 X3.443830896 Y0.033584723
N12705 X3.425107941 Y0.022972705
N12710 X3.387662032 Y-0.002911645
N12715 X3.373292037 Y-0.015240199
N12720 X3.350216122 Y-0.037356073
N12725 X3.334798738 Y-0.05262106
N12730 X3.312769912 Y-0.074667039
N12735 X3.298308906 Y-0.090001925
N12740 X3.294046958 Y-0.094911067
N12745 X3.266855375 Y-0.127382785
N12750 X3.256601048 Y-0.142275208
N12755 X3.241787107 Y-0.164763646
N12760 X3.237878094 Y-0.170955001
N12765 X3.231297891 Y-0.183454067
N12770 X3.222885432 Y-0.202144506
N12775 X3.219154839 Y-0.212657189
N12780 X3.210137735 Y-0.239525367
N12785 X3.205210168 Y-0.258215807
N12790 X3.200431884 Y-0.277194977
N12795 X3.196240823 Y-0.295596667
N12800 X3.192153991 Y-0.314287088
N12805 X3.188437815 Y-0.332977528
N12810 X3.185082383 Y-0.351667967
N12815 X3.182677322 Y-0.370358369
N12820 X3.181493564 Y-0.389048809
N12825 X3.180799109 Y-0.407739249
N12830 Y-1.342260856
N12835 X3.181493564 Y-1.360951221
N12840 X3.182677322 Y-1.379641585
N12845 X3.185116926 Y-1.3983321
N12850 X3.188518014 Y-1.417022465
N12855 X3.192763742 Y-1.43571298
N12860 X3.200431884 Y-1.463711956
N12865 X3.208680941 Y-1.491784223
N12870 X3.214384665 Y-1.510474588
N12875 X3.220794257 Y-1.529165103
N12880 X3.22734202 Y-1.547855467
N12885 X3.236126637 Y-1.566545982
N12890 X3.237878094 Y-1.569989723
N12895 X3.246313681 Y-1.585236347
N12900 X3.258625842 Y-1.603926861
N12905 X3.271632758 Y-1.622617226
N12910 X3.275324003 Y-1.627087781
N12915 X3.287371538 Y-1.641307741
N12920 X3.350216122 Y-1.711745976
N12925 X3.37365158 Y-1.734759864
N12930 X3.387662032 Y-1.746943917
N12935 X3.425107941 Y-1.773061377
N12940 X3.452924894 Y-1.790831108
N12945 X3.462554151 Y-1.796958653
N12950 X3.481277105 Y-1.807807111
N12955 X3.484330365 Y-1.809521623
N12960 X3.50000006 Y-1.8181523
N12965 X3.537445969 Y-1.836531632
N12970 X3.558793856 Y-1.846902352
N12975 X3.574892179 Y-1.854628916
N12980 X3.593615134 Y-1.862613197
N12985 X3.612338089 Y-1.869172374
N12990 X3.631061043 Y-1.875646546
N12995 X3.705953162 Y-1.899584973
N13000 X3.71669499 Y-1.902973746
N13005 X3.743399072 Y-1.911096348
N13010 X3.762122027 Y-1.916212547
N13015 X3.799568236 Y-1.92470115
N13020 X3.837014146 Y-1.933038366
N13025 X3.874460356 Y-1.94094365
N13030 X3.89318331 Y-1.943813985
N13035 X3.949352174 Y-1.952241762
N13040 X3.968075129 Y-1.954908746
N13045 X4.005521339 Y-1.959296249
N13050 X4.174028231 Y-1.973389002
N13055 X4.192751486 Y-1.974290262
N13060 X4.211474441 Y-1.975100209
N13065 X4.230197396 Y-1.975686231
N13070 X4.305089515 Y-1.977562642
N13075 X4.342535424 Y-1.978351563
N13080 X4.361258379 Y-1.978435066
N13085 X5.353577982 Y-1.978443777
N13090 X5.372300636 Y-1.978415241
N13095 X5.391023891 Y-1.977728145
N13100 X5.409747146 Y-1.97596978
N13105 X5.428469801 Y-1.973537986
N13110 X5.447193056 Y-1.969978152
N13115 X5.46591571 Y-1.966181027
N13120 X5.484638965 Y-1.961589573
N13125 X5.540808129 Y-1.946087785
N13130 X5.558120247 Y-1.940354625
N13135 X5.578254039 Y-1.932840422
N13140 X5.60086408 Y-1.92166411
N13145 X5.615699948 Y-1.914282671
N13150 X5.634423203 Y-1.904395697
N13155 X5.653145858 Y-1.894191832
N13160 X5.671869113 Y-1.883471181
N13165 X5.690591767 Y-1.872475842
N13170 X5.702149999 Y-1.865592866
N13175 X5.709315022 Y-1.860265206
N13180 X5.728038277 Y-1.845973758
N13185 X5.746760932 Y-1.831386596
N13190 X5.750727616 Y-1.828211987
N13195 X5.765484187 Y-1.816169709
N13200 X5.773538304 Y-1.809521623
N13205 X5.784206841 Y-1.799906633
N13210 X5.79350449 Y-1.790831108
N13215 X5.802930096 Y-1.780841107
N13220 X5.810488003 Y-1.772140743
N13225 X5.82165275 Y-1.758971928
N13230 X5.85909926 Y-1.713648368
N13235 X5.871789286 Y-1.697378985
N13240 X5.885145533 Y-1.67868847
N13245 X5.89654517 Y-1.662289927
N13250 X5.907397533 Y-1.641307741
N13255 X5.915267824 Y-1.625906276
N13260 X5.934337706 Y-1.585236347
N13265 X5.942899449 Y-1.566545982
N13270 X5.944872093 Y-1.563512251 Z-0.157264399
N13275 X5.946817407 Y-1.560520555 Z-0.156626453
N13280 X5.948708651 Y-1.557612013 Z-0.155575244
N13285 X5.950519832 Y-1.554826601 Z-0.154125221
N13290 X5.953045423 Y-1.552376928 Z-0.152025806
N13295 X5.955349697 Y-1.550141914 Z-0.149479819
N13300 X5.957392234 Y-1.548160766 Z-0.146531923
N13305 X5.959137201 Y-1.546468237 Z-0.143233833
N13310 X5.960553988 Y-1.545094017 Z-0.139643405
N13315 X5.961567938 Y-1.544347257 Z-0.136511388
N13320 X5.96230095 Y-1.543807418 Z-0.133260768
N13325 X5.962744288 Y-1.543480934 Z-0.129930284
N13330 X5.962892668 Y-1.543371696 Z-0.126559631
N13335 G0 Z0.199999997
N13340 X6.362043966 Y-1.591670269
N13345 Z0.007081024
N13350 G1 Z-0.055418977 F15.
N13355 X6.36174379 Y-1.591648319 Z-0.06154508
N13360 X6.360846195 Y-1.59158269 Z-0.067612181
N13365 X6.359359826 Y-1.591474013 Z-0.07356185
N13370 X6.357298998 Y-1.591323335 Z-0.07933679
N13375 X6.354683558 Y-1.591132108 Z-0.084881384
N13380 X6.351538694 Y-1.590902172 Z-0.090142236
N13385 X6.347894695 Y-1.590635743 Z-0.09506868
N13390 X6.343786653 Y-1.590335386 Z-0.099613272
N13395 X6.339254132 Y-1.590003994 Z-0.103732246
N13400 X6.334340782 Y-1.589644758 Z-0.107385935
N13405 X6.329093923 Y-1.589261138 Z-0.11053915
N13410 X6.323564085 Y-1.588856828 Z-0.113161527
N13415 X6.317804522 Y-1.588435722 Z-0.115227809
N13420 X6.311870704 Y-1.588001876 Z-0.116718099
N13425 X6.305819776 Y-1.587559467 Z-0.117618043
N13430 X6.299710011 Y-1.587112757 Z-0.117918977
N13435 G2 X5.961569839 Y-1.525263599 Z-0.117918976 I0.11635067 J1.59136644
N13440 G1 X5.957830234 Y-1.524008653
N13445 X5.947707169 Y-1.516248448
N13450 X5.939281193 Y-1.506671755
N13455 X5.932873103 Y-1.495642625
N13460 X5.928726797 Y-1.483579771
N13465 X5.92699907 Y-1.470941859
N13470 X5.927755401 Y-1.45820873
N13475 X5.931203046 Y-1.43571298
N13480 X5.936773706 Y-1.3983321
N13485 X5.938768762 Y-1.379641585
N13490 X5.93995282 Y-1.360951221
N13495 X5.940647275 Y-1.342260856
N13500 Y-0.407739249
N13505 X5.93995282 Y-0.389048809
N13510 X5.938768762 Y-0.370358369
N13515 X5.936773706 Y-0.351667967
N13520 X5.931203046 Y-0.314287088
N13525 X5.928357342 Y-0.295596667
N13530 X5.9253999 Y-0.276906228
N13535 X5.921536543 Y-0.258215807
N13540 X5.917495968 Y-0.239525367
N13545 X5.911224846 Y-0.220834946
N13550 X5.904744666 Y-0.202144506
N13555 X5.896362545 Y-0.183454067
N13560 X5.887708889 Y-0.164763646
N13565 X5.870181106 Y-0.127382785
N13570 X5.860893069 Y-0.108692355
N13575 X5.85909926 Y-0.105163967
N13580 X5.851200735 Y-0.090001925
N13585 X5.840376005 Y-0.07400309
N13590 X5.82165275 Y-0.047763854
N13595 X5.810054869 Y-0.033930629
N13600 X5.784206841 Y-0.003919229
N13605 X5.777690016 Y0.003450232
N13610 X5.765484187 Y0.015873008
N13615 X5.759145181 Y0.022140664
N13620 X5.746760932 Y0.034281719
N13625 X5.73939406 Y0.040831092
N13630 X5.728038277 Y0.04972678
N13635 X5.709315022 Y0.063997085
N13640 X5.690367691 Y0.078211957
N13645 X5.664895726 Y0.096902387
N13650 X5.653145858 Y0.105434994
N13655 X5.637426902 Y0.115592818
N13660 X5.634423203 Y0.117359762
N13665 X5.615699948 Y0.128179732
N13670 X5.596976693 Y0.137275101
N13675 X5.578254039 Y0.146320016
N13680 X5.559467105 Y0.152973678
N13685 X5.540808129 Y0.158843619
N13690 X5.49424239 Y0.171664118
N13695 X5.46591571 Y0.179400819
N13700 X5.447193056 Y0.183466607
N13705 X5.428469801 Y0.186996366
N13710 X5.409747146 Y0.189913802
N13715 X5.391023891 Y0.192348394
N13720 X5.372300636 Y0.194163191
N13725 X5.353577982 Y0.195269491
N13730 X5.334854727 Y0.195972919
N13735 X4.361258379 Y0.195967794
N13740 X4.342535424 Y0.19594078
N13745 X4.305089515 Y0.19565526
N13750 X4.28636626 Y0.195321943
N13755 X4.267643305 Y0.194356423
N13760 X4.099136413 Y0.181803027
N13765 X4.080413158 Y0.179846568
N13770 X4.061690203 Y0.177525573
N13775 X4.042967248 Y0.174786463
N13780 X3.89318331 Y0.148790643
N13785 X3.874460356 Y0.145366201
N13790 X3.8557371 Y0.141553907
N13795 X3.837014146 Y0.137558021
N13800 X3.799568236 Y0.127414296
N13805 X3.760892913 Y0.115592818
N13810 X3.743399072 Y0.108744535
N13815 X3.705953162 Y0.093181706
N13820 X3.631061043 Y0.061964102
N13825 X3.593615134 Y0.046050929
N13830 X3.583534421 Y0.040831092
N13835 X3.556169225 Y0.026202277
N13840 X3.54966021 Y0.022140664
N13845 X3.518723015 Y0.001470869
N13850 X3.50000006 Y-0.013790058
N13855 X3.478838703 Y-0.033930629
N13860 X3.422409418 Y-0.090001925
N13865 X3.406384986 Y-0.106650065
N13870 X3.404454809 Y-0.108692355
N13875 X3.387989435 Y-0.127382785
N13880 X3.387662032 Y-0.127786342
N13885 X3.375057611 Y-0.146073216
N13890 X3.362745751 Y-0.164763646
N13895 X3.352966609 Y-0.183454067
N13900 X3.344012283 Y-0.202144506
N13905 X3.336054284 Y-0.220834946
N13910 X3.320756747 Y-0.258215807
N13915 X3.312769912 Y-0.27812725
N13920 X3.3065066 Y-0.295596667
N13925 X3.300926028 Y-0.314287088
N13930 X3.296189496 Y-0.332977528
N13935 X3.292816643 Y-0.351667967
N13940 X3.290398365 Y-0.370358369
N13945 X3.289214908 Y-0.389048809
N13950 X3.288520152 Y-0.407739249
N13955 Y-1.342260856
N13960 X3.289214908 Y-1.360951221
N13965 X3.290398365 Y-1.379641585
N13970 X3.292837969 Y-1.3983321
N13975 X3.296239357 Y-1.417022465
N13980 X3.3009032 Y-1.43571298
N13985 X3.306371434 Y-1.454403344
N13990 X3.312064344 Y-1.473093859
N13995 X3.317986736 Y-1.491784223
N14000 X3.324199586 Y-1.510474588
N14005 X3.331492867 Y-1.531015531
N14010 X3.337874525 Y-1.547855467
N14015 X3.350216122 Y-1.573452537
N14020 X3.356140617 Y-1.585236347
N14025 X3.368939077 Y-1.60447023
N14030 X3.381985341 Y-1.622617226
N14035 X3.387662032 Y-1.629442681
N14040 X3.398011576 Y-1.641307741
N14045 X3.406384986 Y-1.649919194
N14050 X3.417134323 Y-1.659998105
N14055 X3.425107941 Y-1.667099149
N14060 X3.438280661 Y-1.67868847
N14065 X3.503121504 Y-1.734759864
N14070 X3.518723015 Y-1.747556071
N14075 X3.554227333 Y-1.772140743
N14080 X3.556169225 Y-1.77338082
N14085 X3.574892179 Y-1.783043569
N14090 X3.593615134 Y-1.7926114
N14095 X3.668507253 Y-1.829365858
N14100 X3.687230208 Y-1.83802477
N14105 X3.707722041 Y-1.846902352
N14110 X3.724676117 Y-1.853647007
N14115 X3.743399072 Y-1.860076424
N14120 X3.759833208 Y-1.865592866
N14125 X3.780845282 Y-1.871828845
N14130 X3.799568236 Y-1.877245415
N14135 X3.915030712 Y-1.902973746
N14140 X3.93062922 Y-1.906364771
N14145 X3.949352174 Y-1.910250356
N14150 X3.968075129 Y-1.913963828
N14155 X4.005521339 Y-1.918838231
N14160 X4.136582322 Y-1.935118878
N14165 X4.174028231 Y-1.939510736
N14170 X4.185752869 Y-1.940354625
N14175 X4.211474441 Y-1.941510148
N14180 X4.230197396 Y-1.942260472
N14185 X4.305089515 Y-1.94505286
N14190 X4.32381247 Y-1.945570698
N14195 X4.342535424 Y-1.945902607
N14200 X4.361258379 Y-1.945967787
N14205 X5.334854727 Y-1.945972893
N14210 X5.353577982 Y-1.945269427
N14215 X5.372300636 Y-1.944163165
N14220 X5.391023891 Y-1.94234833
N14225 X5.409747146 Y-1.939913832
N14230 X5.428469801 Y-1.93699634
N14235 X5.447193056 Y-1.933466543
N14240 X5.46591571 Y-1.929400737
N14245 X5.503361619 Y-1.919165934
N14250 X5.540808129 Y-1.908843574
N14255 X5.559530784 Y-1.90295317
N14260 X5.578254039 Y-1.896319953
N14265 X5.603135477 Y-1.884283231
N14270 X5.615699948 Y-1.878179715
N14275 X5.634423203 Y-1.867359642
N14280 X5.637426902 Y-1.865592866
N14285 X5.653145858 Y-1.855434958
N14290 X5.664895125 Y-1.846902352
