%
(PINEWOOD DERBY 2)
(T2  D=0.24 CR=0. - ZMIN=-1.249606291 - FLAT END MILL)
N10 G90 G94 G17 G91.1
N15 G20
N20 G53 G0 Z0.
(ADAPTIVE2)
N25 M9
N30 T2 M6
N35 S3000 M3
N40 G54
N45 M8
N50 G0 X5.19706666 Y-1.897802128
N55 G43 Z0.599999991 H2
N60 G0 Z0.199999997
N65 Z-0.345700782
N70 G1 Z-0.369700785 F15.
N75 X5.197350872 Y-1.89772147 Z-0.373455156
N80 X5.198196597 Y-1.897481496 Z-0.377117094
N85 X5.199583013 Y-1.897088115 Z-0.38059643
N90 X5.201475984 Y-1.896551011 Z-0.383807491
N95 X5.203828899 Y-1.895883409 Z-0.386671207
N100 X5.206583823 Y-1.895101747 Z-0.389117065
N105 X5.209672922 Y-1.894225271 Z-0.391084836
N110 X5.213020133 Y-1.893275563 Z-0.392526067
N115 X5.216543038 Y-1.892276005 Z-0.393405268
N120 X5.22015489 Y-1.891251211 Z-0.393700787
N125 G2 X5.350284727 Y-1.869110047 I0.167242336 J-0.589449725
N130 G1 X5.351915134 Y-1.869067996
N135 X5.376070879 Y-1.867621114
N140 X5.456588625 Y-1.862478181
N145 X5.46464094 Y-1.861926702
N150 X5.472692655 Y-1.860921815
N155 X5.480744369 Y-1.859653953
N160 X5.577366146 Y-1.840694458
N165 X5.58541786 Y-1.839074112
N170 X5.609573004 Y-1.833342605
N175 X5.703476433 Y-1.80089455
N180 G2 X5.728242529 Y-1.840594885 I0.007843258 J-0.02268213
N185 G1 X5.674291295 Y-1.894244096
N190 G2 X5.639984303 Y-1.893772717 I-0.016922838 J0.017018206
N195 X5.641205555 Y-1.859484094 I0.017384154 J0.016546826
N200 X5.747793603 Y-1.781618314 I0.412627092 J-0.452945739
N205 G1 X5.8269717 Y-1.739570437
N210 X5.832165696 Y-1.736484588
N215 X5.84307573 Y-1.72953508
N220 X5.844566165 Y-1.728433324
N225 X5.867230873 Y-1.710660138
N230 X5.9119187 Y-1.675432461
N235 X5.912231085 Y-1.675239173
N240 G3 X5.922375777 Y-1.669441133 I-0.061326515 J0.119076076
N245 G1 X5.924837381 Y-1.667660663
N250 X5.927054338 Y-1.665583483
N255 X5.935811921 Y-1.656268863
N260 X5.956181203 Y-1.634604687
N265 X5.964804822 Y-1.625433494
N270 X5.966741618 Y-1.623092885
N275 X5.968367209 Y-1.620526351
N280 G3 X5.973529365 Y-1.610043894 I-0.117462639 J0.064363254
N285 G1 X5.973817119 Y-1.609558496
N290 X5.995338019 Y-1.583510722
N295 X5.995602345 Y-1.583255858
N300 G3 X6.005330724 Y-1.574516296 I-0.09522025 J0.115773359
N305 G1 X6.007805374 Y-1.571675734
N310 X6.009805034 Y-1.568482917
N315 X6.01439889 Y-1.559679377
N320 X6.041302418 Y-1.508124044
N325 X6.045815175 Y-1.499476545
N330 X6.047290663 Y-1.496010138
N335 X6.048205518 Y-1.492355527
N340 G3 X6.049810695 Y-1.479377146 I-0.147823424 J0.024873028
N345 G1 X6.049916425 Y-1.47884429
N350 X6.055738194 Y-1.462741762
N355 X6.058021605 Y-1.454690498
N360 X6.060952014 Y-1.43858797
N365 X6.062322301 Y-1.430536706
N370 X6.069676557 Y-1.382229272
N375 X6.071273924 Y-1.369749805
N380 G2 X6.092018668 Y-1.349734059 I0.02369738 J-0.003801932
N385 G1 X6.095744575 Y-1.34927219 Z-0.39340529
N390 X6.099378732 Y-1.348821694 Z-0.392526111
N395 X6.102831655 Y-1.348393664 Z-0.391084897
N400 X6.106018322 Y-1.347998639 Z-0.389117139
N405 X6.108860266 Y-1.347646346 Z-0.386671288
N410 X6.11128751 Y-1.347345458 Z-0.383807571
N415 X6.113240288 Y-1.347103385 Z-0.380596503
N420 X6.114670517 Y-1.346926087 Z-0.377117151
N425 X6.11554298 Y-1.346817928 Z-0.373455188
N430 X6.115836195 Y-1.346781573 Z-0.369700785
N435 G0 X6.115836196 Z0.199999997
N440 X6.116181021 Y-0.540240243
N445 Z-0.345700782
N450 G1 Z-0.369700785 F15.
N455 X6.116072843 Y-0.539965293 Z-0.373455194
N460 X6.115750913 Y-0.539147208 Z-0.377117162
N465 X6.115223159 Y-0.537806134 Z-0.380596518
N470 X6.114502575 Y-0.535975089 Z-0.383807588
N475 X6.113606905 Y-0.53369916 Z-0.386671305
N480 X6.112558204 Y-0.531034387 Z-0.389117154
N485 X6.111382295 Y-0.528046385 Z-0.39108491
N490 X6.110108134 Y-0.524808728 Z-0.39252612
N495 X6.108767095 Y-0.521401137 Z-0.393405295
N500 X6.107392198 Y-0.517907518 Z-0.393700788
N505 G2 X6.072564313 Y-0.390585051 Z-0.393700787 I0.570150661 J0.22438498
N510 G1 X6.070721243 Y-0.37582206
N515 X6.069676557 Y-0.367770796
N520 X6.062322301 Y-0.319463249
N525 X6.060952014 Y-0.311412004
N530 X6.058021605 Y-0.295309495
N535 X6.055738194 Y-0.287258231
N540 X6.049916425 Y-0.271155722
N545 X6.046258521 Y-0.263104458
N550 X6.02360823 Y-0.214796911
N555 X6.015897736 Y-0.198694402
N560 X6.015777588 Y-0.198347324
N565 G3 X6.010674304 Y-0.181770606 I-0.192386297 J-0.05015009
N570 G1 X6.009500751 Y-0.179028668
N575 X6.007996164 Y-0.176453449
N580 X6.006183774 Y-0.174084723
N585 X6.003395741 Y-0.170876191
N590 X5.925270741 Y-0.08095761
N595 X5.92260586 Y-0.077890552
N600 X5.920513634 Y-0.075764984
N605 X5.918173924 Y-0.073915327
N610 X5.915622861 Y-0.072370148
N615 G3 X5.899921327 Y-0.065001864 I-0.09223157 J-0.176127267
N620 G1 X5.899438332 Y-0.06472918
N625 X5.859179159 Y-0.033014229
N630 X5.844566165 Y-0.021566742
N635 X5.84307573 Y-0.020464893
N640 X5.832166296 Y-0.013515485
N645 X5.8269717 Y-0.010429648
N650 X5.754505668 Y0.028054524
N655 X5.754202895 Y0.028262389
N660 X5.750729575 Y0.030948337
N665 X5.747142401 Y0.03348022
N670 X5.74548287 Y0.034502803
N675 X5.743745819 Y0.035387341
N680 X5.737535972 Y0.038237478
N685 X5.721209669 Y0.045731396
N690 X5.719406294 Y0.046472006
N695 X5.717548761 Y0.047063804
N700 X5.713290383 Y0.048133014
N705 X5.708989421 Y0.049015462
N710 X5.708722092 Y0.0490806
N715 X5.609573004 Y0.083342622
N720 X5.58541786 Y0.089074017
N725 X5.569314431 Y0.092274617
N730 X5.480744369 Y0.109653839
N735 X5.472692655 Y0.110921766
N740 X5.46464094 Y0.111926644
N745 X5.44853691 Y0.113003611
N750 X5.376070879 Y0.117621121
N755 X5.351915134 Y0.119068031
N760 X5.34386342 Y0.119275005
N765 X5.319708276 Y0.11937958
N770 X5.134516438
N775 G2 X5.112085417 Y0.137485256 I0.000838032 J0.023985378
N780 G1 X5.111165654 Y0.141125278 Z-0.393405302
N785 X5.11026854 Y0.144675668 Z-0.392526133
N790 X5.109416165 Y0.148049006 Z-0.391084929
N795 X5.108629518 Y0.151162227 Z-0.389117176
N800 X5.107927969 Y0.153938676 Z-0.386671329
N805 X5.107328794 Y0.156309986 Z-0.383807612
N810 X5.106846747 Y0.158217769 Z-0.38059654
N815 X5.106493698 Y0.159615049 Z-0.377117179
N820 X5.10627834 Y0.160467421 Z-0.373455204
N825 X5.106205978 Y0.160753896 Z-0.369700785
N830 G0 Z0.199999997
N835 X4.426783464 Y0.144451322
N840 Z-0.345700782
N845 G1 Z-0.369700785 F15.
N850 X4.42649753 Y0.144376916 Z-0.373455182
N855 X4.425646725 Y0.144155532 Z-0.377117141
N860 X4.424251996 Y0.143792621 Z-0.38059649
N865 X4.422347686 Y0.143297117 Z-0.383807557
N870 X4.419980685 Y0.142681222 Z-0.386671274
N875 X4.417209275 Y0.1419601 Z-0.389117126
N880 X4.414101697 Y0.141151508 Z-0.391084887
N885 X4.410734469 Y0.140275355 Z-0.392526103
N890 X4.407190503 Y0.139353216 Z-0.393405286
N895 X4.403557064 Y0.138407795 Z-0.393700787
N900 G2 X4.272973368 Y0.119122286 I-0.154290087 J0.592971571
N905 G1 X4.192455322 Y0.118785073
N910 X4.168299878 Y0.118597924
N915 X4.055574672 Y0.117294676
N920 X4.007263784 Y0.116598015
N925 X3.967004911 Y0.115883454
N930 X3.926745738 Y0.115116572
N935 X3.822072247 Y0.112773743
N940 X3.797916803 Y0.112155366
N945 X3.789865088 Y0.111588061
N950 X3.765709644 Y0.10951673
N955 X3.612725265 Y0.095525041
N960 X3.604673551 Y0.094711921
N965 X3.564414377 Y0.090351255
N970 X3.556362663 Y0.08946996
N975 X3.548310948 Y0.088458512
N980 X3.540259234 Y0.087216098
N985 X3.51610379 Y0.082593959
N990 X3.50000006 Y0.079460632
N995 X3.475844616 Y0.074644239
N1000 X3.371171125 Y0.053317533
N1005 X3.347015681 Y0.047935914
N1010 X3.338963967 Y0.045563565
N1015 X3.218186746 Y0.007799918
N1020 X3.210135032 Y0.005307868
N1025 X3.194031302 Y0.000463632
N1030 X3.185979588 Y-0.001958552
N1035 X3.176021125 Y-0.005464227
N1040 X3.169876159 Y-0.007965595
N1045 X3.145720715 Y-0.018548023
N1050 X3.1376687 Y-0.022087024
N1055 X3.129616985 Y-0.025512602
N1060 X3.113513256 Y-0.032208304
N1065 X3.105461541 Y-0.035485623
N1070 X3.065202668 Y-0.050275776
N1075 G2 X3.041528717 Y-0.009338319 I-0.008276391 J0.022527869
N1080 G1 X3.101555832 Y0.040867859
N1085 G2 X3.135535975 Y0.037646695 I0.01539756 J-0.018409587
N1090 X3.131930734 Y0.003705068 I-0.018582583 J-0.015188423
N1095 X3.020515142 Y-0.067080161 I-0.38236603 J0.47876609
N1100 G1 X3.01689178 Y-0.068711972
N1105 X3.008839765 Y-0.072739397
N1110 X3.00078805 Y-0.076862452
N1115 X2.976632606 Y-0.090487595
N1120 X2.969671835 Y-0.094028054
N1125 X2.951266371 Y-0.102079318
N1130 X2.944425448 Y-0.105021131
N1135 X2.920270004 Y-0.115085596
N1140 X2.917291563 Y-0.116103001
N1145 X2.914205594 Y-0.116721898
N1150 X2.911065169 Y-0.116931641
N1155 X2.911039638 Y-0.11693166
N1160 G2 X2.892162894 Y-0.078110132 I0. J0.024000003
N1165 G1 X2.928108456 Y-0.032330519
N1170 G2 X2.963312276 Y-0.029561824 I0.018876444 J-0.014821528
N1175 X2.963169128 Y-0.064874104 I-0.016327377 J-0.017590223
N1180 X2.856676597 Y-0.142869996 I-0.413180073 J0.452441151
N1185 G1 X2.855855686 Y-0.143307232
N1190 X2.847803672 Y-0.148214928
N1195 X2.821055134 Y-0.166489365
N1200 X2.815596513 Y-0.17014817
N1205 X2.807544798 Y-0.174922211
N1210 X2.799493084 Y-0.179955152
N1215 X2.799161475 Y-0.180113334
N1220 G3 X2.764105909 Y-0.19915348 I0.054784159 J-0.142656687
N1225 G1 X2.76167281 Y-0.201179962
N1230 X2.759527672 Y-0.203509124
N1235 X2.717336519 Y-0.255868322
N1240 X2.715516658 Y-0.258459613
N1245 X2.714053777 Y-0.26126794
N1250 G3 X2.702902546 Y-0.29957026 I0.139891857 J-0.061502081
N1255 G1 X2.702871308 Y-0.299734938
N1260 X2.699778099 Y-0.311412004
N1265 X2.697782742 Y-0.319463249
N1270 X2.693212014 Y-0.343617041
N1275 X2.690511688 Y-0.359719532
N1280 G2 X2.668949938 Y-0.378852266 I-0.023517759 J0.004787445
N1285 G1 X2.665207998 Y-0.379158242 Z-0.393405316
N1290 X2.661558195 Y-0.379456685 Z-0.39252616
N1295 X2.658090398 Y-0.379740244 Z-0.391084967
N1300 X2.654889996 Y-0.380001939 Z-0.389117223
N1305 X2.652035795 Y-0.380235324 Z-0.38667138
N1310 X2.649598074 Y-0.380434654 Z-0.383807663
N1315 X2.647636859 Y-0.38059502 Z-0.380596585
N1320 X2.646200441 Y-0.380712473 Z-0.377117215
N1325 X2.645324191 Y-0.380784121 Z-0.373455224
N1330 X2.645029684 Y-0.380808199 Z-0.369700785
N1335 G0 Z0.199999997
N1340 X2.654948197 Y-1.210058843
N1345 Z-0.345700782
N1350 G1 Z-0.369700785 F15.
N1355 X2.655036006 Y-1.210340974 Z-0.373455212
N1360 X2.655297265 Y-1.211180421 Z-0.377117192
N1365 X2.655725541 Y-1.212556515 Z-0.380596556
N1370 X2.656310289 Y-1.214435371 Z-0.38380763
N1375 X2.657037111 Y-1.216770727 Z-0.386671347
N1380 X2.65788811 Y-1.219505078 Z-0.389117193
N1385 X2.65884233 Y-1.222571094 Z-0.391084942
N1390 X2.659876278 Y-1.225893281 Z-0.392526142
N1395 X2.660964493 Y-1.229389836 Z-0.393405307
N1400 X2.662080179 Y-1.232974661 Z-0.393700787
N1405 G2 X2.687501382 Y-1.362503683 I-0.585037141 J-0.182077528
N1410 G1 X2.688097015 Y-1.374178008
N1415 X2.688570098 Y-1.382229272
N1420 X2.692303995 Y-1.406383064
N1425 X2.693675785 Y-1.414434328
N1430 X2.696843485 Y-1.430536706
N1435 X2.699532096 Y-1.43858797
N1440 X2.705159525 Y-1.454690498
N1445 X2.70818425 Y-1.462741762
N1450 X2.71433192 Y-1.47884429
N1455 X2.717809302 Y-1.486895554
N1460 X2.72501127 Y-1.499132622
N1465 X2.725160554 Y-1.499468285
N1470 G3 X2.731706514 Y-1.513847141 I0.085448318 J0.030221263
N1475 G1 X2.733214362 Y-1.516186734
N1480 X2.734982949 Y-1.518336018
N1485 X2.741207213 Y-1.525063402
N1490 X2.749631987 Y-1.534169265
N1495 X2.755800382 Y-1.540836274
N1500 X2.75780594 Y-1.542766341
N1505 X2.76002148 Y-1.544451225
N1510 G3 X2.773849007 Y-1.552093085 I0.050587391 J0.075204203
N1515 G1 X2.774240689 Y-1.552314007
N1520 X2.783610727 Y-1.55935693
N1525 X2.791441069 Y-1.565168636
N1530 X2.807544798 Y-1.575901903
N1535 X2.815596513 Y-1.581222504
N1540 X2.839751957 Y-1.596546774
N1545 X2.840037909 Y-1.596777158
N1550 X2.843017486 Y-1.599470009
N1555 X2.846111688 Y-1.602030326
N1560 X2.848201052 Y-1.603509716
N1565 X2.850436113 Y-1.604758135
N1570 X2.860745708 Y-1.609814862
N1575 X2.876319885 Y-1.617453868
N1580 X2.878675205 Y-1.618457141
N1585 X2.881124001 Y-1.619203823
N1590 X2.885042586 Y-1.620083131
N1595 X2.888995794 Y-1.620790677
N1600 X2.889402495 Y-1.620892352
N1605 X2.912218289 Y-1.62969424
N1610 X2.916718731 Y-1.631818156
N1615 X2.976632606 Y-1.661221962
N1620 X2.976941987 Y-1.661420056
N1625 G3 X2.986811841 Y-1.668239053 I0.083024934 J0.109618029
N1630 G1 X2.989424458 Y-1.669662656
N1635 X3.000582898 Y-1.674873622
N1640 X3.014877199 Y-1.681549042
N1645 X3.017646009 Y-1.682638484
N1650 G3 X3.029209948 Y-1.685829012 I0.042320912 J0.130836457
N1655 G1 X3.029372148 Y-1.685872416
N1660 X3.049098938 Y-1.692571715
N1665 X3.057150653 Y-1.695609055
N1670 X3.159097386 Y-1.737843761
N1675 X3.161824144 Y-1.738955881
N1680 X3.185979588 Y-1.748160265
N1685 X3.210135032 Y-1.755318829
N1690 X3.227260319 Y-1.76063838
N1695 X3.338963967 Y-1.795563585
N1700 X3.347015681 Y-1.797935906
N1705 X3.371171125 Y-1.803317483
N1710 X3.483896331 Y-1.826269796
N1715 X3.50000006 Y-1.829509885
N1720 X3.508051775 Y-1.831061446
N1725 X3.540259234 Y-1.836917156
N1730 X3.548310948 Y-1.838269421
N1735 X3.556362663 Y-1.839239166
N1740 X3.685191598 Y-1.852532935
N1745 X3.693243312 Y-1.853310142
N1750 X3.717398756 Y-1.855417086
N1755 X3.797916803 Y-1.861812562
N1760 X3.805968818 Y-1.862259962
N1765 X3.87843485 Y-1.864151542
N1770 X3.967004911 Y-1.865823851
N1775 X4.031419228 Y-1.866996495
N1780 X4.047522958 Y-1.867212461
N1785 X4.168299878 Y-1.868577191
N1790 X4.192455322 Y-1.868793608
N1795 X4.19588972 Y-1.869193153
N1800 X4.199231065 Y-1.870082044
N1805 X4.201784188 Y-1.871518514 Z-0.393515547
N1810 X4.204298505 Y-1.872933151 Z-0.392974071
N1815 X4.206736407 Y-1.874304794 Z-0.39208446
N1820 X4.208753434 Y-1.876711515 Z-0.390586607
N1825 X4.210610293 Y-1.878927123 Z-0.388650775
N1830 X4.212268018 Y-1.880905122 Z-0.386317583
N1835 X4.213124916 Y-1.88306355 Z-0.383485869
N1840 X4.213812981 Y-1.884796708 Z-0.380333978
N1845 X4.214316214 Y-1.886064291 Z-0.376935202
N1850 X4.214622913 Y-1.886836825 Z-0.373368578
N1855 X4.214725945 Y-1.887096345 Z-0.369717043
N1860 G0 Z0.199999997
N1865 X4.87216559 Y-0.988974233
N1870 Z0.100393699
N1875 G2 X4.867320023 Y-0.761025797 Z0.08788712 I-0.002422783 J0.113974218 F5.
N1880 X4.87216559 Y-0.988974234 Z0.075380541 I0.002422783 J-0.113974219
N1885 X4.867320023 Y-0.761025796 Z0.062873962 I-0.002422783 J0.113974219
N1890 X4.87216559 Y-0.988974234 Z0.050367383 I0.002422783 J-0.113974219
N1895 X4.867320023 Y-0.761025796 Z0.037860803 I-0.002422783 J0.113974219
N1900 X4.87216559 Y-0.988974235 Z0.025354224 I0.002422783 J-0.113974219
N1905 X4.867320023 Y-0.761025795 Z0.012847645 I-0.002422783 J0.11397422
N1910 X4.87216559 Y-0.988974235 Z0.000341066 I0.002422783 J-0.11397422
N1915 X4.867320023 Y-0.761025795 Z-0.012165513 I-0.002422783 J0.11397422
N1920 X4.87216559 Y-0.988974236 Z-0.024672092 I0.002422783 J-0.11397422
N1925 X4.867320023 Y-0.761025794 Z-0.037178671 I-0.002422783 J0.11397422
N1930 X4.87216559 Y-0.988974236 Z-0.04968525 I0.002422783 J-0.113974221
N1935 X4.867320023 Y-0.761025794 Z-0.062191829 I-0.002422783 J0.113974221
N1940 X4.87216559 Y-0.988974236 Z-0.074698408 I0.002422783 J-0.113974221
N1945 X4.867320023 Y-0.761025793 Z-0.087204988 I-0.002422783 J0.113974221
N1950 X4.87216559 Y-0.988974237 Z-0.099711567 I0.002422783 J-0.113974222
N1955 X4.867320023 Y-0.761025793 Z-0.112218146 I-0.002422783 J0.113974222
N1960 X4.87216559 Y-0.988974237 Z-0.124724725 I0.002422783 J-0.113974222
N1965 X4.867320023 Y-0.761025793 Z-0.137231304 I-0.002422783 J0.113974222
N1970 X4.87216559 Y-0.988974238 Z-0.149737883 I0.002422783 J-0.113974222
N1975 X4.867320023 Y-0.761025792 Z-0.162244462 I-0.002422783 J0.113974223
N1980 X4.87216559 Y-0.988974238 Z-0.174751041 I0.002422783 J-0.113974223
N1985 X4.867320023 Y-0.761025792 Z-0.18725762 I-0.002422783 J0.113974223
N1990 X4.87216559 Y-0.988974239 Z-0.199764199 I0.002422783 J-0.113974223
N1995 X4.867320023 Y-0.761025791 Z-0.212270779 I-0.002422783 J0.113974224
N2000 X4.87216559 Y-0.988974239 Z-0.224777358 I0.002422783 J-0.113974224
N2005 X4.867320023 Y-0.761025791 Z-0.237283937 I-0.002422783 J0.113974224
N2010 X4.87216559 Y-0.988974239 Z-0.249790516 I0.002422783 J-0.113974224
N2015 X4.867320023 Y-0.76102579 Z-0.262297095 I-0.002422783 J0.113974224
N2020 X4.87216559 Y-0.98897424 Z-0.274803674 I0.002422783 J-0.113974225
N2025 X4.867320023 Y-0.76102579 Z-0.287310253 I-0.002422783 J0.113974225
N2030 X4.87216559 Y-0.98897424 Z-0.299816832 I0.002422783 J-0.113974225
N2035 X4.867320023 Y-0.761025789 Z-0.312323411 I-0.002422783 J0.113974225
N2040 X4.87216559 Y-0.988974241 Z-0.32482999 I0.002422783 J-0.113974226
N2045 X4.867320023 Y-0.761025789 Z-0.33733657 I-0.002422783 J0.113974226
N2050 X4.87216559 Y-0.988974241 Z-0.349843149 I0.002422783 J-0.113974226
N2055 X4.867320023 Y-0.761025789 Z-0.362349728 I-0.002422783 J0.113974226
N2060 X4.87216559 Y-0.988974242 Z-0.374856307 I0.002422783 J-0.113974226
N2065 X4.867320023 Y-0.761025788 Z-0.387362886 I-0.002422783 J0.113974227
N2070 X4.983742782 Y-0.875000015 Z-0.393700787 I0.002422784 J-0.113974227
N2075 X4.755742831 I-0.113999975 J0.
N2080 X4.983742782 I0.113999975 J0.
N2085 G1 X4.983875845 Y-0.88386025 F15.
N2090 X4.989992878 Y-0.918773366
N2095 X4.992024579 Y-0.924418892
N2100 X4.993369936 Y-0.930266117
N2105 X4.994103439 Y-0.9362211
N2110 X4.99428276 Y-0.942218435
N2115 X4.993946045 Y-0.948371587
N2120 X4.993056951 Y-0.954915595
N2125 X4.991551196 Y-0.961798796
N2130 X4.98936931 Y-0.968960139
N2135 X4.986459327 Y-0.976329939
N2140 X4.982776792 Y-0.983830399
N2145 X4.978286863 Y-0.991376667
N2150 X4.97296461 Y-0.998877953
N2155 X4.966796815 Y-1.006238817
N2160 X4.959782578 Y-1.013360887
N2165 X4.951933012 Y-1.02014444
N2170 X4.943272148 Y-1.026490279
N2175 X4.933836629 Y-1.032301234
N2180 X4.923674516 Y-1.037484342
N2185 X4.912846182 Y-1.041951968
N2190 X4.901421615 Y-1.045623764
N2195 X4.88948011 Y-1.048427642
N2200 X4.877109077 Y-1.050300974
N2205 X4.86440193 Y-1.05119112
N2210 X4.851457791 Y-1.051056479
N2215 X4.838378486 Y-1.049866338
N2220 X4.825268843 Y-1.047601249
N2225 X4.812234293 Y-1.044253101
N2230 X4.799379364 Y-1.039824448
N2235 X4.786807383 Y-1.034328656
N2240 X4.774619576 Y-1.027789153
N2245 X4.76291236 Y-1.020238981
N2250 X4.751779451 Y-1.011720117
N2255 X4.741307957 Y-1.002283021
N2260 X4.731580179 Y-0.991985892
N2265 X4.72267211 Y-0.980893608
N2270 X4.714652835 Y-0.969077734
N2275 X4.707584231 Y-0.956615088
N2280 X4.701521265 Y-0.943587596
N2285 X4.696510495 Y-0.93008109
N2290 X4.692590969 Y-0.916185154
N2295 X4.689794225 Y-0.901991702
N2300 X4.688142491 Y-0.887595049
N2305 X4.687651086 Y-0.873090639
N2310 X4.688326017 Y-0.858574589
N2315 X4.690165783 Y-0.844143094
N2320 X4.69316077 Y-0.829891595
N2325 X4.69729386 Y-0.815914334
N2330 X4.702538918 Y-0.802303449
N2335 X4.708863807 Y-0.789148751
N2340 X4.716228275 Y-0.776536746
N2345 X4.724585466 Y-0.764550412
N2350 X4.733881913 Y-0.75326852
N2355 X4.744057543 Y-0.742765036
N2360 X4.755047175 Y-0.733108821
N2365 X4.766779622 Y-0.724363252
N2370 X4.77917919 Y-0.716585475
N2375 X4.792165982 Y-0.709826402
N2380 X4.805655892 Y-0.704130338
N2385 X4.819561816 Y-0.699534529
N2390 X4.833793941 Y-0.696069012
N2395 X4.848260053 Y-0.693756614
N2400 X4.86286674 Y-0.69261258
N2405 X4.877519683 Y-0.692644495
N2410 X4.892123966 Y-0.693852432
N2415 X4.906585273 Y-0.696228733
N2420 X4.920809888 Y-0.699758154
N2425 X4.9347065 Y-0.704418092
N2430 X4.948184997 Y-0.710178586
N2435 X4.961157971 Y-0.717002538
N2440 X4.973541921 Y-0.724845946
N2445 X4.985256946 Y-0.733658197
N2450 X4.996227355 Y-0.743382522
N2455 X5.006381958 Y-0.753956217
N2460 X5.015655578 Y-0.765310948
N2465 X5.023988138 Y-0.777373652
N2470 X5.035912822 Y-0.798001177
N2475 X5.049598273 Y-0.826785395
N2480 X5.057884877 Y-0.848570245
N2485 X5.063552256 Y-0.868048105
N2490 X5.067245604 Y-0.886011349
N2495 X5.069379431 Y-0.903349073
N2500 X5.070086502 Y-0.920143353
N2505 X5.069463535 Y-0.936433161
N2510 X5.067570003 Y-0.95232483
N2515 X5.064438347 Y-0.967859959
N2520 X5.060085987 Y-0.983037573
N2525 X5.054525541 Y-0.997828611
N2530 X5.047767819 Y-1.012183963
N2535 X5.039829044 Y-1.02604055
N2540 X5.030727837 Y-1.039325309
N2545 X5.020491833 Y-1.051958114
N2550 X5.009154973 Y-1.063854338
N2555 X4.996757207 Y-1.074929876
N2560 X4.983328271 Y-1.08511309
N2565 X4.968922532 Y-1.094314921
N2570 X4.953611479 Y-1.102444506
N2575 X4.937476511 Y-1.109414288
N2580 X4.920611344 Y-1.115142492
N2585 X4.903118704 Y-1.11955455
N2590 X4.885111531 Y-1.122585056
N2595 X4.866709672 Y-1.124178744
N2600 X4.848039882 Y-1.124291608
N2605 X4.829233725 Y-1.122891809
N2610 X4.810429971 Y-1.119960575
N2615 X4.791773098 Y-1.115494075
N2620 X4.773397671 Y-1.109499819
N2625 X4.755436755 Y-1.101997556
N2630 X4.73802161 Y-1.093019275
N2635 X4.721281998 Y-1.082609132
N2640 X4.705342571 Y-1.070823219
N2645 X4.690323176 Y-1.057728745
N2650 X4.676337655 Y-1.043403956
N2655 X4.663492038 Y-1.027936935
N2660 X4.651884545 Y-1.011425078
N2665 X4.641603485 Y-0.99397404
N2670 X4.632728757 Y-0.975696984
N2675 X4.625328545 Y-0.956713384
N2680 X4.61946112 Y-0.937148192
N2685 X4.615984939 Y-0.920920184
N2690 X4.615295891 Y-0.917042785
N2695 X4.61488108 Y-0.913126563
N2700 X4.614742609 Y-0.909190891
N2705 Y-0.875000015
N2710 X4.616295822 Y-0.843974887
N2715 X4.618804811 Y-0.824838323
N2720 X4.622889842 Y-0.80573893
N2725 X4.628550612 Y-0.78684146
N2730 X4.635770002 Y-0.76830481
N2735 X4.64451527 Y-0.750281041
N2740 X4.654738359 Y-0.732915833
N2745 X4.666377691 Y-0.716347882
N2750 X4.67936268 Y-0.700703118
N2755 X4.693611926 Y-0.68609921
N2760 X4.709034116 Y-0.672645193
N2765 X4.725528927 Y-0.66044064
N2770 X4.742988827 Y-0.649575286
N2775 X4.761298472 Y-0.640128429
N2780 X4.780337717 Y-0.632168928
N2785 X4.799980704 Y-0.625754492
N2790 X4.820098276 Y-0.620931715
N2795 X4.821767732 Y-0.620670919
N2800 X4.824635964 Y-0.620298498
N2805 X4.827519214 Y-0.620074685
N2810 X4.830410274 Y-0.620000006
N2815 G2 X4.848048293 Y-0.659303815 I-0.000837431 J-0.023985397
N2820 G1 X4.657203794 Y-0.889480846
N2825 G2 X4.614742609 Y-0.875000015 I-0.01847575 J0.015318412
N2830 G1 Y-0.730077413
N2835 X4.615088636 Y-0.72316808
N2840 X4.616390739 Y-0.713236201
N2845 X4.618724613 Y-0.702324965
N2850 X4.622146126 Y-0.6909028
N2855 X4.627033144 Y-0.678354774
N2860 X4.633087398 Y-0.665876659
N2865 X4.641005749 Y-0.652426247
N2870 X4.647060004 Y-0.64380841
N2875 X4.654031889 Y-0.635668612
N2880 X4.662426626 Y-0.629005995
N2885 X4.671936936 Y-0.624064648
N2890 X4.682214392 Y-0.621025544
N2895 X4.692882628 Y-0.620000006
N2900 G2 X4.712393453 Y-0.656711023 I-0.000837732 J-0.023985397
N2905 G1 X4.659076601 Y-0.741965376
N2910 G2 X4.614742609 Y-0.730077413 I-0.020348556 J0.012725545
N2915 G1 Y-0.649564848
N2920 X4.614931842 Y-0.641513584
N2925 X4.615796307 Y-0.637487952
N2930 X4.616512389 Y-0.635475099
N2935 X4.617442033 Y-0.63346232
N2940 X4.619200999 Y-0.630587555
N2945 X4.621266343 Y-0.627999306
N2950 X4.623973876 Y-0.625411056
N2955 X4.627253014 Y-0.623158808
N2960 X4.629265793 Y-0.622131843
N2965 X4.631278872 Y-0.621328992
N2970 X4.635304729 Y-0.620310738
N2975 X4.643356443 Y-0.620000006
N2980 X4.868807154
N2985 X4.901541762 Y-0.621638786
N2990 X4.920474075 Y-0.62412093
N2995 X4.93938386 Y-0.62816541
N3000 X4.958117928 Y-0.633777258
N3005 X4.97652219 Y-0.640945059
N3010 X4.99445337 Y-0.649645197
N3015 X5.011760381 Y-0.659834193
N3020 X5.028297544 Y-0.671451899
N3025 X5.04527475 Y-0.685542625
N3030 X5.062599482 Y-0.70244699
N3035 X5.079244779 Y-0.721527009
N3040 X5.094916276 Y-0.742707891
N3045 X5.108891284 Y-0.765164368
N3050 X5.118509127 Y-0.783805472
N3055 X5.121942956 Y-0.791996858
N3060 X5.124038336 Y-0.800628061
N3065 X5.124742403 Y-0.809482064
N3070 G2 X5.08683092 Y-0.828190901 I-0.023985134 J0.000837581
N3075 G1 X4.855718538 Y-0.663531822
N3080 G2 X4.868807154 Y-0.620000006 I0.013926048 J0.019546419
N3085 G1 X5.013739518
N3090 X5.021929703 Y-0.620410011
N3095 X5.032461872 Y-0.621790886
N3100 X5.043378214 Y-0.624125661
N3105 X5.055967917 Y-0.627896917
N3110 X5.068634514 Y-0.632830192
N3115 X5.082950141 Y-0.63977602
N3120 X5.097289198 Y-0.648217764
N3125 X5.100933886 Y-0.650778267
N3130 X5.109073909 Y-0.657750077
N3135 X5.115736714 Y-0.666144814
N3140 X5.120677798 Y-0.675655125
N3145 X5.12371694 Y-0.68593258
N3150 X5.124742403 Y-0.696600741
N3155 G2 X5.088397049 Y-0.716335642 I-0.023985134 J0.000837581
N3160 G1 X5.00221703 Y-0.664557885
N3165 G2 X5.013739518 Y-0.620000006 I0.01236022 J0.020572482
N3170 G1 X5.094257865
N3175 X5.098685918 Y-0.620055499
N3180 X5.10230958 Y-0.620100892
N3185 X5.106335137 Y-0.620821142
N3190 X5.108348216 Y-0.621457851
N3195 X5.110361294 Y-0.622298962
N3200 X5.11282673 Y-0.623645182
N3205 X5.115291565 Y-0.625411056
N3210 X5.118413009 Y-0.628279851
N3215 X5.120483158 Y-0.630871029
N3220 X5.122043279 Y-0.63346232
N3225 X5.122972624 Y-0.635475099
N3230 X5.123689306 Y-0.637487952
N3235 X5.12455317 Y-0.641513584
N3240 X5.124742403 Y-0.649564848
N3245 Y-0.963563844
N3250 X5.123730757 Y-0.983772053
N3255 X5.121732697 Y-0.999013645
N3260 X5.118309682 Y-1.015017051
N3265 X5.113428071 Y-1.031314294
N3270 X5.107095673 Y-1.047572714
N3275 X5.099159902 Y-1.06392928
N3280 X5.089524637 Y-1.080295908
N3285 X5.078190481 Y-1.096428698
N3290 X5.065183865 Y-1.112100046
N3295 X5.064199853 Y-1.113108237
N3300 X5.055657935 Y-1.120273485
N3305 X5.045865877 Y-1.125604599
N3310 X5.035212059 Y-1.12889012
N3315 X5.024118198 Y-1.129999987
N3320 G2 X5.003796375 Y-1.094688581 I0.000837431 J0.02398536
N3325 G1 X5.079598014 Y-0.953075379
N3330 G2 X5.124742403 Y-0.963563844 I0.021159255 J-0.011326046
N3335 G1 Y-1.084332729
N3340 X5.124335702 Y-1.09245443
N3345 X5.121774749 Y-1.10246771
N3350 X5.116906354 Y-1.111584836
N3355 X5.110009862 Y-1.119282865
N3360 X5.101480559 Y-1.125120328
N3365 X5.091808049 Y-1.128762313
N3370 X5.081546813 Y-1.129999987
N3375 G2 X5.064380075 Y-1.090144961 I0.000837431 J0.02398536
N3380 G1 X5.082753099 Y-1.069300644
N3385 G2 X5.124742403 Y-1.084332729 I0.01800417 J-0.015869666
N3390 G1 Y-1.100435182
N3395 X5.12455317 Y-1.108486446
N3400 X5.123689306 Y-1.112512078
N3405 X5.122972624 Y-1.114524931
N3410 X5.122043279 Y-1.11653771
N3415 X5.120483158 Y-1.119128926
N3420 X5.118413009 Y-1.121720141
N3425 X5.115291565 Y-1.124588974
N3430 X5.11282613 Y-1.126354848
N3435 X5.110361294 Y-1.127701031
N3440 X5.108348216 Y-1.128542142
N3445 X5.106335137 Y-1.129178851
N3450 X5.10230958 Y-1.129899138
N3455 X5.094257865 Y-1.129999987
N3460 X4.731926205
N3465 X4.720631096 Y-1.129434541
N3470 X4.710186335 Y-1.128065154
N3475 X4.699322558 Y-1.125741568
N3480 X4.687188216 Y-1.122106717
N3485 X4.675037955 Y-1.117374615
N3490 X4.661776025 Y-1.110939942
N3495 X4.648325162 Y-1.103021291
N3500 X4.638551126 Y-1.096154761
N3505 X4.630411403 Y-1.089183026
N3510 X4.623748899 Y-1.080788214
N3515 X4.618807515 Y-1.071277979
N3520 X4.615768373 Y-1.061000449
N3525 X4.614742609 Y-1.050332287
N3530 G2 X4.650981933 Y-1.030533933 I0.023985435 J-0.000837581
N3535 G1 X4.743342662 Y-1.085378692
N3540 G2 X4.731926205 Y-1.129999987 I-0.012253889 J-0.020635935
N3545 G1 X4.643356443
N3550 X4.635304729 Y-1.129689254
N3555 X4.631278872 Y-1.128671
N3560 X4.629265793 Y-1.127868187
N3565 X4.627253014 Y-1.126841147
N3570 X4.623973876 Y-1.124588974
N3575 X4.621266343 Y-1.122000687
N3580 X4.619200999 Y-1.1194124
N3585 X4.617442033 Y-1.11653771
N3590 X4.616512389 Y-1.114524931
N3595 X4.615796307 Y-1.112512078
N3600 X4.614931842 Y-1.108486446
N3605 X4.614742609 Y-1.100435182
N3610 Y-0.909190891
N3615 X4.615111936 Y-0.905753048
N3620 X4.615971423 Y-0.902403959
N3625 X4.617385361 Y-0.899838296 Z-0.393515546
N3630 X4.61877781 Y-0.897311626 Z-0.39297407
N3635 X4.620127941 Y-0.894861747 Z-0.39208446
N3640 X4.622516708 Y-0.892823606 Z-0.390586585
N3645 X4.624715778 Y-0.890947313 Z-0.388650753
N3650 X4.626679007 Y-0.88927224 Z-0.386317584
N3655 X4.628829801 Y-0.888396336 Z-0.38348587
N3660 X4.630556825 Y-0.88769301 Z-0.380333977
N3665 X4.63181992 Y-0.887178616 Z-0.376935201
N3670 X4.632589713 Y-0.886865114 Z-0.373368576
N3675 X4.632848304 Y-0.886759796 Z-0.369717043
N3680 G0 Z0.199999997
N3685 X2.758231876 Y-1.278206983
N3690 Z-0.306330703
N3695 G1 Z-0.330330706 F15.
N3700 X2.758421475 Y-1.278433593 Z-0.334085115
N3705 X2.758985644 Y-1.279107843 Z-0.337747083
N3710 X2.75991049 Y-1.280213133 Z-0.341226438
N3715 X2.761173242 Y-1.281722246 Z-0.344437508
N3720 X2.762742806 Y-1.283598024 Z-0.347301225
N3725 X2.764580535 Y-1.28579428 Z-0.349747074
N3730 X2.766641177 Y-1.288256935 Z-0.35171483
N3735 X2.768873993 Y-1.290925351 Z-0.35315604
N3740 X2.771224003 Y-1.293733823 Z-0.354035216
N3745 X2.773633341 Y-1.296613198 Z-0.354330709
N3750 G2 X2.846944914 Y-1.406383064 I-0.469907325 J-0.393201873
N3755 G1 X2.850794454 Y-1.414434328
N3760 X2.857952568 Y-1.426887813
N3765 X2.859428886 Y-1.430536706
N3770 X2.86738238 Y-1.454690498
N3775 X2.867456872 Y-1.455050191
N3780 G3 X2.875913184 Y-1.487224309 I0.126421771 J0.016029088
N3785 G1 X2.877523016 Y-1.490448711
N3790 X2.879597521 Y-1.493395708
N3795 X2.918518247 Y-1.5406948
N3800 X2.921010542 Y-1.543297896
N3805 X2.92386453 Y-1.545498465
N3810 G3 X2.953808702 Y-1.559991161 I0.070014113 J0.106477362
N3815 G1 X2.954541004 Y-1.560390352
N3820 X2.976632606 Y-1.579494326
N3825 X2.981375446 Y-1.583510722
N3830 X3.001126567 Y-1.5996131
N3835 X3.008839765 Y-1.605259152
N3840 X3.026389475 Y-1.615715628
N3845 X3.032995209 Y-1.619757254
N3850 X3.102550356 Y-1.664023212
N3855 X3.102835708 Y-1.664254196
N3860 G3 X3.122910026 Y-1.681688113 I0.209687901 J0.221170591
N3865 G1 X3.125195269 Y-1.683296389
N3870 X3.127651966 Y-1.684628134
N3875 X3.245044017 Y-1.739677219
N3880 X3.247638797 Y-1.740714322
N3885 X3.250336534 Y-1.741442793
N3890 G3 X3.276576846 Y-1.745727419 I0.062187075 J0.298359188
N3895 G1 X3.276985048 Y-1.745813325
N3900 X3.290653079 Y-1.750518919
N3905 X3.298704793 Y-1.753117268
N3910 X3.435585743 Y-1.795935443
N3915 X3.443637457 Y-1.79832834
N3920 X3.451689172 Y-1.800267678
N3925 X3.475844616 Y-1.805187886
N3930 X3.495658514 Y-1.808945814
N3935 X3.508051775 Y-1.811254006
N3940 X3.644932424 Y-1.836142502
N3945 X3.652984439 Y-1.837583377
N3950 X3.661036153 Y-1.838758874
N3955 X3.669087868 Y-1.839612675
N3960 X3.685191598 Y-1.841226863
N3965 X3.693243312 Y-1.841960066
N3970 X3.846227691 Y-1.854133606
N3975 X3.870383135 Y-1.85590744
N3980 X3.87843485 Y-1.856457868
N3985 X3.892786522 Y-1.857253398
N3990 G2 X3.892256068 Y-1.905203391 I-0.001328236 J-0.023963207
N3995 X3.891580241 Y-1.884878094 I-0.000337916 J0.010162714
N4000 X3.900566702 Y-1.889693343 I0.000337912 J-0.010162583
N4005 X3.859739883 Y-1.914936093 I-0.020413436 J-0.012621391
N4010 X3.87464268 Y-1.878955871 I0.020413383 J0.012621358
N4015 X4.005633377 Y-1.862662608 I0.140685434 J-0.596345917
N4020 G1 X4.039470943 Y-1.863266051
N4025 X4.071678402 Y-1.863671851
N4030 X4.200507036 Y-1.864973954
N4035 X4.24076621 Y-1.8651737
N4040 X4.337387986 Y-1.865473169
N4045 X4.409854018 Y-1.865502005
N4050 X5.319708276
N4055 X5.34386342 Y-1.865397476
N4060 X5.349969338 Y-1.865304662
N4065 X5.376070879 Y-1.864334317
N4070 X5.400226022 Y-1.863119771
N4075 X5.424381767 Y-1.861238104
N4080 X5.432433481 Y-1.859865864
N4085 X5.44853691 Y-1.856848199
N4090 X5.529055257 Y-1.841068869
N4095 X5.553210401 Y-1.836028662
N4100 X5.561262116 Y-1.833750657
N4105 X5.577366146 Y-1.828397916
N4110 X5.587224885 Y-1.825048342
N4115 X5.657883892 Y-1.800614154
N4120 X5.665935606 Y-1.797667526
N4125 X5.682039636 Y-1.791487416
N4130 X5.690091351 Y-1.787583509
N4135 X5.762557383 Y-1.749142024
N4140 X5.778660812 Y-1.740582984
N4145 X5.786012064 Y-1.736484588
N4150 X5.786713127 Y-1.736067224
N4155 X5.794764842 Y-1.730564147
N4160 X5.810868271 Y-1.718357567
N4165 X5.818919985 Y-1.71216379
N4170 X5.859179159 Y-1.680427161
N4175 X5.859491544 Y-1.680233873
N4180 X5.863305463 Y-1.678163013
N4185 X5.86702542 Y-1.67592777
N4190 X5.86874725 Y-1.674733335
N4195 X5.870358324 Y-1.67339325
N4200 X5.87656697 Y-1.667752303
N4205 X5.889774232 Y-1.655752678
N4210 X5.891262163 Y-1.654277243
N4215 X5.892615731 Y-1.652677641
N4220 X5.895196046 Y-1.649188187
N4225 X5.897621695 Y-1.645589513
N4230 X5.89773944 Y-1.645422808
N4235 X5.915674525 Y-1.623766892
N4240 X5.94774922 Y-1.584945438
N4245 X5.948882216 Y-1.583510722
N4250 X5.955800935 Y-1.573556164
N4255 X5.956043033 Y-1.573280274
N4260 X5.959143634 Y-1.570130641
N4265 X5.962103896 Y-1.566848755
N4270 X5.963743493 Y-1.564718817
N4275 X5.965134628 Y-1.5624189
N4280 X5.972793459 Y-1.547990333
N4285 X5.973660927 Y-1.54635542
N4290 X5.981243464 Y-1.532070731
N4295 X5.982368702 Y-1.529629536
N4300 X5.98321389 Y-1.527077833
N4305 X5.984273362 Y-1.522787091
N4310 X5.985144668 Y-1.518454214
N4315 X5.985296054 Y-1.517946288
N4320 X5.999854981 Y-1.486895554
N4325 X6.003320649 Y-1.47884429
N4330 X6.009279386 Y-1.462741762
N4335 X6.011618066 Y-1.454690498
N4340 X6.014548474 Y-1.43858797
N4345 X6.015919362 Y-1.430536706
N4350 X6.023273618 Y-1.382229272
N4355 G2 X6.044548816 Y-1.362778671 I0.023585642 J-0.004437815
N4360 G1 X6.048285799 Y-1.362417191 Z-0.35403522
N4365 X6.051930764 Y-1.362064612 Z-0.353156048
N4370 X6.055393957 Y-1.361729615 Z-0.351714842
N4375 X6.058590105 Y-1.36142045 Z-0.349747088
N4380 X6.061440507 Y-1.361144729 Z-0.34730124
N4385 X6.063874978 Y-1.360909241 Z-0.344437523
N4390 X6.065833573 Y-1.360719784 Z-0.341226451
N4395 X6.067268065 Y-1.360581023 Z-0.337747093
N4400 X6.068143134 Y-1.360496376 Z-0.334085121
N4405 X6.068437231 Y-1.360467926 Z-0.330330706
N4410 G0 Z0.199999997
N4415 X6.069778082 Y-0.540240243
N4420 Z-0.306330703
N4425 G1 Z-0.330330706 F15.
N4430 X6.069669844 Y-0.539965286 Z-0.334085151
N4435 X6.069347852 Y-0.539147191 Z-0.337747146
N4440 X6.068820034 Y-0.537806104 Z-0.34122652
N4445 X6.068099386 Y-0.535975046 Z-0.344437598
N4450 X6.067203653 Y-0.533699106 Z-0.347301316
N4455 X6.066154891 Y-0.531034325 Z-0.349747157
N4460 X6.064978922 Y-0.528046319 Z-0.351714899
N4465 X6.063704702 Y-0.524808665 Z-0.353156089
N4470 X6.062363608 Y-0.521401083 Z-0.354035241
N4475 X6.060988659 Y-0.517907481 Z-0.354330709
N4480 G2 X6.026160773 Y-0.390585051 I0.570150661 J0.224385093
N4485 G1 X6.024317704 Y-0.37582206
N4490 X6.023273618 Y-0.367770796
N4495 X6.015919362 Y-0.319463249
N4500 X6.014548474 Y-0.311412004
N4505 X6.01308327 Y-0.30336074
N4510 X6.01305864 Y-0.302994251
N4515 G3 X6.012638122 Y-0.289702941 I-0.152420885 J0.001827657
N4520 G1 X6.012036818 Y-0.285879383
N4525 X6.010828694 Y-0.282202199
N4530 X6.007144357 Y-0.273443414
N4535 X5.982900304 Y-0.215807205
N4540 X5.979225579 Y-0.20707153
N4545 X5.977441854 Y-0.203636364
N4550 X5.975129135 Y-0.200532628
N4555 G3 X5.965922799 Y-0.190936993 I-0.11449138 J-0.100633967
N4560 G1 X5.965662678 Y-0.190643138
N4565 X5.948882216 Y-0.166489365
N4570 X5.94774922 Y-0.16505446
N4575 X5.902355524 Y-0.110130573
N4580 X5.902154277 Y-0.109823041
N4585 X5.898448313 Y-0.103691582
N4590 X5.896934958 Y-0.101659156
N4595 X5.895215733 Y-0.099797606
N4600 X5.890869982 Y-0.095565122
N4605 X5.877752229 Y-0.082788139
N4610 X5.875845903 Y-0.081118276
N4615 X5.873774131 Y-0.079658745
N4620 X5.867547463 Y-0.076115568
N4625 X5.867230873 Y-0.075920252
N4630 X5.818708525 Y-0.037669256
N4635 X5.808197382 Y-0.029617999
N4640 X5.794764842 Y-0.019435866
N4645 X5.786713127 Y-0.013932743
N4650 X5.786012064 Y-0.013515485
N4655 X5.778660812 Y-0.009417011
N4660 X5.695364043 Y0.03479206
N4665 X5.690091351 Y0.037583458
N4670 X5.682039636 Y0.04148733
N4675 X5.665935606 Y0.047667477
N4680 X5.657072893 Y0.050894576
N4685 X5.58541786 Y0.07567325
N4690 X5.577366146 Y0.078397956
N4695 X5.561262116 Y0.083750655
N4700 X5.553210401 Y0.08602866
N4705 X5.529055257 Y0.091068773
N4710 X5.44853691 Y0.106848178
N4715 X5.432433481 Y0.109865825
N4720 X5.424381767 Y0.11123799
N4725 X5.400226022 Y0.113119685
N4730 X5.376070879 Y0.114334202
N4735 X5.349969338 Y0.115304632
N4740 X5.34386342 Y0.115397389
N4745 X5.319708276 Y0.115501965
N4750 X4.329335971 Y0.115485989
N4755 X4.272973368 Y0.115302238
N4760 X4.22466248 Y0.115045309
N4765 X4.144144434 Y0.114530991
N4770 X4.103885561 Y0.114054915
N4775 X3.991160355 Y0.11245797
N4780 G2 X3.982800762 Y0.159077137 I-0.000343323 J0.023997553
N4785 G1 X4.050008218 Y0.182893408
N4790 G2 X4.080735589 Y0.168031903 I0.008016571 J-0.022621605
N4795 X4.065527428 Y0.137474715 I-0.0227108 J-0.007760101
N4800 X3.93642816 Y0.109955101 I-0.191546463 J0.582005649
N4805 G1 X3.797916803 Y0.100599321
N4810 X3.773761359 Y0.09879284
N4815 X3.765709644 Y0.098119233
N4820 X3.677139883 Y0.089996574
N4825 X3.669087868 Y0.08924596
N4830 X3.661036153 Y0.088327795
N4835 X3.636880709 Y0.084552511
N4840 X3.588569821 Y0.076764301
N4845 X3.578964293 Y0.075048344
N4850 X3.524155504 Y0.064513819
N4855 X3.475844616 Y0.055178019
N4860 X3.451689172 Y0.050267516
N4865 X3.443637457 Y0.048328324
N4870 X3.435585743 Y0.045935361
N4875 X3.297009806 Y0.00258703
N4880 X3.290653079 Y0.000518976
N4885 X3.286224726 Y-0.001005678
N4890 X3.285866084 Y-0.001085165
N4895 G3 X3.259586424 Y-0.005954704 I0.042625487 J-0.303385123
N4900 G1 X3.2573743 Y-0.006578256
N4905 X3.255231962 Y-0.007410548
N4910 X3.156969566 Y-0.051109594
N4915 X3.154916625 Y-0.052142983
N4920 X3.152971944 Y-0.053368009
N4925 G3 X3.131755018 Y-0.069621069 I0.175519628 J-0.251102279
N4930 G1 X3.131386164 Y-0.069874286
N4935 X3.129616985 Y-0.070775123
N4940 X3.121565271 Y-0.075136972
N4945 X3.113513256 Y-0.080311693
N4950 X3.105016693 Y-0.0859768
N4955 X3.089358112 Y-0.096543924
N4960 X3.081306097 Y-0.101682436
N4965 X3.041047224 Y-0.124447092
N4970 X3.023674131 Y-0.134284346
N4975 X3.008839765 Y-0.142745868
N4980 X3.00078805 Y-0.148338061
N4985 X2.984684621 Y-0.161482424
N4990 X2.978865256 Y-0.166489365
N4995 X2.952477162 Y-0.192716253
N5000 X2.946212048 Y-0.198694402
N5005 X2.928321718 Y-0.215098013
N5010 X2.920270004 Y-0.221451023
N5015 X2.919951311 Y-0.221633498
N5020 G3 X2.90492621 Y-0.230407978 I0.042633898 J-0.090255043
N5025 G1 X2.902622117 Y-0.232261632
N5030 X2.900563477 Y-0.234384576
N5035 X2.898781544 Y-0.23674458
N5040 X2.89643175 Y-0.240292023
N5045 X2.870684646 Y-0.279158213
N5050 X2.868508166 Y-0.282443752
N5055 X2.86703002 Y-0.285004982
N5060 X2.865878079 Y-0.287728552
N5065 X2.865069832 Y-0.290573113
N5070 G3 X2.862849799 Y-0.307830337 I0.097515377 J-0.021315428
N5075 G1 X2.862723343 Y-0.308499956
N5080 X2.852270171 Y-0.335565777
N5085 X2.850129736 Y-0.33999398
N5090 X2.848301178 Y-0.342928462
N5095 X2.846069937 Y-0.345569746
N5100 X2.843680402 Y-0.347264393 Z-0.354145461
N5105 X2.841327186 Y-0.348933284 Z-0.353603986
N5110 X2.839045487 Y-0.350551455 Z-0.352714381
N5115 X2.836007783 Y-0.35134686 Z-0.351216511
N5120 X2.833211303 Y-0.352079102 Z-0.349280678
N5125 X2.830714729 Y-0.352732816 Z-0.346947505
N5130 X2.828899293 Y-0.352801563 Z-0.34481822
N5135 X2.826827102 Y-0.352590774 Z-0.341543243
N5140 X2.82530702 Y-0.352436147 Z-0.337975423
N5145 X2.82437878 Y-0.352341723 Z-0.334208016
N5150 X2.824066643 Y-0.35230997 Z-0.330339492
N5155 G0 Z0.199999997
N5160 X5.202739445 Y-1.89622053
N5165 Z-0.266960625
N5170 G1 Z-0.290960627 F15.
N5175 X5.203019345 Y-1.896125915 Z-0.294715028
N5180 X5.203852195 Y-1.895844406 Z-0.298376989
N5185 X5.205217488 Y-1.895382935 Z-0.30185634
N5190 X5.207081607 Y-1.894752862 Z-0.305067407
N5195 X5.209398653 Y-1.893969703 Z-0.307931124
N5200 X5.212111571 Y-1.893052741 Z-0.310376975
N5205 X5.215153562 Y-1.892024555 Z-0.312344735
N5210 X5.218449723 Y-1.89091046 Z-0.313785949
N5215 X5.22191889 Y-1.88973789 Z-0.314665131
N5220 X5.225475642 Y-1.888535717 Z-0.314960629
N5225 G2 X5.354351134 Y-1.859985412 Z-0.31496063 I0.196191382 J-0.580456501
N5230 G1 X5.368019164 Y-1.858955894
N5235 X5.376070879 Y-1.858238911
N5240 X5.392174308 Y-1.856449458
N5245 X5.400226022 Y-1.855510051
N5250 X5.424381767 Y-1.851984159
N5255 X5.44853691 Y-1.847714552
N5260 X5.456588625 Y-1.846183717
N5265 X5.496847799 Y-1.838263564
N5270 X5.504899513 Y-1.836504748
N5275 X5.529055257 Y-1.829117152
N5280 X5.601521289 Y-1.804058045
N5285 X5.609573004 Y-1.801251689
N5290 X5.633728748 Y-1.792483743
N5295 X5.641780463 Y-1.788498886
N5300 X5.657883892 Y-1.780073662
N5305 X5.730350524 Y-1.741595681
N5310 X5.738402239 Y-1.737132636
N5315 X5.762557383 Y-1.720006447
N5320 X5.786713127 Y-1.70097276
N5325 X5.787025512 Y-1.700779472
N5330 G3 X5.800203939 Y-1.693247547 I-0.079665897 J0.154685824
N5335 G1 X5.802853802 Y-1.691310312
N5340 X5.812098586 Y-1.683527428
N5345 X5.824700303 Y-1.672919566
N5350 X5.83416736 Y-1.664950003
N5355 X5.836527667 Y-1.662669445
N5360 G3 X5.846196573 Y-1.650968086 I-0.129168052 J0.116575797
N5365 G1 X5.846244031 Y-1.650907111
N5370 X5.859179159 Y-1.635982033
N5375 X5.902502706 Y-1.583510722
N5380 X5.916700588 Y-1.563697424
N5385 X5.917648556 Y-1.562350416
N5390 X5.919230303 Y-1.55935693
N5395 X5.931645191 Y-1.533402571
N5400 X5.955800935 Y-1.481861655
N5405 X5.96385265 Y-1.460102712
N5410 X5.965293223 Y-1.454690498
N5415 X5.966877975 Y-1.446639234
N5420 X5.968289713 Y-1.43858797
N5425 X5.976870079 Y-1.382229272
N5430 X5.978467446 Y-1.369749805
N5435 G2 X5.999211589 Y-1.349734059 I0.023696779 J-0.003801932
N5440 G1 X6.002937506 Y-1.349272196 Z-0.314665192
N5445 X6.006571692 Y-1.348821704 Z-0.313786067
N5450 X6.01002466 Y-1.348393676 Z-0.312344899
N5455 X6.013211386 Y-1.347998651 Z-0.310377174
N5460 X6.016053401 Y-1.347646357 Z-0.307931341
N5465 X6.018480724 Y-1.347345467 Z-0.305067624
N5470 X6.020433585 Y-1.347103391 Z-0.301856535
N5475 X6.021863895 Y-1.346926089 Z-0.298377141
N5480 X6.022736435 Y-1.346817929 Z-0.294715114
N5485 X6.023029717 Y-1.346781573 Z-0.290960627
N5490 G0 X6.023029718 Z0.199999997
N5495 X6.023374542 Y-0.540240243
N5500 Z-0.266960625
N5505 G1 Z-0.290960627 F15.
N5510 X6.023266304 Y-0.539965286 Z-0.294715073
N5515 X6.022944312 Y-0.539147191 Z-0.298377067
N5520 X6.022416494 Y-0.537806104 Z-0.301856441
N5525 X6.021695847 Y-0.535975046 Z-0.30506752
N5530 X6.020800114 Y-0.533699106 Z-0.307931237
N5535 X6.019751351 Y-0.531034325 Z-0.310377078
N5540 X6.018575382 Y-0.528046319 Z-0.31234482
N5545 X6.017301163 Y-0.524808665 Z-0.31378601
N5550 X6.015960068 Y-0.521401083 Z-0.314665163
N5555 X6.01458512 Y-0.517907481 Z-0.31496063
N5560 G2 X5.979757234 Y-0.390585051 I0.570151261 J0.224385093
N5565 G1 X5.977914164 Y-0.37582206
N5570 X5.976870079 Y-0.367770796
N5575 X5.968289713 Y-0.311412004
N5580 X5.968275896 Y-0.311044952
N5585 G3 X5.96823805 Y-0.297105181 I-0.159655594 J0.006535034
N5590 G1 X5.967955911 Y-0.294385394
N5595 X5.967366236 Y-0.291715355
N5600 X5.966476681 Y-0.289129723
N5605 X5.963295163 Y-0.281353278
N5610 X5.935161921 Y-0.212585889
N5615 X5.931991217 Y-0.204836027
N5620 X5.930813406 Y-0.202368356
N5625 X5.92936255 Y-0.200050667
N5630 X5.92765748 Y-0.197913046
N5635 G3 X5.917913482 Y-0.187943958 I-0.119037178 J-0.106596872
N5640 G1 X5.917648556 Y-0.187649614
N5645 X5.914060337 Y-0.182591893
N5650 X5.902503306 Y-0.166489365
N5655 X5.862619595 Y-0.118181828
N5660 X5.859179159 Y-0.114017847
N5665 X5.85582643 Y-0.110130573
N5670 X5.855619175 Y-0.109827059
N5675 X5.853212224 Y-0.105825906
N5680 X5.850633035 Y-0.101933554
N5685 X5.849046486 Y-0.099892927
N5690 X5.847249669 Y-0.098034754
N5695 X5.835493193 Y-0.087119989
N5700 X5.83293284 Y-0.084743218
N5705 X5.821227427 Y-0.073876203
N5710 X5.819241069 Y-0.072222066
N5715 X5.81708833 Y-0.070791155
N5720 X5.813015416 Y-0.068507853
N5725 X5.808846782 Y-0.06640438
N5730 X5.808471319 Y-0.066179797
N5735 X5.762557383 Y-0.029993487
N5740 X5.738402239 Y-0.012867351
N5745 X5.730350524 Y-0.008404335
N5750 X5.673987922 Y0.02152981
N5755 X5.673684548 Y0.021737675
N5760 G3 X5.664051687 Y0.028856805 I-0.08634372 J-0.106756755
N5765 G1 X5.660816703 Y0.03068877
N5770 X5.647366742 Y0.036984056
N5775 X5.642653938 Y0.039189756
N5780 X5.629121075 Y0.045523878
N5785 X5.625642191 Y0.046834293
N5790 G3 X5.614004661 Y0.049670705 I-0.038301363 J-0.131853373
N5795 G1 X5.613737332 Y0.049740076
N5800 X5.609573004 Y0.05125165
N5805 X5.529055257 Y0.079117169
N5810 X5.504899513 Y0.086504718
N5815 X5.496847799 Y0.088263497
N5820 X5.456588625 Y0.096183612
N5825 X5.44853691 Y0.097714484
N5830 X5.424381767 Y0.101984167
N5835 X5.400226022 Y0.105509983
N5840 X5.392174308 Y0.106449512
N5845 X5.376070879 Y0.108238862
N5850 X5.368019164 Y0.108955864
N5855 X5.35996745 Y0.109562339
N5860 G2 X5.338959581 Y0.129301632 I0.002636647 J0.023854717
N5865 G1 X5.338315763 Y0.133000447 Z-0.314665154
N5870 X5.337687798 Y0.136608186 Z-0.313785995
N5875 X5.337091146 Y0.140036014 Z-0.312344798
N5880 X5.3365405 Y0.143199528 Z-0.310377052
N5885 X5.336049416 Y0.146020829 Z-0.307931208
N5890 X5.335629988 Y0.148430449 Z-0.30506749
N5895 X5.335292542 Y0.150369054 Z-0.301856415
N5900 X5.335045386 Y0.151788909 Z-0.298377047
N5905 X5.334894606 Y0.152655053 Z-0.294715061
N5910 X5.334843913 Y0.152946157 Z-0.290960627
N5915 G0 Z0.199999997
N5920 X4.22600243 Y0.135907733
N5925 Z-0.266960625
N5930 G1 Z-0.290960627 F15.
N5935 X4.225719608 Y0.135822124 Z-0.294715074
N5940 X4.224878133 Y0.135567407 Z-0.29837707
N5945 X4.223498727 Y0.135149853 Z-0.301856444
N5950 X4.221615355 Y0.134579746 Z-0.305067524
N5955 X4.219274394 Y0.133871122 Z-0.307931241
N5960 X4.216533485 Y0.13304143 Z-0.310377082
N5965 X4.213460119 Y0.132111102 Z-0.312344823
N5970 X4.210129974 Y0.131103044 Z-0.313786012
N5975 X4.206625048 Y0.130042078 Z-0.314665163
N5980 X4.203031645 Y0.12895433 Z-0.314960629
N5985 G2 X4.07330881 Y0.104541985 Z-0.31496063 I-0.17751889 J0.586436424
N5990 G1 X3.958952896 Y0.099601051
N5995 X3.950901182 Y0.099149567
N6000 X3.926745738 Y0.097649595
N6005 X3.805968818 Y0.089490217
N6010 X3.797916803 Y0.088837485
N6015 X3.773761359 Y0.085974387
N6020 X3.765709644 Y0.084880975
N6025 X3.749605915 Y0.082554301
N6030 X3.7415542 Y0.081338122
N6035 X3.588569821 Y0.056684158
N6040 X3.580518107 Y0.055335422
N6045 X3.564414377 Y0.052524655
N6050 X3.555603928 Y0.050894576
N6055 X3.548310948 Y0.049354378
N6060 X3.540259234 Y0.047218011
N6065 X3.532207219 Y0.044893144
N6070 X3.459740887 Y0.023441092
N6075 X3.451689172 Y0.021033857
N6080 X3.418233676 Y0.010638287
N6085 X3.395326569 Y0.003467593
N6090 G2 X3.372089056 Y0.044203903 I-0.007177638 J0.022901537
N6095 G1 X3.42764937 Y0.094235112
N6100 G2 X3.461920374 Y0.092032248 I0.016059875 J-0.017834766
N6105 X3.458904356 Y0.057823123 I-0.018211128 J-0.015631902
N6110 X3.348321689 Y-0.014256916 I-0.387924675 J0.474273342
N6115 G1 X3.263246731 Y-0.053771772
N6120 X3.260760111 Y-0.054664952
N6125 X3.258190377 Y-0.055279381
N6130 X3.255568677 Y-0.055607614
N6135 G3 X3.24127798 Y-0.061622525 I0.001665851 J-0.023942106
N6140 G2 X3.230434027 Y-0.069366834 I-0.041425209 J0.04654069
N6145 G1 X3.218186746 Y-0.075713729
N6150 X3.214902502 Y-0.07792554
N6155 X3.194031302 Y-0.092505808
N6160 X3.145720715 Y-0.126955143
N6165 X3.1376687 Y-0.132658472
N6170 X3.123329042 Y-0.142335601
N6175 X3.123003141 Y-0.142505282
N6180 G3 X3.090850349 Y-0.159610763 I0.08168198 J-0.192307243
N6185 G1 X3.08871936 Y-0.161168457
N6190 X3.086772322 Y-0.162950748
N6195 X3.085032786 Y-0.164936077
N6200 X3.011098246 Y-0.259321656
N6205 X3.009587275 Y-0.261486016
N6210 X3.008323128 Y-0.263803214
N6215 X3.007321095 Y-0.266245219
N6220 G3 X2.998413026 Y-0.301558802 I0.197364026 J-0.068567306
N6225 G1 X2.998378483 Y-0.30173037
N6230 X2.99347044 Y-0.319463249
N6235 X2.988729702 Y-0.335565777
N6240 X2.986286794 Y-0.343617041
N6245 X2.983780508 Y-0.351668305
N6250 X2.982423737 Y-0.35609647
N6255 G2 X2.958540729 Y-0.37223861 I-0.022687537 J0.007828089
N6260 G1 X2.954790959 Y-0.372051581 Z-0.314665171
N6265 X2.951133515 Y-0.371869156 Z-0.313786026
N6270 X2.947658455 Y-0.371695829 Z-0.312344843
N6275 X2.944451346 Y-0.371535867 Z-0.310377106
N6280 X2.94159116 Y-0.371393208 Z-0.307931267
N6285 X2.939148323 Y-0.371271365 Z-0.305067549
N6290 X2.937182988 Y-0.371173339 Z-0.301856468
N6295 X2.935743548 Y-0.371101543 Z-0.298377088
N6300 X2.934865449 Y-0.371057746 Z-0.294715085
N6305 X2.934570312 Y-0.371043025 Z-0.290960627
N6310 G0 X2.934570313 Z0.199999997
N6315 X2.928086829 Y-1.20934952
N6320 Z-0.266960625
N6325 G1 Z-0.290960627 F15.
N6330 X2.928200678 Y-1.209622191 Z-0.294715061
N6335 X2.928539412 Y-1.210433484 Z-0.298377046
N6340 X2.92909469 Y-1.211763424 Z-0.301856413
N6345 X2.929852839 Y-1.213579262 Z-0.305067489
N6350 X2.930795192 Y-1.215836286 Z-0.307931206
N6355 X2.931898544 Y-1.218478921 Z-0.31037705
N6360 X2.933135727 Y-1.221442095 Z-0.312344797
N6365 X2.934476278 Y-1.224652846 Z-0.313785994
N6370 X2.935887188 Y-1.228032114 Z-0.314665154
N6375 X2.937333715 Y-1.231496691 Z-0.31496063
N6380 G2 X2.974774218 Y-1.35807548 I-0.565412927 J-0.236070062
N6385 G1 X2.977121608 Y-1.374178008
N6390 X2.97868233 Y-1.382229272
N6395 X2.985250218 Y-1.406383064
N6400 X2.992736336 Y-1.434542739
N6405 X2.992789802 Y-1.434906036
N6410 G3 X2.997836015 Y-1.467176573 I0.186949903 J0.012703993
N6415 G1 X2.998725866 Y-1.470010075
N6420 X2.99995887 Y-1.472711977
N6425 X3.001516147 Y-1.475240903
N6430 X3.069840379 Y-1.572198342
N6435 X3.071698089 Y-1.574515533
N6440 X3.073827769 Y-1.576585535
N6445 X3.076196806 Y-1.57837665
N6450 G3 X3.104889337 Y-1.593984018 I0.103542899 J0.156174607
N6455 G1 X3.105461541 Y-1.594339206
N6460 X3.111301032 Y-1.5996131
N6465 X3.113513256 Y-1.601485755
N6470 X3.122828026 Y-1.607664364
N6475 X3.1376687 Y-1.617349489
N6480 X3.146737166 Y-1.623766892
N6485 X3.194031302 Y-1.657494222
N6490 X3.210135032 Y-1.668752986
N6495 X3.210410771 Y-1.668995685
N6500 X3.213068829 Y-1.671618335
N6505 X3.215838755 Y-1.674122548
N6510 X3.218037977 Y-1.675813248
N6515 X3.220417593 Y-1.677238885
N6520 X3.230064272 Y-1.682284948
N6525 X3.245436901 Y-1.69032645
N6530 X3.247965074 Y-1.691467944
N6535 X3.250608069 Y-1.692310093
N6540 X3.254244874 Y-1.693157184
N6545 X3.257915166 Y-1.693844833
N6550 X3.25844592 Y-1.693998472
N6555 X3.34339232 Y-1.733453555
N6560 G2 X3.332963178 Y-1.779218058 I-0.010109849 J-0.021766603
N6565 G1 X3.256975609 Y-1.778206863
N6570 G2 X3.233308266 Y-1.753409367 I0.000319293 J0.0239979
N6575 X3.258574478 Y-1.730243202 I0.023986636 J-0.000799596
N6580 X3.388861709 Y-1.751438651 I-0.032668827 J-0.611844251
N6585 G1 X3.451689172 Y-1.771097409
N6590 X3.459740887 Y-1.773438792
N6595 X3.483896331 Y-1.780305847
N6600 X3.540259234 Y-1.796040723
N6605 X3.548310948 Y-1.798256852
N6610 X3.556362663 Y-1.800171409
N6615 X3.560025974 Y-1.80089455
N6620 X3.661036153 Y-1.819254958
N6625 X3.669087868 Y-1.82053949
N6630 X3.709347042 Y-1.826233601
N6635 X3.789865088 Y-1.837513691
N6640 X3.797916803 Y-1.838608088
N6645 X3.822072247 Y-1.840668776
N6650 X3.846227691 Y-1.842598802
N6655 X3.854279405 Y-1.84317311
N6660 X3.87843485 Y-1.844706047
N6665 X4.031419228 Y-1.853185639
N6670 X4.039470943 Y-1.853571464
N6675 X4.055574672 Y-1.854095609
N6680 X4.058998634 Y-1.854576449
N6685 X4.062317976 Y-1.855544293
N6690 X4.064836355 Y-1.857040894 Z-0.314775403
N6695 X4.06731646 Y-1.858514749 Z-0.314233934
N6700 X4.069721192 Y-1.85994381 Z-0.313344321
N6705 X4.071680506 Y-1.862397681 Z-0.311846448
N6710 X4.073484228 Y-1.864656695 Z-0.309910609
N6715 X4.075094508 Y-1.866673447 Z-0.307577426
N6720 X4.075899991 Y-1.868851577 Z-0.304745705
N6725 X4.07654677 Y-1.870600549 Z-0.301593809
N6730 X4.077019808 Y-1.871879694 Z-0.298195033
N6735 X4.077308103 Y-1.872659267 Z-0.294628413
N6740 X4.077404953 Y-1.87292114 Z-0.290976885
N6745 G0 Z0.199999997
N6750 X5.210947953 Y-1.88529758
N6755 Z-0.227590546
N6760 G1 Z-0.251590549 F15.
N6765 X5.21122746 Y-1.885201769 Z-0.255344967
N6770 X5.212059113 Y-1.884916691 Z-0.259006942
N6775 X5.213422433 Y-1.884449366 Z-0.262486302
N6780 X5.215283851 Y-1.883811301 Z-0.265697374
N6785 X5.217597532 Y-1.883018208 Z-0.268561091
N6790 X5.220306508 Y-1.882089614 Z-0.271006938
N6795 X5.223344073 Y-1.881048385 Z-0.272974691
N6800 X5.226635433 Y-1.879920159 Z-0.274415895
N6805 X5.230099544 Y-1.878732717 Z-0.275295065
N6810 X5.233651109 Y-1.877515297 Z-0.275590551
N6815 G2 X5.362402848 Y-1.848412161 I0.198680848 J-0.579609158
N6820 G1 X5.368019164 Y-1.84796491
N6825 X5.376070879 Y-1.847104501
N6830 X5.44853691 Y-1.836783942
N6835 X5.456588625 Y-1.835325647
N6840 X5.472692655 Y-1.832054168
N6845 X5.480744369 Y-1.829752584
N6850 X5.494394377 Y-1.825048342
N6855 X5.494753019 Y-1.824968744
N6860 G3 X5.519213339 Y-1.820428503 I-0.039765365 J0.282386419
N6865 G1 X5.522561862 Y-1.819391776
N6870 X5.524572538 Y-1.818604056
N6875 X5.591236024 Y-1.792490801
N6880 X5.593405896 Y-1.791640755
N6885 X5.596567589 Y-1.790127341
N6890 G3 X5.617603692 Y-1.776845737 I-0.141579936 J0.247545017
N6895 G1 X5.617769497 Y-1.776740757
N6900 X5.690091351 Y-1.738331412
N6905 X5.698143065 Y-1.733463317
N6910 X5.70619478 Y-1.727716341
N6915 X5.71568827 Y-1.72038206
N6920 X5.754505668 Y-1.68978173
N6925 X5.754818053 Y-1.689588442
N6930 G3 X5.765105721 Y-1.683708852 I-0.062188577 J0.120750788
N6935 G1 X5.768089595 Y-1.681484613
N6940 X5.779367282 Y-1.67163158
N6945 X5.782658134 Y-1.66875614
N6950 X5.794131061 Y-1.658732647
N6955 X5.796735268 Y-1.656073623
N6960 G3 X5.803942342 Y-1.646668291 I-0.104105792 J0.087235969
N6965 G1 X5.804006021 Y-1.646581184
N6970 X5.856127401 Y-1.583510722
N6975 X5.856391727 Y-1.583255858
N6980 X5.861568301 Y-1.578605382
N6985 X5.86368795 Y-1.576231666
N6990 X5.865474911 Y-1.573598366
N6995 X5.871636098 Y-1.563078663
N7000 X5.880258515 Y-1.548357085
N7005 X5.881681301 Y-1.545510463
N7010 X5.88271494 Y-1.542500624
N7015 X5.884239617 Y-1.535711063
N7020 X5.884391004 Y-1.535203138
N7025 X5.907490047 Y-1.485953744
N7030 X5.910691389 Y-1.47884429
N7035 X5.914067546 Y-1.470793026
N7040 X5.915541762 Y-1.466968416
N7045 X5.916843564 Y-1.462741762
N7050 X5.918811588 Y-1.454690498
N7055 X5.921741395 Y-1.43858797
N7060 X5.923112284 Y-1.430536706
N7065 X5.930466539 Y-1.382229272
N7070 G2 X5.951741737 Y-1.362778671 I0.023586243 J-0.004437815
N7075 G1 X5.955478721 Y-1.362417191 Z-0.275295063
N7080 X5.959123685 Y-1.362064612 Z-0.274415891
N7085 X5.962586878 Y-1.361729615 Z-0.272974684
N7090 X5.965783026 Y-1.36142045 Z-0.27100693
N7095 X5.968633428 Y-1.361144729 Z-0.268561082
N7100 X5.971067899 Y-1.360909241 Z-0.265697365
N7105 X5.973026494 Y-1.360719784 Z-0.262486294
N7110 X5.974460986 Y-1.360581023 Z-0.259006936
N7115 X5.975336055 Y-1.360496376 Z-0.255344964
N7120 X5.975630152 Y-1.360467926 Z-0.251590549
N7125 G0 Z0.199999997
N7130 X5.976971003 Y-0.540240243
N7135 Z-0.227590546
N7140 G1 Z-0.251590549 F15.
N7145 X5.976862765 Y-0.539965286 Z-0.255344994
N7150 X5.976540773 Y-0.539147191 Z-0.259006989
N7155 X5.976012955 Y-0.537806104 Z-0.262486362
N7160 X5.975292307 Y-0.535975046 Z-0.265697441
N7165 X5.974396574 Y-0.533699106 Z-0.268561158
N7170 X5.973347812 Y-0.531034325 Z-0.271007
N7175 X5.972171843 Y-0.528046319 Z-0.272974741
N7180 X5.970897623 Y-0.524808665 Z-0.274415932
N7185 X5.969556529 Y-0.521401083 Z-0.275295084
N7190 X5.96818158 Y-0.517907481 Z-0.275590551
N7195 G2 X5.933353694 Y-0.390585051 I0.570151261 J0.224385093
N7200 G1 X5.931511226 Y-0.37582206
N7205 X5.930466539 Y-0.367770796
N7210 X5.923112284 Y-0.319463249
N7215 X5.921741395 Y-0.311412004
N7220 X5.92172097 Y-0.311045252
N7225 G3 X5.921490887 Y-0.299704863 I-0.129983256 J0.003035763
N7230 G1 X5.920988771 Y-0.296123377
N7235 X5.919954195 Y-0.29265798
N7240 X5.915675726 Y-0.281481274
N7245 X5.901608204 Y-0.24473072
N7250 X5.897432462 Y-0.233822188
N7255 X5.895888822 Y-0.23055165
N7260 X5.893871277 Y-0.227550184
N7265 G3 X5.886470164 Y-0.218954818 I-0.102133563 J-0.080459306
N7270 G1 X5.886092899 Y-0.218419991
N7275 X5.883334303 Y-0.212590112
N7280 X5.876681711 Y-0.198694402
N7285 X5.876561563 Y-0.198347287
N7290 G3 X5.871341735 Y-0.181364187 I-0.197098499 J-0.051282898
N7295 G1 X5.870141308 Y-0.178566317
N7300 X5.868596328 Y-0.175942938
N7305 X5.866731659 Y-0.173536267
N7310 X5.864323293 Y-0.170804854
N7315 X5.780667883 Y-0.07592771
N7320 X5.778406098 Y-0.073363072
N7325 X5.776251845 Y-0.071211809
N7330 X5.773842571 Y-0.069350577
N7335 X5.771217046 Y-0.067809327
N7340 G3 X5.755021103 Y-0.060504328 I-0.091753982 J-0.181820857
N7345 G1 X5.754505668 Y-0.060218329
N7350 X5.714246495 Y-0.028481596
N7355 X5.70619478 Y-0.022283673
N7360 X5.698143065 Y-0.016536653
N7365 X5.690091351 Y-0.011668563
N7370 X5.613196666 Y0.029168788
N7375 X5.612893893 Y0.029376656
N7380 X5.609299109 Y0.032156428
N7385 X5.605586495 Y0.034776743
N7390 X5.60376521 Y0.035889214
N7395 X5.601852297 Y0.036835492
N7400 X5.591643927 Y0.041332254
N7405 X5.57589133 Y0.048270676
N7410 X5.573902027 Y0.049043267
N7415 X5.571851956 Y0.049636092
N7420 X5.567412614 Y0.050606364
N7425 X5.562935176 Y0.051382067
N7430 X5.562593956 Y0.051460069
N7435 X5.480744369 Y0.079752592
N7440 X5.472692655 Y0.082054101
N7445 X5.456588625 Y0.085325607
N7450 X5.44853691 Y0.086783903
N7455 X5.392174308 Y0.094815136
N7460 X5.39181867 Y0.094907678
N7465 X5.387529224 Y0.09628832
N7470 X5.383183637 Y0.097480552
N7475 X5.379383958 Y0.098115562
N7480 X5.371911357 Y0.098754177
N7485 X5.354105431 Y0.10027586
N7490 X5.350253488 Y0.100294783
N7495 X5.345768403 Y0.099857248
N7500 X5.341306671 Y0.09922449
N7505 X5.34112705 Y0.099202122
N7510 X5.327759991 Y0.098526121
N7515 X5.319708276 Y0.098246918
N7520 X4.884910583
N7525 G2 X4.862479563 Y0.116352594 I0.000837732 J0.023985378
N7530 G1 X4.861559771 Y0.119992609 Z-0.275295072
N7535 X4.860662627 Y0.123542995 Z-0.274415909
N7540 X4.859810223 Y0.12691633 Z-0.27297471
N7545 X4.859023545 Y0.130029551 Z-0.271006961
N7550 X4.858321967 Y0.132806 Z-0.268561116
N7555 X4.857722761 Y0.135177311 Z-0.265697399
N7560 X4.857240683 Y0.137085095 Z-0.262486324
N7565 X4.856887603 Y0.138482377 Z-0.259006959
N7570 X4.856672215 Y0.139334749 Z-0.255344977
N7575 X4.856599823 Y0.139621225 Z-0.251590549
N7580 G0 Y0.139621224 Z0.199999997
N7585 X4.159949596 Y0.121260196
N7590 Z-0.227590546
N7595 G1 Z-0.251590549 F15.
N7600 X4.159666803 Y0.121174519 Z-0.255344985
N7605 X4.158825402 Y0.120919594 Z-0.259006972
N7610 X4.15744611 Y0.120501701 Z-0.262486341
N7615 X4.15556289 Y0.119931129 Z-0.265697418
N7620 X4.153222115 Y0.119221927 Z-0.268561135
N7625 X4.150481421 Y0.118391558 Z-0.271006978
N7630 X4.147408293 Y0.117460469 Z-0.272974724
N7635 X4.144078404 Y0.116451587 Z-0.274415919
N7640 X4.140573745 Y0.115389754 Z-0.275295078
N7645 X4.136980612 Y0.114301115 Z-0.275590552
N7650 G2 X4.007263784 Y0.089856649 Z-0.275590551 I-0.177664269 J0.586392466
N7655 G1 X3.99921207 Y0.089506756
N7660 X3.991160355 Y0.088987932
N7665 X3.958952896 Y0.086562136
N7670 X3.934797452 Y0.084489715
N7675 X3.926745738 Y0.083652519
N7680 X3.773761359 Y0.065441394
N7685 X3.749605915 Y0.062382775
N7690 X3.7415542 Y0.06125521
N7695 X3.677407513 Y0.050894576
N7700 X3.669087868 Y0.049173771
N7705 X3.652984439 Y0.04522218
N7710 X3.564414377 Y0.023307143
N7715 X3.556362663 Y0.021249612
N7720 X3.532207219 Y0.014749655
N7725 X3.487147534 Y0.001410724
N7730 X3.486785889 Y0.001347002
N7735 G3 X3.461953411 Y-0.002138676 I0.027501264 J-0.286122826
N7740 G1 X3.459254036 Y-0.002802164
N7745 X3.45664948 Y-0.003773325
N7750 X3.345892899 Y-0.05255196
N7755 X3.343418228 Y-0.053817728
N7760 X3.341106505 Y-0.055361132
N7765 G3 X3.321770796 Y-0.071327804 I0.173180648 J-0.229414692
N7770 G1 X3.321520588 Y-0.071524278
N7775 X3.298673555 Y-0.0859768
N7780 X3.219644141 Y-0.142335601
N7785 X3.219322745 Y-0.142513645
N7790 X3.213543629 Y-0.145457542
N7795 X3.211462613 Y-0.146780151
N7800 X3.209528285 Y-0.1483093
N7805 X3.208562596 Y-0.14915701
N7810 X3.194080563 Y-0.161867123
N7815 X3.192313424 Y-0.163586671
N7820 X3.19073204 Y-0.165478451
N7825 X3.187063022 Y-0.170826818
N7830 X3.18693116 Y-0.17101684
N7835 X3.169876159 Y-0.192164192
N7840 X3.129616985 Y-0.242753048
N7845 X3.129357165 Y-0.243012699
N7850 G3 X3.119207968 Y-0.25333596 I0.053922999 J-0.063164891
N7855 G1 X3.117433532 Y-0.255787377
N7860 X3.115981695 Y-0.258442605
N7865 X3.111745879 Y-0.267503712
N7870 X3.107680073 Y-0.276201672
N7875 X3.103494119 Y-0.285156149
N7880 X3.102387946 Y-0.287972967
N7885 X3.101645042 Y-0.290906598
N7890 G3 X3.100233604 Y-0.305314383 I0.081635122 J-0.015270992
N7895 G1 X3.100178336 Y-0.305796252
N7900 X3.086252888 Y-0.359719532
N7905 G2 X3.063119903 Y-0.376919499 I-0.023016742 J0.006799735
N7910 G1 X3.059365522 Y-0.376901314 Z-0.275295055
N7915 X3.055703592 Y-0.376883576 Z-0.274415875
N7920 X3.052224281 Y-0.376866724 Z-0.272974662
N7925 X3.049013261 Y-0.376851171 Z-0.271006904
N7930 X3.046149598 Y-0.3768373 Z-0.268561053
N7935 X3.043703803 Y-0.376825454 Z-0.265697337
N7940 X3.041736101 Y-0.376815924 Z-0.262486268
N7945 X3.040294941 Y-0.376808943 Z-0.259006915
N7950 X3.039415809 Y-0.376804686 Z-0.255344952
N7955 X3.039120351 Y-0.376803255 Z-0.251590549
N7960 G0 Z0.199999997
N7965 X3.035622845 Y-1.222924961
N7970 Z-0.227590546
N7975 G1 Z-0.251590549 F15.
N7980 X3.035736693 Y-1.223197624 Z-0.255344972
N7985 X3.036075426 Y-1.224008908 Z-0.25900695
N7990 X3.036630703 Y-1.225338838 Z-0.262486313
N7995 X3.037388852 Y-1.227154666 Z-0.265697386
N8000 X3.038331203 Y-1.229411681 Z-0.268561103
N8005 X3.039434555 Y-1.232054307 Z-0.271006949
N8010 X3.040671738 Y-1.235017474 Z-0.2729747
N8015 X3.04201229 Y-1.238228219 Z-0.274415902
N8020 X3.043423201 Y-1.241607483 Z-0.275295068
N8025 X3.044869731 Y-1.245072057 Z-0.275590551
N8030 G2 X3.082310534 Y-1.371650846 I-0.565412777 J-0.236070212
N8035 G1 X3.082678787 Y-1.374178008
N8040 X3.084176732 Y-1.382229272
N8045 X3.098727249 Y-1.43858797
N8050 X3.098778312 Y-1.438951718
N8055 X3.099133235 Y-1.443234106
N8060 X3.099674615 Y-1.44749694
N8065 X3.10021428 Y-1.450108737
N8070 X3.101040397 Y-1.452644528
N8075 X3.106807198 Y-1.467489708
N8080 X3.112936846 Y-1.483269489
N8085 X3.114039143 Y-1.485697991
N8090 X3.115404084 Y-1.4879892
N8095 X3.117882295 Y-1.4914997
N8100 X3.120511273 Y-1.494898759
N8105 X3.120549119 Y-1.494946818
N8110 X3.126285883 Y-1.502998082
N8115 X3.132642911 Y-1.511049346
N8120 X3.171094159 Y-1.55935693
N8125 X3.177927873 Y-1.567839225
N8130 X3.185979588 Y-1.577833431
N8135 X3.190678574 Y-1.583510722
N8140 X3.194031302 Y-1.587052383
N8145 X3.199380289 Y-1.591561986
N8150 X3.210135032 Y-1.600215792
N8155 X3.218186746 Y-1.606625084
N8160 X3.29506431 Y-1.661449342
N8165 X3.295337347 Y-1.661695045
N8170 G3 X3.313279039 Y-1.679017525 I0.207344416 J0.196803085
N8175 G1 X3.316015507 Y-1.681108174
N8180 X3.319023012 Y-1.682785665
N8185 X3.453456548 Y-1.745578886
N8190 X3.456673256 Y-1.746808652
N8195 X3.460032846 Y-1.747565382
N8200 G3 X3.484831983 Y-1.750206835 I0.042648916 J0.282673423
N8205 G1 X3.48523598 Y-1.75026781
N8210 X3.637742771 Y-1.792843286
N8215 X3.644932424 Y-1.794570713
N8220 X3.661036153 Y-1.798187917
N8225 X3.669087868 Y-1.799940875
N8230 X3.67418154 Y-1.80089455
N8235 X3.677139883 Y-1.801378896
N8240 X3.822072247 Y-1.821714236
N8245 X3.847560732 Y-1.825048342
N8250 X3.854279405 Y-1.825813834
N8255 X3.98310834 Y-1.838396027
N8260 X3.991160355 Y-1.839155362
N8265 X3.99921207 Y-1.83964872
N8270 X4.002620911 Y-1.840227492
N8275 X4.005911219 Y-1.841290091
N8280 X4.00838556 Y-1.842858266 Z-0.275405304
N8285 X4.010822296 Y-1.844402608 Z-0.274863834
N8290 X4.013184975 Y-1.845900017 Z-0.273974242
N8295 X4.015073202 Y-1.848409035 Z-0.272476378
N8300 X4.016811487 Y-1.850718816 Z-0.270540539
N8305 X4.018363352 Y-1.85278089 Z-0.268207348
N8310 X4.019106092 Y-1.854981214 Z-0.265375632
N8315 X4.019702496 Y-1.85674801 Z-0.26222374
N8320 X4.020138696 Y-1.858040193 Z-0.258824964
N8325 X4.02040455 Y-1.858827714 Z-0.25525834
N8330 X4.020493875 Y-1.859092262 Z-0.251606806
N8335 G0 Z0.199999997
N8340 X5.208203774 Y-1.868963166
N8345 Z-0.188220467
N8350 G1 Z-0.21222047 F15.
N8355 X5.208484087 Y-1.868869741 Z-0.215974888
N8360 X5.209318137 Y-1.86859176 Z-0.219636861
N8365 X5.210685389 Y-1.868136069 Z-0.223116221
N8370 X5.212552175 Y-1.867513889 Z-0.226327293
N8375 X5.214872529 Y-1.86674054 Z-0.22919101
N8380 X5.217589318 Y-1.865835063 Z-0.231636857
N8385 X5.220635644 Y-1.864819755 Z-0.23360461
N8390 X5.223936498 Y-1.863719616 Z-0.235045816
N8395 X5.227410601 Y-1.862561735 Z-0.235924986
N8400 X5.23097241 Y-1.861374622 Z-0.236220473
N8405 G2 X5.35996745 Y-1.833369638 Z-0.236220472 I0.193734357 J-0.581281016
N8410 G1 X5.368019164 Y-1.832797283
N8415 X5.376070879 Y-1.831994845
N8420 X5.400226022 Y-1.828606673
N8425 X5.424381767 Y-1.824931948
N8430 X5.44853691 Y-1.821152995
N8435 X5.456588625 Y-1.819722934
N8440 X5.472692655 Y-1.816667722
N8445 X5.480744369 Y-1.814262811
N8450 X5.496847799 Y-1.80862607
N8455 X5.504899513 Y-1.805760541
N8460 X5.521003543 Y-1.799923754
N8465 X5.529055257 Y-1.796953547
N8470 X5.539470282 Y-1.792843286
N8475 X5.545158687 Y-1.790518873
N8480 X5.553210401 Y-1.786380227
N8485 X5.641780463 Y-1.73934516
N8490 X5.646621224 Y-1.736484588
N8495 X5.649832177 Y-1.734475864
N8500 X5.657883892 Y-1.729168479
N8505 X5.679497907 Y-1.712330796
N8510 X5.726726862 Y-1.675099501
N8515 X5.727039247 Y-1.674906213
N8520 G3 X5.736881767 Y-1.669281186 I-0.059497263 J0.115525103
N8525 G1 X5.739335945 Y-1.667506736
N8530 X5.741547111 Y-1.665437353
N8535 X5.750564215 Y-1.655862162
N8540 X5.768960067 Y-1.636328359
N8545 X5.777845007 Y-1.626893742
N8550 X5.779777996 Y-1.624562365
N8555 X5.781401987 Y-1.622006123
N8560 G3 X5.786426574 Y-1.611844311 I-0.113860003 J0.062625014
N8565 G1 X5.786713127 Y-1.611362217
N8570 X5.810868271 Y-1.582125416
N8575 X5.815505381 Y-1.575459458
N8580 X5.818919985 Y-1.570447787
N8585 X5.82642803 Y-1.55935693
N8590 X5.835024015 Y-1.54149904
N8595 X5.860644964 Y-1.486895554
N8600 X5.864110631 Y-1.47884429
N8605 X5.870069369 Y-1.462741762
N8610 X5.872408048 Y-1.454690498
N8615 X5.875337856 Y-1.43858797
N8620 X5.876708744 Y-1.430536706
N8625 X5.883334303 Y-1.387014164
N8630 G2 X5.904610101 Y-1.367563563 I0.023586243 J-0.004437815
N8635 G1 X5.908347084 Y-1.367202083 Z-0.235924984
N8640 X5.911992049 Y-1.366849504 Z-0.235045812
N8645 X5.915455242 Y-1.366514508 Z-0.233604605
N8650 X5.91865139 Y-1.366205343 Z-0.231636851
N8655 X5.921501792 Y-1.365929622 Z-0.229191003
N8660 X5.923936263 Y-1.365694134 Z-0.226327287
N8665 X5.925894858 Y-1.365504677 Z-0.223116215
N8670 X5.92732935 Y-1.365365916 Z-0.219636857
N8675 X5.928204418 Y-1.365281268 Z-0.215974885
N8680 X5.928498515 Y-1.365252818 Z-0.21222047
N8685 G0 X5.928498516 Z0.199999997
N8690 X5.929404431 Y-0.537736322
N8695 Z-0.188220467
N8700 G1 Z-0.21222047 F15.
N8705 X5.929298104 Y-0.537460646 Z-0.215974885
N8710 X5.928981694 Y-0.536640406 Z-0.219636857
N8715 X5.92846299 Y-0.535295798 Z-0.223116215
N8720 X5.927754767 Y-0.533459931 Z-0.226327287
N8725 X5.926874464 Y-0.531178009 Z-0.229191004
N8730 X5.925843756 Y-0.52850622 Z-0.231636852
N8735 X5.924688024 Y-0.525510352 Z-0.233604605
N8740 X5.923435726 Y-0.522264172 Z-0.235045812
N8745 X5.922117698 Y-0.518847613 Z-0.235924984
N8750 X5.920766395 Y-0.5153448 Z-0.236220473
N8755 G2 X5.886797567 Y-0.387790297 Z-0.236220472 I0.571651309 J0.220533713
N8760 G1 X5.886335598 Y-0.383873324
N8765 X5.884063 Y-0.367770796
N8770 X5.876708744 Y-0.319463249
N8775 X5.875282588 Y-0.311108349
N8780 X5.873873253 Y-0.30336074
N8785 X5.873848622 Y-0.302994251
N8790 G3 X5.873425101 Y-0.289613975 I-0.153440941 J0.001839878
N8795 G1 X5.873088912 Y-0.287032736
N8800 X5.872475153 Y-0.284503083
N8805 X5.871591042 Y-0.282054773
N8810 X5.86794275 Y-0.273446173
N8815 X5.84290572 Y-0.214363365
N8820 X5.83928326 Y-0.205814256
N8825 X5.838139196 Y-0.203476129
N8830 X5.836748638 Y-0.201275651
N8835 X5.835127943 Y-0.19923871
N8840 G3 X5.825808668 Y-0.189628 I-0.114720262 J-0.101915664
N8845 G1 X5.825523316 Y-0.18930362
N8850 X5.815505381 Y-0.174540629
N8855 X5.810868271 Y-0.167874464
N8860 X5.763160525 Y-0.110130573
N8865 X5.762960479 Y-0.109822741
N8870 X5.759935754 Y-0.104802209
N8875 X5.758677747 Y-0.103077651
N8880 X5.757271474 Y-0.101471689
N8885 X5.746697253 Y-0.09042968
N8890 X5.74515394 Y-0.088955079
N8895 X5.743485699 Y-0.087623427
N8900 X5.738600483 Y-0.084384708
N8905 X5.738402239 Y-0.084250959
N8910 X5.730350524 Y-0.077756751
N8915 X5.679497907 Y-0.037669256
N8920 X5.657883892 Y-0.020831462
N8925 X5.649832177 Y-0.015524193
N8930 X5.646621224 Y-0.013515485
N8935 X5.641780463 Y-0.010654791
N8940 X5.553210401 Y0.036380258
N8945 X5.545158687 Y0.040518871
N8950 X5.539470282 Y0.042843316
N8955 X5.529055257 Y0.046953564
N8960 X5.518324844 Y0.050894576
N8965 X5.504899513 Y0.055760497
N8970 X5.495934674 Y0.05894583
N8975 X5.480744369 Y0.064262813
N8980 X5.472692655 Y0.066667673
N8985 X5.456588625 Y0.069722932
N8990 X5.44853691 Y0.071152956
N8995 X5.423616424 Y0.075048344
N9000 X5.400226022 Y0.078606601
N9005 X5.376070879 Y0.081994806
N9010 X5.368019164 Y0.0827973
N9015 G2 X5.347494291 Y0.103038324 I0.003212155 J0.023784065
N9020 G1 X5.346940025 Y0.106751613 Z-0.235924994
N9025 X5.346399406 Y0.11037347 Z-0.235045832
N9030 X5.345885747 Y0.113814711 Z-0.233604634
N9035 X5.345411694 Y0.116990602 Z-0.231636886
N9040 X5.344988921 Y0.119822942 Z-0.229191041
N9045 X5.344627836 Y0.122241989 Z-0.226327324
N9050 X5.344337332 Y0.124188178 Z-0.223116249
N9055 X5.34412456 Y0.125613588 Z-0.219636883
N9060 X5.34399476 Y0.12648312 Z-0.2159749
N9065 X5.343951128 Y0.126775362 Z-0.21222047
N9070 G0 Z0.199999997
N9075 X4.253149558 Y0.112395906
N9080 Z-0.188220467
N9085 G1 Z-0.21222047 F15.
N9090 X4.252869399 Y0.112301976 Z-0.215974905
N9095 X4.252035832 Y0.112022498 Z-0.219636892
N9100 X4.250669383 Y0.111564353 Z-0.223116261
N9105 X4.248803698 Y0.110938823 Z-0.226327337
N9110 X4.246484718 Y0.110161312 Z-0.229191054
N9115 X4.243769542 Y0.109250962 Z-0.231636898
N9120 X4.240725029 Y0.108230192 Z-0.233604643
N9125 X4.237426143 Y0.107124135 Z-0.235045839
N9130 X4.233954116 Y0.105960026 Z-0.235924998
N9135 X4.230394438 Y0.10476653 Z-0.236220472
N9140 G2 X4.101449861 Y0.076530205 I-0.19477664 J0.580932662
N9145 G1 X4.071678402 Y0.074297246
N9150 X3.934797452 Y0.063861979
N9155 X3.926745738 Y0.063075184
N9160 X3.886486864 Y0.058326881
N9165 X3.854279405 Y0.05449296
N9170 X3.825424975 Y0.050894576
N9175 X3.749605915 Y0.037068741
N9180 X3.7415542 Y0.035483455
N9185 X3.725450771 Y0.032101187
N9190 X3.717398756 Y0.030325473
N9195 X3.612725265 Y0.004424589
N9200 X3.596621836 Y0.000356995
N9205 X3.596257788 Y0.000307934
N9210 G3 X3.570244256 Y-0.002277455 I0.016600842 J-0.299197199
N9215 G1 X3.567420076 Y-0.002858142
N9220 X3.564685912 Y-0.003773312
N9225 X3.442933691 Y-0.052841409
N9230 X3.440329007 Y-0.054077814
N9235 X3.437891382 Y-0.055617648
N9240 G3 X3.417354794 Y-0.071792753 I0.174967248 J-0.243271617
N9245 G1 X3.417046314 Y-0.072017232
N9250 X3.411430299 Y-0.075178888
N9255 X3.406849058 Y-0.07792554
N9260 X3.403378284 Y-0.080183904
N9265 X3.387274855 Y-0.09105213
N9270 X3.37922284 Y-0.096629154
N9275 X3.315130819 Y-0.142335601
N9280 X3.314809724 Y-0.142513645
N9285 X3.309020696 Y-0.145462498
N9290 X3.306967356 Y-0.146765471
N9295 X3.305056414 Y-0.148269548
N9300 X3.304321409 Y-0.148910913
N9305 X3.289742658 Y-0.161633379
N9310 X3.287993728 Y-0.163323112
N9315 X3.286424772 Y-0.16518116
N9320 X3.28271971 Y-0.170517644
N9325 X3.282601364 Y-0.170687728
N9330 X3.279442675 Y-0.174540629
N9335 X3.272980517 Y-0.182591893
N9340 X3.226238761 Y-0.241326929
N9345 X3.221902622 Y-0.247001948
N9350 X3.218186746 Y-0.252865581
N9355 X3.217956363 Y-0.253151608
N9360 X3.214094507 Y-0.257615949
N9365 X3.2127115 Y-0.259553519
N9370 X3.211527246 Y-0.261618565
N9375 X3.203712824 Y-0.276960895
N9380 X3.202738968 Y-0.279133115
N9385 X3.201985096 Y-0.281391125
N9390 X3.200645146 Y-0.287139998
N9395 X3.200619915 Y-0.287258231
N9400 X3.198374951 Y-0.295309495
N9405 X3.181739567 Y-0.359719532
N9410 G2 X3.158606582 Y-0.376919499 I-0.023016742 J0.006799735
N9415 G1 X3.154852201 Y-0.376901314 Z-0.235924976
N9420 X3.151190271 Y-0.376883576 Z-0.235045797
N9425 X3.14771096 Y-0.376866724 Z-0.233604584
N9430 X3.14449994 Y-0.376851171 Z-0.231636825
N9435 X3.141636276 Y-0.3768373 Z-0.229190975
N9440 X3.139190482 Y-0.376825454 Z-0.226327258
N9445 X3.137222779 Y-0.376815924 Z-0.223116189
N9450 X3.135781619 Y-0.376808943 Z-0.219636837
N9455 X3.134902488 Y-0.376804686 Z-0.215974874
N9460 X3.13460703 Y-0.376803255 Z-0.21222047
N9465 G0 Z0.199999997
N9470 X3.128923131 Y-1.225347068
N9475 Z-0.188220467
N9480 G1 Z-0.21222047 F15.
N9485 X3.12904123 Y-1.225617921 Z-0.215974898
N9490 X3.129392599 Y-1.226423819 Z-0.21963688
N9495 X3.129968586 Y-1.227744917 Z-0.223116245
N9500 X3.130755008 Y-1.229548685 Z-0.22632732
N9505 X3.131732501 Y-1.231790709 Z-0.229191037
N9510 X3.132876997 Y-1.234415782 Z-0.231636882
N9515 X3.134160313 Y-1.237359267 Z-0.233604631
N9520 X3.135550852 Y-1.240548684 Z-0.23504583
N9525 X3.137014374 Y-1.2439055 Z-0.235924993
N9530 X3.138514842 Y-1.247347058 Z-0.236220472
N9535 G2 X3.177927873 Y-1.373325708 I-0.561657102 J-0.244871951
N9540 G1 X3.178065743 Y-1.374178008
N9545 X3.17966341 Y-1.382229272
N9550 X3.195358036 Y-1.443016172
N9555 X3.195402791 Y-1.443747273
N9560 X3.195181118 Y-1.447962964
N9565 X3.195307195 Y-1.450643275
N9570 X3.195731684 Y-1.453292763
N9575 X3.19644928 Y-1.45587831
N9580 X3.201604227 Y-1.471093696
N9585 X3.202605982 Y-1.473582966
N9590 X3.203879349 Y-1.475944853
N9595 X3.205408412 Y-1.478149835
N9600 X3.208147184 Y-1.481362591
N9605 X3.208365853 Y-1.481636228
N9610 X3.221902622 Y-1.502998082
N9615 X3.226238761 Y-1.50867312
N9620 X3.272980517 Y-1.567408194
N9625 X3.273175157 Y-1.567719527
N9630 X3.27634466 Y-1.573206083
N9635 X3.277636226 Y-1.575037843
N9640 X3.279093044 Y-1.576741136
N9645 X3.291465579 Y-1.589907699
N9650 X3.29307494 Y-1.591467662
N9655 X3.294822813 Y-1.592870697
N9660 X3.300101813 Y-1.596374812
N9665 X3.300322585 Y-1.596525448
N9670 X3.304052578 Y-1.5996131
N9675 X3.31513112 Y-1.607664364
N9680 X3.387274855 Y-1.659089937
N9685 X3.394747757 Y-1.664023212
N9690 X3.395029203 Y-1.664259002
N9695 G3 X3.414262186 Y-1.681534775 I0.207456454 J0.211614924
N9700 G1 X3.416959715 Y-1.683457063
N9705 X3.419896223 Y-1.684989629
N9710 X3.55602715 Y-1.744474426
N9715 X3.559146705 Y-1.745588092
N9720 X3.562389884 Y-1.746261627
N9725 G3 X3.588132783 Y-1.748638904 I0.040095772 J0.293617549
N9730 G1 X3.588569821 Y-1.748701831
N9735 X3.612725265 Y-1.755447388
N9740 X3.636880709 Y-1.761713253
N9745 X3.644932424 Y-1.763559777
N9750 X3.805968818 Y-1.798227716
N9755 X3.814020532 Y-1.799938172
N9760 X3.818952005 Y-1.80089455
N9765 X3.822072247 Y-1.801362075
N9770 X3.830123961 Y-1.802379278
N9775 X3.846227691 Y-1.804238717
N9780 X3.854279405 Y-1.805106486
N9785 X4.007263784 Y-1.820047934
N9790 X4.015315499 Y-1.820736232
N9795 X4.031419228 Y-1.821938913
N9800 X4.039470943 Y-1.82249685
N9805 X4.04287511 Y-1.823102829
N9810 X4.046156876 Y-1.824191687
N9815 X4.048618649 Y-1.825779532 Z-0.236035226
N9820 X4.051043007 Y-1.827343244 Z-0.235493757
N9825 X4.053393687 Y-1.828859434 Z-0.234604163
N9830 X4.055261867 Y-1.831383456 Z-0.233106308
N9835 X4.0569817 Y-1.833707051 Z-0.23117047
N9840 X4.058517096 Y-1.835781458 Z-0.228837269
N9845 X4.059242188 Y-1.837987647 Z-0.226005544
N9850 X4.059824408 Y-1.839759151 Z-0.222853646
N9855 X4.060250217 Y-1.841054776 Z-0.21945487
N9860 X4.060509711 Y-1.841844396 Z-0.215888251
N9865 X4.060596857 Y-1.84210965 Z-0.212236727
N9870 G0 Z0.199999997
N9875 X5.211906733 Y-1.844618339
N9880 Z-0.148513918
N9885 G1 Z-0.17251392 F15.
N9890 X5.212188984 Y-1.844530907 Z-0.176268348
N9895 X5.213028784 Y-1.844270779 Z-0.179930328
N9900 X5.214405457 Y-1.843844358 Z-0.183409691
N9905 X5.216285103 Y-1.843262145 Z-0.186620764
N9910 X5.218621439 Y-1.842538476 Z-0.189484479
N9915 X5.221356936 Y-1.84169117 Z-0.191930322
N9920 X5.224424238 Y-1.84074109 Z-0.193898068
N9925 X5.227747818 Y-1.83971163 Z-0.195339265
N9930 X5.231245837 Y-1.838628139 Z-0.196218427
N9935 X5.234832163 Y-1.837517295 Z-0.196513905
N9940 G2 X5.364395502 Y-1.812271208 Z-0.196513904 I0.18128703 J-0.585282694
N9945 G1 X5.368019164 Y-1.812091287
N9950 X5.376070879 Y-1.811392176
N9955 X5.393057395 Y-1.808945814
N9960 X5.400226022 Y-1.807759653
N9965 X5.46464094 Y-1.794323358
N9970 X5.46500619 Y-1.794289266
N9975 G3 X5.481964472 Y-1.793300899 I-0.002839096 J0.19469539
N9980 G1 X5.485544001 Y-1.792658118
N9985 X5.488985317 Y-1.791481859
N9990 X5.494757825 Y-1.78900576
N9995 X5.576905979 Y-1.753768621
N10000 X5.58272114 Y-1.751274199
N10005 X5.585945276 Y-1.749591389
N10010 X5.588878121 Y-1.747440729
N10015 G3 X5.601281594 Y-1.735834587 I-0.126711027 J0.147846853
N10020 G1 X5.601521289 Y-1.735621325
N10025 X5.609573004 Y-1.729826439
N10030 X5.625677034 Y-1.717757278
N10035 X5.633728748 Y-1.711518295
N10040 X5.682039636 Y-1.673424188
N10045 X5.68235142 Y-1.673230599
N10050 X5.68857208 Y-1.669669264
N10055 X5.69066668 Y-1.668182788
N10060 X5.692590428 Y-1.666480988
N10065 X5.697219728 Y-1.661921674
N10070 X5.710202315 Y-1.64913553
N10075 X5.711933369 Y-1.647237905
N10080 X5.713451716 Y-1.645166142
N10085 X5.717107217 Y-1.63900105
N10090 X5.717319879 Y-1.638673647
N10095 X5.762557383 Y-1.583953917
N10100 X5.77965864 Y-1.55935693
N10105 X5.783642146 Y-1.551305666
N10110 X5.813844936 Y-1.486895554
N10115 X5.817310604 Y-1.47884429
N10120 X5.823269341 Y-1.462741762
N10125 X5.825608021 Y-1.454690498
N10130 X5.828537828 Y-1.43858797
N10135 X5.829908716 Y-1.430536706
N10140 X5.837262972 Y-1.382229272
N10145 G2 X5.85853817 Y-1.362778671 I0.023586243 J-0.004437815
N10150 G1 X5.862275161 Y-1.362417197 Z-0.196218477
N10155 X5.865920151 Y-1.362064622 Z-0.195339362
N10160 X5.869383388 Y-1.361729627 Z-0.193898204
N10165 X5.872579595 Y-1.361420463 Z-0.191930487
N10170 X5.875430068 Y-1.361144741 Z-0.189484659
N10175 X5.877864619 Y-1.360909251 Z-0.186620944
N10180 X5.879823297 Y-1.360719791 Z-0.183409853
N10185 X5.881257873 Y-1.360581028 Z-0.179930454
N10190 X5.88213302 Y-1.360496378 Z-0.17626842
N10195 X5.882427185 Y-1.360467926 Z-0.17251392
N10200 G0 X5.882427186 Z0.199999997
N10205 X5.883767436 Y-0.540240243
N10210 Z-0.148513918
N10215 G1 Z-0.17251392 F15.
N10220 X5.883659258 Y-0.539965287 Z-0.176268335
N10225 X5.883337328 Y-0.539147196 Z-0.179930305
N10230 X5.882809572 Y-0.537806115 Z-0.183409662
N10235 X5.882088988 Y-0.535975064 Z-0.186620731
N10240 X5.881193317 Y-0.53369913 Z-0.189484446
N10245 X5.880144616 Y-0.531034352 Z-0.191930291
N10250 X5.878968707 Y-0.528046347 Z-0.193898043
N10255 X5.877694546 Y-0.524808689 Z-0.195339247
N10260 X5.876353508 Y-0.521401098 Z-0.196218417
N10265 X5.874978614 Y-0.517907481 Z-0.196513904
N10270 G2 X5.840150127 Y-0.390585051 I0.570150661 J0.224385093
N10275 G1 X5.838307659 Y-0.37582206
N10280 X5.837262972 Y-0.367770796
N10285 X5.829908716 Y-0.319463249
N10290 X5.828537828 Y-0.311412004
N10295 X5.827732236 Y-0.30698382
N10300 X5.827707606 Y-0.306617313
N10305 G3 X5.827267865 Y-0.292727534 I-0.159283736 J0.001909939
N10310 G1 X5.826684191 Y-0.288977661
N10315 X5.825516708 Y-0.28536667
N10320 X5.82205885 Y-0.276998291
N10325 X5.796806155 Y-0.215887648
N10330 X5.793344693 Y-0.207511384
N10335 X5.791622535 Y-0.204129577
N10340 X5.789388822 Y-0.201061523
N10345 G3 X5.779895332 Y-0.190913114 I-0.120964951 J-0.10364585
N10350 G1 X5.779659241 Y-0.190643138
N10355 X5.762557383 Y-0.166045944
N10360 X5.722298209 Y-0.117317626
N10365 X5.716326255 Y-0.110130573
N10370 X5.716125008 Y-0.109823313
N10375 X5.713033 Y-0.104723221
N10380 X5.711754274 Y-0.102982769
N10385 X5.710324265 Y-0.101364316
N10390 X5.699278464 Y-0.089942902
N10395 X5.697708549 Y-0.088459544
N10400 X5.696011641 Y-0.08712334
N10405 X5.691017692 Y-0.083862581
N10410 X5.690796019 Y-0.083713569
N10415 X5.682039636 Y-0.076575861
N10420 X5.632697879 Y-0.037669256
N10425 X5.625677034 Y-0.032242792
N10430 X5.611432293 Y-0.021566742
N10435 X5.611164964 Y-0.021314595
N10440 G3 X5.599338201 Y-0.009342136 I-0.14302051 J-0.129452772
N10445 G1 X5.596416001 Y-0.007026455
N10450 X5.593170406 Y-0.005191325
N10455 X5.587503028 Y-0.002544645
N10460 X5.505166842 Y0.035903667
N10465 X5.499501867 Y0.038548943
N10470 X5.496011181 Y0.03985931
N10475 X5.492359672 Y0.040613206
N10480 G3 X5.47558762 Y0.041995462 I-0.024215218 J-0.191380574
N10485 G1 X5.475219967 Y0.042039039
N10490 X5.471703837 Y0.042843316
N10495 X5.400226022 Y0.057759656
N10500 X5.392174308 Y0.059072943
N10505 X5.384122593 Y0.060232573
N10510 G2 X5.364501833 Y0.081350897 I0.004248431 J0.023621034
N10515 G1 X5.364110326 Y0.085084853 Z-0.196218426
N10520 X5.36372846 Y0.088726867 Z-0.195339264
N10525 X5.363365636 Y0.092187261 Z-0.193898067
N10530 X5.36303079 Y0.095380828 Z-0.19193032
N10535 X5.362732166 Y0.098228932 Z-0.189484477
N10540 X5.362477117 Y0.100661443 Z-0.186620762
N10545 X5.362271923 Y0.102618464 Z-0.18340969
N10550 X5.362121638 Y0.104051808 Z-0.179930327
N10555 X5.362029962 Y0.10492618 Z-0.176268347
N10560 X5.361999151 Y0.105220051 Z-0.17251392
N10565 G0 Z0.199999997
N10570 X4.254470585 Y0.090411348
N10575 Z-0.148513918
N10580 G1 Z-0.17251392 F15.
N10585 X4.254189833 Y0.090319201 Z-0.176268354
N10590 X4.253354505 Y0.09004503 Z-0.179930339
N10595 X4.25198517 Y0.089595587 Z-0.183409706
N10600 X4.250115544 Y0.088981937 Z-0.18662078
N10605 X4.247791665 Y0.088219192 Z-0.189484495
N10610 X4.245070755 Y0.087326133 Z-0.191930336
N10615 X4.242019812 Y0.086324749 Z-0.19389808
N10620 X4.23871396 Y0.085239699 Z-0.195339274
N10625 X4.2352346 Y0.0840977 Z-0.196218431
N10630 X4.231667406 Y0.082926872 Z-0.196513905
N10635 G2 X4.102545911 Y0.055511336 Z-0.196513904 I-0.191077285 J0.582159889
N10640 G1 X4.087781831 Y0.054498183
N10645 X4.063626387 Y0.052659099
N10650 X4.055574672 Y0.052011238
N10655 X4.031419228 Y0.049216461
N10660 X3.934797452 Y0.037922153
N10665 X3.926745738 Y0.036843426
N10670 X3.910642008 Y0.034516618
N10675 X3.902590294 Y0.033233959
N10680 X3.749605915 Y0.005272984
N10685 X3.725450771 Y0.000723645
N10690 X3.717398756 Y-0.001160045
N10695 X3.701295327 Y-0.006272542
N10700 X3.693243312 Y-0.008931123
N10705 X3.604673551 Y-0.041469523
N10710 X3.604316711 Y-0.041556344
N10715 G3 X3.587566886 Y-0.045016544 I0.031250781 J-0.193546302
N10720 G1 X3.584845836 Y-0.045878784
N10725 X3.574959462 Y-0.049671883
N10730 X3.556799701 Y-0.056639393
N10735 X3.546702167 Y-0.060513695
N10740 X3.544102466 Y-0.061692915
N10745 G3 X3.529336884 Y-0.070324493 I0.091465026 J-0.173409731
N10750 G1 X3.529216436 Y-0.070397112
N10755 X3.514671926 Y-0.07792554
N10760 X3.508051775 Y-0.081508385
N10765 X3.491948346 Y-0.090591814
N10770 X3.485936142 Y-0.094028054
N10775 X3.459740887 Y-0.111451975
N10780 X3.413976835 Y-0.142335601
N10785 X3.413651234 Y-0.142505282
N10790 G3 X3.404279393 Y-0.146978023 I0.046535402 J-0.109560584
N10795 G1 X3.401188232 Y-0.148938665
N10800 X3.398431192 Y-0.151346603
N10805 X3.389434214 Y-0.160504626
N10810 X3.367192426 Y-0.18314401
N10815 X3.358388886 Y-0.192104606
N10820 X3.356030302 Y-0.194903811
N10825 X3.354124835 Y-0.19802912
N10830 G3 X3.349818733 Y-0.207478643 I0.1060618 J-0.054036745
N10835 G1 X3.349497637 Y-0.208036956
N10840 X3.338963967 Y-0.220690769
N10845 X3.324432673 Y-0.238950684
N10850 X3.324172853 Y-0.239210354
N10855 G3 X3.312641654 Y-0.250939065 I0.061264338 J-0.071764518
N10860 G1 X3.310904367 Y-0.25333204
N10865 X3.309474555 Y-0.255920493
N10870 X3.305973143 Y-0.263299154
N10875 X3.298211886 Y-0.279655663
N10880 X3.294749523 Y-0.286952248
N10885 X3.293648881 Y-0.289696926
N10890 X3.292894138 Y-0.292556117
N10895 G3 X3.291101531 Y-0.308905868 I0.092543054 J-0.018418755
N10900 G1 X3.291046863 Y-0.309360741
N10905 X3.27804235 Y-0.359719532
N10910 G2 X3.254909666 Y-0.376919499 I-0.023016442 J0.006799735
N10915 G1 X3.251155283 Y-0.376901314 Z-0.19621844
N10920 X3.24749334 Y-0.376883577 Z-0.19533929
N10925 X3.244014008 Y-0.376866724 Z-0.193898103
N10930 X3.240802959 Y-0.376851171 Z-0.191930364
N10935 X3.23793926 Y-0.376837301 Z-0.189484525
N10940 X3.235493426 Y-0.376825454 Z-0.18662081
N10945 X3.233525681 Y-0.376815924 Z-0.183409733
N10950 X3.232084478 Y-0.376808944 Z-0.17993036
N10955 X3.231205306 Y-0.376804686 Z-0.176268366
N10960 X3.230909813 Y-0.376803255 Z-0.17251392
N10965 G0 Z0.199999997
N10970 X3.227412607 Y-1.222924961
N10975 Z-0.148513918
N10980 G1 Z-0.17251392 F15.
N10985 X3.227526456 Y-1.223197625 Z-0.176268344
N10990 X3.22786519 Y-1.224008912 Z-0.179930321
N10995 X3.228420467 Y-1.225338843 Z-0.183409682
N11000 X3.229178616 Y-1.227154672 Z-0.186620754
N11005 X3.230120968 Y-1.229411687 Z-0.189484468
N11010 X3.231224319 Y-1.232054313 Z-0.191930312
N11015 X3.232461502 Y-1.235017479 Z-0.19389806
N11020 X3.233802054 Y-1.238228223 Z-0.19533926
N11025 X3.235212964 Y-1.241607485 Z-0.196218424
N11030 X3.236659493 Y-1.245072057 Z-0.196513904
N11035 G2 X3.274099996 Y-1.371650846 I-0.565412927 J-0.236070212
N11040 G1 X3.274549349 Y-1.374733692
N11045 X3.275966494 Y-1.382229272
N11050 X3.288436349 Y-1.430536706
N11055 X3.288480804 Y-1.431267806
N11060 X3.288146492 Y-1.437618226
N11065 X3.288281771 Y-1.440385817
N11070 X3.288735142 Y-1.443119364
N11075 X3.289500559 Y-1.445782429
N11080 X3.294638086 Y-1.460417199
N11085 X3.295235822 Y-1.462119846
N11090 X3.300502507 Y-1.477122119
N11095 X3.301569658 Y-1.47967926
N11100 X3.302924438 Y-1.482096363
N11105 X3.304548789 Y-1.484341208
N11110 X3.308779198 Y-1.489089155
N11115 X3.30899967 Y-1.489351828
N11120 X3.31813572 Y-1.502998082
N11125 X3.322860237 Y-1.509073663
N11130 X3.334396242 Y-1.523569663
N11135 X3.334591182 Y-1.523881146
N11140 G3 X3.342662721 Y-1.537854052 I0.164051206 J0.085447417
N11145 G1 X3.343797546 Y-1.539481926
N11150 X3.345062977 Y-1.541010489
N11155 X3.352048979 Y-1.548771595
N11160 X3.373464149 Y-1.572563141
N11165 X3.380529749 Y-1.580412707
N11170 X3.381917238 Y-1.581831545
N11175 X3.383417205 Y-1.583130904
N11180 G3 X3.396466773 Y-1.592622742 I0.115225184 J0.144697174
N11185 G1 X3.396666219 Y-1.592770674
N11190 X3.404370406 Y-1.5996131
N11195 X3.411430299 Y-1.604980559
N11200 X3.508051775 Y-1.666475581
N11205 X3.51610379 Y-1.671526
N11210 X3.516390643 Y-1.671755182
N11215 G3 X3.526519715 Y-1.680436022 I0.104477049 J0.111654687
N11220 G1 X3.529014304 Y-1.682149484
N11225 X3.5317047 Y-1.683535388
N11230 X3.541921781 Y-1.688007144
N11235 X3.580616628 Y-1.704943199
N11240 X3.590682323 Y-1.709348724
N11245 X3.59352594 Y-1.710384986
N11250 X3.596477358 Y-1.711055125
N11255 G3 X3.609726673 Y-1.712606535 I0.024390333 J0.150954629
N11260 G1 X3.610249917 Y-1.712705507
N11265 X3.612725265 Y-1.713569371
N11270 X3.62077728 Y-1.716202864
N11275 X3.701295327 Y-1.741923835
N11280 X3.717398756 Y-1.747032226
N11285 X3.725450771 Y-1.74915509
N11290 X3.7415542 Y-1.752826811
N11295 X3.749605915 Y-1.75462062
N11300 X3.797916803 Y-1.765020926
N11305 X3.822072247 Y-1.769852676
N11310 X3.830123961 Y-1.771232275
N11315 X3.991160355 Y-1.795371198
N11320 X3.99921207 Y-1.796564568
N11325 X4.002558571 Y-1.797433935
N11330 X4.005745415 Y-1.79877514
N11335 X4.008076093 Y-1.80054992 Z-0.196328672
N11340 X4.01037135 Y-1.802297727 Z-0.195787202
N11345 X4.012596851 Y-1.803992414 Z-0.194897595
N11350 X4.01426274 Y-1.806654226 Z-0.193399724
N11355 X4.015796342 Y-1.809104663 Z-0.191463885
N11360 X4.017165477 Y-1.811292303 Z-0.1891307
N11365 X4.017716527 Y-1.813548308 Z-0.186299
N11370 X4.018158997 Y-1.815359823 Z-0.183147115
N11375 X4.018482597 Y-1.816684723 Z-0.179748338
N11380 X4.018679802 Y-1.817492198 Z-0.176181707
N11385 X4.018746023 Y-1.817763471 Z-0.172530159
N11390 G0 Z0.199999997
N11395 X5.235331978 Y-1.825032572
N11400 Z-0.109480319
N11405 G1 Z-0.133480312 F15.
N11410 X5.235609399 Y-1.824930854 Z-0.137234741
N11415 X5.23643483 Y-1.824628208 Z-0.140896723
N11420 X5.237787945 Y-1.824132085 Z-0.144376088
N11425 X5.239635427 Y-1.823454702 Z-0.147587162
N11430 X5.241931785 Y-1.822612737 Z-0.150450879
N11435 X5.244620475 Y-1.821626924 Z-0.152896724
N11440 X5.247635292 Y-1.820521536 Z-0.154864473
N11445 X5.250902001 Y-1.819323791 Z-0.156305673
N11450 X5.254340165 Y-1.818063182 Z-0.157184836
N11455 X5.257865125 Y-1.816770749 Z-0.157480315
N11460 G2 X5.385971069 Y-1.78494491 I0.210922722 J-0.575267311
N11465 G1 X5.392174308 Y-1.784318188
N11470 X5.400226022 Y-1.783311799
N11475 X5.424381767 Y-1.778329864
N11480 X5.430849331 Y-1.776740757
N11485 X5.472692655 Y-1.765213013
N11490 X5.473055502 Y-1.765156093
N11495 G3 X5.484372237 Y-1.763784303 I-0.010051577 J0.13028693
N11500 G1 X5.487329455 Y-1.763099532
N11505 X5.490176584 Y-1.762046964
N11510 X5.502129502 Y-1.756746638
N11515 X5.527182151 Y-1.745637308
N11520 X5.539019127 Y-1.740388345
N11525 X5.541710364 Y-1.738984784
N11530 X5.54420291 Y-1.737252784
N11535 G3 X5.552817517 Y-1.72978619 I-0.081198985 J0.102383621
N11540 G1 X5.553210401 Y-1.72948627
N11545 X5.577366146 Y-1.715935084
N11550 X5.583661297 Y-1.712330796
N11555 X5.58541786 Y-1.711269889
N11560 X5.601521289 Y-1.70106212
N11565 X5.607645831 Y-1.696228268
N11570 X5.627556748 Y-1.68012574
N11575 X5.637537438 Y-1.672074476
N11580 X5.63784742 Y-1.671877733
N11585 G3 X5.65254692 Y-1.663255166 I-0.091394139 J0.172648242
N11590 G1 X5.655247229 Y-1.661225384
N11595 X5.657635786 Y-1.658836575
N11600 X5.662057832 Y-1.653743353
N11605 X5.715634203 Y-1.59202816
N11610 X5.720097099 Y-1.586887179
N11615 X5.72212659 Y-1.584186643
N11620 X5.723756805 Y-1.581227911
N11625 G3 X5.730228574 Y-1.565462848 I-0.177303524 J0.08199842
N11630 G1 X5.730350524 Y-1.565184105
N11635 X5.733616146 Y-1.55935693
N11640 X5.746453954 Y-1.532501461
N11645 X5.767837885 Y-1.486895554
N11650 X5.770609097 Y-1.48072055
N11655 X5.778660812 Y-1.458961607
N11660 X5.77986169 Y-1.454690498
N11665 X5.781305869 Y-1.446639234
N11670 X5.783901665 Y-1.430536706
N11675 X5.791255921 Y-1.382229272
N11680 G2 X5.812531719 Y-1.362778671 I0.023586243 J-0.004437965
N11685 G1 X5.816268703 Y-1.362417192 Z-0.157184826
N11690 X5.819913667 Y-1.362064614 Z-0.156305655
N11695 X5.823376861 Y-1.361729619 Z-0.154864448
N11700 X5.826573009 Y-1.361420455 Z-0.152896694
N11705 X5.829423411 Y-1.361144734 Z-0.150450846
N11710 X5.831857882 Y-1.360909246 Z-0.147587129
N11715 X5.833816477 Y-1.360719788 Z-0.144376058
N11720 X5.83525097 Y-1.360581027 Z-0.140896699
N11725 X5.836126038 Y-1.360496378 Z-0.137234728
N11730 X5.836420135 Y-1.360467926 Z-0.133480312
N11735 G0 X5.836420134 Z0.199999997
N11740 X5.837760385 Y-0.540240243
N11745 Z-0.109480319
N11750 G1 Z-0.133480312 F15.
N11755 X5.837652208 Y-0.539965288 Z-0.137234727
N11760 X5.837330278 Y-0.539147199 Z-0.140896698
N11765 X5.836802523 Y-0.537806119 Z-0.144376056
N11770 X5.836081939 Y-0.53597507 Z-0.147587127
N11775 X5.835186268 Y-0.533699136 Z-0.150450844
N11780 X5.834137567 Y-0.531034359 Z-0.152896692
N11785 X5.832961658 Y-0.528046353 Z-0.154864446
N11790 X5.831687497 Y-0.524808693 Z-0.156305654
N11795 X5.830346458 Y-0.5214011 Z-0.157184826
N11800 X5.828971562 Y-0.517907481 Z-0.157480315
N11805 G2 X5.794143677 Y-0.390585051 I0.570150661 J0.224385093
N11810 G1 X5.792300607 Y-0.37582206
N11815 X5.791255921 Y-0.367770796
N11820 X5.783901665 Y-0.319463249
N11825 X5.782623291 Y-0.311412004
N11830 X5.781898799 Y-0.30698382
N11835 X5.781880777 Y-0.306616937
N11840 X5.781917179 Y-0.30205646
N11845 X5.781754621 Y-0.297498741
N11850 X5.781259928 Y-0.293840681
N11855 X5.78021012 Y-0.290301747
N11860 X5.775193342 Y-0.277186717
N11865 X5.767678689 Y-0.257542922
N11870 X5.762770045 Y-0.24471052
N11875 X5.761189944 Y-0.241374453
N11880 X5.759116946 Y-0.238320152
N11885 X5.756196055 Y-0.234817639
N11890 X5.753125168 Y-0.231445868
N11895 X5.75273709 Y-0.230899439
N11900 X5.745180385 Y-0.214796911
N11905 X5.737471092 Y-0.198694402
N11910 X5.737350944 Y-0.198347287
N11915 G3 X5.732713835 Y-0.183259971 I-0.175096407 J-0.045558749
N11920 G1 X5.731651396 Y-0.180738869
N11925 X5.730308936 Y-0.178355059
N11930 X5.728703897 Y-0.176139516
N11935 X5.724562998 Y-0.171060449
N11940 X5.666260006 Y-0.099546055
N11945 X5.66216236 Y-0.094520285
N11950 X5.660315609 Y-0.092501818
N11955 X5.658251135 Y-0.090706638
N11960 X5.655995767 Y-0.089158073
N11965 G3 X5.64215172 Y-0.081576813 I-0.093741229 J-0.154747963
N11970 G1 X5.641780463 Y-0.081348644
N11975 X5.617571853 Y-0.061823026
N11980 X5.607645831 Y-0.053771772
N11985 X5.601521289 Y-0.048937849
N11990 X5.58541786 Y-0.038730141
N11995 X5.583661297 Y-0.037669256
N12000 X5.577366146 Y-0.034064951
N12005 X5.561262116 Y-0.025030816
N12010 X5.560964149 Y-0.024815993
N12015 G3 X5.55013942 Y-0.016421581 I-0.101544238 J-0.119768909
N12020 G1 X5.547189187 Y-0.014636802
N12025 X5.535255492 Y-0.008542038
N12030 X5.525436401 Y-0.003527435
N12035 X5.51323778 Y0.002702562
N12040 X5.51006227 Y0.004046179
N12045 G3 X5.496915682 Y0.007894357 I-0.050642359 J-0.148631081
N12050 G1 X5.496847799 Y0.007912082
N12055 X5.480744369 Y0.0129935
N12060 X5.430849331 Y0.026740803
N12065 X5.424381767 Y0.028329902
N12070 X5.416330052 Y0.030007982
N12075 G2 X5.398064561 Y0.052309341 I0.005713636 J0.023309964
N12080 G1 X5.397906776 Y0.056060452 Z-0.157184835
N12085 X5.397752877 Y0.059719198 Z-0.156305671
N12090 X5.397606652 Y0.063195488 Z-0.154864471
N12095 X5.397471703 Y0.066403726 Z-0.152896722
N12100 X5.397351351 Y0.069264912 Z-0.150450877
N12105 X5.39724856 Y0.071708597 Z-0.14758716
N12110 X5.397165861 Y0.073674607 Z-0.144376086
N12115 X5.397105291 Y0.075114534 Z-0.140896721
N12120 X5.39706834 Y0.075992921 Z-0.13723474
N12125 X5.397055919 Y0.076288139 Z-0.133480312
N12130 G0 Y0.07628814 Z0.199999997
N12135 X4.260877774 Y0.063192319
N12140 Z-0.109480319
N12145 G1 Z-0.133480312 F15.
N12150 X4.260598463 Y0.063095912 Z-0.137234741
N12155 X4.259767409 Y0.062809065 Z-0.140896723
N12160 X4.258405076 Y0.062338842 Z-0.144376089
N12165 X4.256545009 Y0.06169682 Z-0.147587163
N12170 X4.254233009 Y0.060898809 Z-0.15045088
N12175 X4.251526005 Y0.059964458 Z-0.152896725
N12180 X4.248490653 Y0.058916775 Z-0.154864474
N12185 X4.245201692 Y0.057781555 Z-0.156305673
N12190 X4.241740109 Y0.056586753 Z-0.157184836
N12195 X4.238191139 Y0.055361789 Z-0.157480314
N12200 G2 X4.109501576 Y0.025985032 Z-0.157480315 I-0.199912064 J0.579185542
N12205 G1 X4.095833546 Y0.024867283
N12210 X4.087781831 Y0.024070404
N12215 X3.934797452 Y0.006187765
N12220 X3.918694023 Y0.004179414
N12225 X3.906127149 Y0.00258703
N12230 X3.902590294 Y0.001961335
N12235 X3.894538579 Y0.000457347
N12240 X3.886486864 Y-0.001520121
N12245 X3.87843485 Y-0.003609034
N12250 X3.723252965 Y-0.045720512
N12255 X3.709347042 Y-0.049637406
N12260 X3.708984495 Y-0.049697095
N12265 G3 X3.695707546 Y-0.051410184 I0.012979583 J-0.152903936
N12270 G1 X3.692966563 Y-0.052053789
N12275 X3.690319812 Y-0.053013967
N12280 X3.679732075 Y-0.057574431
N12285 X3.645547281 Y-0.072298458
N12290 X3.635009105 Y-0.076837549
N12295 X3.632493019 Y-0.078101051
N12300 X3.630142212 Y-0.079650522
N12305 G3 X3.619775847 Y-0.088121187 I0.091821866 J-0.122950509
N12310 G1 X3.619437631 Y-0.088372343
N12315 X3.538050614 Y-0.134284346
N12320 X3.527778866 Y-0.140160773
N12325 X3.52744125 Y-0.140305908
N12330 G3 X3.514907717 Y-0.145185914 I0.049618398 J-0.145974094
N12335 G1 X3.512531428 Y-0.146394434
N12340 X3.510303834 Y-0.147859054
N12345 X3.508252422 Y-0.149561702
N12350 X3.501585713 Y-0.155751884
N12355 X3.452301626 Y-0.201511984
N12360 X3.445812436 Y-0.207537178
N12365 X3.443962536 Y-0.209456825
N12370 X3.442336957 Y-0.211569801
N12375 X3.440955755 Y-0.213850033
N12380 G3 X3.43516102 Y-0.225987904 I0.136103893 J-0.072429969
N12385 G1 X3.434851339 Y-0.226513288
N12390 X3.421703849 Y-0.242188202
N12395 X3.421437421 Y-0.242441095
N12400 X3.417783722 Y-0.245674952
N12405 X3.415801074 Y-0.247839948
N12410 X3.414097583 Y-0.250230812
N12415 X3.405904394 Y-0.263361274
N12420 X3.404505585 Y-0.265942226
N12425 X3.40343235 Y-0.268674648
N12430 X3.402133551 Y-0.273377933
N12435 X3.402073778 Y-0.273591214
N12440 X3.395326569 Y-0.291770894
N12445 X3.394267165 Y-0.295309495
N12450 X3.389948447 Y-0.311412004
N12455 X3.388070535 Y-0.319463249
N12460 X3.377507127 Y-0.367770796
N12465 G2 X3.355027447 Y-0.385816229 I-0.023252833 J0.005942104
N12470 G1 X3.351274968 Y-0.385937188 Z-0.157184834
N12475 X3.347614888 Y-0.386055169 Z-0.15630567
N12480 X3.34413733 Y-0.386167266 Z-0.15486447
N12485 X3.340927923 Y-0.386270719 Z-0.15289672
N12490 X3.338065694 Y-0.386362982 Z-0.150450875
N12495 X3.335621119 Y-0.386441782 Z-0.147587158
N12500 X3.333654392 Y-0.386505178 Z-0.144376084
N12505 X3.332213941 Y-0.386551611 Z-0.140896719
N12510 X3.331335234 Y-0.386579936 Z-0.137234739
N12515 X3.331039909 Y-0.386589456 Z-0.133480312
N12520 G0 Z0.199999997
N12525 X3.327356173 Y-1.210689019
N12530 Z-0.109480319
N12535 G1 Z-0.133480312 F15.
N12540 X3.327470022 Y-1.21096169 Z-0.137234746
N12545 X3.327808756 Y-1.211772984 Z-0.140896731
N12550 X3.328364034 Y-1.213102924 Z-0.144376098
N12555 X3.329122183 Y-1.214918762 Z-0.147587174
N12560 X3.330064536 Y-1.217175786 Z-0.150450891
N12565 X3.331167888 Y-1.21981842 Z-0.152896735
N12570 X3.332405071 Y-1.222781595 Z-0.154864482
N12575 X3.333745622 Y-1.225992346 Z-0.156305679
N12580 X3.335156532 Y-1.229371614 Z-0.157184839
N12585 X3.33660306 Y-1.23283619 Z-0.157480315
N12590 G2 X3.374043863 Y-1.359414979 I-0.565412927 J-0.236070212
N12595 G1 X3.376195712 Y-1.374178008
N12600 X3.37775313 Y-1.382229272
N12605 X3.388730447 Y-1.422485442
N12610 X3.390968203 Y-1.430536706
N12615 X3.391025874 Y-1.430899552
N12620 G3 X3.396671025 Y-1.464515746 I0.194939741 J0.015453429
N12625 G1 X3.397555599 Y-1.467244888
N12630 X3.398759509 Y-1.469848983
N12635 X3.400265551 Y-1.47229082
N12640 X3.469535647 Y-1.57088062
N12645 X3.471322398 Y-1.573125288
N12650 X3.473364226 Y-1.575140707
N12655 X3.475631954 Y-1.576898079
N12660 G3 X3.50534394 Y-1.593604501 I0.11033366 J0.161451955
N12665 G1 X3.505877698 Y-1.593939113
N12670 X3.512220007 Y-1.5996131
N12675 X3.51610379 Y-1.602766983
N12680 X3.524155504 Y-1.607987862
N12685 X3.561599912 Y-1.631818156
N12690 X3.561885563 Y-1.63204929
N12695 G3 X3.578648004 Y-1.646607016 I0.175095506 J0.184683462
N12700 G1 X3.581134973 Y-1.648338935
N12705 X3.583820373 Y-1.649743628
N12710 X3.585903438 Y-1.65067072
N12715 X3.687120272 Y-1.695722745
N12720 X3.689121036 Y-1.696613342
N12725 X3.691962041 Y-1.697668463
N12730 X3.694913369 Y-1.698357139
N12735 G3 X3.716948502 Y-1.701068428 I0.0420677 J0.250991311
N12740 G1 X3.717398756 Y-1.701148777
N12745 X3.777624416 Y-1.72038206
N12750 X3.797916803 Y-1.726729175
N12755 X3.804282541 Y-1.728433324
N12760 X3.830123961 Y-1.734290686
N12765 X3.87843485 Y-1.745047081
N12770 X3.902590294 Y-1.750295294
N12775 X3.910642008 Y-1.751749835
N12780 X3.967004911 Y-1.760236485
N12785 X3.98310834 Y-1.762651308
N12790 X4.007263784 Y-1.766029268
N12795 X4.015315499 Y-1.766943143
N12800 X4.184403607 Y-1.781075395
N12805 X4.187799167 Y-1.781727369
N12810 X4.191065811 Y-1.782860493
N12815 X4.19350592 Y-1.784481494 Z-0.157295078
N12820 X4.195908946 Y-1.78607786 Z-0.156753608
N12825 X4.198238944 Y-1.787625711 Z-0.155864006
N12830 X4.20007274 Y-1.790174763 Z-0.154366136
N12835 X4.201760913 Y-1.792521396 Z-0.152430297
N12840 X4.203268036 Y-1.794616369 Z-0.150097111
N12845 X4.203963254 Y-1.79683218 Z-0.147265402
N12850 X4.204521494 Y-1.798611415 Z-0.144113513
N12855 X4.204929775 Y-1.7999127 Z-0.140714736
N12860 X4.205178603 Y-1.800705774 Z-0.137148109
N12865 X4.205262192 Y-1.800972195 Z-0.13349657
N12870 G0 Z0.199999997
N12875 X3.45267048 Y-1.469352902
N12880 Z-0.069918975
N12885 G1 Z-0.093918973 F15.
N12890 X3.452934973 Y-1.469484678 Z-0.097673429
N12895 X3.4537219 Y-1.469876751 Z-0.101335431
N12900 X3.455011881 Y-1.470519467 Z-0.10481481
N12905 X3.456773154 Y-1.471397 Z-0.108025892
N12910 X3.458962349 Y-1.47248774 Z-0.110889609
N12915 X3.46152556 Y-1.473764831 Z-0.113335448
N12920 X3.464399672 Y-1.475196825 Z-0.115303186
N12925 X3.467513914 Y-1.476748462 Z-0.116744371
N12930 X3.470791603 Y-1.478381535 Z-0.117623516
N12935 X3.474152032 Y-1.480055832 Z-0.117918976
N12940 G2 X3.585271159 Y-1.551305666 I-0.27324286 J-0.548414996
N12945 G1 X3.622512817 Y-1.583510722
N12950 X3.636880709 Y-1.595044624
N12955 X3.637139328 Y-1.595305495
N12960 G3 X3.652719813 Y-1.612163003 I0.200841108 J0.169995976
N12965 G1 X3.654795888 Y-1.613996363
N12970 X3.657069368 Y-1.615578325
N12975 X3.659509974 Y-1.616887821
N12980 X3.806783421 Y-1.685272577
N12985 X3.809358566 Y-1.686292102
N12990 X3.812034022 Y-1.687008158
N12995 X3.81477416 Y-1.687411211
N13000 G3 X3.837706198 Y-1.688436373 I0.023206275 J0.262101692
N13005 G1 X3.838175976 Y-1.688484582
N13010 X3.846227691 Y-1.690437888
N13015 X3.98310834 Y-1.720917469
N13020 X3.991160355 Y-1.722410157
N13025 X4.007263784 Y-1.724922451
N13030 X4.015315499 Y-1.72608308
N13035 X4.168299878 Y-1.745079972
N13040 X4.176351893 Y-1.746023433
N13045 X4.18883196 Y-1.747390717
N13050 G2 X4.209157989 Y-1.767831337 I-0.003444341 J-0.023751447
N13055 G1 X4.209675933 Y-1.771549866 Z-0.117623496
N13060 X4.210181124 Y-1.775176833 Z-0.116744332
N13065 X4.210661123 Y-1.778622929 Z-0.115303132
N13070 X4.21110411 Y-1.781803301 Z-0.113335384
N13075 X4.211499179 Y-1.784639636 Z-0.110889538
N13080 X4.211836601 Y-1.787062095 Z-0.108025821
