%
(POST 3 EAST TOP)
(T1  D=0.5 CR=0. - ZMIN=-0.8 - FLAT END MILL)
N10 G90 G94 G17 G91.1
N15 G20
N20 G53 G0 Z0.
(SLOT1 10)
N25 T1 M6
N30 S3000 M3
N35 G54
N40 G0 X5.6675 Y0.
N45 G43 Z0.75 H1
N50 G0 Z0.1
N55 G1 X5.0425 Z0.0813 F15.
N60 X5.6675 Z0.0625
N65 X5.0425 Z0.0438
N70 X5.6675 Z0.025
N75 X5.0425 Z0.0062
N80 X5.6675 Z-0.0125
N85 X5.0425 Z-0.0312
N90 X5.6675 Z-0.05
N95 X5.0425
N100 X5.6675
N105 X5.0425 Z-0.0708
N110 X5.6675 Z-0.0917
N115 X5.0425 Z-0.1125
N120 X5.6675 Z-0.1333
N125 X5.0425 Z-0.1542
N130 X5.6675 Z-0.175
N135 X5.0425 Z-0.1958
N140 X5.6675 Z-0.2167
N145 X5.0425 Z-0.2375
N150 X5.6675 Z-0.2583
N155 X5.0425 Z-0.2792
N160 X5.6675 Z-0.3
N165 X5.0425
N170 X5.6675
N175 X5.0425 Z-0.3208
N180 X5.6675 Z-0.3417
N185 X5.0425 Z-0.3625
N190 X5.6675 Z-0.3833
N195 X5.0425 Z-0.4042
N200 X5.6675 Z-0.425
N205 X5.0425 Z-0.4458
N210 X5.6675 Z-0.4667
N215 X5.0425 Z-0.4875
N220 X5.6675 Z-0.5083
N225 X5.0425 Z-0.5292
N230 X5.6675 Z-0.55
N235 X5.0425
N240 X5.6675
N245 X5.0425 Z-0.5708
N250 X5.6675 Z-0.5917
N255 X5.0425 Z-0.6125
N260 X5.6675 Z-0.6333
N265 X5.0425 Z-0.6542
N270 X5.6675 Z-0.675
N275 X5.0425 Z-0.6958
N280 X5.6675 Z-0.7167
N285 X5.0425 Z-0.7375
N290 X5.6675 Z-0.7583
N295 X5.0425 Z-0.7792
N300 X5.6675 Z-0.8
N305 X5.0425
N310 X5.6675
N315 G0 Z0.75
N320 X11.0225
N325 Z0.1
N330 G1 X10.3975 Z0.0813 F15.
N335 X11.0225 Z0.0625
N340 X10.3975 Z0.0438
N345 X11.0225 Z0.025
N350 X10.3975 Z0.0062
N355 X11.0225 Z-0.0125
N360 X10.3975 Z-0.0312
N365 X11.0225 Z-0.05
N370 X10.3975
N375 X11.0225
N380 X10.3975 Z-0.0708
N385 X11.0225 Z-0.0917
N390 X10.3975 Z-0.1125
N395 X11.0225 Z-0.1333
N400 X10.3975 Z-0.1542
N405 X11.0225 Z-0.175
N410 X10.3975 Z-0.1958
N415 X11.0225 Z-0.2167
N420 X10.3975 Z-0.2375
N425 X11.0225 Z-0.2583
N430 X10.3975 Z-0.2792
N435 X11.0225 Z-0.3
N440 X10.3975
N445 X11.0225
N450 X10.3975 Z-0.3208
N455 X11.0225 Z-0.3417
N460 X10.3975 Z-0.3625
N465 X11.0225 Z-0.3833
N470 X10.3975 Z-0.4042
N475 X11.0225 Z-0.425
N480 X10.3975 Z-0.4458
N485 X11.0225 Z-0.4667
N490 X10.3975 Z-0.4875
N495 X11.0225 Z-0.5083
N500 X10.3975 Z-0.5292
N505 X11.0225 Z-0.55
N510 X10.3975
N515 X11.0225
N520 X10.3975 Z-0.5708
N525 X11.0225 Z-0.5917
N530 X10.3975 Z-0.6125
N535 X11.0225 Z-0.6333
N540 X10.3975 Z-0.6542
N545 X11.0225 Z-0.675
N550 X10.3975 Z-0.6958
N555 X11.0225 Z-0.7167
N560 X10.3975 Z-0.7375
N565 X11.0225 Z-0.7583
N570 X10.3975 Z-0.7792
N575 X11.0225 Z-0.8
N580 X10.3975
N585 X11.0225
N590 G0 Z0.75
N595 X16.5625 Y0.5
N600 Z0.1
N605 G1 X15.9375 Z0.0813 F15.
N610 X16.5625 Z0.0625
N615 X15.9375 Z0.0438
N620 X16.5625 Z0.025
N625 X15.9375 Z0.0062
N630 X16.5625 Z-0.0125
N635 X15.9375 Z-0.0312
N640 X16.5625 Z-0.05
N645 X15.9375
N650 X16.5625
N655 X15.9375 Z-0.0708
N660 X16.5625 Z-0.0917
N665 X15.9375 Z-0.1125
N670 X16.5625 Z-0.1333
N675 X15.9375 Z-0.1542
N680 X16.5625 Z-0.175
N685 X15.9375 Z-0.1958
N690 X16.5625 Z-0.2167
N695 X15.9375 Z-0.2375
N700 X16.5625 Z-0.2583
N705 X15.9375 Z-0.2792
N710 X16.5625 Z-0.3
N715 X15.9375
N720 X16.5625
N725 X15.9375 Z-0.3208
N730 X16.5625 Z-0.3417
N735 X15.9375 Z-0.3625
N740 X16.5625 Z-0.3833
N745 X15.9375 Z-0.4042
N750 X16.5625 Z-0.425
N755 X15.9375 Z-0.4458
N760 X16.5625 Z-0.4667
N765 X15.9375 Z-0.4875
N770 X16.5625 Z-0.5083
N775 X15.9375 Z-0.5292
N780 X16.5625 Z-0.55
N785 X15.9375
N790 X16.5625
N795 X15.9375 Z-0.5708
N800 X16.5625 Z-0.5917
N805 X15.9375 Z-0.6125
N810 X16.5625 Z-0.6333
N815 X15.9375 Z-0.6542
N820 X16.5625 Z-0.675
N825 X15.9375 Z-0.6958
N830 X16.5625 Z-0.7167
N835 X15.9375 Z-0.7375
N840 X16.5625 Z-0.7583
N845 X15.9375 Z-0.7792
N850 X16.5625 Z-0.8
N855 X15.9375
N860 X16.5625
N865 G0 Z0.75
N870 Y-0.5
N875 Z0.1
N880 G1 X15.9375 Z0.0813 F15.
N885 X16.5625 Z0.0625
N890 X15.9375 Z0.0438
N895 X16.5625 Z0.025
N900 X15.9375 Z0.0062
N905 X16.5625 Z-0.0125
N910 X15.9375 Z-0.0312
N915 X16.5625 Z-0.05
N920 X15.9375
N925 X16.5625
N930 X15.9375 Z-0.0708
N935 X16.5625 Z-0.0917
N940 X15.9375 Z-0.1125
N945 X16.5625 Z-0.1333
N950 X15.9375 Z-0.1542
N955 X16.5625 Z-0.175
N960 X15.9375 Z-0.1958
N965 X16.5625 Z-0.2167
N970 X15.9375 Z-0.2375
N975 X16.5625 Z-0.2583
N980 X15.9375 Z-0.2792
N985 X16.5625 Z-0.3
N990 X15.9375
N995 X16.5625
N1000 X15.9375 Z-0.3208
N1005 X16.5625 Z-0.3417
N1010 X15.9375 Z-0.3625
N1015 X16.5625 Z-0.3833
N1020 X15.9375 Z-0.4042
N1025 X16.5625 Z-0.425
N1030 X15.9375 Z-0.4458
N1035 X16.5625 Z-0.4667
N1040 X15.9375 Z-0.4875
N1045 X16.5625 Z-0.5083
N1050 X15.9375 Z-0.5292
N1055 X16.5625 Z-0.55
N1060 X15.9375
N1065 X16.5625
N1070 X15.9375 Z-0.5708
N1075 X16.5625 Z-0.5917
N1080 X15.9375 Z-0.6125
N1085 X16.5625 Z-0.6333
N1090 X15.9375 Z-0.6542
N1095 X16.5625 Z-0.675
N1100 X15.9375 Z-0.6958
N1105 X16.5625 Z-0.7167
N1110 X15.9375 Z-0.7375
N1115 X16.5625 Z-0.7583
N1120 X15.9375 Z-0.7792
N1125 X16.5625 Z-0.8
N1130 X15.9375
N1135 X16.5625
N1140 G0 Z0.75
N1145 G53 Z0.
N1150 M30
%
