%
(ROMEO1 TOP .25 MILL)
(T1  D=0.25 CR=0. - ZMIN=-0.215 - FLAT END MILL)
N10 G90 G94 G17 G91.1
N15 G20
N20 G53 G0 Z0.
(FACE1)
N25 T1 M6
N30 S4000 M3
N35 G54
N40 G0 X1.0685 Y-0.4619
N45 G43 Z0.6 H1
N50 G0 Z0.2
N55 G1 Z0.005 F15.
N60 G18 G3 X1.0435 Z-0.02 I-0.025 K0.
N65 G1 X0.9085
N70 X-0.9085
N75 G17 G2 Y-0.2352 I0. J0.1134
N80 G1 X0.9085
N85 G3 Y-0.0085 I0. J0.1134
N90 G1 X-0.9085
N95 G2 Y0.2182 I0. J0.1133
N100 G1 X0.9085
N105 G3 Y0.4449 I0. J0.1134
N110 G1 X-0.9085
N115 G18 G3 X-0.9335 Z0.005 I0. K0.025
N120 G1 Z0.2
N125 G0 Z0.6
N130 G17
(2D ADAPTIVE1)
N135 G0 X-0.9281 Y-0.8272
N140 Z0.6
N145 Z0.2
N150 Z0.0037
N155 G1 Z-0.0213 F15.
N160 Z-0.1
N165 G3 X-0.9085 Y-0.6911 I-0.6183 J0.1584
N170 G1 Y-0.6851
N175 X-0.9163 Y-0.6469
N180 X-0.9217 Y-0.6082
N185 X-0.9254 Y-0.5694
N190 X-0.928 Y-0.5305
N195 X-0.9297 Y-0.4916
N200 X-0.9309 Y-0.4526
N205 X-0.9317 Y-0.4136
N210 X-0.9323 Y-0.3746
N215 X-0.9327 Y-0.3356
N220 X-0.9329 Y-0.2966
N225 X-0.9331 Y-0.2577
N230 X-0.9333 Y-0.1797
N235 X-0.9334 Y-0.0627
N240 X-0.9335 Y0.2492
N245 Y0.4442
N250 X-0.9333 Y0.4539
N255 X-0.9314 Y0.4635
N260 X-0.9245 Y0.4817
N265 X-0.9016 Y0.5133
N270 X-0.8702 Y0.5364
N275 X-0.835 Y0.5531
N280 X-0.7978 Y0.5648
N285 X-0.7596 Y0.5729
N290 X-0.7211 Y0.5786
N295 X-0.6823 Y0.5825
N300 X-0.6434 Y0.5852
N305 X-0.6044 Y0.587
N310 X-0.5655 Y0.5883
N315 X-0.5265 Y0.5892
N320 X-0.4875 Y0.5897
N325 X-0.4485 Y0.5901
N330 X-0.4095 Y0.5904
N335 X-0.3705 Y0.5906
N340 X-0.3315 Y0.5907
N345 X-0.2536 Y0.5909
N350 X-0.1366 Y0.591
N355 X0.3703
N360 X0.7992
N365 X0.8178 Y0.5851
N370 X0.8509 Y0.5645
N375 X0.8533 Y0.5615
N380 X0.8575 Y0.5568
N385 X0.862 Y0.5525
N390 X0.8669 Y0.5486
N395 X0.8724 Y0.5446
N400 X0.8789 Y0.5398
N405 X0.8813 Y0.5379
N410 X0.8901 Y0.5295
N415 X0.897 Y0.5221
N420 X0.9167 Y0.498
N425 X0.9186 Y0.4955
N430 X0.9245 Y0.4867
N435 X0.93 Y0.4778
N440 X0.9344 Y0.47
N445 X0.9389 Y0.4601
N450 X0.9433 Y0.4475
N455 X0.9467 Y0.4336
N460 X0.9487 Y0.4247
N465 X0.9505 Y0.4159
N470 X0.9536 Y0.3982
N475 X0.9543 Y0.3893
N480 X0.9544 Y0.3716
N485 X0.9534 Y0.3628
N490 X0.9521 Y0.3554
N495 X0.9475 Y0.3166
N500 X0.943 Y0.2779
N505 X0.9399 Y0.239
N510 X0.9379 Y0.2001
N515 X0.9365 Y0.1611
N520 X0.9355 Y0.1222
N525 X0.9349 Y0.0832
N530 X0.9344 Y0.0442
N535 X0.9341 Y0.0052
N540 X0.9339 Y-0.0338
N545 X0.9338 Y-0.0728
N550 X0.9336 Y-0.1508
N555 X0.9335 Y-0.2781
N560 X0.9341 Y-0.2859
N565 X0.9357 Y-0.2935
N570 X0.9384 Y-0.3009
N575 X0.9416 Y-0.3097
N580 X0.9433 Y-0.3146
N585 X0.9443 Y-0.3186
N590 X0.9465 Y-0.3274
N595 X0.9485 Y-0.3362
N600 X0.9504 Y-0.3451
N605 X0.9534 Y-0.3628
N610 X0.9544 Y-0.3716
N615 X0.9543 Y-0.3893
N620 X0.9536 Y-0.3982
N625 X0.9521 Y-0.4067
N630 X0.9474 Y-0.4454
N635 X0.9451 Y-0.4648
N640 X0.9371 Y-0.4825
N645 X0.9139 Y-0.5138
N650 X0.8825 Y-0.5368
N655 X0.8813 Y-0.5379
N660 G3 X0.8836 Y-0.5758 I0.0174 J-0.0179
N665 X0.9207 Y-0.5677 I0.0151 J0.0199
N670 G1 X0.9986 Y-0.4237
N675 G3 X0.9852 Y-0.3884 I-0.022 J0.0119
N680 X0.9521 Y-0.4067 I-0.0086 J-0.0235
N685 G1 X0.9505 Y-0.4159
N690 X0.9487 Y-0.4247
N695 X0.9467 Y-0.4336
N700 X0.9433 Y-0.4475
N705 X0.9389 Y-0.4601
N710 X0.9344 Y-0.47
N715 X0.93 Y-0.4778
N720 X0.9245 Y-0.4867
N725 X0.9186 Y-0.4955
N730 X0.9167 Y-0.498
N735 X0.897 Y-0.5221
N740 X0.8901 Y-0.5295
N745 X0.8813 Y-0.5379
N750 X0.8789 Y-0.5398
N755 X0.8724 Y-0.5446
N760 X0.8669 Y-0.5486
N765 X0.8635 Y-0.5507
N770 X0.8458 Y-0.5599
N775 X0.837 Y-0.5642
N780 X0.8193 Y-0.5723
N785 X0.8124 Y-0.5752
N790 X0.8104 Y-0.5758
N795 X0.8015 Y-0.5784
N800 X0.7927 Y-0.5805
N805 X0.7838 Y-0.5817
N810 X0.7661 Y-0.5833
N815 X0.7573 Y-0.5835
N820 X0.7183 Y-0.5854
N825 X0.6794 Y-0.5872
N830 X0.6404 Y-0.5884
N835 X0.6014 Y-0.5892
N840 X0.5624 Y-0.5898
N845 X0.5234 Y-0.5902
N850 X0.4844 Y-0.5904
N855 X0.4455 Y-0.5906
N860 X0.3675 Y-0.5908
N865 X0.2505 Y-0.5909
N870 X-0.0614 Y-0.591
N875 X-0.6853
N880 X-0.7045 Y-0.5877
N885 X-0.722 Y-0.5792
N890 X-0.7532 Y-0.5557
N895 X-0.7764 Y-0.5244
N900 X-0.7933 Y-0.4893
N905 X-0.8053 Y-0.4522
N910 X-0.8139 Y-0.4141
N915 X-0.8199 Y-0.3756
N920 X-0.824 Y-0.3368
N925 X-0.827 Y-0.298
N930 X-0.829 Y-0.259
N935 X-0.8304 Y-0.2201
N940 X-0.8313 Y-0.1811
N945 X-0.832 Y-0.1421
N950 X-0.8325 Y-0.1031
N955 X-0.8328 Y-0.0641
N960 X-0.833 Y-0.0251
N965 X-0.8332 Y0.0139
N970 X-0.8333 Y0.0919
N975 X-0.8334 Y0.2088
N980 X-0.8335 Y0.3258
N985 X-0.8289 Y0.3448
N990 X-0.8128 Y0.3803
N995 X-0.7865 Y0.409
N1000 X-0.7544 Y0.4311
N1005 X-0.7191 Y0.4477
N1010 X-0.6821 Y0.4599
N1015 X-0.6441 Y0.4688
N1020 X-0.6056 Y0.4752
N1025 X-0.5669 Y0.4798
N1030 X-0.5281 Y0.4831
N1035 X-0.4891 Y0.4854
N1040 X-0.4502 Y0.4871
N1045 X-0.4112 Y0.4882
N1050 X-0.3722 Y0.489
N1055 X-0.3332 Y0.4896
N1060 X-0.2943 Y0.49
N1065 X-0.2553 Y0.4903
N1070 X-0.2163 Y0.4905
N1075 X-0.1773 Y0.4907
N1080 X-0.0993 Y0.4908
N1085 X0.0177 Y0.4909
N1090 X0.3686 Y0.491
N1095 X0.5518
N1100 X0.5647 Y0.4924
N1105 X0.5769 Y0.4967
N1110 X0.5879 Y0.5035
N1115 X0.5971 Y0.5125
N1120 X0.6067 Y0.5243
N1125 X0.6134 Y0.5309
N1130 X0.6156 Y0.533
N1135 X0.6232 Y0.5398
N1140 X0.6333 Y0.5474
N1145 X0.6352 Y0.5486
N1150 X0.6421 Y0.5526
N1155 X0.6513 Y0.5575
N1160 X0.6598 Y0.5618
N1165 X0.6775 Y0.57
N1170 X0.6864 Y0.574
N1175 X0.6953 Y0.5771
N1180 X0.7041 Y0.5793
N1185 X0.713 Y0.5811
N1190 X0.7307 Y0.5829
N1195 X0.7395 Y0.5835
N1200 X0.7573
N1205 X0.7661 Y0.5833
N1210 X0.7838 Y0.5817
N1215 X0.7927 Y0.5805
N1220 X0.8015 Y0.5784
N1225 X0.8104 Y0.5758
N1230 X0.8124 Y0.5752
N1235 X0.8193 Y0.5723
N1240 X0.837 Y0.5642
N1245 X0.8458 Y0.5599
N1250 X0.8635 Y0.5507
N1255 X0.8669 Y0.5486
N1260 X0.8724 Y0.5446
N1265 X0.8789 Y0.5398
N1270 X0.8813 Y0.5379
N1275 X0.8901 Y0.5295
N1280 X0.8907 Y0.5289
N1285 X0.897 Y0.5221
N1290 X0.9167 Y0.498
N1295 X0.9186 Y0.4955
N1300 X0.9245 Y0.4867
N1305 X0.93 Y0.4778
N1310 X0.9344 Y0.47
N1315 X0.9389 Y0.4601
N1320 X0.9419 Y0.4513
N1325 X0.9433 Y0.4475
N1330 X0.9445 Y0.4424
N1335 X0.9467 Y0.4336
N1340 X0.9487 Y0.4247
N1345 X0.9505 Y0.4159
N1350 X0.9536 Y0.3982
N1355 X0.9543 Y0.3893
N1360 X0.9544 Y0.3861
N1365 Y0.3716
N1370 X0.9534 Y0.3628
N1375 X0.9521 Y0.3554
N1380 X0.9504 Y0.3451
N1385 X0.9485 Y0.3362
N1390 X0.9465 Y0.3274
N1395 X0.9443 Y0.3186
N1400 X0.9433 Y0.3146
N1405 X0.9416 Y0.3097
N1410 X0.9384 Y0.3009
N1415 X0.9344 Y0.2919
N1420 X0.9293 Y0.2832
N1425 X0.9238 Y0.2743
N1430 X0.9179 Y0.2655
N1435 X0.9107 Y0.2566
N1440 X0.9078 Y0.2531
N1445 X0.8967 Y0.238
N1450 X0.8887 Y0.225
N1455 X0.8802 Y0.2084
N1460 X0.8712 Y0.1868
N1465 X0.8619 Y0.1579
N1470 X0.853 Y0.12
N1475 X0.8469 Y0.0815
N1480 X0.8427 Y0.0427
N1485 X0.8398 Y0.0038
N1490 X0.8379 Y-0.0351
N1495 X0.8365 Y-0.0741
N1500 X0.8356 Y-0.1131
N1505 X0.8349 Y-0.152
N1510 X0.8348 Y-0.1608
N1515 X0.8361 Y-0.1733
N1520 X0.84 Y-0.1852
N1525 X0.8464 Y-0.1961
N1530 X0.855 Y-0.2053
N1535 X0.8653 Y-0.2124
N1540 X0.8724 Y-0.2174
N1545 X0.8775 Y-0.2212
N1550 X0.8813 Y-0.2241
N1555 X0.8901 Y-0.2325
N1560 X0.8963 Y-0.2389
N1565 X0.9167 Y-0.264
N1570 X0.9179 Y-0.2655
N1575 X0.9238 Y-0.2743
N1580 X0.9293 Y-0.2832
N1585 X0.9344 Y-0.292
N1590 X0.9384 Y-0.3009
N1595 G3 X0.9858 Y-0.2882 I0.0224 J0.011
N1600 G1 X0.9516 Y0.2383
N1605 G3 X0.9078 Y0.2531 I-0.0249 J-0.0016
N1610 G1 X0.8963 Y0.2389
N1615 X0.8901 Y0.2325
N1620 X0.8813 Y0.2241
N1625 X0.8775 Y0.2212
N1630 X0.8724 Y0.2174
N1635 X0.8653 Y0.2124
N1640 X0.8547 Y0.2067
N1645 X0.8464 Y0.2018
N1650 X0.8392 Y0.1967
N1655 X0.8317 Y0.1905
N1660 X0.8233 Y0.1823
N1665 X0.8146 Y0.1722
N1670 X0.8054 Y0.1597
N1675 X0.7957 Y0.144
N1680 X0.7858 Y0.1246
N1685 X0.7755 Y0.0998
N1690 X0.7649 Y0.0671
N1695 X0.756 Y0.0292
N1700 X0.7496 Y-0.0093
N1705 X0.745 Y-0.048
N1710 X0.7418 Y-0.0868
N1715 X0.7417 Y-0.1129
N1720 X0.7432 Y-0.1331
N1725 X0.7465 Y-0.145
N1730 X0.7521 Y-0.156
N1735 X0.76 Y-0.1655
N1740 X0.7696 Y-0.1731
N1745 X0.7807 Y-0.1786
N1750 X0.7927 Y-0.1815
N1755 X0.8015 Y-0.1837
N1760 X0.8095 Y-0.1858
N1765 X0.8104 Y-0.1861
N1770 X0.8193 Y-0.1897
N1775 X0.837 Y-0.1978
N1780 X0.8458 Y-0.2021
N1785 X0.8653 Y-0.2124
N1790 G3 X0.9014 Y-0.1892 I0.011 J0.0224
N1795 G1 X0.8906 Y0.185
N1800 G3 X0.8547 Y0.2067 I-0.025 J-0.0007
N1805 G1 X0.8458 Y0.2021
N1810 X0.837 Y0.1978
N1815 X0.8193 Y0.1897
N1820 X0.8104 Y0.1861
N1825 X0.8095 Y0.1858
N1830 X0.8015 Y0.1837
N1835 X0.7927 Y0.1815
N1840 X0.7869 Y0.1801
N1845 X0.7794 Y0.1771
N1850 X0.7719 Y0.1733
N1855 X0.7634 Y0.1682
N1860 X0.7539 Y0.1613
N1865 X0.7447 Y0.1534
N1870 X0.7344 Y0.1431
N1875 X0.7237 Y0.1304
N1880 X0.7129 Y0.1154
N1885 X0.7015 Y0.0965
N1890 X0.6899 Y0.0732
N1895 X0.6784 Y0.0445
N1900 X0.668 Y0.011
N1905 X0.6604 Y-0.0228
N1910 X0.6564 Y-0.0506
N1915 X0.6551 Y-0.0734
N1920 X0.6554 Y-0.0923
N1925 X0.6571 Y-0.1091
N1930 X0.66 Y-0.1247
N1935 X0.6637 Y-0.1387
N1940 X0.6646 Y-0.1411
N1945 X0.6702 Y-0.1528
N1950 X0.6783 Y-0.1628
N1955 X0.6884 Y-0.1709
N1960 X0.7 Y-0.1766
N1965 X0.7126 Y-0.1795
N1970 X0.7255 Y-0.1796
N1975 X0.7307 Y-0.1791
N1980 X0.7395 Y-0.1785
N1985 X0.7573
N1990 X0.7661 Y-0.1787
N1995 X0.7838 Y-0.1803
N2000 X0.7927 Y-0.1815
N2005 G3 X0.8202 Y-0.1567 I0.0025 J0.0249
N2010 G1 Y0.1567
N2015 G3 X0.7927 Y0.1815 I-0.025 J0.
N2020 G1 X0.7838 Y0.1803
N2025 X0.7661 Y0.1787
N2030 X0.7573 Y0.1785
N2035 X0.7395
N2040 X0.7335
N2045 X0.7268 Y0.1775
N2050 X0.7189 Y0.1756
N2055 X0.7106 Y0.1729
N2060 X0.7015 Y0.1691
N2065 X0.6915 Y0.1639
N2070 X0.6814 Y0.1576
N2075 X0.6698 Y0.1491
N2080 X0.6587 Y0.1394
N2085 X0.6463 Y0.1267
N2090 X0.6343 Y0.1123
N2095 X0.6215 Y0.0941
N2100 X0.6099 Y0.0745
N2105 X0.5989 Y0.0519
N2110 X0.5894 Y0.0276
N2115 X0.5819 Y0.0027
N2120 X0.5766 Y-0.0222
N2125 X0.5733 Y-0.0468
N2130 X0.5722 Y-0.0697
N2135 X0.5728 Y-0.0896
N2140 X0.5746 Y-0.1066
N2145 X0.5778 Y-0.1229
N2150 X0.5816 Y-0.1369
N2155 X0.5866 Y-0.1504
N2160 X0.5922 Y-0.1626
N2165 X0.5984 Y-0.1737
N2170 X0.5988 Y-0.1743
N2175 X0.6063 Y-0.1833
N2180 X0.6155 Y-0.1907
N2185 X0.6259 Y-0.196
N2190 X0.6372 Y-0.1992
N2195 X0.6489 Y-0.2
N2200 X0.6606 Y-0.1985
N2205 X0.6717 Y-0.1947
N2210 X0.6775 Y-0.192
N2215 G3 X0.6907 Y-0.175 I-0.0113 J0.0223
N2220 G1 X0.6926 Y-0.1665
N2225 X0.7614 Y0.1483
N2230 G3 X0.7395 Y0.1785 I-0.0244 J0.0053
N2235 G1 X0.7307 Y0.1791
N2240 X0.713 Y0.1809
N2245 X0.7041 Y0.1827
N2250 X0.6953 Y0.185
N2255 X0.6894 Y0.1864
N2260 X0.6835 Y0.1873
N2265 X0.6767 Y0.1878
N2270 X0.6697 Y0.1877
N2275 X0.6614 Y0.1869
N2280 X0.6529 Y0.1854
N2285 X0.6431 Y0.1828
N2290 X0.6329 Y0.1793
N2295 X0.6217 Y0.1743
N2300 X0.6104 Y0.1682
N2305 X0.5979 Y0.16
N2310 X0.5857 Y0.1506
N2315 X0.5725 Y0.1386
N2320 X0.5599 Y0.1251
N2325 X0.5472 Y0.1091
N2330 X0.5346 Y0.0905
N2335 X0.5233 Y0.0702
N2340 X0.5131 Y0.0482
N2345 X0.5044 Y0.0243
N2350 X0.4976 Y-0.0004
N2355 X0.4928 Y-0.0252
N2360 X0.4901 Y-0.0498
N2365 X0.4894 Y-0.0736
N2370 X0.4906 Y-0.0966
N2375 X0.4935 Y-0.1186
N2380 X0.4974 Y-0.137
N2385 X0.5026 Y-0.1541
N2390 X0.5083 Y-0.1688
N2395 X0.5148 Y-0.1822
N2400 X0.522 Y-0.1943
N2405 X0.5297 Y-0.2053
N2410 X0.5379 Y-0.2151
N2415 X0.5425 Y-0.2198
N2420 X0.5522 Y-0.2278
N2425 X0.5633 Y-0.2335
N2430 X0.5755 Y-0.2367
N2435 X0.588 Y-0.2372
N2440 X0.6004 Y-0.235
N2445 X0.612 Y-0.2303
N2450 X0.6223 Y-0.2231
N2455 X0.6246 Y-0.2212
N2460 X0.6333 Y-0.2146
N2465 X0.6367 Y-0.2124
N2470 X0.6533 Y-0.2035
N2475 X0.6598 Y-0.2002
N2480 X0.6717 Y-0.1947
N2485 G3 X0.6853 Y-0.1744 I-0.0113 J0.0223
N2490 G1 X0.6857 Y-0.1691
N2495 X0.7121 Y0.1593
N2500 G3 X0.6953 Y0.185 I-0.0249 J0.002
N2505 G1 X0.6925 Y0.1858
N2510 X0.6864 Y0.188
N2515 X0.6775 Y0.192
N2520 X0.6598 Y0.2002
N2525 X0.6533 Y0.2035
N2530 X0.6475 Y0.2062
N2535 X0.6419 Y0.2083
N2540 X0.6358 Y0.21
N2545 X0.6288 Y0.2114
N2550 X0.6212 Y0.2123
N2555 X0.6126 Y0.2125
N2560 X0.6033 Y0.2121
N2565 X0.593 Y0.2108
N2570 X0.5823 Y0.2085
N2575 X0.5704 Y0.2049
N2580 X0.5584 Y0.2003
N2585 X0.545 Y0.1939
N2590 X0.5318 Y0.1861
N2595 X0.5178 Y0.1763
N2600 X0.5033 Y0.1643
N2605 X0.4894 Y0.1509
N2610 X0.4753 Y0.1348
N2615 X0.4614 Y0.116
N2620 X0.4486 Y0.0956
N2625 X0.437 Y0.0733
N2630 X0.4268 Y0.0488
N2635 X0.4182 Y0.0228
N2640 X0.4116 Y-0.0044
N2645 X0.4072 Y-0.0323
N2650 X0.4051 Y-0.0598
N2655 X0.4052 Y-0.0867
N2660 X0.4074 Y-0.1126
N2665 X0.4114 Y-0.137
N2670 X0.4171 Y-0.1599
N2675 X0.4243 Y-0.1813
N2680 X0.4323 Y-0.1999
N2685 X0.4414 Y-0.217
N2690 X0.45 Y-0.2306
N2695 X0.4597 Y-0.2434
N2700 X0.469 Y-0.2539
N2705 X0.4793 Y-0.2638
N2710 X0.4891 Y-0.2718
N2715 X0.5 Y-0.2793
N2720 X0.5103 Y-0.2852
N2725 X0.5108 Y-0.2854
N2730 X0.5234 Y-0.2897
N2735 X0.5366 Y-0.2911
N2740 X0.5498 Y-0.2894
N2745 X0.5622 Y-0.2847
N2750 X0.5733 Y-0.2774
N2755 X0.5824 Y-0.2677
N2760 X0.5841 Y-0.2655
N2765 X0.5913 Y-0.2566
N2770 X0.6067 Y-0.2377
N2775 X0.6156 Y-0.229
N2780 X0.6223 Y-0.2231
N2785 G3 X0.6302 Y-0.2071 I-0.017 J0.0183
N2790 G1 X0.6314 Y-0.1945
N2795 X0.6655 Y0.1771
N2800 X0.6657 Y0.1796
N2805 G3 X0.6533 Y0.2035 I-0.0249 J0.0023
N2810 G1 X0.6367 Y0.2124
N2815 X0.6333 Y0.2146
N2820 X0.6244 Y0.2213
N2825 X0.6156 Y0.229
N2830 X0.611 Y0.2329
N2835 X0.6062 Y0.2365
N2840 X0.6011 Y0.2396
N2845 X0.5957 Y0.2423
N2850 X0.5902 Y0.2447
N2855 X0.5845 Y0.2466
N2860 X0.5787 Y0.2481
N2865 X0.5728 Y0.2493
N2870 X0.5669 Y0.2502
N2875 X0.5609 Y0.2508
N2880 X0.5549 Y0.2511
N2885 X0.5489 Y0.251
N2890 X0.543 Y0.2508
N2895 X0.537 Y0.2502
N2900 X0.531 Y0.2494
N2905 X0.5251 Y0.2484
N2910 X0.5192 Y0.2472
N2915 X0.5134 Y0.2458
N2920 X0.5077 Y0.2441
N2925 X0.5019 Y0.2423
N2930 X0.4963 Y0.2402
N2935 X0.4907 Y0.238
N2940 X0.4852 Y0.2356
N2945 X0.4798 Y0.2331
N2950 X0.4744 Y0.2304
N2955 X0.4691 Y0.2275
N2960 X0.4639 Y0.2246
N2965 X0.4588 Y0.2214
N2970 X0.4538 Y0.2182
N2975 X0.4488 Y0.2148
N2980 X0.444 Y0.2113
N2985 X0.4392 Y0.2076
N2990 X0.4345 Y0.2039
N2995 X0.4299 Y0.2
N3000 X0.4254 Y0.1961
N3005 X0.4209 Y0.1921
N3010 X0.4166 Y0.1879
N3015 X0.4123 Y0.1837
N3020 X0.4082 Y0.1793
N3025 X0.4041 Y0.1749
N3030 X0.4001 Y0.1705
N3035 X0.3962 Y0.1659
N3040 X0.3924 Y0.1612
N3045 X0.3887 Y0.1565
N3050 X0.3851 Y0.1517
N3055 X0.3816 Y0.1469
N3060 X0.3781 Y0.142
N3065 X0.3748 Y0.137
N3070 X0.3715 Y0.132
N3075 X0.3684 Y0.1269
N3080 X0.3653 Y0.1217
N3085 X0.3623 Y0.1165
N3090 X0.3594 Y0.1113
N3095 X0.3566 Y0.106
N3100 X0.3539 Y0.1006
N3105 X0.3512 Y0.0952
N3110 X0.3487 Y0.0898
N3115 X0.3462 Y0.0843
N3120 X0.3439 Y0.0788
N3125 X0.3416 Y0.0732
N3130 X0.3394 Y0.0677
N3135 X0.3373 Y0.062
N3140 X0.3353 Y0.0564
N3145 X0.3333 Y0.0507
N3150 X0.3315 Y0.045
N3155 X0.3298 Y0.0393
N3160 X0.3281 Y0.0335
N3165 X0.3265 Y0.0277
N3170 X0.325 Y0.0219
N3175 X0.3236 Y0.0161
N3180 X0.3223 Y0.0102
N3185 X0.3211 Y0.0043
N3190 X0.32 Y-0.0016
N3195 X0.3189 Y-0.0075
N3200 X0.318 Y-0.0134
N3205 X0.3171 Y-0.0193
N3210 X0.3163 Y-0.0253
N3215 X0.3156 Y-0.0312
N3220 X0.315 Y-0.0372
N3225 X0.3145 Y-0.0432
N3230 X0.3141 Y-0.0492
N3235 X0.3138 Y-0.0552
N3240 X0.3135 Y-0.0612
N3245 X0.3134 Y-0.0672
N3250 X0.3133 Y-0.0732
N3255 X0.3134 Y-0.0792
N3260 X0.3135 Y-0.0852
N3265 X0.3137 Y-0.0912
N3270 X0.314 Y-0.0971
N3275 X0.3144 Y-0.1031
N3280 X0.3149 Y-0.1091
N3285 X0.3155 Y-0.1151
N3290 X0.3161 Y-0.121
N3295 X0.3169 Y-0.127
N3300 X0.3178 Y-0.1329
N3305 X0.3187 Y-0.1389
N3310 X0.3198 Y-0.1448
N3315 X0.3209 Y-0.1507
N3320 X0.3221 Y-0.1565
N3325 X0.3235 Y-0.1624
N3330 X0.3249 Y-0.1682
N3335 X0.3264 Y-0.174
N3340 X0.328 Y-0.1798
N3345 X0.3298 Y-0.1855
N3350 X0.3316 Y-0.1913
N3355 X0.3335 Y-0.1969
N3360 X0.3355 Y-0.2026
N3365 X0.3376 Y-0.2082
N3370 X0.3399 Y-0.2138
N3375 X0.3422 Y-0.2193
N3380 X0.3446 Y-0.2248
N3385 X0.3471 Y-0.2302
N3390 X0.3498 Y-0.2356
N3395 X0.3525 Y-0.241
N3400 X0.3553 Y-0.2463
N3405 X0.3583 Y-0.2515
N3410 X0.3613 Y-0.2567
N3415 X0.3645 Y-0.2618
N3420 X0.3677 Y-0.2668
N3425 X0.3711 Y-0.2718
N3430 X0.3745 Y-0.2767
N3435 X0.3781 Y-0.2815
N3440 X0.3817 Y-0.2863
N3445 X0.3855 Y-0.291
N3450 X0.3894 Y-0.2956
N3455 X0.3933 Y-0.3001
N3460 X0.3974 Y-0.3045
N3465 X0.4016 Y-0.3088
N3470 X0.4059 Y-0.313
N3475 X0.4103 Y-0.317
N3480 X0.4148 Y-0.321
N3485 X0.4194 Y-0.3248
N3490 X0.4241 Y-0.3285
N3495 X0.429 Y-0.3321
N3500 X0.4339 Y-0.3354
N3505 X0.439 Y-0.3387
N3510 X0.4441 Y-0.3418
N3515 X0.4494 Y-0.3447
N3520 X0.4547 Y-0.3474
N3525 X0.4602 Y-0.3499
N3530 X0.4657 Y-0.3522
N3535 X0.4713 Y-0.3544
N3540 X0.477 Y-0.3563
N3545 X0.4827 Y-0.3581
N3550 X0.4885 Y-0.3596
N3555 X0.4912 Y-0.3602
N3560 X0.5035 Y-0.3615
N3565 X0.5158 Y-0.36
N3570 X0.5275 Y-0.3559
N3575 X0.538 Y-0.3493
N3580 X0.5468 Y-0.3406
N3585 X0.5535 Y-0.3302
N3590 X0.5578 Y-0.3186
N3595 X0.5604 Y-0.3097
N3600 X0.5624 Y-0.3038
N3605 X0.5636 Y-0.3009
N3610 X0.5676 Y-0.292
N3615 X0.5713 Y-0.2854
N3620 X0.5779 Y-0.2743
N3625 X0.5801 Y-0.2708
N3630 X0.5824 Y-0.2677
N3635 G3 X0.5869 Y-0.2553 I-0.0205 J0.0143
N3640 G1 X0.5882 Y-0.2378
N3645 X0.6217 Y0.1999
N3650 X0.6225 Y0.2097
N3655 G3 X0.6156 Y0.229 I-0.0249 J0.0019
N3660 G1 X0.6067 Y0.2377
N3665 X0.589 Y0.2595
N3670 X0.5841 Y0.2655
N3675 X0.5801 Y0.2708
N3680 X0.5779 Y0.2743
N3685 X0.5713 Y0.2854
N3690 X0.5676 Y0.292
N3695 X0.5636 Y0.3009
N3700 X0.5624 Y0.3038
N3705 X0.5604 Y0.3097
N3710 X0.5578 Y0.3186
N3715 X0.5535 Y0.3362
N3720 X0.5516 Y0.3451
N3725 X0.5486 Y0.3628
N3730 X0.5476 Y0.3716
N3735 X0.5477 Y0.3893
N3740 X0.5484 Y0.3982
N3745 X0.5515 Y0.4159
N3750 X0.5533 Y0.4247
N3755 X0.5575 Y0.4424
N3760 X0.5601 Y0.4513
N3765 X0.5631 Y0.4601
N3770 X0.5671 Y0.469
N3775 X0.5713 Y0.4767
N3780 X0.5773 Y0.4867
N3785 X0.5801 Y0.4912
N3790 X0.5834 Y0.4955
N3795 X0.589 Y0.5026
N3800 X0.5971 Y0.5125
N3805 G3 X0.5979 Y0.5415 I-0.0199 J0.0151
N3810 G1 X0.5958 Y0.5448 Z-0.0997
N3815 X0.5936 Y0.5479 Z-0.0988
N3820 X0.5916 Y0.5509 Z-0.0973
N3825 X0.5898 Y0.5537 Z-0.0952
N3830 X0.5881 Y0.5562 Z-0.0927
N3835 X0.5867 Y0.5583 Z-0.0897
N3840 X0.5856 Y0.56 Z-0.0863
N3845 X0.5847 Y0.5613 Z-0.0827
N3850 X0.5842 Y0.562 Z-0.0789
N3855 X0.584 Y0.5623 Z-0.075
N3860 G0 Z0.2
N3865 X0.8084 Y-0.605
N3870 Z-0.05
N3875 G1 Z-0.075 F15.
N3880 X0.8081 Y-0.6049 Z-0.0789
N3885 X0.8074 Y-0.6044 Z-0.0827
N3890 X0.8061 Y-0.6036 Z-0.0863
N3895 X0.8043 Y-0.6026 Z-0.0897
N3900 X0.8021 Y-0.6013 Z-0.0927
N3905 X0.7995 Y-0.5998 Z-0.0952
N3910 X0.7967 Y-0.5981 Z-0.0973
N3915 X0.7936 Y-0.5962 Z-0.0988
N3920 X0.7903 Y-0.5942 Z-0.0997
N3925 X0.7869 Y-0.5922 Z-0.1
N3930 G3 X0.7573 Y-0.5835 I-0.0319 J-0.0535
N3935 G1 X0.7395
N3940 X0.7307 Y-0.5829
N3945 X0.713 Y-0.5811
N3950 X0.7041 Y-0.5793
N3955 X0.6953 Y-0.5771
N3960 X0.6864 Y-0.574
N3965 X0.6775 Y-0.57
N3970 X0.6598 Y-0.5618
N3975 X0.651 Y-0.5573
N3980 X0.6421 Y-0.5526
N3985 X0.6352 Y-0.5486
N3990 X0.6333 Y-0.5474
N3995 X0.6232 Y-0.5398
N4000 X0.6156 Y-0.533
N4005 X0.6134 Y-0.5309
N4010 X0.6067 Y-0.5243
N4015 X0.589 Y-0.5026
N4020 X0.5834 Y-0.4955
N4025 X0.5801 Y-0.4912
N4030 X0.5773 Y-0.4867
N4035 X0.5713 Y-0.4767
N4040 X0.5671 Y-0.469
N4045 X0.5631 Y-0.4601
N4050 X0.5601 Y-0.4513
N4055 X0.5575 Y-0.4424
N4060 X0.5533 Y-0.4247
N4065 X0.5515 Y-0.4159
N4070 X0.5484 Y-0.3982
N4075 X0.5477 Y-0.3893
N4080 X0.5476 Y-0.3716
N4085 X0.5486 Y-0.3628
N4090 X0.5516 Y-0.3451
N4095 X0.5536 Y-0.336
N4100 X0.5578 Y-0.3186
N4105 X0.5582 Y-0.3153
N4110 Y-0.3121
N4115 X0.5568 Y-0.2877
N4120 X0.527 Y0.2176
N4125 X0.5253 Y0.2465
N4130 X0.5251 Y0.2484
N4135 X0.5218 Y0.2676
N4140 X0.5167 Y0.2707
N4145 X0.5112 Y0.2733
N4150 X0.5056 Y0.2754
N4155 X0.4999 Y0.2772
N4160 X0.4941 Y0.2786
N4165 X0.4881 Y0.2796
N4170 X0.4822 Y0.2803
N4175 X0.4762 Y0.2806
N4180 X0.4702 Y0.2807
N4185 X0.4642 Y0.2805
N4190 X0.4582 Y0.28
N4195 X0.4523 Y0.2793
N4200 X0.4463 Y0.2784
N4205 X0.4405 Y0.2772
N4210 X0.4346 Y0.2758
N4215 X0.4288 Y0.2742
N4220 X0.4231 Y0.2724
N4225 X0.4174 Y0.2704
N4230 X0.4118 Y0.2683
N4235 X0.4063 Y0.2659
N4240 X0.4009 Y0.2635
N4245 X0.3955 Y0.2608
N4250 X0.3902 Y0.258
N4255 X0.3849 Y0.2551
N4260 X0.3798 Y0.252
N4265 X0.3747 Y0.2488
N4270 X0.3697 Y0.2455
N4275 X0.3648 Y0.2421
N4280 X0.3599 Y0.2385
N4285 X0.3552 Y0.2348
N4290 X0.3505 Y0.2311
N4295 X0.3459 Y0.2272
N4300 X0.3415 Y0.2232
N4305 X0.337 Y0.2192
N4310 X0.3327 Y0.215
N4315 X0.3285 Y0.2108
N4320 X0.3243 Y0.2064
N4325 X0.3202 Y0.202
N4330 X0.3162 Y0.1976
N4335 X0.3123 Y0.193
N4340 X0.3085 Y0.1884
N4345 X0.3047 Y0.1837
N4350 X0.3011 Y0.1789
N4355 X0.2975 Y0.1741
N4360 X0.294 Y0.1693
N4365 X0.2906 Y0.1643
N4370 X0.2873 Y0.1593
N4375 X0.284 Y0.1543
N4380 X0.2809 Y0.1492
N4385 X0.2778 Y0.144
N4390 X0.2748 Y0.1388
N4395 X0.2719 Y0.1336
N4400 X0.269 Y0.1283
N4405 X0.2663 Y0.123
N4410 X0.2636 Y0.1176
N4415 X0.261 Y0.1122
N4420 X0.2585 Y0.1067
N4425 X0.2561 Y0.1013
N4430 X0.2537 Y0.0957
N4435 X0.2514 Y0.0902
N4440 X0.2492 Y0.0846
N4445 X0.2471 Y0.079
N4450 X0.2451 Y0.0733
N4455 X0.2431 Y0.0677
N4460 X0.2413 Y0.062
N4465 X0.2395 Y0.0562
N4470 X0.2377 Y0.0505
N4475 X0.2361 Y0.0447
N4480 X0.2345 Y0.0389
N4485 X0.233 Y0.0331
N4490 X0.2316 Y0.0273
N4495 X0.2303 Y0.0214
N4500 X0.2291 Y0.0156
N4505 X0.2279 Y0.0097
N4510 X0.2268 Y0.0038
N4515 X0.2258 Y-0.0021
N4520 X0.2248 Y-0.008
N4525 X0.224 Y-0.014
N4530 X0.2232 Y-0.0199
N4535 X0.2225 Y-0.0259
N4540 X0.2218 Y-0.0319
N4545 X0.2213 Y-0.0378
N4550 X0.2208 Y-0.0438
N4555 X0.2204 Y-0.0498
N4560 X0.2201 Y-0.0558
N4565 X0.2199 Y-0.0618
N4570 X0.2197 Y-0.0678
N4575 X0.2196 Y-0.0738
N4580 Y-0.0798
N4585 X0.2197 Y-0.0858
N4590 X0.2198 Y-0.0918
N4595 X0.22 Y-0.0978
N4600 X0.2203 Y-0.1038
N4605 X0.2207 Y-0.1098
N4610 X0.2212 Y-0.1157
N4615 X0.2217 Y-0.1217
N4620 X0.2223 Y-0.1277
N4625 X0.223 Y-0.1336
N4630 X0.2238 Y-0.1396
N4635 X0.2247 Y-0.1455
N4640 X0.2256 Y-0.1515
N4645 X0.2266 Y-0.1574
N4650 X0.2277 Y-0.1633
N4655 X0.2289 Y-0.1692
N4660 X0.2301 Y-0.175
N4665 X0.2315 Y-0.1809
N4670 X0.2329 Y-0.1867
N4675 X0.2344 Y-0.1925
N4680 X0.2359 Y-0.1983
N4685 X0.2376 Y-0.2041
N4690 X0.2393 Y-0.2098
N4695 X0.2411 Y-0.2155
N4700 X0.243 Y-0.2212
N4705 X0.245 Y-0.2269
N4710 X0.2471 Y-0.2325
N4715 X0.2492 Y-0.2381
N4720 X0.2514 Y-0.2437
N4725 X0.2537 Y-0.2493
N4730 X0.2561 Y-0.2548
N4735 X0.2586 Y-0.2602
N4740 X0.2611 Y-0.2657
N4745 X0.2637 Y-0.2711
N4750 X0.2664 Y-0.2764
N4755 X0.2692 Y-0.2817
N4760 X0.2721 Y-0.287
N4765 X0.275 Y-0.2922
N4770 X0.278 Y-0.2974
N4775 X0.2812 Y-0.3026
N4780 X0.2844 Y-0.3076
N4785 X0.2876 Y-0.3127
N4790 X0.291 Y-0.3176
N4795 X0.2944 Y-0.3226
N4800 X0.2979 Y-0.3274
N4805 X0.3016 Y-0.3322
N4810 X0.3052 Y-0.3369
N4815 X0.309 Y-0.3416
N4820 X0.3129 Y-0.3462
N4825 X0.3168 Y-0.3507
N4830 X0.3208 Y-0.3552
N4835 X0.3249 Y-0.3596
N4840 X0.3291 Y-0.3639
N4845 X0.3334 Y-0.3681
N4850 X0.3404 Y-0.3748
N4855 X0.3462 Y-0.3826
N4860 X0.3507 Y-0.3913
N4865 X0.3536 Y-0.4006
N4870 X0.355 Y-0.4103
N4875 X0.3547 Y-0.42
N4880 X0.3528 Y-0.4296
N4885 X0.3494 Y-0.4387
N4890 X0.3445 Y-0.4471
N4895 X0.3382 Y-0.4546
N4900 X0.3308 Y-0.4609
N4905 X0.3224 Y-0.4659
N4910 X0.3043 Y-0.473
N4915 X0.2654 Y-0.4758
N4920 X0.2264 Y-0.4777
N4925 X0.1875 Y-0.4791
N4930 X0.1485 Y-0.48
N4935 X0.1095 Y-0.4806
N4940 X0.0705 Y-0.4811
N4945 X0.0315 Y-0.4813
N4950 X-0.0075 Y-0.4816
N4955 X-0.0465 Y-0.4817
N4960 X-0.1244 Y-0.4819
N4965 X-0.2414 Y-0.482
N4970 X-0.5533
N4975 X-0.5726 Y-0.4793
N4980 X-0.591 Y-0.4727
N4985 X-0.6246 Y-0.4529
N4990 X-0.651 Y-0.4242
N4995 X-0.671 Y-0.3908
N5000 X-0.6858 Y-0.3547
N5005 X-0.6966 Y-0.3172
N5010 X-0.7045 Y-0.279
N5015 X-0.7102 Y-0.2405
N5020 X-0.7143 Y-0.2017
N5025 X-0.7172 Y-0.1628
N5030 X-0.7193 Y-0.1239
N5035 X-0.7208 Y-0.0849
N5040 X-0.7219 Y-0.0459
N5045 X-0.7227 Y-0.007
N5050 X-0.7232 Y0.032
N5055 X-0.7236 Y0.071
N5060 X-0.7238 Y0.11
N5065 X-0.724 Y0.149
N5070 X-0.7242 Y0.188
N5075 X-0.7239 Y0.2075
N5080 X-0.7201 Y0.2266
N5085 X-0.7056 Y0.2628
N5090 X-0.6805 Y0.2926
N5095 X-0.6491 Y0.3158
N5100 X-0.6143 Y0.3333
N5105 X-0.5776 Y0.3465
N5110 X-0.5398 Y0.3562
N5115 X-0.5015 Y0.3633
N5120 X-0.4628 Y0.3685
N5125 X-0.424 Y0.3722
N5130 X-0.3851 Y0.375
N5135 X-0.3462 Y0.377
N5140 X-0.3072 Y0.3784
N5145 X-0.2683 Y0.3794
N5150 X-0.2293 Y0.3801
N5155 X-0.1903 Y0.3807
N5160 X-0.1513 Y0.3811
N5165 X-0.1123 Y0.3813
N5170 X-0.0733 Y0.3815
N5175 X0.0047 Y0.3818
N5180 X0.1216 Y0.3819
N5185 X0.2045 Y0.382
N5190 G3 X0.2275 Y0.3996 I-0.0009 J0.025
N5195 G1 X0.2287 Y0.4033 Z-0.0997
N5200 X0.2298 Y0.407 Z-0.0988
N5205 X0.2309 Y0.4104 Z-0.0973
N5210 X0.2318 Y0.4136 Z-0.0952
N5215 X0.2327 Y0.4165 Z-0.0927
N5220 X0.2335 Y0.4189 Z-0.0897
N5225 X0.2341 Y0.4209 Z-0.0863
N5230 X0.2345 Y0.4223 Z-0.0827
N5235 X0.2348 Y0.4232 Z-0.0789
N5240 X0.2349 Y0.4235 Z-0.075
N5245 G0 Z0.2
N5250 X0.355 Y-0.3116
N5255 Z-0.05
N5260 G1 Z-0.075 F15.
N5265 X0.3547 Y-0.3117 Z-0.0789
N5270 X0.3539 Y-0.3121 Z-0.0827
N5275 X0.3525 Y-0.3127 Z-0.0863
N5280 X0.3506 Y-0.3135 Z-0.0897
N5285 X0.3483 Y-0.3145 Z-0.0927
N5290 X0.3456 Y-0.3157 Z-0.0952
N5295 X0.3425 Y-0.3171 Z-0.0973
N5300 X0.3392 Y-0.3185 Z-0.0988
N5305 X0.3357 Y-0.32 Z-0.0997
N5310 X0.3321 Y-0.3216 Z-0.1
N5315 G3 X0.3052 Y-0.3369 I0.0574 J-0.1316
N5320 G1 X0.2899 Y-0.3489
N5325 X0.2727 Y-0.3582
N5330 X0.2343 Y-0.365
N5335 X0.1956 Y-0.3699
N5340 X0.1568 Y-0.3734
N5345 X0.1179 Y-0.3759
N5350 X0.0789 Y-0.3777
N5355 X0.04 Y-0.379
N5360 X0.001 Y-0.3799
N5365 X-0.038 Y-0.3805
N5370 X-0.077 Y-0.3809
N5375 X-0.116 Y-0.3813
N5380 X-0.155 Y-0.3815
N5385 X-0.194 Y-0.3816
N5390 X-0.2719 Y-0.3818
N5395 X-0.3889 Y-0.3819
N5400 X-0.4279 Y-0.382
N5405 X-0.4474 Y-0.3809
N5410 X-0.4854 Y-0.3722
N5415 X-0.5183 Y-0.3514
N5420 X-0.5448 Y-0.3228
N5425 X-0.5654 Y-0.2897
N5430 X-0.581 Y-0.2539
N5435 X-0.5927 Y-0.2167
N5440 X-0.6013 Y-0.1787
N5445 X-0.6077 Y-0.1402
N5450 X-0.6123 Y-0.1015
N5455 X-0.6157 Y-0.0627
N5460 X-0.6182 Y-0.0238
N5465 X-0.6199 Y0.0152
N5470 X-0.6212 Y0.0542
N5475 X-0.6222 Y0.0931
N5480 X-0.6165 Y0.1317
N5485 X-0.5981 Y0.1661
N5490 X-0.5712 Y0.1943
N5495 X-0.5391 Y0.2164
N5500 X-0.504 Y0.2334
N5505 X-0.4672 Y0.2462
N5510 X-0.4294 Y0.2558
N5515 X-0.391 Y0.2628
N5520 X-0.3524 Y0.268
N5525 X-0.3136 Y0.2719
N5530 X-0.2747 Y0.2746
N5535 X-0.2357 Y0.2767
N5540 X-0.1968 Y0.2781
N5545 X-0.1578 Y0.2792
N5550 X-0.1188 Y0.28
N5555 X-0.0798 Y0.2806
N5560 X-0.0408 Y0.281
N5565 X-0.0019 Y0.2812
N5570 X0.0113 Y0.2804
N5575 X0.0261 Y0.2795
N5580 X0.043 Y0.2786
N5585 X0.0626 Y0.2777
N5590 X0.0772 Y0.2771
N5595 X0.0869 Y0.2768
N5600 X0.0965 Y0.2749
N5605 X0.1056 Y0.2713
N5610 X0.1139 Y0.2664
N5615 X0.1214 Y0.2601
N5620 X0.1277 Y0.2526
N5625 X0.1326 Y0.2442
N5630 X0.1361 Y0.2351
N5635 X0.1438 Y0.1969
N5640 X0.1397 Y0.1581
N5645 X0.1341 Y0.1195
N5650 X0.1306 Y0.0968
N5655 X0.1286 Y0.0828
N5660 X0.1271 Y0.0714
N5665 X0.1258 Y0.0616
N5670 X0.1247 Y0.0526
N5675 X0.1237 Y0.0443
N5680 X0.1229 Y0.0364
N5685 X0.1221 Y0.029
N5690 X0.1215 Y0.0219
N5695 X0.1209 Y0.0151
N5700 X0.1204 Y0.0084
N5705 X0.1199 Y0.002
N5710 X0.1196 Y-0.0042
N5715 X0.1192 Y-0.0103
N5720 X0.1189 Y-0.0163
N5725 X0.1187 Y-0.0223
N5730 X0.1185 Y-0.0283
N5735 X0.1183 Y-0.0343
N5740 X0.1182 Y-0.0403
N5745 Y-0.0463
N5750 Y-0.0523
N5755 Y-0.0583
N5760 X0.1183 Y-0.0643
N5765 X0.1184 Y-0.0703
N5770 X0.1186 Y-0.0763
N5775 X0.1189 Y-0.0823
N5780 X0.1192 Y-0.0883
N5785 X0.1196 Y-0.0943
N5790 X0.12 Y-0.1003
N5795 X0.1204 Y-0.1062
N5800 X0.121 Y-0.1122
N5805 X0.1215 Y-0.1182
N5810 X0.1222 Y-0.1242
N5815 X0.1233 Y-0.1338
N5820 X0.1228 Y-0.1436
N5825 X0.1207 Y-0.1531
N5830 X0.1134 Y-0.1712
N5835 X0.0878 Y-0.2006
N5840 X0.0552 Y-0.222
N5845 X0.0194 Y-0.2373
N5850 X-0.0181 Y-0.248
N5855 X-0.0564 Y-0.2556
N5860 X-0.095 Y-0.2609
N5865 X-0.1338 Y-0.2646
N5870 X-0.1727 Y-0.2672
N5875 X-0.2117 Y-0.2689
N5880 X-0.2506 Y-0.2702
N5885 X-0.2896 Y-0.271
N5890 X-0.3286 Y-0.2716
N5895 X-0.3479 Y-0.2691
N5900 X-0.3851 Y-0.2572
N5905 X-0.4164 Y-0.2339
N5910 X-0.4412 Y-0.2039
N5915 X-0.4603 Y-0.1699
N5920 X-0.4748 Y-0.1337
N5925 X-0.4855 Y-0.0962
N5930 X-0.4935 Y-0.0581
N5935 X-0.4994 Y-0.0195
N5940 X-0.4992 Y0.
N5945 X-0.4949 Y0.019
N5950 X-0.4794 Y0.0548
N5955 X-0.4535 Y0.0839
N5960 X-0.4218 Y0.1066
N5965 X-0.3869 Y0.1239
N5970 X-0.3501 Y0.1369
N5975 X-0.3123 Y0.1465
N5980 X-0.274 Y0.1536
N5985 X-0.2353 Y0.1588
N5990 X-0.1965 Y0.1627
N5995 X-0.1576 Y0.1655
N6000 X-0.1187 Y0.1675
N6005 X-0.1089 Y0.1678
N6010 X-0.0993 Y0.1665
N6015 X-0.09 Y0.1636
N6020 X-0.0813 Y0.1592
N6025 X-0.0656 Y0.1476
N6030 X-0.0418 Y0.1168
N6035 X-0.0258 Y0.0812
N6040 X-0.015 Y0.0437
N6045 X-0.0073 Y0.0055
N6050 X-0.007 Y-0.014
N6055 X-0.0125 Y-0.0327
N6060 X-0.0313 Y-0.0668
N6065 X-0.06 Y-0.0932
N6070 X-0.0937 Y-0.1129
N6075 X-0.1299 Y-0.1274
N6080 X-0.1674 Y-0.1378
N6085 X-0.2057 Y-0.1454
N6090 X-0.2251 Y-0.1472
N6095 X-0.2445 Y-0.145
N6100 X-0.2815 Y-0.1327
N6105 X-0.2968 Y-0.1207
N6110 X-0.3036 Y-0.1137
N6115 X-0.3093 Y-0.1058
N6120 X-0.3135 Y-0.097
N6125 X-0.3162 Y-0.0876
N6130 X-0.3172 Y-0.0779
N6135 X-0.3167 Y-0.0682
N6140 X-0.3145 Y-0.0587
N6145 X-0.3108 Y-0.0497
N6150 X-0.3005 Y-0.0331
N6155 X-0.2713 Y-0.0073
N6160 X-0.2629 Y-0.0025
N6165 X-0.2585 Y-0.0002
N6170 G3 X-0.2463 Y0.0261 I-0.0124 J0.0217
N6175 G1 X-0.247 Y0.0299 Z-0.0997
N6180 X-0.2477 Y0.0337 Z-0.0988
N6185 X-0.2484 Y0.0373 Z-0.0973
N6190 X-0.249 Y0.0405 Z-0.0952
N6195 X-0.2496 Y0.0435 Z-0.0927
N6200 X-0.25 Y0.046 Z-0.0897
N6205 X-0.2504 Y0.048 Z-0.0863
N6210 X-0.2507 Y0.0495 Z-0.0827
N6215 X-0.2508 Y0.0504 Z-0.0789
N6220 X-0.2509 Y0.0507 Z-0.075
N6225 G0 Z0.6
(HORIZONTAL1)
N6230 G0 X1.0723 Y0.382
N6235 Z0.6
N6240 Z0.0194
N6245 G1 Z0.005 F15.
N6250 X1.072 Z0.0011
N6255 X1.0711 Z-0.0027
N6260 X1.0696 Z-0.0063
N6265 X1.0675 Z-0.0097
N6270 X1.065 Z-0.0127
N6275 X1.062 Y0.3819 Z-0.0152
N6280 X1.0586 Z-0.0173
N6285 X1.055 Z-0.0188
N6290 X1.0512 Z-0.0197
N6295 X1.0473 Z-0.02
N6300 X1.0446 Y0.3817
N6305 X0.8193 Y0.3562
N6310 G2 X0.7915 Y0.381 I-0.0028 J0.0248
N6315 G3 X0.7105 I-0.0405 J0.
N6320 X0.7915 I0.0405 J0.
N6325 G2 X0.8267 Y0.4481 I0.0816 J0.
N6330 G3 X0.8207 Y0.5237 I-0.0249 J0.036
N6335 G1 X0.8175 Y0.5252
N6340 X0.8096 Y0.5288
N6345 X0.8043 Y0.5308
N6350 X0.8016 Y0.5317
N6355 X0.7936 Y0.534
N6360 X0.7856 Y0.5361
N6365 X0.7777 Y0.5377
N6370 X0.7694 Y0.5387
N6375 X0.7617 Y0.5396
N6380 X0.7537 Y0.5399
N6385 X0.7458 Y0.5397
N6390 X0.7378 Y0.5393
N6395 X0.7314 Y0.5387
N6400 X0.7298 Y0.5385
N6405 X0.7218 Y0.5371
N6410 X0.7139 Y0.5355
N6415 X0.7059 Y0.5334
N6420 X0.702 Y0.5321
N6425 X0.6979 Y0.5307
N6430 X0.6899 Y0.5276
N6435 X0.6819 Y0.5242
N6440 X0.6792 Y0.5228
N6445 X0.674 Y0.5199
N6450 X0.6653 Y0.5148
N6455 X0.6617 Y0.5125
N6460 X0.658 Y0.5099
N6465 X0.65 Y0.5036
N6470 X0.6444 Y0.4988
N6475 X0.6421 Y0.4968
N6480 X0.6362 Y0.4909
N6485 X0.6291 Y0.4829
N6490 X0.6261 Y0.4792
N6495 X0.6227 Y0.4749
N6500 X0.6181 Y0.468
N6505 X0.6125 Y0.4589
N6510 X0.6102 Y0.4548
N6515 X0.6083 Y0.4509
N6520 X0.6048 Y0.443
N6525 X0.6015 Y0.435
N6530 X0.6001 Y0.431
N6535 X0.5989 Y0.427
N6540 X0.5968 Y0.419
N6545 X0.5949 Y0.411
N6550 X0.5942 Y0.4074
N6555 X0.5936 Y0.4031
N6560 X0.5928 Y0.3951
N6565 X0.5922 Y0.3871
N6570 X0.5921 Y0.3831
N6575 X0.592 Y0.3791
N6580 X0.5925 Y0.3711
N6585 X0.5932 Y0.3632
N6590 X0.5942 Y0.355
N6595 X0.5958 Y0.3472
N6600 X0.5977 Y0.3392
N6605 X0.6 Y0.3312
N6610 X0.6011 Y0.3282
N6615 X0.6022 Y0.3252
N6620 X0.6064 Y0.3153
N6625 X0.6102 Y0.3073
N6630 X0.6148 Y0.2993
N6635 X0.6199 Y0.2913
N6640 X0.6256 Y0.2833
N6645 X0.6261 Y0.2827
N6650 X0.6324 Y0.2754
N6655 X0.6341 Y0.2735
N6660 X0.6399 Y0.2674
N6665 X0.6421 Y0.2652
N6670 X0.6488 Y0.2594
N6675 X0.65 Y0.2584
N6680 X0.658 Y0.2521
N6685 X0.659 Y0.2514
N6690 X0.666 Y0.2468
N6695 X0.6717 Y0.2434
N6700 X0.674 Y0.2421
N6705 X0.6819 Y0.2379
N6710 X0.6872 Y0.2354
N6715 X0.6899 Y0.2343
N6720 X0.6979 Y0.2313
N6725 X0.7059 Y0.2286
N6730 X0.7098 Y0.2275
N6735 X0.7139 Y0.2265
N6740 X0.7218 Y0.2249
N6745 X0.7298 Y0.2235
N6750 X0.7378 Y0.2227
N6755 X0.7458 Y0.2223
N6760 X0.7537 Y0.2221
N6765 X0.7617 Y0.2224
N6770 X0.7697 Y0.2233
N6775 X0.7777 Y0.2244
N6780 X0.7856 Y0.2259
N6785 X0.7917 Y0.2275
N6790 X0.8016 Y0.2303
N6795 X0.8056 Y0.2317
N6800 X0.8096 Y0.2332
N6805 X0.8147 Y0.2354
N6810 X0.8175 Y0.2368
N6815 X0.8255 Y0.2407
N6820 X0.8306 Y0.2434
N6825 X0.8335 Y0.2452
N6830 X0.8415 Y0.2505
N6835 X0.8428 Y0.2514
N6840 X0.8494 Y0.2562
N6845 X0.8533 Y0.2594
N6850 X0.8574 Y0.263
N6855 X0.8619 Y0.2674
N6860 X0.8654 Y0.2708
N6865 X0.8698 Y0.2754
N6870 X0.8734 Y0.2797
N6875 X0.8763 Y0.2833
N6880 X0.8813 Y0.2901
N6885 X0.8849 Y0.2953
N6890 X0.8873 Y0.2993
N6895 X0.8893 Y0.3029
N6900 X0.8917 Y0.3073
N6905 X0.8957 Y0.3153
N6910 X0.8973 Y0.3188
N6915 X0.8991 Y0.3232
N6920 X0.9018 Y0.3312
N6925 X0.9044 Y0.3392
N6930 X0.9053 Y0.3426
N6935 X0.9063 Y0.3472
N6940 X0.9077 Y0.3552
N6945 X0.9089 Y0.3632
N6950 X0.9096 Y0.3711
N6955 X0.9098 Y0.3791
N6960 Y0.3871
N6965 X0.9093 Y0.3951
N6970 X0.9083 Y0.4031
N6975 X0.907 Y0.411
N6980 X0.9053 Y0.4193
N6985 X0.9031 Y0.427
N6990 X0.9004 Y0.435
N6995 X0.8973 Y0.4431
N7000 X0.8936 Y0.4509
N7005 X0.8893 Y0.4591
N7010 X0.8848 Y0.4669
N7015 X0.8813 Y0.4718
N7020 X0.8791 Y0.4749
N7025 X0.873 Y0.4829
N7030 X0.8713 Y0.4849
N7035 X0.8696 Y0.4869
N7040 X0.8654 Y0.4913
N7045 X0.8574 Y0.499
N7050 X0.8534 Y0.5025
N7055 X0.8514 Y0.5042
N7060 X0.8494 Y0.5058
N7065 X0.8415 Y0.5115
N7070 X0.8367 Y0.5148
N7075 X0.8335 Y0.5169
N7080 X0.8295 Y0.5193
N7085 X0.8226 Y0.5228
N7090 X0.8207 Y0.5237
N7095 G3 X0.7874 Y0.5119 I-0.0107 J-0.0226
N7100 G1 X0.7857 Y0.5084 Z-0.0197
N7105 X0.784 Y0.5049 Z-0.0188
N7110 X0.7825 Y0.5016 Z-0.0173
N7115 X0.781 Y0.4986 Z-0.0152
N7120 X0.7798 Y0.4959 Z-0.0127
N7125 X0.7787 Y0.4936 Z-0.0097
N7130 X0.7778 Y0.4918 Z-0.0063
N7135 X0.7771 Y0.4904 Z-0.0027
N7140 X0.7767 Y0.4896 Z0.0011
N7145 X0.7766 Y0.4893 Z0.005
N7150 G0 Z0.2
N7155 X0.4309 Y-0.3537
N7160 Z0.0194
N7165 G1 Z0.005 F15.
N7170 X0.4312 Z0.0011
N7175 X0.4321 Y-0.3538 Z-0.0027
N7180 X0.4336 Y-0.3539 Z-0.0063
N7185 X0.4356 Y-0.3541 Z-0.0097
N7190 X0.4382 Y-0.3543 Z-0.0127
N7195 X0.4411 Y-0.3546 Z-0.0152
N7200 X0.4445 Y-0.3549 Z-0.0173
N7205 X0.4481 Y-0.3552 Z-0.0188
N7210 X0.4519 Y-0.3555 Z-0.0197
N7215 X0.4558 Y-0.3559 Z-0.02
N7220 X0.4585
N7225 X0.6851 Y-0.351
N7230 G2 X0.7106 Y-0.3779 I0.0005 J-0.025
N7235 G3 X0.7914 Y-0.3841 I0.0404 J-0.0031
N7240 X0.7106 Y-0.3779 I-0.0404 J0.0031
N7245 G2 X0.6705 Y-0.4422 I-0.0816 J0.0063
N7250 G3 X0.6706 Y-0.5179 I0.0223 J-0.0379
N7255 G1 X0.674 Y-0.5199
N7260 X0.6792 Y-0.5228
N7265 X0.6819 Y-0.5242
N7270 X0.6899 Y-0.5276
N7275 X0.698 Y-0.5308
N7280 X0.702 Y-0.5321
N7285 X0.7059 Y-0.5334
N7290 X0.7139 Y-0.5355
N7295 X0.7218 Y-0.5371
N7300 X0.7298 Y-0.5385
N7305 X0.7314 Y-0.5387
N7310 X0.7378 Y-0.5393
N7315 X0.7458 Y-0.5397
N7320 X0.7537 Y-0.5399
N7325 X0.7617 Y-0.5396
N7330 X0.7697 Y-0.5387
N7335 X0.7777 Y-0.5377
N7340 X0.7856 Y-0.5361
N7345 X0.7936 Y-0.534
N7350 X0.8016 Y-0.5317
N7355 X0.8043 Y-0.5308
N7360 X0.8096 Y-0.5288
N7365 X0.8175 Y-0.5252
N7370 X0.8226 Y-0.5228
N7375 X0.8295 Y-0.5193
N7380 X0.8335 Y-0.5169
N7385 X0.8367 Y-0.5148
N7390 X0.8415 Y-0.5115
N7395 X0.8494 Y-0.5058
N7400 X0.8514 Y-0.5042
N7405 X0.8534 Y-0.5025
N7410 X0.8576 Y-0.4988
N7415 X0.8658 Y-0.4909
N7420 X0.8696 Y-0.4869
N7425 X0.8713 Y-0.4849
N7430 X0.8734 Y-0.4824
N7435 X0.8791 Y-0.4749
N7440 X0.8813 Y-0.4718
N7445 X0.8848 Y-0.4669
N7450 X0.8894 Y-0.4589
N7455 X0.8936 Y-0.4509
N7460 X0.8974 Y-0.443
N7465 X0.9004 Y-0.435
N7470 X0.9031 Y-0.427
N7475 X0.9053 Y-0.419
N7480 X0.907 Y-0.411
N7485 X0.9083 Y-0.4031
N7490 X0.9093 Y-0.3951
N7495 X0.9098 Y-0.3871
N7500 Y-0.3791
N7505 X0.9096 Y-0.3711
N7510 X0.9089 Y-0.3632
N7515 X0.9077 Y-0.3552
N7520 X0.9063 Y-0.3472
N7525 X0.9053 Y-0.3426
N7530 X0.9044 Y-0.3392
N7535 X0.9018 Y-0.3312
N7540 X0.8991 Y-0.3232
N7545 X0.8973 Y-0.3188
N7550 X0.8957 Y-0.3153
N7555 X0.8917 Y-0.3073
N7560 X0.8893 Y-0.3029
N7565 X0.8873 Y-0.2993
N7570 X0.8849 Y-0.2953
N7575 X0.8813 Y-0.2901
N7580 X0.8763 Y-0.2833
N7585 X0.8734 Y-0.2797
N7590 X0.8698 Y-0.2754
N7595 X0.8654 Y-0.2708
N7600 X0.8619 Y-0.2674
N7605 X0.8574 Y-0.263
N7610 X0.8533 Y-0.2594
N7615 X0.8494 Y-0.2562
N7620 X0.8428 Y-0.2514
N7625 X0.8415 Y-0.2505
N7630 X0.8335 Y-0.2452
N7635 X0.8306 Y-0.2434
N7640 X0.8255 Y-0.2407
N7645 X0.8175 Y-0.2368
N7650 X0.8147 Y-0.2354
N7655 X0.8096 Y-0.2332
N7660 X0.8056 Y-0.2317
N7665 X0.8016 Y-0.2303
N7670 X0.7917 Y-0.2275
N7675 X0.7856 Y-0.2259
N7680 X0.7777 Y-0.2244
N7685 X0.7697 Y-0.2233
N7690 X0.7617 Y-0.2224
N7695 X0.7537 Y-0.2221
N7700 X0.7458 Y-0.2223
N7705 X0.7378 Y-0.2227
N7710 X0.7298 Y-0.2235
N7715 X0.7218 Y-0.2249
N7720 X0.7139 Y-0.2265
N7725 X0.7098 Y-0.2275
N7730 X0.7059 Y-0.2286
N7735 X0.6979 Y-0.2313
N7740 X0.6899 Y-0.2343
N7745 X0.6872 Y-0.2354
N7750 X0.6819 Y-0.2379
N7755 X0.674 Y-0.2421
N7760 X0.6717 Y-0.2434
N7765 X0.666 Y-0.2468
N7770 X0.659 Y-0.2514
N7775 X0.658 Y-0.2521
N7780 X0.65 Y-0.2584
N7785 X0.6488 Y-0.2594
N7790 X0.6421 Y-0.2652
N7795 X0.6399 Y-0.2674
N7800 X0.6341 Y-0.2735
N7805 X0.6324 Y-0.2754
N7810 X0.6261 Y-0.2827
N7815 X0.6256 Y-0.2833
N7820 X0.6199 Y-0.2913
N7825 X0.6148 Y-0.2993
N7830 X0.6102 Y-0.3074
N7835 X0.6064 Y-0.3153
N7840 X0.6022 Y-0.3252
N7845 X0.6011 Y-0.3282
N7850 X0.6 Y-0.3312
N7855 X0.5977 Y-0.3392
N7860 X0.5958 Y-0.3472
N7865 X0.5942 Y-0.3552
N7870 X0.5932 Y-0.3632
N7875 X0.5925 Y-0.3711
N7880 X0.592 Y-0.3791
N7885 X0.5921 Y-0.3831
N7890 X0.5922 Y-0.3871
N7895 X0.5928 Y-0.3951
N7900 X0.5936 Y-0.4031
N7905 X0.5942 Y-0.4074
N7910 X0.5949 Y-0.411
N7915 X0.5968 Y-0.419
N7920 X0.5989 Y-0.427
N7925 X0.6001 Y-0.431
N7930 X0.6015 Y-0.435
N7935 X0.6048 Y-0.443
N7940 X0.6083 Y-0.4509
N7945 X0.6102 Y-0.4548
N7950 X0.6125 Y-0.4589
N7955 X0.6181 Y-0.468
N7960 X0.6227 Y-0.4749
N7965 X0.6261 Y-0.4792
N7970 X0.6291 Y-0.4829
N7975 X0.6362 Y-0.4909
N7980 X0.6421 Y-0.4968
N7985 X0.6444 Y-0.4988
N7990 X0.65 Y-0.5036
N7995 X0.658 Y-0.5099
N8000 X0.6617 Y-0.5125
N8005 X0.6653 Y-0.5148
N8010 X0.6706 Y-0.5179
N8015 G3 X0.7048 Y-0.509 I0.0126 J0.0216
N8020 G1 X0.7068 Y-0.5056 Z-0.0197
N8025 X0.7087 Y-0.5023 Z-0.0188
N8030 X0.7105 Y-0.4992 Z-0.0173
N8035 X0.7122 Y-0.4963 Z-0.0152
N8040 X0.7137 Y-0.4937 Z-0.0127
N8045 X0.715 Y-0.4915 Z-0.0097
N8050 X0.7161 Y-0.4897 Z-0.0063
N8055 X0.7168 Y-0.4885 Z-0.0027
N8060 X0.7173 Y-0.4877 Z0.0011
N8065 X0.7174 Y-0.4874 Z0.005
N8070 G0 Z0.2
N8075 X-0.1078 Y-0.7885
N8080 Z-0.0806
N8085 G1 Z-0.095 F15.
N8090 G19 G3 Y-0.7635 Z-0.12 J0.025 K0.
N8095 G1 Y-0.7626
N8100 X-0.1328 Y-0.0775
N8105 G17 G2 X-0.1078 Y-0.0516 I0.025 J0.0009
N8110 G3 X-0.0652 Y0.0144 I0. J0.0467
N8115 G2 X-0.0704 Y0.0263 I0.5279 J0.239
N8120 G3 X-0.1087 Y0.0516 I-0.0383 J-0.0163
N8125 G1 X-0.3358
N8130 G3 X-0.3774 Y0.0093 I0. J-0.0416
N8135 G2 Y-0.0093 I-0.5744 J-0.0093
N8140 G3 X-0.3358 Y-0.0516 I0.0416 J-0.0007
N8145 G1 X-0.1078
N8150 G2 X-0.0275 Y-0.1051 I0. J-0.087
N8155 G3 X0.0528 Y-0.1587 I0.0803 J0.0335
N8160 G1 X0.0809
N8165 G3 X0.1188 Y-0.0726 I0. J0.0513
N8170 G2 X0.0217 Y0.0842 I0.3631 J0.3333
N8175 G3 X-0.0867 Y0.1587 I-0.1083 J-0.0415
N8180 G1 X-0.4317
N8185 G3 X-0.4921 Y0.0865 I0. J-0.0613
N8190 G2 X-0.4842 Y0.0134 I-0.5151 J-0.0924
N8195 X-0.4873 Y-0.0601 I-0.4686 J-0.0173
N8200 X-0.4895 Y-0.0733 I-0.1464 J0.0177
N8205 G3 X-0.4921 Y-0.0865 I0.3897 J-0.0836
N8210 X-0.4317 Y-0.1587 I0.0604 J-0.0108
N8215 G1 X0.0528
N8220 G2 X0.1558 Y-0.2565 I0. J-0.1031
N8225 G3 X0.2969 Y-0.2723 I0.0719 J0.0036
N8230 G1 X0.2977 Y-0.2694
N8235 G2 X0.3286 Y-0.1818 I0.4697 J-0.1161
N8240 X0.3764 Y-0.1022 I0.3973 J-0.1845
N8245 G3 X0.3559 Y-0.0217 I-0.0424 J0.032
N8250 G2 X0.2298 Y0.0813 I0.1308 J0.2887
N8255 X0.1728 Y0.2339 I0.2493 J0.1801
N8260 X0.1722 Y0.2537 I0.1651 J0.0149
N8265 X0.1729 Y0.2734 I3.306 J-0.0978
N8270 G3 X0.1057 Y0.343 I-0.0671 J0.0024
N8275 G1 X-0.6096
N8280 G3 X-0.6855 Y0.2671 I0. J-0.0758
N8285 G1 Y0.1266
N8290 G3 X-0.6793 Y0.0799 I0.1792 J0.
N8295 G2 Y-0.0799 I-0.2958 J-0.0799
N8300 G3 X-0.6855 Y-0.1266 I0.173 J-0.0467
N8305 G1 Y-0.2671
N8310 G3 X-0.6096 Y-0.343 I0.0758 J0.
N8315 G1 X0.2038
N8320 G3 X0.2969 Y-0.2723 I0. J0.0968
N8325 G2 X0.4158 Y-0.1783 I0.1242 J-0.0348
N8330 G3 X0.5583 Y-0.1267 I-0.0104 J0.251
N8335 G2 X0.774 Y-0.0644 I0.1874 J-0.2444
N8340 G3 X0.835 Y-0.0087 I0.0051 J0.0556
N8345 G1 Y0.0087
N8350 G3 X0.774 Y0.0644 I-0.0559 J0.
N8355 G2 X0.6949 Y0.0682 I-0.0259 J0.2807
N8360 X0.6194 Y0.092 I0.0648 J0.3373
N8365 G3 X0.5692 Y0.1003 I-0.041 J-0.0915
N8370 G2 X0.461 Y0.099 I-0.0626 J0.6743
N8375 X0.3631 Y0.145 I0.01 J0.1485
N8380 X0.3215 Y0.2914 I0.1189 J0.1129
N8385 X0.4159 Y0.4108 I0.1667 J-0.0348
N8390 G3 X0.4391 Y0.4406 I-0.0177 J0.0377
N8395 G1 X0.4395 Y0.4424
N8400 G3 X0.3988 Y0.4925 I-0.0408 J0.0084
N8405 G1 X-0.7741 Y0.4813
N8410 G3 X-0.8099 Y0.464 I0.0044 J-0.0545
N8415 X-0.8253 Y0.4274 I0.0428 J-0.0397
N8420 X-0.8321 Y0.2765 I9.6811 J-0.5123
N8425 X-0.835 Y0.1254 I4.0506 J-0.1511
N8430 X-0.8237 Y0.0413 I0.3194 J0.
N8435 G2 Y-0.0413 I-0.1511 J-0.0413
N8440 G3 X-0.835 Y-0.1254 I0.3082 J-0.0841
N8445 X-0.833 Y-0.2786 I5.91 J0.
N8450 X-0.8249 Y-0.4316 I2.8782 J0.0746
N8455 X-0.8068 Y-0.467 I0.0515 J0.0041
N8460 X-0.7699 Y-0.4816 I0.0402 J0.0475
N8465 G1 X0.3769 Y-0.4925
N8470 G3 X0.4365 Y-0.4244 I0. J0.0601
N8475 G2 X0.5185 Y-0.1631 I0.3205 J0.0429
N8480 X0.5583 Y-0.1267 I0.2272 J-0.208
N8485 X0.7079 Y-0.1328 I0.0711 J-0.0927
N8490 G3 X0.8324 Y-0.2162 I0.3438 J0.3789
N8495 G1 X0.8335 Y-0.2167
N8500 X0.8391 Y-0.2195
N8505 X0.8415 Y-0.2208
N8510 X0.8494 Y-0.2256
N8515 X0.8574 Y-0.2311
N8520 X0.8635 Y-0.2354
N8525 X0.8654 Y-0.2369
N8530 X0.8734 Y-0.2437
N8535 X0.8814 Y-0.2514
N8540 X0.8893 Y-0.2597
N8545 X0.8955 Y-0.2674
N8550 X0.9015 Y-0.2754
N8555 X0.9053 Y-0.2807
N8560 X0.9069 Y-0.2833
N8565 X0.9115 Y-0.2913
N8570 X0.9157 Y-0.2993
N8575 X0.9196 Y-0.3073
N8580 X0.9212 Y-0.3112
N8585 X0.9228 Y-0.3153
N8590 X0.9255 Y-0.3232
N8595 X0.9281 Y-0.3312
N8600 X0.9292 Y-0.3352
N8605 X0.9302 Y-0.3392
N8610 X0.9317 Y-0.3472
N8615 X0.933 Y-0.3552
N8620 X0.9341 Y-0.3632
N8625 X0.9347 Y-0.3711
N8630 X0.9348 Y-0.3791
N8635 Y-0.3871
N8640 X0.9345 Y-0.3951
N8645 X0.9336 Y-0.4031
N8650 X0.9323 Y-0.411
N8655 X0.931 Y-0.419
N8660 X0.9292 Y-0.427
N8665 X0.9268 Y-0.435
N8670 X0.9241 Y-0.443
N8675 X0.9212 Y-0.4509
N8680 X0.9176 Y-0.4589
N8685 X0.9133 Y-0.4674
N8690 X0.9092 Y-0.4749
N8695 X0.9053 Y-0.4813
N8700 X0.9042 Y-0.4829
N8705 X0.8984 Y-0.4909
N8710 X0.8923 Y-0.4988
N8715 X0.8893 Y-0.5023
N8720 X0.8852 Y-0.5068
N8725 X0.8813 Y-0.5107
N8730 X0.8734 Y-0.5183
N8735 X0.8683 Y-0.5228
N8740 X0.8654 Y-0.5251
N8745 X0.8574 Y-0.5309
N8750 X0.8494 Y-0.5364
N8755 X0.8457 Y-0.5387
N8760 X0.8415 Y-0.5412
N8765 X0.8335 Y-0.5453
N8770 X0.8255 Y-0.5491
N8775 X0.8175 Y-0.5525
N8780 X0.8116 Y-0.5547
N8785 X0.8096 Y-0.5554
N8790 X0.8016 Y-0.5577
N8795 X0.7936 Y-0.56
N8800 X0.7856 Y-0.5617
N8805 X0.7795 Y-0.5627
N8810 X0.7697 Y-0.5639
N8815 X0.7617 Y-0.5647
N8820 X0.7537 Y-0.565
N8825 X0.7458 Y-0.5647
N8830 X0.7378 Y-0.5644
N8835 X0.7298 Y-0.5638
N8840 X0.7218 Y-0.5626
N8845 X0.7139 Y-0.561
N8850 X0.7059 Y-0.5593
N8855 X0.6979 Y-0.5572
N8860 X0.6907 Y-0.5547
N8865 X0.6819 Y-0.5514
N8870 X0.674 Y-0.5481
N8875 X0.6711 Y-0.5467
N8880 X0.666 Y-0.5441
N8885 X0.6566 Y-0.5387
N8890 X0.65 Y-0.5348
N8895 X0.6441 Y-0.5308
N8900 X0.6421 Y-0.5292
N8905 X0.634 Y-0.5228
N8910 X0.6261 Y-0.5161
N8915 X0.6247 Y-0.5148
N8920 X0.6181 Y-0.5082
N8925 X0.6098 Y-0.4988
N8930 X0.6034 Y-0.4909
N8935 X0.6022 Y-0.4892
N8940 X0.5979 Y-0.4829
N8945 X0.5929 Y-0.4749
N8950 X0.5883 Y-0.4669
N8955 X0.5862 Y-0.4629
N8960 X0.5844 Y-0.4589
N8965 X0.581 Y-0.4509
N8970 X0.5783 Y-0.4443
N8975 X0.5778 Y-0.443
N8980 X0.5751 Y-0.435
N8985 X0.573 Y-0.427
N8990 X0.5711 Y-0.419
N8995 X0.5703 Y-0.4154
N9000 X0.5695 Y-0.411
N9005 X0.5684 Y-0.4031
N9010 X0.5677 Y-0.3951
N9015 X0.5671 Y-0.3871
N9020 X0.567 Y-0.3791
N9025 X0.5674 Y-0.3711
N9030 X0.568 Y-0.3632
N9035 X0.5688 Y-0.3552
N9040 X0.5702 Y-0.3472
N9045 X0.572 Y-0.3392
N9050 X0.574 Y-0.3312
N9055 X0.5763 Y-0.3232
N9060 X0.5783 Y-0.3177
N9065 X0.5792 Y-0.3153
N9070 X0.5826 Y-0.3073
N9075 X0.5862 Y-0.2991
N9080 X0.5904 Y-0.2913
N9085 X0.5942 Y-0.285
N9090 X0.6004 Y-0.2754
N9095 X0.6022 Y-0.2728
N9100 X0.6063 Y-0.2674
N9105 X0.6102 Y-0.2628
N9110 X0.6181 Y-0.2538
N9115 X0.6204 Y-0.2514
N9120 X0.6261 Y-0.2459
N9125 X0.6289 Y-0.2434
N9130 X0.6386 Y-0.2354
N9135 X0.6421 Y-0.2328
N9140 X0.65 Y-0.2272
N9145 X0.658 Y-0.2224
N9150 X0.6631 Y-0.2195
N9155 X0.666 Y-0.2179
N9160 X0.674 Y-0.2139
N9165 X0.6796 Y-0.2115
N9170 X0.6899 Y-0.2076
N9175 X0.6979 Y-0.2048
N9180 X0.7025 Y-0.2035
N9185 X0.7059 Y-0.2027
N9190 X0.7139 Y-0.201
N9195 X0.7218 Y-0.1994
N9200 X0.7298 Y-0.1982
N9205 X0.7378 Y-0.1976
N9210 X0.7458 Y-0.1973
N9215 X0.7537 Y-0.197
N9220 X0.7617 Y-0.1973
N9225 X0.7697 Y-0.1981
N9230 X0.7777 Y-0.1991
N9235 X0.7856 Y-0.2003
N9240 X0.7936 Y-0.202
N9245 X0.7989 Y-0.2035
N9250 X0.8096 Y-0.2066
N9255 X0.8175 Y-0.2095
N9260 X0.8225 Y-0.2115
N9265 X0.8255 Y-0.2129
N9270 X0.8324 Y-0.2162
N9275 G3 X0.8486 Y-0.2111 I0.0054 J0.0113
N9280 G1 X0.9668 Y-0.0061
N9285 X0.9677 Y-0.0042
N9290 X0.9683 Y-0.0021
N9295 X0.9685 Y0.0001
N9300 Y0.2533
N9305 Y0.419
N9310 Y0.427
N9315 X0.9681 Y0.435
N9320 X0.9676 Y0.443
N9325 X0.9669 Y0.4509
N9330 X0.9656 Y0.4589
N9335 X0.9641 Y0.4669
N9340 X0.9624 Y0.4749
N9345 X0.9611 Y0.4795
N9350 X0.9576 Y0.4909
N9355 X0.9547 Y0.4988
N9360 X0.9531 Y0.5026
N9365 X0.9513 Y0.5068
N9370 X0.9476 Y0.5148
N9375 X0.9452 Y0.5197
N9380 X0.9434 Y0.5228
N9385 X0.9387 Y0.5308
N9390 X0.9372 Y0.5332
N9395 X0.9336 Y0.5387
N9400 X0.9292 Y0.5448
N9405 X0.9277 Y0.5467
N9410 X0.9212 Y0.555
N9415 X0.9144 Y0.5627
N9420 X0.9053 Y0.5718
N9425 X0.8973 Y0.5789
N9430 X0.8893 Y0.5852
N9435 X0.8874 Y0.5866
N9440 X0.8813 Y0.591
N9445 X0.8758 Y0.5946
N9450 X0.8734 Y0.5961
N9455 X0.8654 Y0.6008
N9460 X0.8623 Y0.6026
N9465 X0.8574 Y0.6051
N9470 X0.8494 Y0.6087
N9475 X0.8452 Y0.6106
N9480 X0.8415 Y0.6122
N9485 X0.8335 Y0.615
N9490 X0.8222 Y0.6186
N9495 X0.8175 Y0.6198
N9500 X0.8096 Y0.6216
N9505 X0.8016 Y0.6231
N9510 X0.7936 Y0.6244
N9515 X0.7856 Y0.6251
N9520 X0.7777 Y0.6256
N9525 X0.7697 Y0.626
N9530 X0.7378
N9535 X-0.7617
N9540 X-0.7697
N9545 X-0.7777 Y0.6256
N9550 X-0.7856 Y0.6251
N9555 X-0.7936 Y0.6244
N9560 X-0.8016 Y0.6231
N9565 X-0.8096 Y0.6216
N9570 X-0.8175 Y0.6198
N9575 X-0.8222 Y0.6186
N9580 X-0.8335 Y0.615
N9585 X-0.8415 Y0.6122
N9590 X-0.8452 Y0.6106
N9595 X-0.8494 Y0.6087
N9600 X-0.8574 Y0.6051
N9605 X-0.8623 Y0.6026
N9610 X-0.8654 Y0.6008
N9615 X-0.8734 Y0.5961
N9620 X-0.8758 Y0.5946
N9625 X-0.8813 Y0.591
N9630 X-0.8874 Y0.5866
N9635 X-0.8893 Y0.5852
N9640 X-0.8976 Y0.5786
N9645 X-0.9053 Y0.5718
N9650 X-0.9144 Y0.5627
N9655 X-0.9212 Y0.555
N9660 X-0.9277 Y0.5467
N9665 X-0.9292 Y0.5448
N9670 X-0.9336 Y0.5387
N9675 X-0.9372 Y0.5332
N9680 X-0.9387 Y0.5308
N9685 X-0.9434 Y0.5228
N9690 X-0.9452 Y0.5197
N9695 X-0.9476 Y0.5148
N9700 X-0.9513 Y0.5068
N9705 X-0.9531 Y0.5026
N9710 X-0.9547 Y0.4988
N9715 X-0.9576 Y0.4909
N9720 X-0.9611 Y0.4795
N9725 X-0.9624 Y0.4749
N9730 X-0.9641 Y0.4669
N9735 X-0.9656 Y0.4589
N9740 X-0.9669 Y0.4509
N9745 X-0.9676 Y0.443
N9750 X-0.9681 Y0.435
N9755 X-0.9685 Y0.427
N9760 Y0.3711
N9765 Y0.0678
N9770 X-0.9684 Y0.0599
N9775 X-0.9679 Y0.0519
N9780 X-0.9667 Y0.0439
N9785 X-0.9649 Y0.0359
N9790 X-0.9636 Y0.0319
N9795 X-0.9623 Y0.0279
N9800 X-0.9611 Y0.0248
N9805 X-0.9589 Y0.02
N9810 X-0.9548 Y0.012
N9815 X-0.9539 Y0.0101
N9820 X-0.9531 Y0.0082
N9825 X-0.9528 Y0.0071
N9830 X-0.9525 Y0.0061
N9835 X-0.9521 Y0.004
N9840 X-0.9518 Y0.002
N9845 Y0.
N9850 Y-0.002
N9855 X-0.9521 Y-0.004
N9860 X-0.9525 Y-0.0061
N9865 X-0.9528 Y-0.0071
N9870 X-0.9531 Y-0.0082
N9875 X-0.9539 Y-0.0101
N9880 X-0.9548 Y-0.012
N9885 X-0.9589 Y-0.02
N9890 X-0.9611 Y-0.0248
N9895 X-0.9623 Y-0.0279
N9900 X-0.9636 Y-0.0319
N9905 X-0.9649 Y-0.0359
N9910 X-0.9667 Y-0.0439
N9915 X-0.9679 Y-0.0519
N9920 X-0.9684 Y-0.0599
N9925 X-0.9685 Y-0.0678
N9930 Y-0.419
N9935 Y-0.427
N9940 X-0.9681 Y-0.435
N9945 X-0.9676 Y-0.443
N9950 X-0.9669 Y-0.4509
N9955 X-0.9656 Y-0.4589
N9960 X-0.9641 Y-0.4669
N9965 X-0.9624 Y-0.4749
N9970 X-0.9611 Y-0.4795
N9975 X-0.9576 Y-0.4909
N9980 X-0.9547 Y-0.4988
N9985 X-0.9531 Y-0.5026
N9990 X-0.9513 Y-0.5068
N9995 X-0.9476 Y-0.5148
N10000 X-0.9452 Y-0.5197
N10005 X-0.9434 Y-0.5228
N10010 X-0.9387 Y-0.5308
N10015 X-0.9372 Y-0.5332
N10020 X-0.9336 Y-0.5387
N10025 X-0.9292 Y-0.5448
N10030 X-0.9277 Y-0.5467
N10035 X-0.9212 Y-0.555
N10040 X-0.9144 Y-0.5627
N10045 X-0.9053 Y-0.5718
N10050 X-0.8973 Y-0.5789
N10055 X-0.8893 Y-0.5852
N10060 X-0.8874 Y-0.5866
N10065 X-0.8813 Y-0.591
N10070 X-0.8758 Y-0.5946
N10075 X-0.8734 Y-0.5961
N10080 X-0.8654 Y-0.6008
N10085 X-0.8623 Y-0.6026
N10090 X-0.8574 Y-0.6051
N10095 X-0.8494 Y-0.6087
N10100 X-0.8452 Y-0.6106
N10105 X-0.8415 Y-0.6122
N10110 X-0.8335 Y-0.615
N10115 X-0.8222 Y-0.6186
N10120 X-0.8175 Y-0.6198
N10125 X-0.8096 Y-0.6216
N10130 X-0.8016 Y-0.6231
N10135 X-0.7936 Y-0.6244
N10140 X-0.7856 Y-0.6251
N10145 X-0.7777 Y-0.6256
N10150 X-0.7697 Y-0.626
N10155 X-0.7378
N10160 X0.7617
N10165 X0.7697
N10170 X0.7777 Y-0.6256
N10175 X0.7856 Y-0.6251
N10180 X0.7936 Y-0.6244
N10185 X0.8016 Y-0.6231
N10190 X0.8096 Y-0.6216
N10195 X0.8175 Y-0.6198
N10200 X0.8222 Y-0.6186
N10205 X0.8335 Y-0.615
N10210 X0.8415 Y-0.6122
N10215 X0.8452 Y-0.6106
N10220 X0.8494 Y-0.6087
N10225 X0.8574 Y-0.6051
N10230 X0.8623 Y-0.6026
N10235 X0.8654 Y-0.6008
N10240 X0.8734 Y-0.5961
N10245 X0.8758 Y-0.5946
N10250 X0.8813 Y-0.591
N10255 X0.8874 Y-0.5866
N10260 X0.8893 Y-0.5852
N10265 X0.8976 Y-0.5786
N10270 X0.9053 Y-0.5718
N10275 X0.9144 Y-0.5627
N10280 X0.9212 Y-0.555
N10285 X0.9277 Y-0.5467
N10290 X0.9292 Y-0.5448
N10295 X0.9336 Y-0.5387
N10300 X0.9372 Y-0.5332
N10305 X0.9387 Y-0.5308
N10310 X0.9434 Y-0.5228
N10315 X0.9452 Y-0.5197
N10320 X0.9476 Y-0.5148
N10325 X0.9513 Y-0.5068
N10330 X0.9531 Y-0.5026
N10335 X0.9547 Y-0.4988
N10340 X0.9576 Y-0.4909
N10345 X0.9611 Y-0.4795
N10350 X0.9624 Y-0.4749
N10355 X0.9641 Y-0.4669
N10360 X0.9656 Y-0.4589
N10365 X0.9669 Y-0.4509
N10370 X0.9676 Y-0.443
N10375 X0.9681 Y-0.435
N10380 X0.9685 Y-0.427
N10385 Y-0.3711
N10390 Y0.0001
N10395 G3 X0.9646 Y0.0092 I-0.0125 J0.
N10400 G1 X0.7708 Y0.1939
N10405 X0.7688 Y0.1954
N10410 X0.7666 Y0.1965
N10415 X0.7642 Y0.1972
N10420 X0.7617 Y0.1973
N10425 X0.7537 Y0.197
N10430 X0.7458 Y0.1973
N10435 X0.7378 Y0.1976
N10440 X0.7298 Y0.1982
N10445 X0.7218 Y0.1994
N10450 X0.7139 Y0.201
N10455 X0.7059 Y0.2027
N10460 X0.7025 Y0.2035
N10465 X0.6979 Y0.2048
N10470 X0.6899 Y0.2076
N10475 X0.6796 Y0.2115
N10480 X0.6751 Y0.2134
N10485 X0.674 Y0.2139
N10490 X0.666 Y0.2179
N10495 X0.6631 Y0.2195
N10500 X0.658 Y0.2224
N10505 X0.6496 Y0.2275
N10510 X0.6421 Y0.2328
N10515 X0.6386 Y0.2354
N10520 X0.6289 Y0.2434
N10525 X0.6261 Y0.2459
N10530 X0.6204 Y0.2514
N10535 X0.6181 Y0.2538
N10540 X0.6102 Y0.2628
N10545 X0.6063 Y0.2674
N10550 X0.6022 Y0.2728
N10555 X0.6004 Y0.2754
N10560 X0.5942 Y0.285
N10565 X0.5904 Y0.2913
N10570 X0.5862 Y0.2993
N10575 X0.5826 Y0.3073
N10580 X0.5792 Y0.3153
N10585 X0.5783 Y0.3177
N10590 X0.5763 Y0.3232
N10595 X0.574 Y0.3312
N10600 X0.572 Y0.3392
N10605 X0.5703 Y0.3466
N10610 X0.5702 Y0.3472
N10615 X0.5688 Y0.3552
N10620 X0.568 Y0.3632
N10625 X0.5674 Y0.3711
N10630 X0.567 Y0.3791
N10635 X0.5671 Y0.3871
N10640 X0.5677 Y0.3951
N10645 X0.5684 Y0.4031
N10650 X0.5695 Y0.411
N10655 X0.5703 Y0.4154
N10660 X0.5711 Y0.419
N10665 X0.573 Y0.427
N10670 X0.5751 Y0.435
N10675 X0.5778 Y0.443
N10680 X0.5783 Y0.4443
N10685 X0.581 Y0.4509
N10690 X0.5844 Y0.4589
N10695 X0.5862 Y0.4629
N10700 X0.5883 Y0.4669
N10705 X0.5929 Y0.4749
N10710 X0.5979 Y0.4829
N10715 X0.6022 Y0.4892
N10720 X0.6034 Y0.4909
N10725 X0.6098 Y0.4988
N10730 X0.6181 Y0.5082
N10735 X0.6247 Y0.5148
N10740 X0.6261 Y0.5161
N10745 X0.6341 Y0.5228
N10750 X0.6421 Y0.5292
N10755 X0.6441 Y0.5308
N10760 X0.65 Y0.5348
N10765 X0.6566 Y0.5387
N10770 X0.666 Y0.5441
N10775 X0.6711 Y0.5467
N10780 X0.674 Y0.5481
N10785 X0.6819 Y0.5514
N10790 X0.6907 Y0.5547
N10795 X0.6979 Y0.5572
N10800 X0.7059 Y0.5593
N10805 X0.7139 Y0.561
N10810 X0.7223 Y0.5627
N10815 X0.7298 Y0.5638
N10820 X0.7378 Y0.5644
N10825 X0.7458 Y0.5647
N10830 X0.7537 Y0.565
N10835 X0.7617 Y0.5647
N10840 X0.7697 Y0.5639
N10845 X0.7795 Y0.5627
N10850 X0.7856 Y0.5617
N10855 X0.7936 Y0.56
N10860 X0.8016 Y0.5577
N10865 X0.8096 Y0.5554
N10870 X0.8116 Y0.5547
N10875 X0.8175 Y0.5525
N10880 X0.8255 Y0.5491
N10885 X0.8335 Y0.5453
N10890 X0.8415 Y0.5412
N10895 X0.8457 Y0.5387
N10900 X0.8494 Y0.5364
N10905 X0.8576 Y0.5308
N10910 X0.8654 Y0.5251
N10915 X0.8683 Y0.5228
N10920 X0.8734 Y0.5183
N10925 X0.8813 Y0.5107
N10930 X0.8852 Y0.5068
N10935 X0.8893 Y0.5023
N10940 X0.8923 Y0.4988
N10945 X0.8984 Y0.4909
N10950 X0.9042 Y0.4829
N10955 X0.9053 Y0.4813
N10960 X0.9092 Y0.4749
N10965 X0.9135 Y0.4669
N10970 X0.9176 Y0.4589
N10975 X0.9212 Y0.4508
N10980 X0.9241 Y0.443
N10985 X0.9268 Y0.435
N10990 X0.9292 Y0.4268
N10995 X0.931 Y0.419
N11000 X0.9323 Y0.411
N11005 X0.9336 Y0.4031
N11010 X0.9345 Y0.3951
N11015 X0.9348 Y0.3871
N11020 Y0.3791
N11025 X0.9347 Y0.3711
N11030 X0.9341 Y0.3632
N11035 X0.933 Y0.3552
N11040 X0.9317 Y0.3472
N11045 X0.9302 Y0.3392
N11050 X0.9292 Y0.3352
N11055 X0.9281 Y0.3312
N11060 X0.9255 Y0.3232
N11065 X0.9228 Y0.3153
N11070 X0.9212 Y0.3112
N11075 X0.9196 Y0.3073
N11080 X0.9157 Y0.2993
N11085 X0.9115 Y0.2913
N11090 X0.9069 Y0.2833
N11095 X0.9053 Y0.2807
N11100 X0.9015 Y0.2754
N11105 X0.8955 Y0.2674
N11110 X0.8891 Y0.2594
N11115 X0.8813 Y0.2513
N11120 X0.8731 Y0.2434
N11125 X0.8654 Y0.2369
N11130 X0.8635 Y0.2354
N11135 X0.8574 Y0.2311
N11140 X0.8494 Y0.2256
N11145 X0.8415 Y0.2208
N11150 X0.8391 Y0.2195
N11155 X0.8335 Y0.2167
N11160 X0.8255 Y0.2129
N11165 X0.8225 Y0.2115
N11170 X0.8175 Y0.2095
N11175 X0.8096 Y0.2066
N11180 X0.7989 Y0.2035
N11185 X0.7936 Y0.202
N11190 X0.7856 Y0.2003
N11195 X0.7777 Y0.1991
N11200 X0.7697 Y0.1981
N11205 X0.7617 Y0.1973
N11210 G3 X0.7393 Y0.17 I0.0024 J-0.0249
N11215 G1 X0.7397 Y0.1661 Z-0.1197
N11220 X0.74 Y0.1623 Z-0.1188
N11225 X0.7404 Y0.1587 Z-0.1173
N11230 X0.7407 Y0.1554 Z-0.1152
N11235 X0.741 Y0.1524 Z-0.1127
N11240 X0.7413 Y0.1499 Z-0.1097
N11245 X0.7415 Y0.1478 Z-0.1063
N11250 X0.7416 Y0.1463 Z-0.1027
N11255 X0.7417 Y0.1454 Z-0.0989
N11260 Y0.1451 Z-0.095
N11265 G0 Z0.2
N11270 X0.817 Y0.1084
N11275 Z-0.0806
N11280 G1 Z-0.095 F15.
N11285 X0.8167 Y0.1086 Z-0.0989
N11290 X0.816 Y0.1091 Z-0.1027
N11295 X0.8147 Y0.11 Z-0.1063
N11300 X0.8131 Y0.1112 Z-0.1097
N11305 X0.811 Y0.1126 Z-0.1127
N11310 X0.8086 Y0.1144 Z-0.1152
N11315 X0.8058 Y0.1163 Z-0.1173
N11320 X0.8029 Y0.1184 Z-0.1188
N11325 X0.7998 Y0.1206 Z-0.1197
N11330 X0.7966 Y0.1229 Z-0.12
N11335 X0.6143 Y0.2525
N11340 G3 X0.5794 Y0.2466 I-0.0145 J-0.0204
N11345 G1 X0.5783 Y0.245
N11350 X0.577 Y0.2434
N11355 X0.5753 Y0.2417
N11360 X0.5736 Y0.2401
N11365 X0.572 Y0.2388
N11370 X0.5703 Y0.2377
N11375 X0.5681 Y0.2365
N11380 X0.567 Y0.2359
N11385 X0.5659 Y0.2354
N11390 X0.5641 Y0.2348
N11395 X0.5623 Y0.2342
N11400 X0.5603 Y0.2338
N11405 X0.5583 Y0.2334
N11410 X0.5563 Y0.2332
N11415 X0.5543
N11420 X0.5464 Y0.233
N11425 X0.5161
N11430 X0.4905
N11435 X0.4865 Y0.2331
N11440 X0.4825 Y0.2333
N11445 X0.4806 Y0.2336
N11450 X0.4786 Y0.234
N11455 X0.4766 Y0.2346
N11460 X0.4741 Y0.2354
N11465 X0.4722 Y0.2363
N11470 X0.4704 Y0.2373
N11475 X0.4685 Y0.2385
N11480 X0.4675 Y0.2392
N11485 X0.4666 Y0.2399
N11490 X0.4648 Y0.2415
N11495 X0.463 Y0.2434
N11500 X0.4617 Y0.2451
N11505 X0.4605 Y0.2468
N11510 X0.4595 Y0.2484
N11515 X0.4586 Y0.2501
N11520 X0.458 Y0.2514
N11525 X0.4573 Y0.2534
N11530 X0.4567 Y0.2554
N11535 X0.4562 Y0.2574
N11540 X0.4559 Y0.2594
N11545 X0.4557 Y0.2614
N11550 Y0.2634
N11555 X0.4558 Y0.2654
N11560 X0.456 Y0.2674
N11565 X0.4564 Y0.2694
N11570 X0.4569 Y0.2714
N11575 X0.4575 Y0.2734
N11580 X0.4586 Y0.2759
N11585 X0.4596 Y0.2778
N11590 X0.4607 Y0.2796
N11595 X0.4621 Y0.2815
N11600 X0.4629 Y0.2824
N11605 X0.4637 Y0.2833
N11610 X0.4652 Y0.2848
N11615 X0.4666 Y0.2861
N11620 X0.4676 Y0.2868
N11625 X0.4686 Y0.2875
N11630 X0.4706 Y0.2888
N11635 X0.4726 Y0.2899
N11640 X0.4746 Y0.2907
N11645 X0.4762 Y0.2913
N11650 X0.4778 Y0.2918
N11655 X0.4794 Y0.2922
N11660 X0.481 Y0.2925
N11665 X0.4825 Y0.2927
N11670 X0.4865 Y0.2929
N11675 X0.4905 Y0.293
N11680 X0.5464
N11685 X0.5543 Y0.2928
N11690 X0.5563
N11695 X0.5583 Y0.2926
N11700 X0.5603 Y0.2922
N11705 X0.5623 Y0.2918
N11710 X0.5638 Y0.2913
N11715 X0.5654 Y0.2907
N11720 X0.5671 Y0.29
N11725 X0.5687 Y0.2892
N11730 X0.5703 Y0.2883
N11735 X0.5718 Y0.2873
N11740 X0.5733 Y0.2861
N11745 X0.5748 Y0.2848
N11750 X0.5763 Y0.2833
N11755 X0.5773 Y0.2822
N11760 X0.5783 Y0.281
N11765 X0.5793 Y0.2796
N11770 X0.5802 Y0.2782
N11775 X0.5809 Y0.2768
N11780 X0.5816 Y0.2754
N11785 X0.5825 Y0.2734
N11790 X0.5831 Y0.2714
N11795 X0.5836 Y0.2694
N11800 X0.584 Y0.2674
N11805 X0.5842 Y0.2654
N11810 X0.5843 Y0.2634
N11815 Y0.2614
N11820 X0.5841 Y0.2594
N11825 X0.5838 Y0.2574
N11830 X0.5833 Y0.2554
N11835 X0.5827 Y0.2534
N11840 X0.582 Y0.2514
N11845 X0.5812 Y0.2498
N11850 X0.5804 Y0.2482
N11855 X0.5794 Y0.2466
N11860 G3 X0.5876 Y0.2122 I0.0213 J-0.0131
N11865 G1 X0.591 Y0.2102 Z-0.1197
N11870 X0.5942 Y0.2082 Z-0.1188
N11875 X0.5973 Y0.2063 Z-0.1173
N11880 X0.6002 Y0.2045 Z-0.1152
N11885 X0.6027 Y0.203 Z-0.1127
N11890 X0.6049 Y0.2017 Z-0.1097
N11895 X0.6066 Y0.2006 Z-0.1063
N11900 X0.6079 Y0.1998 Z-0.1027
N11905 X0.6087 Y0.1993 Z-0.0989
N11910 X0.609 Y0.1992 Z-0.095
N11915 G0 Z0.6
(SLOT1)
N11920 G0 X0.4855 Y0.263
N11925 Z0.2737
N11930 Z-0.07
N11935 G1 X0.5545 Z-0.0724 F5.
N11940 X0.4855 Z-0.0747
N11945 X0.5545 Z-0.0771
N11950 X0.4855 Z-0.0795
N11955 X0.5545 Z-0.0818
N11960 X0.4855 Z-0.0842
N11965 X0.5545 Z-0.0866
N11970 X0.4855 Z-0.0889
N11975 X0.5545 Z-0.0913
N11980 X0.4855 Z-0.0937
N11985 X0.5545 Z-0.096
N11990 X0.4855 Z-0.0984
N11995 X0.5545 Z-0.1008
N12000 X0.4855 Z-0.1031
N12005 X0.5545 Z-0.1055
N12010 X0.4855 Z-0.1079
N12015 X0.5545 Z-0.1102
N12020 X0.4855 Z-0.1126
N12025 X0.5545 Z-0.115
N12030 X0.4855 Z-0.1173
N12035 X0.5545 Z-0.1197
N12040 X0.4855 Z-0.1221
N12045 X0.5545 Z-0.1244
N12050 X0.4855 Z-0.1268
N12055 X0.5545 Z-0.1292
N12060 X0.4855 Z-0.1315
N12065 X0.5545 Z-0.1339
N12070 X0.4855 Z-0.1363
N12075 X0.5545 F15.
N12080 X0.4855 Z-0.1386 F5.
N12085 X0.5545 Z-0.1409
N12090 X0.4855 Z-0.1432
N12095 X0.5545 Z-0.1455
N12100 X0.4855 Z-0.1478
N12105 X0.5545 Z-0.1502
N12110 X0.4855 Z-0.1525
N12115 X0.5545 Z-0.1548
N12120 X0.4855 Z-0.1571
N12125 X0.5545 Z-0.1594
N12130 X0.4855 Z-0.1617
N12135 X0.5545 Z-0.1641
N12140 X0.4855 Z-0.1664
N12145 X0.5545 Z-0.1687
N12150 X0.4855 Z-0.171
N12155 X0.5545 Z-0.1733
N12160 X0.4855 Z-0.1756
N12165 X0.5545 F15.
N12170 X0.4855 Z-0.1779 F5.
N12175 X0.5545 Z-0.1803
N12180 X0.4855 Z-0.1826
N12185 X0.5545 Z-0.1849
N12190 X0.4855 Z-0.1872
N12195 X0.5545 Z-0.1895
N12200 X0.4855 Z-0.1918
N12205 X0.5545 Z-0.1942
N12210 X0.4855 Z-0.1965
N12215 X0.5545 Z-0.1988
N12220 X0.4855 Z-0.2011
N12225 X0.5545 Z-0.2034
N12230 X0.4855 Z-0.2057
N12235 X0.5545 Z-0.2081
N12240 X0.4855 Z-0.2104
N12245 X0.5545 Z-0.2127
N12250 X0.4855 Z-0.215
N12255 X0.5545 F15.
N12260 G0 Z0.2737
(2D CONTOUR2)
N12265 M8
N12270 G0 Z0.6
N12275 X0.4855 Y0.263
N12280 Z0.2
N12285 G1 Z0.0394 F5.
N12290 Z-0.215
N12295 X0.4806
N12300 X0.4808 Y0.2615
N12305 X0.4815 Y0.2601
N12310 X0.4826 Y0.259
N12315 X0.484 Y0.2582
N12320 X0.4856 Y0.258
N12325 X0.5545
N12330 G3 Y0.268 I0. J0.005
N12335 G1 X0.4855
N12340 G3 Y0.258 I0. J-0.005
N12345 G1 X0.4856
N12350 X0.4871 Y0.2582
N12355 X0.4885 Y0.259
N12360 X0.4896 Y0.2601
N12365 X0.4903 Y0.2615
N12370 X0.4906 Y0.263
N12375 Z0.2
N12380 G0 Z0.6
N12385 M9
(2D ADAPTIVE3)
N12390 G0 X-0.9281 Y-0.8305
N12395 Z0.6
N12400 Z0.2
N12405 Z-0.1113
N12410 G1 Z-0.1363 F15.
N12415 Z-0.215
N12420 G3 X-0.9085 Y-0.6944 I-0.6183 J0.1584
N12425 G1 Y-0.6884
N12430 X-0.9163 Y-0.6502
N12435 X-0.9178 Y-0.6392
N12440 X-0.9202 Y-0.629
N12445 X-0.9243 Y-0.6194
N12450 X-0.9301 Y-0.6107
N12455 X-0.9374 Y-0.6032
N12460 X-0.9391 Y-0.6017
N12465 X-0.9433 Y-0.5974
N12470 X-0.9474 Y-0.5929
N12475 X-0.9521 Y-0.5877
N12480 X-0.9548 Y-0.584
N12485 X-0.973 Y-0.5575
N12490 X-0.9789 Y-0.5486
N12495 X-0.9896 Y-0.5309
N12500 X-0.9937 Y-0.5221
N12505 X-0.9964 Y-0.5155
N12510 X-0.9972 Y-0.5132
N12515 X-1.0001 Y-0.5044
N12520 X-1.0042 Y-0.4867
N12525 X-1.0053 Y-0.4818
N12530 X-1.0113 Y-0.4513
N12535 X-1.0135 Y-0.4247
N12540 Y-0.407
N12545 Y-0.0796
N12550 X-1.0134 Y-0.0708
N12555 X-1.0128 Y-0.0531
N12560 X-1.0122 Y-0.0442
N12565 X-1.0109 Y-0.0354
N12570 X-1.0088 Y-0.0265
N12575 X-1.0064 Y-0.0177
N12580 X-1.0053 Y-0.0144
N12585 X-1.0032 Y-0.0088
N12590 X-1.002 Y-0.0044
N12595 X-1.0017 Y-0.0022
N12600 X-1.0016 Y0.
N12605 X-1.0017 Y0.0022
N12610 X-1.002 Y0.0044
N12615 X-1.0025 Y0.0066
N12620 X-1.0032 Y0.0088
N12625 X-1.0053 Y0.0143
N12630 X-1.0064 Y0.0177
N12635 X-1.0088 Y0.0265
N12640 X-1.0109 Y0.0354
N12645 X-1.0122 Y0.0442
N12650 X-1.0128 Y0.0531
N12655 X-1.0134 Y0.0708
N12660 X-1.0135 Y0.0796
N12665 Y0.4159
N12670 Y0.4247
N12675 X-1.0113 Y0.4513
N12680 X-1.0053 Y0.4818
N12685 X-1.0042 Y0.4867
N12690 X-1.0001 Y0.5044
N12695 X-0.9972 Y0.5132
N12700 X-0.9964 Y0.5155
N12705 X-0.9937 Y0.5221
N12710 X-0.9896 Y0.5309
N12715 X-0.9787 Y0.549
N12720 X-0.973 Y0.5575
N12725 X-0.9548 Y0.584
N12730 X-0.9521 Y0.5877
N12735 X-0.9474 Y0.5929
N12740 X-0.9433 Y0.5974
N12745 X-0.9391 Y0.6017
N12750 X-0.9289 Y0.6106
N12755 X-0.9255 Y0.6131
N12760 X-0.899 Y0.6312
N12765 X-0.8901 Y0.6371
N12770 X-0.8813 Y0.6424
N12775 X-0.8724 Y0.6475
N12780 X-0.8635 Y0.6516
N12785 X-0.8555 Y0.6548
N12790 X-0.8458 Y0.658
N12795 X-0.8193 Y0.6637
N12800 X-0.8104 Y0.6655
N12805 X-0.7927 Y0.6689
N12810 X-0.7838 Y0.6697
N12815 X-0.7661 Y0.6709
N12820 X-0.7573 Y0.671
N12825 X0.7573
N12830 X0.7661 Y0.6709
N12835 X0.7838 Y0.6697
N12840 X0.7927 Y0.6689
N12845 X0.8104 Y0.6655
N12850 X0.8196 Y0.6636
N12855 X0.8458 Y0.658
N12860 X0.8555 Y0.6548
N12865 X0.8635 Y0.6516
N12870 X0.8724 Y0.6475
N12875 X0.8813 Y0.6424
N12880 X0.8901 Y0.6371
N12885 X0.899 Y0.6312
N12890 X0.9255 Y0.6131
N12895 X0.9289 Y0.6106
N12900 X0.9391 Y0.6017
N12905 X0.9433 Y0.5974
N12910 X0.9474 Y0.5929
N12915 X0.9521 Y0.5877
N12920 X0.9548 Y0.584
N12925 X0.973 Y0.5575
N12930 X0.9789 Y0.5486
N12935 X0.9896 Y0.5309
N12940 X0.9937 Y0.5221
N12945 X0.9964 Y0.5155
N12950 X0.9972 Y0.5132
N12955 X1.0001 Y0.5044
N12960 X1.0042 Y0.4867
N12965 X1.0053 Y0.4818
N12970 X1.0113 Y0.4513
N12975 X1.0135 Y0.4247
N12980 Y0.407
N12985 Y-0.4159
N12990 Y-0.4247
N12995 X1.0113 Y-0.4513
N13000 X1.0053 Y-0.4818
N13005 X1.0042 Y-0.4867
N13010 X1.0001 Y-0.5044
N13015 X0.9972 Y-0.5132
N13020 X0.9964 Y-0.5155
N13025 X0.9937 Y-0.5221
N13030 X0.9896 Y-0.5309
N13035 X0.9787 Y-0.549
N13040 X0.973 Y-0.5575
N13045 X0.9548 Y-0.584
N13050 X0.9521 Y-0.5877
N13055 X0.9474 Y-0.5929
N13060 X0.9433 Y-0.5974
N13065 X0.9391 Y-0.6017
N13070 X0.9289 Y-0.6106
N13075 X0.9255 Y-0.6131
N13080 X0.899 Y-0.6312
N13085 X0.8901 Y-0.6371
N13090 X0.8813 Y-0.6424
N13095 X0.8724 Y-0.6475
N13100 X0.8635 Y-0.6516
N13105 X0.8555 Y-0.6548
N13110 X0.8458 Y-0.658
N13115 X0.8193 Y-0.6637
N13120 X0.8104 Y-0.6655
N13125 X0.7927 Y-0.6689
N13130 X0.7838 Y-0.6697
N13135 X0.7661 Y-0.6709
N13140 X0.7573 Y-0.671
N13145 X-0.7573
N13150 X-0.7661 Y-0.6709
N13155 X-0.7838 Y-0.6697
N13160 X-0.7927 Y-0.6689
N13165 X-0.8104 Y-0.6655
N13170 X-0.8196 Y-0.6636
N13175 X-0.8458 Y-0.658
N13180 X-0.8555 Y-0.6548
N13185 X-0.8635 Y-0.6516
N13190 X-0.8724 Y-0.6475
N13195 X-0.8813 Y-0.6424
N13200 X-0.8901 Y-0.6371
N13205 X-0.899 Y-0.6312
N13210 X-0.9255 Y-0.6131
N13215 X-0.9289 Y-0.6106
N13220 X-0.9374 Y-0.6032
N13225 G3 X-0.9663 Y-0.6014 I-0.0157 J-0.0194
N13230 G1 X-0.9696 Y-0.6035 Z-0.2147
N13235 X-0.9729 Y-0.6055 Z-0.2138
N13240 X-0.9759 Y-0.6074 Z-0.2123
N13245 X-0.9788 Y-0.6092 Z-0.2102
N13250 X-0.9813 Y-0.6108 Z-0.2077
N13255 X-0.9835 Y-0.6121 Z-0.2047
N13260 X-0.9852 Y-0.6132 Z-0.2013
N13265 X-0.9865 Y-0.614 Z-0.1977
N13270 X-0.9873 Y-0.6145 Z-0.1939
N13275 X-0.9875 Y-0.6146 Z-0.19
N13280 G0 Z0.6
N13285 G53 Z0.
N13290 M30
%
