%
(ROMEO1 FACE BOTTOM AND GROOVE)
(T1  D=0.25 CR=0. - ZMIN=-0.046 - FLAT END MILL)
N10 G90 G94 G17 G91.1
N15 G20
N20 G53 G0 Z0.
(FACE2)
N25 T1 M6
N30 S4000 M3
N35 G54
N40 G0 X1.0779 Y-0.4679
N45 G43 Z0.76 H1
N50 G0 Z0.36
N55 G1 Z0.1825 F15.
N60 G18 G3 X1.0529 Z0.1575 I-0.025 K0.
N65 G1 X0.9185
N70 X-0.9185
N75 G17 G2 Y-0.2372 I0. J0.1153
N80 G1 X0.9078
N85 X0.9185
N90 G3 Y-0.0065 I0. J0.1154
N95 G1 X-0.9185
N100 G2 Y0.2242 I0. J0.1153
N105 G1 X0.9185
N110 G3 Y0.4549 I0. J0.1153
N115 G1 X-0.9185
N120 G18 G3 X-0.9435 Z0.1825 I0. K0.025
N125 G0 Z0.36
N130 X-1.0779 Y-0.4679
N135 G1 Z0.1431 F15.
N140 G2 X-1.0529 Z0.1181 I0.025 K0.
N145 G1 X-0.9185
N150 X0.9185
N155 G17 G3 Y-0.2372 I0. J0.1153
N160 G1 X0.9078
N165 X-0.9185
N170 G2 Y-0.0065 I0. J0.1154
N175 G1 X0.9185
N180 G3 Y0.2242 I0. J0.1153
N185 G1 X-0.9185
N190 G2 Y0.4549 I0. J0.1153
N195 G1 X0.9185
N200 G18 G2 X0.9435 Z0.1431 I0. K0.025
N205 G0 Z0.36
N210 X1.0779 Y-0.4679
N215 G1 Z0.1037 F15.
N220 G3 X1.0529 Z0.0787 I-0.025 K0.
N225 G1 X0.9185
N230 X-0.9185
N235 G17 G2 Y-0.2372 I0. J0.1153
N240 G1 X0.9078
N245 X0.9185
N250 G3 Y-0.0065 I0. J0.1154
N255 G1 X-0.9185
N260 G2 Y0.2242 I0. J0.1153
N265 G1 X0.9185
N270 G3 Y0.4549 I0. J0.1153
N275 G1 X-0.9185
N280 G18 G3 X-0.9435 Z0.1037 I0. K0.025
N285 G0 Z0.36
N290 X-1.0779 Y-0.4679
N295 G1 Z0.0644 F15.
N300 G2 X-1.0529 Z0.0394 I0.025 K0.
N305 G1 X-0.9185
N310 X0.9185
N315 G17 G3 Y-0.2372 I0. J0.1153
N320 G1 X0.9078
N325 X-0.9185
N330 G2 Y-0.0065 I0. J0.1154
N335 G1 X0.9185
N340 G3 Y0.2242 I0. J0.1153
N345 G1 X-0.9185
N350 G2 Y0.4549 I0. J0.1153
N355 G1 X0.9185
N360 G18 G2 X0.9435 Z0.0644 I0. K0.025
N365 G0 Z0.36
N370 X1.0779 Y-0.4679
N375 G1 Z0.025 F15.
N380 G3 X1.0529 Z0. I-0.025 K0.
N385 G1 X0.9185
N390 X-0.9185
N395 G17 G2 Y-0.2372 I0. J0.1153
N400 G1 X0.9078
N405 X0.9185
N410 G3 Y-0.0065 I0. J0.1154
N415 G1 X-0.9185
N420 G2 Y0.2242 I0. J0.1153
N425 G1 X0.9185
N430 G3 Y0.4549 I0. J0.1153
N435 G1 X-0.9185
N440 G18 G3 X-0.9435 Z0.025 I0. K0.025
N445 G0 Z0.76
N450 G17
(HORIZONTAL2)
N455 G0 X0.8993 Y-0.2719
N460 Z0.76
N465 Z0.0394
N470 G1 Z0.0203 F15.
N475 X0.8994 Z0.0177 F5.
N480 X0.8998 Y-0.272 Z0.0151
N485 X0.9006 Y-0.2722 Z0.0122
N490 X0.9017 Y-0.2725 Z0.0094
N495 X0.9032 Y-0.2729 Z0.0067
N500 X0.9053 Y-0.2736 Z0.0038
N505 X0.9078 Y-0.2743 Z0.0012
N510 X0.9103 Y-0.2753 Z-0.0007
N515 X0.913 Y-0.2762 Z-0.0023
N520 X0.9158 Y-0.2773 Z-0.0035
N525 X0.9188 Y-0.2787 Z-0.0043
N530 X0.9219 Y-0.2801 Z-0.0047
N535 X0.9238 Y-0.2809
N540 X0.9318 Y-0.2852 Z-0.0051
N545 X0.9377 Y-0.2889 Z-0.0053
N550 X0.9398 Y-0.2903 Z-0.0054
N555 X0.9478 Y-0.2964 Z-0.0057
N560 X0.9484 Y-0.2969 Z-0.0058
N565 X0.9558 Y-0.3035 Z-0.0061
N570 X0.9571 Y-0.3048 Z-0.0062
N575 X0.9638 Y-0.3121 Z-0.0065
N580 X0.9665 Y-0.3153 Z-0.0067
N585 X0.9684 Y-0.3179 Z-0.0068
N590 X0.9685 Y-0.3178
N595 Y-0.1363 Z-0.0131
N600 X0.9684 Y-0.1362
N605 X0.9679 Y-0.1371 Z-0.0132
N610 X0.9634 Y-0.1451 Z-0.0135
N615 X0.9586 Y-0.1531 Z-0.0138
N620 X0.9558 Y-0.1577 Z-0.014
N625 X0.9535 Y-0.1611 Z-0.0141
N630 X0.9475 Y-0.1691 Z-0.0145
N635 X0.9412 Y-0.1771 Z-0.0148
N640 X0.9398 Y-0.1788 Z-0.0149
N645 X0.9343 Y-0.1851 Z-0.0152
N650 X0.9318 Y-0.1876 Z-0.0153
N655 X0.9238 Y-0.1956 Z-0.0157
N660 X0.9181 Y-0.201 Z-0.016
N665 X0.9158 Y-0.2031 Z-0.0161
N670 X0.9078 Y-0.2094 Z-0.0165
N675 X0.8998 Y-0.2157 Z-0.0168
N680 X0.898 Y-0.217 Z-0.0169
N685 X0.8918 Y-0.2211 Z-0.0172
N690 X0.8838 Y-0.226 Z-0.0175
N695 X0.8758 Y-0.2307 Z-0.0178
N700 X0.8716 Y-0.233 Z-0.018
N705 X0.8679 Y-0.2348 Z-0.0181
N710 X0.8542 Y-0.241 Z-0.0186
N715 X0.8519 Y-0.242 Z-0.0187
N720 X0.8439 Y-0.245 Z-0.019
N725 X0.8312 Y-0.2489 Z-0.0195
N730 X0.8279 Y-0.25 Z-0.0196
N735 X0.8199 Y-0.252 Z-0.0199
N740 X0.8119 Y-0.2536 Z-0.0202
N745 X0.8039 Y-0.2551 Z-0.0205
N750 X0.7959 Y-0.2563 Z-0.0208
N755 X0.7898 Y-0.2569 Z-0.021
N760 X0.7799 Y-0.2575 Z-0.0213
N765 X0.7719 Y-0.258 Z-0.0216
N770 X0.764 Z-0.0219
N775 X0.584 Z-0.0282
N780 X0.5839 Y-0.2581
N785 X0.5841 Y-0.2597
N790 X0.5843 Y-0.2615 Z-0.0283
N795 Y-0.2632
N800 Y-0.2649 Z-0.0284
N805 X0.584 Y-0.2672 Z-0.0285
N810 X0.5839 Y-0.2679
N815 X0.584 Y-0.268
N820 X0.8679 Z-0.0384
N825 X0.8758 Y-0.2682 Z-0.0387
N830 X0.8838 Y-0.2689 Z-0.039
N835 X0.8918 Y-0.2702 Z-0.0393
N840 X0.8998 Y-0.272 Z-0.0396
N845 X0.9032 Y-0.2729 Z-0.0397
N850 X0.9078 Y-0.2743 Z-0.0398
N855 X0.9158 Y-0.2773 Z-0.0401
N860 X0.9238 Y-0.2809 Z-0.0405
N865 X0.9318 Y-0.2852 Z-0.0408
N870 X0.9377 Y-0.2889 Z-0.041
N875 X0.9398 Y-0.2903 Z-0.0411
N880 X0.9478 Y-0.2964 Z-0.0414
N885 X0.9484 Y-0.2969 Z-0.0415
N890 X0.9558 Y-0.3035 Z-0.0418
N895 X0.9571 Y-0.3048 Z-0.0419
N900 X0.9638 Y-0.3121 Z-0.0422
N905 X0.9665 Y-0.3153 Z-0.0424
N910 X0.9684 Y-0.3179 Z-0.0425
N915 X0.9685 Y-0.3178
N920 Y-0.2175 Z-0.046
N925 Y-0.1363 F15.
N930 X0.9684 Y-0.1362
N935 X0.9679 Y-0.1371
N940 X0.9634 Y-0.1451
N945 X0.9586 Y-0.1531
N950 X0.9558 Y-0.1577
N955 X0.9535 Y-0.1611
N960 X0.9475 Y-0.1691
N965 X0.9412 Y-0.1771
N970 X0.9398 Y-0.1788
N975 X0.9343 Y-0.1851
N980 X0.9318 Y-0.1876
N985 X0.9238 Y-0.1956
N990 X0.9181 Y-0.201
N995 X0.9158 Y-0.2031
N1000 X0.9078 Y-0.2094
N1005 X0.8998 Y-0.2157
N1010 X0.898 Y-0.217
N1015 X0.8918 Y-0.2211
N1020 X0.8838 Y-0.226
N1025 X0.8758 Y-0.2307
N1030 X0.8716 Y-0.233
N1035 X0.8679 Y-0.2348
N1040 X0.8542 Y-0.241
N1045 X0.8519 Y-0.242
N1050 X0.8439 Y-0.245
N1055 X0.8312 Y-0.2489
N1060 X0.8279 Y-0.25
N1065 X0.8199 Y-0.252
N1070 X0.8119 Y-0.2536
N1075 X0.8039 Y-0.2551
N1080 X0.7959 Y-0.2563
N1085 X0.7898 Y-0.2569
N1090 X0.7799 Y-0.2575
N1095 X0.7719 Y-0.258
N1100 X0.764
N1105 X0.584
N1110 X0.5839 Y-0.2581
N1115 X0.5841 Y-0.2597
N1120 X0.5843 Y-0.2615
N1125 Y-0.2632
N1130 Y-0.2649
N1135 X0.584 Y-0.2672
N1140 X0.5839 Y-0.2679
N1145 X0.584 Y-0.268
N1150 X0.8679
N1155 X0.8758 Y-0.2682
N1160 X0.8838 Y-0.2689
N1165 X0.8918 Y-0.2702
N1170 X0.8998 Y-0.272
N1175 X0.9032 Y-0.2729
N1180 X0.9078 Y-0.2743
N1185 X0.9158 Y-0.2773
N1190 X0.9238 Y-0.2809
N1195 X0.9318 Y-0.2852
N1200 X0.9377 Y-0.2889
N1205 X0.9398 Y-0.2903
N1210 X0.9478 Y-0.2964
N1215 X0.9484 Y-0.2969
N1220 X0.9558 Y-0.3035
N1225 X0.9571 Y-0.3048
N1230 X0.9638 Y-0.3121
N1235 X0.9665 Y-0.3153
N1240 X0.9684 Y-0.3179
N1245 X0.9685 Y-0.3178
N1250 Y-0.2175
N1255 G19 G3 Y-0.1925 Z-0.021 J0. K0.025
N1260 G0 Z0.76
N1265 G17
N1270 G53 G0 Z0.
N1275 M30
%
