%
(ROMEO1 DRILL .125 HOLES)
(T8  D=0.125 CR=0. TAPER=118DEG - ZMIN=-0.1326 - DRILL)
N10 G90 G94 G17 G91.1
N15 G20
N20 G53 G0 Z0.
(DRILL4)
N25 T8 M6
N30 S4000 M3
N35 G54
N40 M8
N45 G0 X0.3585 Y0.
N50 G43 Z0.5 H8
N55 G0 Z0.2
N60 Z0.1
N65 Z0.08
N70 G1 Z-0.0312 F1.667
N75 G0 Z-0.0272
N80 G1 Z-0.0625 F1.667
N85 G0 Z-0.0585
N90 G1 Z-0.0937 F1.667
N95 G0 Z-0.0897
N100 G1 Z-0.125 F1.667
N105 G0 Z-0.121
N110 G1 Z-0.1326 F1.667
N115 G0 Z0.2
N120 X-0.1545 Y-0.002
N125 Z0.1
N130 Z0.08
N135 G1 Z-0.0312 F1.667
N140 G0 Z-0.0272
N145 G1 Z-0.0625 F1.667
N150 G0 Z-0.0585
N155 G1 Z-0.0937 F1.667
N160 G0 Z-0.0897
N165 G1 Z-0.125 F1.667
N170 G0 Z-0.121
N175 G1 Z-0.1326 F1.667
N180 G0 Z0.2
N185 X-0.2965 Y-0.22
N190 Z0.1
N195 Z0.08
N200 G1 Z-0.0312 F1.667
N205 G0 Z-0.0272
N210 G1 Z-0.0625 F1.667
N215 G0 Z-0.0585
N220 G1 Z-0.0937 F1.667
N225 G0 Z-0.0897
N230 G1 Z-0.125 F1.667
N235 G0 Z-0.121
N240 G1 Z-0.1326 F1.667
N245 G0 Z0.2
N250 X-0.5525 Y-0.198
N255 Z0.1
N260 Z0.08
N265 G1 Z-0.0312 F1.667
N270 G0 Z-0.0272
N275 G1 Z-0.0625 F1.667
N280 G0 Z-0.0585
N285 G1 Z-0.0937 F1.667
N290 G0 Z-0.0897
N295 G1 Z-0.125 F1.667
N300 G0 Z-0.121
N305 G1 Z-0.1326 F1.667
N310 G0 Z0.2
N315 Y0.198
N320 Z0.1
N325 Z0.08
N330 G1 Z-0.0312 F1.667
N335 G0 Z-0.0272
N340 G1 Z-0.0625 F1.667
N345 G0 Z-0.0585
N350 G1 Z-0.0937 F1.667
N355 G0 Z-0.0897
N360 G1 Z-0.125 F1.667
N365 G0 Z-0.121
N370 G1 Z-0.1326 F1.667
N375 G0 Z0.2
N380 Z0.5
N385 M9
N390 G53 Z0.
N395 M30
%
