%
(ROMEO1 SPOT DRILL ALL HOLES)
(T6  D=0.25 CR=0. TAPER=118DEG - ZMIN=-0.03 - DRILL)
N10 G90 G94 G17 G91.1
N15 G20
N20 G53 G0 Z0.
(DRILL4 2)
N25 T6 M6
N30 S4000 M3
N35 G54
N40 M8
N45 G0 X0.2405 Y0.2735
N50 G43 Z0.5 H6
N55 G0 Z0.1
N60 G98 G82 X0.2405 Y0.2735 Z-0.03 R0.1 P0.5 F3.
N65 X0.3585 Y0.
N70 X0.2405 Y-0.2735
N75 X-0.1545 Y-0.002
N80 X-0.2965 Y-0.22
N85 X-0.5525 Y-0.198
N90 Y0.198
N95 G80
N100 G0 Z0.5
N105 M9
N110 G53 Z0.
N115 M30
%
