%
(ROMEO1 LONG EDGE .05)
(T1  D=0.25 CR=0. - ZMIN=-0.05 - FLAT END MILL)
N10 G90 G94 G17 G91.1
N15 G20
N20 G53 G0 Z0.
(2D ADAPTIVE5)
N25 T1 M6
N30 S4000 M3
N35 G54
N40 G0 X-0.0258 Y-0.287
N45 G43 Z0.6 H1
N50 G0 Z0.2
N55 Z0.
N60 G1 Z-0.025 F15.
N65 X-0.0257 Y-0.2867 Z-0.0289
N70 X-0.0255 Y-0.2858 Z-0.0327
N75 X-0.0251 Y-0.2844 Z-0.0363
N80 X-0.0246 Y-0.2824 Z-0.0397
N85 X-0.024 Y-0.2799 Z-0.0427
N90 X-0.0232 Y-0.277 Z-0.0452
N95 X-0.0224 Y-0.2738 Z-0.0473
N100 X-0.0215 Y-0.2703 Z-0.0488
N105 X-0.0205 Y-0.2666 Z-0.0497
N110 X-0.0196 Y-0.2628 Z-0.05
N115 G3 X0. Y-0.1267 I-0.6183 J0.1584
N120 G1 Y-0.1207
N125 X-0.0072 Y-0.0853
N130 X-0.0124 Y-0.0494
N135 X-0.0161 Y-0.0135
N140 X-0.0187 Y0.0226
N145 X-0.0206 Y0.0588
N150 X-0.0219 Y0.0949
N155 X-0.0228 Y0.1311
N160 X-0.0234 Y0.1673
N165 X-0.0239 Y0.2035
N170 X-0.0242 Y0.2396
N175 X-0.0243 Y0.2577
N180 X-0.0216 Y0.2756
N185 X-0.0137 Y0.2919
N190 X0.0079 Y0.3209
N195 X0.0368 Y0.3427
N200 X0.0691 Y0.3589
N205 X0.1034 Y0.3706
N210 X0.1385 Y0.3791
N215 X0.1742 Y0.3852
N220 X0.2101 Y0.3895
N225 X0.2462 Y0.3926
N230 X0.2823 Y0.3948
N235 X0.3185 Y0.3963
N240 X0.3546 Y0.3974
N245 X0.3908 Y0.3982
N250 X0.427 Y0.3987
N255 X0.4631 Y0.3991
N260 X0.4993 Y0.3994
N265 X0.5355 Y0.3995
N270 X0.6079 Y0.3998
N275 X0.7164 Y0.3999
N280 X0.9335 Y0.4
N285 X1.5124
N290 X1.8833
N295 X1.9012 Y0.3972
N300 X1.9174 Y0.3892
N305 X1.9462 Y0.3674
N310 X1.968 Y0.3385
N315 X1.9841 Y0.3061
N320 X1.9958 Y0.2718
N325 X2.0042 Y0.2366
N330 X2.0102 Y0.201
N335 X2.0146 Y0.165
N340 X2.0176 Y0.129
N345 X2.0182 Y0.12
N350 X2.0174 Y0.111
N355 X2.0131 Y0.0934
N360 X1.995 Y0.0621
N365 X1.9678 Y0.0382
N370 X1.9362 Y0.0205
N375 X1.9025 Y0.0075
N380 X1.8675 Y-0.0018
N385 X1.832 Y-0.0085
N390 X1.7961 Y-0.0133
N395 X1.7601 Y-0.0168
N400 X1.724 Y-0.0192
N405 X1.6878 Y-0.0209
N410 X1.6517 Y-0.0221
N415 X1.6155 Y-0.023
N420 X1.5793 Y-0.0236
N425 X1.5431 Y-0.024
N430 X1.507 Y-0.0243
N435 X1.4708 Y-0.0245
N440 X1.4346 Y-0.0246
N445 X1.3622 Y-0.0248
N450 X1.2537 Y-0.0249
N455 X0.9642 Y-0.025
N460 X0.7833
N465 X0.2225
N470 X0.2047 Y-0.0217
N475 X0.172 Y-0.0061
N480 X0.1465 Y0.0194
N485 X0.1271 Y0.05
N490 X0.1128 Y0.0832
N495 X0.1022 Y0.1179
N500 X0.1005 Y0.1359
N505 X0.1036 Y0.1537
N510 X0.117 Y0.1873
N515 X0.1405 Y0.2148
N520 X0.1696 Y0.2364
N525 X0.2018 Y0.2529
N530 X0.2357 Y0.2653
N535 X0.2707 Y0.2746
N540 X0.3062 Y0.2814
N545 X0.3421 Y0.2865
N550 X0.3781 Y0.2902
N555 X0.4141 Y0.2929
N560 X0.4503 Y0.2948
N565 X0.4864 Y0.2963
N570 X0.5226 Y0.2973
N575 X0.5588 Y0.298
N580 X0.5949 Y0.2986
N585 X0.6311 Y0.299
N590 X0.6673 Y0.2993
N595 X0.7035 Y0.2995
N600 X0.7397 Y0.2996
N605 X0.812 Y0.2998
N610 X0.9206 Y0.2999
N615 X1.1739 Y0.3
N620 X1.2462
N625 X1.2824
N630 X1.2914 Y0.2993
N635 X1.3047 Y0.2984
N640 X1.3197 Y0.2975
N645 X1.3367 Y0.2966
N650 X1.3565 Y0.2957
N655 X1.3802 Y0.2948
N660 X1.4094 Y0.2939
N665 X1.4456 Y0.2931
N670 X1.4818 Y0.2925
N675 X1.518 Y0.292
N680 X1.5542 Y0.2917
N685 X1.5903 Y0.2915
N690 X1.6265 Y0.2914
N695 X1.6989 Y0.2912
N700 X1.7532 Y0.2911
N705 X1.7709 Y0.2874
N710 X1.8042 Y0.2732
N715 X1.8314 Y0.2494
N720 X1.8367 Y0.2421
N725 X1.8408 Y0.234
N730 X1.8436 Y0.2254
N735 X1.8451 Y0.2165
N740 X1.8452 Y0.2075
N745 X1.8438 Y0.1985
N750 X1.8411 Y0.1899
N755 X1.8371 Y0.1818
N760 X1.8319 Y0.1744
N765 X1.8067 Y0.1484
N770 X1.7748 Y0.1314
N775 X1.7409 Y0.1187
N780 X1.7059 Y0.1094
N785 X1.6704 Y0.1025
N790 X1.6346 Y0.0974
N795 X1.5986 Y0.0938
N800 X1.5625 Y0.0911
N805 X1.5264 Y0.0891
N810 X1.4902 Y0.0877
N815 X1.4541 Y0.0867
N820 X1.4179 Y0.0859
N825 X1.3817 Y0.0854
N830 X1.3455 Y0.085
N835 X1.3094 Y0.0847
N840 X1.2732 Y0.0845
N845 X1.237 Y0.0844
N850 X1.1646 Y0.0842
N855 X1.0561 Y0.0841
N860 X0.8028 Y0.084
N865 X0.5495
N870 X0.3505
N875 X0.3461 Y0.0848
N880 G3 X0.3202 Y0.0719 I-0.0038 J-0.0247
N885 G1 X0.3183 Y0.0684 Z-0.0497
N890 X0.3166 Y0.065 Z-0.0488
N895 X0.3149 Y0.0618 Z-0.0473
N900 X0.3133 Y0.0589 Z-0.0452
N905 X0.3119 Y0.0562 Z-0.0427
N910 X0.3107 Y0.054 Z-0.0397
N915 X0.3097 Y0.0522 Z-0.0363
N920 X0.309 Y0.0509 Z-0.0327
N925 X0.3086 Y0.0501 Z-0.0289
N930 X0.3085 Y0.0498 Z-0.025
N935 G0 Z0.6
N940 G53 Z0.
N945 M30
%
