%
(ROMEO1 BORE AND CONTOUR)
(T2  D=0.125 CR=0. - ZMIN=-0.095 - FLAT END MILL)
N10 G90 G94 G17 G91.1
N15 G20
N20 G53 G0 Z0.
(BORE1)
N25 T2 M6
N30 S4000 M3
N35 G54
N40 G0 X-0.1545 Y-0.002
N45 G43 Z0.6 H2
N50 G0 Z0.08
N55 G1 Z0. F5.
N60 X-0.1517 Y-0.0048
N65 X-0.1507 Y-0.0045
N70 X-0.1498 Y-0.0039
N75 X-0.1492 Y-0.0031
N80 X-0.149 Y-0.002
N85 G3 X-0.16 Z-0.0024 I-0.0055 J0.
N90 X-0.149 Z-0.0047 I0.0055 J0.
N95 X-0.16 Z-0.0071 I-0.0055 J0.
N100 X-0.149 Z-0.0095 I0.0055 J0.
N105 X-0.16 Z-0.0119 I-0.0055 J0.
N110 X-0.149 Z-0.0142 I0.0055 J0.
N115 X-0.16 Z-0.0166 I-0.0055 J0.
N120 X-0.149 Z-0.019 I0.0055 J0.
N125 X-0.16 Z-0.0214 I-0.0055 J0.
N130 X-0.149 Z-0.0237 I0.0055 J0.
N135 X-0.16 Z-0.0261 I-0.0055 J0.
N140 X-0.149 Z-0.0285 I0.0055 J0.
N145 X-0.16 Z-0.0309 I-0.0055 J0.
N150 X-0.149 Z-0.0332 I0.0055 J0.
N155 X-0.16 Z-0.0356 I-0.0055 J0.
N160 X-0.149 Z-0.038 I0.0055 J0.
N165 X-0.16 Z-0.0404 I-0.0055 J0.
N170 X-0.149 Z-0.0427 I0.0055 J0.
N175 X-0.16 Z-0.0451 I-0.0055 J0.
N180 X-0.149 Z-0.0475 I0.0055 J0.
N185 X-0.16 Z-0.0499 I-0.0055 J0.
N190 X-0.149 Z-0.0522 I0.0055 J0.
N195 X-0.16 Z-0.0546 I-0.0055 J0.
N200 X-0.149 Z-0.057 I0.0055 J0.
N205 X-0.16 Z-0.0594 I-0.0055 J0.
N210 X-0.149 Z-0.0617 I0.0055 J0.
N215 X-0.16 Z-0.0641 I-0.0055 J0.
N220 X-0.149 Z-0.0665 I0.0055 J0.
N225 X-0.16 Z-0.0689 I-0.0055 J0.
N230 X-0.149 Z-0.0712 I0.0055 J0.
N235 X-0.16 Z-0.0736 I-0.0055 J0.
N240 X-0.149 Z-0.076 I0.0055 J0.
N245 X-0.16 Z-0.0784 I-0.0055 J0.
N250 X-0.149 Z-0.0807 I0.0055 J0.
N255 X-0.16 Z-0.0831 I-0.0055 J0.
N260 X-0.149 Z-0.0855 I0.0055 J0.
N265 X-0.16 Z-0.0879 I-0.0055 J0.
N270 X-0.149 Z-0.0902 I0.0055 J0.
N275 X-0.16 Z-0.0926 I-0.0055 J0.
N280 X-0.1544 Y-0.0075 Z-0.0938 I0.0055 J0.
N285 X-0.149 Y-0.0019 Z-0.095 I-0.0001 J0.0055
N290 X-0.16 Y-0.0021 I-0.0055 J-0.0001
N295 X-0.149 Y-0.0019 I0.0055 J0.0001
N300 G1 X-0.1492 Y-0.0008
N305 X-0.1498 Y0.
N310 X-0.1508 Y0.0006
N315 X-0.1518 Y0.0008
N320 X-0.1545 Y-0.002
N325 G0 Z0.2
N330 Z-0.015
N335 G1 Z-0.095 F5.
N340 X-0.1455 Y-0.011
N345 G3 X-0.1365 Y-0.002 I0. J0.009
N350 X-0.1725 I-0.018 J0.
N355 X-0.1365 I0.018 J0.
N360 X-0.1455 Y0.007 I-0.009 J0.
N365 G1 X-0.1545 Y-0.002
N370 G0 Z0.2
N375 X-0.2965 Y-0.22
N380 Z0.08
N385 G1 Z0. F5.
N390 X-0.2893 Y-0.2273
N395 G3 X-0.282 Y-0.22 I0. J0.0073
N400 X-0.311 Z-0.0027 I-0.0145 J0.
N405 X-0.282 Z-0.0054 I0.0145 J0.
N410 X-0.311 Z-0.0081 I-0.0145 J0.
N415 X-0.282 Z-0.0108 I0.0145 J0.
N420 X-0.311 Z-0.0134 I-0.0145 J0.
N425 X-0.282 Z-0.0161 I0.0145 J0.
N430 X-0.311 Z-0.0188 I-0.0145 J0.
N435 X-0.282 Z-0.0215 I0.0145 J0.
N440 X-0.311 Z-0.0242 I-0.0145 J0.
N445 X-0.282 Z-0.0269 I0.0145 J0.
N450 X-0.311 Z-0.0296 I-0.0145 J0.
N455 X-0.282 Z-0.0323 I0.0145 J0.
N460 X-0.311 Z-0.035 I-0.0145 J0.
N465 X-0.282 Z-0.0376 I0.0145 J0.
N470 X-0.311 Z-0.0403 I-0.0145 J0.
N475 X-0.282 Z-0.043 I0.0145 J0.
N480 X-0.311 Z-0.0457 I-0.0145 J0.
N485 X-0.282 Z-0.0484 I0.0145 J0.
N490 X-0.311 Z-0.0511 I-0.0145 J0.
N495 X-0.282 Z-0.0538 I0.0145 J0.
N500 X-0.311 Z-0.0565 I-0.0145 J0.
N505 X-0.282 Z-0.0592 I0.0145 J0.
N510 X-0.311 Z-0.0618 I-0.0145 J0.
N515 X-0.282 Z-0.0645 I0.0145 J0.
N520 X-0.311 Z-0.0672 I-0.0145 J0.
N525 X-0.282 Z-0.0699 I0.0145 J0.
N530 X-0.311 Z-0.0726 I-0.0145 J0.
N535 X-0.282 Z-0.0753 I0.0145 J0.
N540 X-0.311 Z-0.078 I-0.0145 J0.
N545 X-0.282 Z-0.0807 I0.0145 J0.
N550 X-0.311 Z-0.0834 I-0.0145 J0.
N555 X-0.282 Z-0.086 I0.0145 J0.
N560 X-0.311 Z-0.0887 I-0.0145 J0.
N565 X-0.282 Z-0.0914 I0.0145 J0.
N570 X-0.311 Z-0.0941 I-0.0145 J0.
N575 X-0.3039 Y-0.2325 Z-0.095 I0.0145 J0.
N580 X-0.2891 Y-0.2075 I0.0074 J0.0125
N585 X-0.3039 Y-0.2325 I-0.0074 J-0.0125
N590 X-0.2939 Y-0.2299 I0.0037 J0.0062
N595 G1 X-0.2965 Y-0.22
N600 G0 Z0.2
N605 Z-0.015
N610 G1 Z-0.095 F5.
N615 X-0.282 Y-0.2325
N620 G3 X-0.2695 Y-0.22 I0. J0.0125
N625 X-0.3235 I-0.027 J0.
N630 X-0.2695 I0.027 J0.
N635 X-0.282 Y-0.2075 I-0.0125 J0.
N640 G1 X-0.2965 Y-0.22
N645 G0 Z0.6
(2D CONTOUR1)
N650 M8
N655 G0 X-0.929 Y-0.0181
N660 Z0.6
N665 Z0.2
N670 G1 Z0.0394 F3.333
N675 Z-0.0825
N680 X-0.9288 Y-0.0178 Z-0.0853
N685 X-0.9282 Y-0.0172 Z-0.0879
N690 X-0.9271 Y-0.0161 Z-0.0903
N695 X-0.9258 Y-0.0147 Z-0.0923
N700 X-0.9241 Y-0.013 Z-0.0938
N705 X-0.9223 Y-0.0111 Z-0.0947
N710 X-0.9204 Y-0.0091 Z-0.095
N715 X-0.9117 Y-0.0001 F10.
N720 G3 X-0.912 Y0.0176 I-0.009 J0.0087
N725 G2 X-0.931 Y0.0625 I0.0435 J0.0449
N730 G1 Y0.426
N735 G2 X-0.7685 Y0.5885 I0.1625 J0.
N740 G1 X0.7685
N745 G2 X0.931 Y0.426 I0. J-0.1625
N750 G1 Y-0.426
N755 G2 X0.7685 Y-0.5885 I-0.1625 J0.
N760 G1 X-0.7685
N765 G2 X-0.931 Y-0.426 I0. J0.1625
N770 G1 Y-0.0625
N775 G2 X-0.8685 Y0. I0.0625 J0.
N780 G1 X-0.7285
N785 X-0.8685
N790 G2 X-0.912 Y0.0176 I0. J0.0625
N795 G3 X-0.9296 Y0.0173 I-0.0087 J-0.009
N800 G1 X-0.9383 Y0.0083
N805 X-0.9403 Y0.0063 Z-0.0947
N810 X-0.9421 Y0.0044 Z-0.0938
N815 X-0.9437 Y0.0027 Z-0.0923
N820 X-0.9451 Y0.0013 Z-0.0903
N825 X-0.9462 Y0.0002 Z-0.0879
N830 X-0.9468 Y-0.0005 Z-0.0853
N835 X-0.947 Y-0.0007 Z-0.0825
N840 G0 Z0.6
N845 M9
N850 G53 Z0.
N855 M30
%
