%
(ROMEO1 JIG POSTS)
(T1  D=0.118 CR=0. TAPER=118DEG - ZMIN=-0.1355 - DRILL)
N10 G90 G94 G17 G91.1
N15 G20
N20 G53 G0 Z0.
(DRILL1)
N25 T1 M6
N30 S4000 M3
N35 G54
N40 M8
N45 G0 X0.751 Y-0.381
N50 G43 Z0.6 H1
N55 G0 Z0.2
N60 Z0.08
N65 G1 Z-0.0295 F10.
N70 G0 Z-0.0255
N75 G1 Z-0.059 F10.
N80 G0 Z-0.055
N85 G1 Z-0.0885 F10.
N90 G0 Z-0.0845
N95 G1 Z-0.118 F10.
N100 G0 Z-0.114
N105 G1 Z-0.1355 F10.
N110 G0 Z0.2
N115 Y0.381
N120 Z0.08
N125 G1 Z-0.0295 F10.
N130 G0 Z-0.0255
N135 G1 Z-0.059 F10.
N140 G0 Z-0.055
N145 G1 Z-0.0885 F10.
N150 G0 Z-0.0845
N155 G1 Z-0.118 F10.
N160 G0 Z-0.114
N165 G1 Z-0.1355 F10.
N170 G0 Z0.2
N175 Z0.6
N180 M9
N185 G53 Z0.
N190 M30
%
