%
(ROMEO1 COUNTER SINK)
(T7  D=0.25 CR=0. TAPER=45DEG - ZMIN=-0.1 - CHAMFER MILL)
N10 G90 G94 G17 G91.1
N15 G20
N20 G53 G0 Z0.
(2D CHAMFER1)
N25 T7 M6
N30 S4000 M3
N35 G54
N40 G0 X0.373 Y0.0004
N45 G43 Z0.6 H7
N50 G0 Z0.2
N55 G1 Z0.08 F5.
N60 Z-0.1
N65 X0.398 Y0.001
N70 G3 X0.319 Y-0.001 I-0.0395 J-0.001
N75 X0.398 Y0.001 I0.0395 J0.001
N80 G1 X0.373 Y0.0004
N85 G0 Z0.2
N90 X-0.538 Y0.198
N95 G1 Z0.08 F5.
N100 Z-0.1
N105 X-0.513
N110 G3 X-0.592 I-0.0395 J0.
N115 X-0.513 I0.0395 J0.
N120 G1 X-0.538
N125 G0 Z0.2
N130 Y-0.198
N135 G1 Z0.08 F5.
N140 Z-0.1
N145 X-0.513
N150 G3 X-0.592 I-0.0395 J0.
N155 X-0.513 I0.0395 J0.
N160 G1 X-0.538
N165 G0 Z0.6
N170 G53 Z0.
N175 M30
%
