%
(ROMEO1 SHORT EDGE .05)
(T1  D=0.25 CR=0. - ZMIN=-0.05 - FLAT END MILL)
N10 G90 G94 G17 G91.1
N15 G20
N20 G53 G0 Z0.
(2D ADAPTIVE5 2)
N25 T1 M6
N30 S4000 M3
N35 G54
N40 G0 X-0.0258 Y-0.287
N45 G43 Z0.6 H1
N50 G0 Z0.2
N55 Z0.
N60 G1 Z-0.025 F15.
N65 X-0.0257 Y-0.2867 Z-0.0289
N70 X-0.0255 Y-0.2858 Z-0.0327
N75 X-0.0251 Y-0.2844 Z-0.0363
N80 X-0.0246 Y-0.2824 Z-0.0397
N85 X-0.024 Y-0.2799 Z-0.0427
N90 X-0.0232 Y-0.277 Z-0.0452
N95 X-0.0224 Y-0.2738 Z-0.0473
N100 X-0.0215 Y-0.2703 Z-0.0488
N105 X-0.0205 Y-0.2666 Z-0.0497
N110 X-0.0196 Y-0.2628 Z-0.05
N115 G3 X0. Y-0.1267 I-0.6183 J0.1584
N120 G1 Y-0.1207
N125 X-0.0072 Y-0.0853
N130 X-0.0124 Y-0.0494
N135 X-0.0161 Y-0.0135
N140 X-0.0187 Y0.0226
N145 X-0.0206 Y0.0588
N150 X-0.0219 Y0.0949
N155 X-0.0228 Y0.1311
N160 X-0.0234 Y0.1673
N165 X-0.0239 Y0.2035
N170 X-0.0242 Y0.2396
N175 X-0.0243 Y0.2577
N180 X-0.0216 Y0.2756
N185 X-0.0137 Y0.2919
N190 X0.0079 Y0.3209
N195 X0.0368 Y0.3427
N200 X0.0691 Y0.3589
N205 X0.1034 Y0.3706
N210 X0.1385 Y0.3791
N215 X0.1742 Y0.3852
N220 X0.2101 Y0.3895
N225 X0.2462 Y0.3926
N230 X0.2823 Y0.3948
N235 X0.3185 Y0.3963
N240 X0.3546 Y0.3974
N245 X0.3908 Y0.3982
N250 X0.427 Y0.3987
N255 X0.4631 Y0.3991
N260 X0.4993 Y0.3994
N265 X0.5355 Y0.3995
N270 X0.6079 Y0.3998
N275 X0.7164 Y0.3999
N280 X0.9335 Y0.4
N285 X1.3858
N290 X1.4035 Y0.3961
N295 X1.4354 Y0.3792
N300 X1.4599 Y0.3526
N305 X1.4782 Y0.3213
N310 X1.4915 Y0.2877
N315 X1.5011 Y0.2528
N320 X1.508 Y0.2173
N325 X1.513 Y0.1814
N330 X1.5165 Y0.1454
N335 X1.5177 Y0.1274
N340 X1.5183 Y0.1183
N345 X1.5174 Y0.1093
N350 X1.5129 Y0.0918
N355 X1.4942 Y0.0609
N360 X1.4667 Y0.0373
N365 X1.435 Y0.0198
N370 X1.4012 Y0.007
N375 X1.3662 Y-0.0022
N380 X1.3306 Y-0.0088
N385 X1.2948 Y-0.0135
N390 X1.2587 Y-0.0169
N395 X1.2226 Y-0.0193
N400 X1.1865 Y-0.0209
N405 X1.1503 Y-0.0221
N410 X1.1141 Y-0.023
N415 X1.078 Y-0.0236
N420 X1.0418 Y-0.024
N425 X1.0056 Y-0.0243
N430 X0.9694 Y-0.0245
N435 X0.9332 Y-0.0246
N440 X0.8609 Y-0.0248
N445 X0.7523 Y-0.0249
N450 X0.4629 Y-0.025
N455 X0.2277
N460 X0.2097 Y-0.0236
N465 X0.1929 Y-0.0168
N470 X0.1626 Y0.003
N475 X0.1393 Y0.0306
N480 X0.1218 Y0.0623
N485 X0.1088 Y0.0961
N490 X0.1041 Y0.1135
N495 X0.101 Y0.1314
N500 X0.1029 Y0.1494
N505 X0.1147 Y0.1836
N510 X0.1373 Y0.2118
N515 X0.1658 Y0.2341
N520 X0.1977 Y0.2511
N525 X0.2315 Y0.264
N530 X0.2664 Y0.2736
N535 X0.3023 Y0.2781
N540 X0.3383 Y0.2815
N545 X0.3744 Y0.284
N550 X0.4106 Y0.2858
N555 X0.4467 Y0.2872
N560 X0.4829 Y0.2882
N565 X0.5191 Y0.289
N570 X0.5552 Y0.2895
N575 X0.5914 Y0.2899
N580 X0.6276 Y0.2902
N585 X0.6638 Y0.2904
N590 X0.7 Y0.2906
N595 X0.7723 Y0.2908
N600 X0.8809 Y0.2909
N605 X1.098 Y0.291
N610 X1.2427
N615 X1.2608 Y0.2898
N620 X1.2781 Y0.2847
N625 X1.3103 Y0.2682
N630 X1.3233 Y0.2557
N635 X1.3291 Y0.2487
N640 X1.3346 Y0.2415
N645 X1.3389 Y0.2335
N650 X1.3419 Y0.225
N655 X1.3436 Y0.2161
N660 X1.3438 Y0.2071
N665 X1.3427 Y0.1981
N670 X1.3402 Y0.1894
N675 X1.3363 Y0.1812
N680 X1.3313 Y0.1737
N685 X1.3067 Y0.1472
N690 X1.2746 Y0.1305
N695 X1.2406 Y0.1181
N700 X1.2056 Y0.1089
N705 X1.1701 Y0.1022
N710 X1.1342 Y0.0972
N715 X1.0982 Y0.0936
N720 X1.0621 Y0.091
N725 X1.026 Y0.089
N730 X0.9898 Y0.0876
N735 X0.9537 Y0.0866
N740 X0.9175 Y0.0859
N745 X0.8813 Y0.0854
N750 X0.8451 Y0.085
N755 X0.809 Y0.0847
N760 X0.7728 Y0.0845
N765 X0.7366 Y0.0844
N770 X0.6642 Y0.0842
N775 X0.5557 Y0.0841
N780 X0.3567 Y0.084
N785 X0.3522 Y0.0846
N790 X0.3477 Y0.0853
N795 G3 X0.322 Y0.072 I-0.0035 J-0.0248
N800 G1 X0.3203 Y0.0685 Z-0.0497
N805 X0.3185 Y0.0651 Z-0.0488
N810 X0.3169 Y0.0619 Z-0.0473
N815 X0.3153 Y0.0589 Z-0.0452
N820 X0.314 Y0.0562 Z-0.0427
N825 X0.3128 Y0.0539 Z-0.0397
N830 X0.3119 Y0.0521 Z-0.0363
N835 X0.3112 Y0.0508 Z-0.0327
N840 X0.3108 Y0.05 Z-0.0289
N845 X0.3107 Y0.0497 Z-0.025
N850 G0 Z0.6
N855 G53 Z0.
N860 M30
%
