%
(ROMEO1 JIG SCREW HOLE)
(T1  D=0.1695 CR=0. TAPER=118DEG - ZMIN=-0.8 - DRILL)
N10 G90 G94 G17 G91.1
N15 G20
N20 G53 G0 Z0.
(DRILL4)
N25 T1 M6
N30 S4000 M3
N35 G54
N40 M8
N45 G0 X-0.2965 Y0.22
N50 G43 Z0.6 H1
N55 G0 Z0.2
N60 Z0.08
N65 G1 Z-0.0424 F10.
N70 G0 Z-0.0384
N75 G1 Z-0.0848 F10.
N80 G0 Z-0.0808
N85 G1 Z-0.1271 F10.
N90 G0 Z-0.1231
N95 G1 Z-0.1695 F10.
N100 G0 Z-0.1655
N105 G1 Z-0.2119 F10.
N110 G0 Z-0.2079
N115 G1 Z-0.2543 F10.
N120 G0 Z-0.2503
N125 G1 Z-0.2966 F10.
N130 G0 Z-0.2926
N135 G1 Z-0.339 F10.
N140 G0 Z-0.335
N145 G1 Z-0.3814 F10.
N150 G0 Z-0.3774
N155 G1 Z-0.4238 F10.
N160 G0 Z-0.4198
N165 G1 Z-0.4661 F10.
N170 G0 Z0.2
N175 Z-0.3861
N180 G1 Z-0.5085 F10.
N185 G0 Z-0.5045
N190 G1 Z-0.5509 F10.
N195 G0 Z-0.5469
N200 G1 Z-0.5933 F10.
N205 G0 Z-0.5893
N210 G1 Z-0.6356 F10.
N215 G0 Z-0.6316
N220 G1 Z-0.678 F10.
N225 G0 Z-0.674
N230 G1 Z-0.7204 F10.
N235 G0 Z-0.7164
N240 G1 Z-0.7628 F10.
N245 G0 Z-0.7588
N250 G1 Z-0.8 F10.
N255 G0 Z0.2
N260 Z0.6
N265 M9
N270 G53 Z0.
N275 M30
%
