%
(ROUTER PANEL)
(T3  D=0.5 CR=0. - ZMIN=-0.499999992 - FLAT END MILL)
N10 G90 G94 G17 G91.1
N15 G20
N20 G53 G0 Z0.
(2D ADAPTIVE2)
N25 M9
N30 T3 M6
N35 S3000 M3
N40 G54
N45 M8
N50 G0 X0.051552686 Y0.053301332
N55 G43 Z0.599999991 H3
N60 G0 Z0.199999997
N65 Z-0.025
N70 G1 Z-0.074999999 F10.
N75 X0.051474673 Y0.053605889 Z-0.080598223
N80 X0.051241617 Y0.054515729 Z-0.086126046
N85 X0.050856447 Y0.056019411 Z-0.091513953
N90 X0.050324007 Y0.058098025 Z-0.096694186
N95 X0.049650993 Y0.060725432 Z-0.101601603
N100 X0.048845869 Y0.063868589 Z-0.10617449
N105 X0.04791876 Y0.067487971 Z-0.110355338
N110 X0.046881325 Y0.071538061 Z-0.114091573
N115 X0.045746609 Y0.075967927 Z-0.117336209
N120 X0.044528883 Y0.08072186 Z-0.120048442
N125 X0.04324346 Y0.085740078 Z-0.122194165
N130 X0.041906505 Y0.090959474 Z-0.123746394
N135 X0.040534831 Y0.096314409 Z-0.124685609
N140 X0.039145688 Y0.101737544 Z-0.124999998
N145 G2 X0. Y0.373937126 I1.236568075 J0.316748488
N150 G1 Y0.379937127
N155 X0.002843224 Y0.385220708
N160 X0.006131888 Y0.390239137
N165 X0.010194499 Y0.395185103
N170 X0.016066647 Y0.401265264
N175 X0.024100711 Y0.408346672
N180 X0.031369805 Y0.413782766
N185 X0.040524635 Y0.419544986
N190 X0.052365065 Y0.425730765
N195 X0.0672859 Y0.432058282
N200 X0.08007899 Y0.436308328
N205 X0.096015611 Y0.440215051
N210 X0.115605809 Y0.443377645
N215 X0.135093092 Y0.444934387
N220 X0.155106295 Y0.444921809
N225 X0.179224315 Y0.442964674
N230 X0.20320453 Y0.439062456
N235 X0.226901648 Y0.433221727
N240 X0.255072361 Y0.423823717
N245 X0.279862393 Y0.413274164
N250 X0.30640649 Y0.399364299
N255 X0.334708559 Y0.381500777
N260 X0.358903802 Y0.363359264
N265 X0.386894219 Y0.338625307
N270 X0.40894377 Y0.315737236
N275 X0.432854938 Y0.286552305
N280 X0.45329995 Y0.257052793
N285 X0.472421533 Y0.224094297
N290 X0.489132611 Y0.189086771
N295 X0.502873631 Y0.153129946
N300 X0.514330413 Y0.113979184
N305 X0.522219816 Y0.075909204
N310 X0.527430707 Y0.034100845
N315 X0.529144918 Y-0.005140518
N320 X0.527568164 Y-0.048099531
N325 X0.522934846 Y-0.087509625
N330 X0.514407684 Y-0.130150468
N335 X0.503416099 Y-0.168706357
N340 X0.488093932 Y-0.209654147
N345 X0.470898808 Y-0.24633096
N350 X0.449200878 Y-0.284337828
N355 X0.426120195 Y-0.318140984
N360 X0.39868092 Y-0.352112365
N365 X0.370193692 Y-0.382098363
N370 X0.33781994 Y-0.411109999
N375 X0.304552026 Y-0.436418188
N380 X0.268185983 Y-0.45972749
N385 X0.230910853 Y-0.479592977
N390 X0.191586825 Y-0.49665222
N395 X0.151181934 Y-0.510445317
N400 X0.109996758 Y-0.520901342
N405 X0.067459106 Y-0.528128016
N410 X0.0255329 Y-0.531824517
N415 X-0.018083039 Y-0.532155863
N420 X-0.059634705 Y-0.529127797
N425 X-0.103210333 Y-0.522404243
N430 X-0.143307185 Y-0.512870578
N435 X-0.185706127 Y-0.499112362
N440 X-0.223332127 Y-0.483464632
N445 X-0.263420165 Y-0.462875854
N450 X-0.297652511 Y-0.441660919
N455 X-0.334333547 Y-0.414626091
N460 X-0.364361373 Y-0.388528418
N465 X-0.396600183 Y-0.355609834
N470 X-0.421747485 Y-0.325425929
N475 X-0.448605094 Y-0.287346708
N480 X-0.468336804 Y-0.253971993
N485 X-0.488984228 Y-0.211618003
N490 X-0.502934719 Y-0.1759944
N495 X-0.516628881 Y-0.130586953
N500 X-0.524644777 Y-0.093446435
N505 X-0.530863184 Y-0.046691341
N510 X-0.532853547 Y-0.00836101
N515 X-0.53151968 Y0.038490694
N520 X-0.527309545 Y0.07703225
N525 X-0.518559471 Y0.122739668
N530 X-0.508131643 Y0.160493081
N535 X-0.492304216 Y0.203874881
N540 X-0.475803172 Y0.239837921
N545 X-0.453424228 Y0.279797419
N550 X-0.431154131 Y0.312996511
N555 X-0.402915459 Y0.348551893
N560 X-0.375338089 Y0.378062519
N565 X-0.342075919 Y0.408367247
N570 X-0.309796915 Y0.433344916
N575 X-0.266859869 Y0.461366834
N580 X-0.223553838 Y0.488815082
N585 X-0.179662986 Y0.515318105
N590 X-0.134671438 Y0.539906269
N595 X-0.088193257 Y0.561553362
N600 X-0.043939657 Y0.57821638
N605 X-0.000926319 Y0.590574497
N610 X0.041547699 Y0.599159218
N615 X0.08342818 Y0.604170364
N620 X0.125616479 Y0.605805765
N625 X0.167316039 Y0.604070153
N630 X0.208909042 Y0.598972989
N635 X0.250739864 Y0.590393975
N640 X0.291797721 Y0.578470756
N645 X0.333056675 Y0.56280076
N650 X0.373009734 Y0.543829738
N655 X0.412346923 Y0.521115506
N660 X0.450263662 Y0.494952127
N665 X0.486692556 Y0.465231054
N670 X0.521222813 Y0.432102586
N675 X0.553392763 Y0.395847794
N680 X0.583014 Y0.356510943
N685 X0.609756229 Y0.314334509
N690 X0.633269558 Y0.269687889
N695 X0.653443374 Y0.222551541
N700 X0.66977974 Y0.173951753
N705 X0.682195678 Y0.124205773
N710 X0.690698098 Y0.07364366
N715 X0.695241267 Y0.022573347
N720 X0.695873396 Y-0.028694753
N725 X0.692586598 Y-0.079861288
N730 X0.685463928 Y-0.130636148
N735 X0.674536322 Y-0.180730106
N740 X0.659917471 Y-0.229873826
N745 X0.641677511 Y-0.277791699
N750 X0.619947629 Y-0.324231208
N755 X0.594826007 Y-0.368927107
N760 X0.566446612 Y-0.411628701
N765 X0.53496924 Y-0.452100836
N770 X0.500564613 Y-0.490115834
N775 X0.46344667 Y-0.525486375
N780 X0.423823267 Y-0.55802563
N785 X0.381920169 Y-0.587571324
N790 X0.337968699 Y-0.613973723
N795 X0.292206411 Y-0.637095819
N800 X0.244883928 Y-0.656829068
N805 X0.196249466 Y-0.673061881
N810 X0.146561082 Y-0.685706401
N815 X0.096078191 Y-0.694667185
N820 X0.045071484 Y-0.699876124
N825 X-0.006180223 Y-0.701318425
N830 X-0.057398503 Y-0.698972086
N835 X-0.108309787 Y-0.692900935
N840 X-0.158637715 Y-0.683107226
N845 X-0.208125227 Y-0.669698039
N850 X-0.256497898 Y-0.65270101
N855 X-0.303521551 Y-0.632265872
N860 X-0.348924877 Y-0.608446617
N865 X-0.392487218 Y-0.581407059
N870 X-0.433949673 Y-0.551246057
N875 X-0.47307052 Y-0.518104298
N880 X-0.509667284 Y-0.48219478
N885 X-0.543495801 Y-0.443666263
N890 X-0.574451694 Y-0.402793884
N895 X-0.602303002 Y-0.359745964
N900 X-0.626989875 Y-0.314808493
N905 X-0.648299465 Y-0.268174626
N910 X-0.666208718 Y-0.220132174
N915 X-0.680540791 Y-0.170904032
N920 X-0.691282017 Y-0.120769777
N925 X-0.698314952 Y-0.069982419
N930 X-0.701577494 Y-0.01881433
N935 X-0.701087216 Y0.032455323
N940 X-0.696790124 Y0.083546929
N945 X-0.688794804 Y0.134191701
N950 X-0.677089691 Y0.184109718
N955 X-0.661807699 Y0.233051289
N960 X-0.642980515 Y0.280741481
N965 X-0.620764635 Y0.326950494
N970 X-0.595235562 Y0.37141492
N975 X-0.566558275 Y0.413917031
N980 X-0.534846501 Y0.454205753
N985 X-0.500258724 Y0.492054196
N990 X-0.463496005 Y0.527793817
N995 X-0.424994671 Y0.561653272
N1000 X-0.384944368 Y0.593665641
N1005 X-0.343422139 Y0.623744229
N1010 X-0.300490331 Y0.651774144
N1015 X-0.256178848 Y0.677567805
N1020 X-0.210497041 Y0.700848497
N1025 X-0.163500422 Y0.721345661
N1030 X-0.115304819 Y0.738838601
N1035 X-0.066071186 Y0.753151751
N1040 X-0.015990616 Y0.764140557
N1045 X0.034724113 Y0.77167939
N1050 X0.085840197 Y0.775674835
N1055 X0.13711062 Y0.776076429
N1060 X0.188281536 Y0.772858567
N1065 X0.239098279 Y0.766041147
N1070 X0.289301365 Y0.755626348
N1075 X0.338627898 Y0.741636697
N1080 X0.386824045 Y0.724145334
N1085 X0.433663796 Y0.703292156
N1090 X0.478941925 Y0.679235759
N1095 X0.522473703 Y0.652146978
N1100 X0.56408807 Y0.622195972
N1105 X0.603564368 Y0.58947841
N1110 X0.640698681 Y0.554125065
N1115 X0.675381488 Y0.516363655
N1120 X0.707523316 Y0.476417204
N1125 X0.737051701 Y0.434501903
N1130 X0.763784318 Y0.390750517
N1135 X0.787569181 Y0.34532915
N1140 X0.808393599 Y0.298476613
N1145 X0.826247884 Y0.250413737
N1150 X0.841112662 Y0.201343833
N1155 X0.852849089 Y0.151433156
N1160 X0.861395663 Y0.100878486
N1165 X0.866804874 Y0.049892631
N1170 X0.869125156 Y-0.001326837
N1175 X0.868388649 Y-0.052593543
N1180 X0.864506369 Y-0.103718343
N1185 X0.857480642 Y-0.154506691
N1190 X0.847411193 Y-0.204780196
N1195 X0.834391211 Y-0.254371485
N1200 X0.818496314 Y-0.303117459
N1205 X0.799679418 Y-0.350811726
N1210 X0.777993014 Y-0.397271547
N1215 X0.753573395 Y-0.442354811
N1220 X0.726551521 Y-0.48592819
N1225 X0.697043787 Y-0.527858021
N1230 X0.665065886 Y-0.567935846
N1235 X0.630726176 Y-0.606009491
N1240 X0.594195756 Y-0.641986517
N1245 X0.555636676 Y-0.675780229
N1250 X0.515197281 Y-0.707299615
N1255 X0.472954014 Y-0.73635687
N1260 X0.429046511 Y-0.762832296
N1265 X0.383660699 Y-0.786684892
N1270 X0.33697271 Y-0.807875611
N1275 X0.289147388 Y-0.826356918
N1280 X0.240307023 Y-0.84195933
N1285 X0.190618151 Y-0.854601823
N1290 X0.140270811 Y-0.864295359
N1295 X0.089446165 Y-0.87105353
N1300 X0.038317475 Y-0.874884222
N1305 X-0.012948568 Y-0.87566556
N1310 X-0.06416952 Y-0.873378243
N1315 X-0.115167963 Y-0.868088955
N1320 X-0.165776042 Y-0.859864678
N1325 X-0.215832755 Y-0.848767664
N1330 X-0.265146428 Y-0.834732731
N1335 X-0.313535394 Y-0.817782034
N1340 X-0.360849035 Y-0.798027609
N1345 X-0.40694402 Y-0.775576088
N1350 X-0.451678441 Y-0.750523214
N1355 X-0.49485154 Y-0.722866359
N1360 X-0.536284935 Y-0.692665446
N1365 X-0.57587128 Y-0.660081173
N1370 X-0.613507098 Y-0.625262148
N1375 X-0.649084707 Y-0.588342599
N1380 X-0.682421857 Y-0.54938812
N1385 X-0.71336551 Y-0.508506505
N1390 X-0.741860698 Y-0.465882069
N1395 X-0.767852303 Y-0.421686435
N1400 X-0.791278899 Y-0.376079289
N1405 X-0.81198407 Y-0.329173907
N1410 X-0.829847065 Y-0.281114259
N1415 X-0.844856022 Y-0.232088265
N1420 X-0.85700343 Y-0.182276035
N1425 X-0.866280728 Y-0.131850355
N1430 X-0.872549673 Y-0.080963045
N1435 X-0.875753117 Y-0.029791223
N1440 X-0.875937319 Y0.021480444
N1445 X-0.873151464 Y0.072676699
N1450 X-0.867444136 Y0.123630058
N1455 X-0.858739117 Y0.174157676
N1460 X-0.847028973 Y0.22407451
N1465 X-0.832411849 Y0.273218756
N1470 X-0.814984314 Y0.321438031
N1475 X-0.794839559 Y0.368586788
N1480 X-0.771960311 Y0.41447095
N1485 X-0.746372328 Y0.45890151
N1490 X-0.718288572 Y0.501798157
N1495 X-0.687924708 Y0.543112192
N1500 X-0.655489118 Y0.582820562
N1505 X-0.621166717 Y0.620909788
N1510 X-0.58510311 Y0.657354715
N1515 X-0.547384803 Y0.692084305
N1520 X-0.508109228 Y0.725042613
N1525 X-0.467368787 Y0.75617197
N1530 X-0.42524518 Y0.785402388
N1535 X-0.381816917 Y0.812656748
N1540 X-0.337148914 Y0.837827968
N1545 X-0.291270271 Y0.860718329
N1550 X-0.244281649 Y0.881233816
N1555 X-0.196303645 Y0.899315031
N1560 X-0.147459817 Y0.914906554
N1565 X-0.097870799 Y0.927935322
N1570 X-0.047640505 Y0.938218034
N1575 X0.003083265 Y0.945695817
N1580 X0.054141504 Y0.950372726
N1585 X0.105378919 Y0.952255519
N1590 X0.15664264 Y0.951334135
N1595 X0.20776942 Y0.947477911
N1600 X0.258588904 Y0.940680992
N1605 X0.308941274 Y0.931013738
N1610 X0.358674658 Y0.918547488
N1615 X0.407642042 Y0.903348397
N1620 X0.455666264 Y0.885390259
N1625 X0.502587716 Y0.864721659
N1630 X0.548279492 Y0.841460491
N1635 X0.592620316 Y0.815717367
N1640 X0.635493496 Y0.787597867
N1645 X0.676750574 Y0.757156507
N1650 X0.716232765 Y0.724446079
N1655 X0.753861149 Y0.689619019
N1660 X0.789560408 Y0.652817178
N1665 X0.8232562 Y0.614172455
N1670 X0.854860666 Y0.573799479
N1675 X0.884223097 Y0.531767823
N1680 X0.911272229 Y0.488211376
N1685 X0.93598501 Y0.443288135
N1690 X0.958333428 Y0.397143101
N1695 X0.978285947 Y0.349912681
N1700 X0.995769726 Y0.301713737
N1705 X1.010673928 Y0.252655791
N1710 X1.023001633 Y0.202887884
N1715 X1.032772965 Y0.152555601
N1720 X1.040001441 Y0.101795703
N1725 X1.044693294 Y0.050738834
N1730 X1.046787998 Y-0.000490357
N1735 X1.046231638 Y-0.051759336
N1740 X1.043076327 Y-0.102934152
N1745 X1.037376734 Y-0.15388837
N1750 X1.029180091 Y-0.204500946
N1755 X1.018521316 Y-0.254652801
N1760 X1.005357908 Y-0.304206244
N1765 X0.98968994 Y-0.353025602
N1770 X0.971602643 Y-0.401001314
N1775 X0.951178543 Y-0.448029736
N1780 X0.928493485 Y-0.494010242
N1785 X0.903607466 Y-0.538837703
N1790 X0.876508773 Y-0.582363324
N1795 X0.847252298 Y-0.624468871
N1800 X0.815948802 Y-0.665075572
N1805 X0.782704391 Y-0.704109312
N1810 X0.747619389 Y-0.74149725
N1815 X0.710776697 Y-0.777154457
N1820 X0.67220365 Y-0.810932174
N1825 X0.631993211 Y-0.842743145
N1830 X0.590270561 Y-0.87254314
N1835 X0.547155658 Y-0.900290632
N1840 X0.50276302 Y-0.925944321
N1845 X0.457191092 Y-0.949439402
N1850 X0.410505618 Y-0.970635677
N1855 X0.362823441 Y-0.98948321
N1860 X0.314275449 Y-1.00597284
N1865 X0.264987495 Y-1.020097883
N1870 X0.215080854 Y-1.03185128
N1875 X0.164666814 Y-1.041191732
N1880 X0.113849621 Y-1.048005697
N1885 X0.062756961 Y-1.052290248
N1890 X0.011516012 Y-1.05407437
N1895 X-0.039751394 Y-1.05338825
N1900 X-0.090927965 Y-1.050261475
N1905 X-0.141895418 Y-1.044681504
N1910 X-0.192521933 Y-1.036571443
N1915 X-0.242686028 Y-1.025970489
N1920 X-0.292274764 Y-1.01294067
N1925 X-0.341180178 Y-0.997543335
N1930 X-0.389298266 Y-0.979838334
N1935 X-0.436508712 Y-0.959838507
N1940 X-0.482662344 Y-0.93750781
N1945 X-0.527655947 Y-0.912923437
N1950 X-0.571398622 Y-0.886176477
N1955 X-0.613804239 Y-0.857356665
N1960 X-0.654790533 Y-0.826551783
N1965 X-0.694240585 Y-0.793802607
N1970 X-0.732006614 Y-0.759124906
N1975 X-0.768016455 Y-0.722626814
N1980 X-0.802209584 Y-0.684421419
N1985 X-0.834529757 Y-0.644619183
N1990 X-0.864924709 Y-0.603327939
N1995 X-0.893287433 Y-0.560615269
N2000 X-0.919487195 Y-0.516542713
N2005 X-0.943486672 Y-0.471234397
N2010 X-0.965258155 Y-0.424814374
N2015 X-0.984777841 Y-0.377403394
N2020 X-1.002025379 Y-0.329119427
N2025 X-1.016902323 Y-0.280053221
N2030 X-1.029310752 Y-0.230305364
N2035 X-1.039253595 Y-0.180006684
N2040 X-1.046739713 Y-0.129284145
N2045 X-1.051781346 Y-0.078260626
N2050 X-1.054392612 Y-0.027055172
N2055 X-1.054499318 Y0.024216715
N2060 X-1.052050553 Y0.075430199
N2065 X-1.047088818 Y0.126461551
N2070 X-1.03965917 Y0.177192388
N2075 X-1.02980839 Y0.227509183
N2080 X-1.01758251 Y0.277302209
N2085 X-1.002938729 Y0.326438513
N2090 X-0.985870737 Y0.374786234
N2095 X-0.966462864 Y0.422243096
N2100 X-0.944805446 Y0.468716434
N2105 X-0.920994376 Y0.514124059
N2110 X-0.895130878 Y0.558394785
N2115 X-0.867297781 Y0.601454457
N2120 X-0.837562666 Y0.643223365
N2125 X-0.806032541 Y0.68365435
N2130 X-0.772811034 Y0.722707613
N2135 X-0.73799291 Y0.760344182
N2140 X-0.701664752 Y0.79652546
N2145 X-0.663906833 Y0.831211946
N2150 X-0.624785724 Y0.86435348
N2155 X-0.584332098 Y0.89585462
N2160 X-0.542601638 Y0.925643651
N2165 X-0.499666357 Y0.953668234
N2170 X-0.455599995 Y0.979878433
N2175 X-0.410478322 Y1.004227015
N2180 X-0.364378756 Y1.026668999
N2185 X-0.317357394 Y1.047109394
N2190 X-0.269472637 Y1.06543616
N2195 X-0.220818933 Y1.081611228
N2200 X-0.17149362 Y1.095605234
N2205 X-0.12159539 Y1.107394376
N2210 X-0.071223688 Y1.11696048
N2215 X-0.020470781 Y1.124237842
N2220 X0.030567493 Y1.129127863
N2225 X0.081778549 Y1.131627015
N2230 X0.133050408 Y1.131744235
N2235 X0.184273006 Y1.129494239
N2240 X0.235338511 Y1.124897228
N2245 X0.286134716 Y1.117928497
N2250 X0.336539464 Y1.108538109
N2255 X0.386442162 Y1.096767966
N2260 X0.435737888 Y1.082670107
N2265 X0.484326092 Y1.066299273
N2270 X0.532110657 Y1.047712912
N2275 X0.578984651 Y1.026936779
N2280 X0.624820942 Y1.003961788
N2285 X0.669524801 Y0.978854322
N2290 X0.713013101 Y0.95169578
N2295 X0.755208233 Y0.922568689
N2300 X0.796037659 Y0.891556177
N2305 X0.835422756 Y0.858728829
N2310 X0.873246906 Y0.824114582
N2315 X0.909431037 Y0.787789277
N2320 X0.943918529 Y0.74984941
N2325 X0.976658318 Y0.710391548
N2330 X1.00760505 Y0.669512261
N2335 X1.036716671 Y0.627306465
N2340 X1.063909005 Y0.583839304
N2345 X1.089107634 Y0.539186771
N2350 X1.112281919 Y0.493450878
N2355 X1.133407232 Y0.446733264
N2360 X1.152464273 Y0.399134441
N2365 X1.169438625 Y0.350753754
N2370 X1.18430423 Y0.301684113
N2375 X1.196990802 Y0.252006467
N2380 X1.207482871 Y0.201819469
N2385 X1.215779988 Y0.151223263
N2390 X1.221885606 Y0.1003161
N2395 X1.225808286 Y0.049194384
N2400 X1.227561245 Y-0.002047637
N2405 X1.227123756 Y-0.053317767
N2410 X1.224465107 Y-0.10452079
N2415 X1.219608652 Y-0.155562266
N2420 X1.212578796 Y-0.20635006
N2425 X1.203402947 Y-0.256794287
N2430 X1.192113095 Y-0.30680786
N2435 X1.178742807 Y-0.356305866
N2440 X1.163279691 Y-0.405190535
N2445 X1.145739893 Y-0.453369073
N2450 X1.126172223 Y-0.500760266
N2455 X1.104623765 Y-0.547284254
N2460 X1.081143777 Y-0.592863916
N2465 X1.055785802 Y-0.637426151
N2470 X1.028598049 Y-0.680896203
N2475 X0.99959028 Y-0.723173412
N2480 X0.968819566 Y-0.764185387
N2485 X0.936353338 Y-0.803868677
N2490 X0.902257379 Y-0.842160728
N2495 X0.866599045 Y-0.879002293
N2500 X0.82944885 Y-0.914339005
N2505 X0.790866341 Y-0.94810591
N2510 X0.750890191 Y-0.980210867
N2515 X0.709601575 Y-1.010609349
N2520 X0.667080616 Y-1.039258702
N2525 X0.62340605 Y-1.066116648
N2530 X0.578657661 Y-1.091144667
N2535 X0.532917113 Y-1.114309641
N2540 X0.486253228 Y-1.135553525
N2545 X0.438733101 Y-1.154805882
N2550 X0.390449096 Y-1.172053345
N2555 X0.341489259 Y-1.187276765
N2560 X0.291940453 Y-1.200457445
N2565 X0.241889691 Y-1.211581268
N2570 X0.191424081 Y-1.220638921
N2575 X0.140624206 Y-1.227580844
N2580 X0.089576732 Y-1.232373846
N2585 X0.038373848 Y-1.235035048
N2590 X-0.012895345 Y-1.235571133
N2595 X-0.064142914 Y-1.233988634
N2600 X-0.115281944 Y-1.23029844
N2605 X-0.166226447 Y-1.224512716
N2610 X-0.216883768 Y-1.216597369
N2615 X-0.267163731 Y-1.20656021
N2620 X-0.31698317 Y-1.194442464
N2625 X-0.366258771 Y-1.180274393
N2630 X-0.414907989 Y-1.164085734
N2635 X-0.462850473 Y-1.145910654
N2640 X-0.510004524 Y-1.125778288
N2645 X-0.55626888 Y-1.1036779
N2650 X-0.601565256 Y-1.079655895
N2655 X-0.645825168 Y-1.05377385
N2660 X-0.688977354 Y-1.026084479
N2665 X-0.730951264 Y-0.996639447
N2670 X-0.771679916 Y-0.965494697
N2675 X-0.811087616 Y-0.932694458
N2680 X-0.849075392 Y-0.898259831
N2685 X-0.885589404 Y-0.862266135
N2690 X-0.920581067 Y-0.824790864
N2695 X-0.953997665 Y-0.785904456
N2700 X-0.985786032 Y-0.745676146
N2705 X-1.015897886 Y-0.704178022
N2710 X-1.044263539 Y-0.661467304
N2715 X-1.07079979 Y-0.617596521
N2720 X-1.095482233 Y-0.572656609
N2725 X-1.118284361 Y-0.526734037
N2730 X-1.139174409 Y-0.479910768
N2735 X-1.158120388 Y-0.432267602
N2740 X-1.175095415 Y-0.383887178
N2745 X-1.190034911 Y-0.334839971
N2750 X-1.202886912 Y-0.285204865
N2755 X-1.2136581 Y-0.235077039
N2760 X-1.222346899 Y-0.184546625
N2765 X-1.228946476 Y-0.13370114
N2770 X-1.233449395 Y-0.082627263
N2775 X-1.235851002 Y-0.031411545
N2780 X-1.236099784 Y0.01985985
N2785 X-1.234185602 Y0.071096101
N2790 X-1.230142548 Y0.122208445
N2795 X-1.223994428 Y0.173110493
N2800 X-1.215759413 Y0.223716826
N2805 X-1.205454999 Y0.273942685
N2810 X-1.193096882 Y0.323703045
N2815 X-1.178660505 Y0.3729007
N2820 X-1.162181088 Y0.421452184
N2825 X-1.143723285 Y0.469286573
N2830 X-1.123349573 Y0.516336847
N2835 X-1.101119575 Y0.562539063
N2840 X-1.077091562 Y0.607832248
N2845 X-1.05132561 Y0.652159819
N2850 X-1.023855735 Y0.695452127
N2855 X-0.994726091 Y0.737645532
N2860 X-0.964014849 Y0.778702038
N2865 X-0.931795976 Y0.818586349
N2870 X-0.898137656 Y0.8572637
N2875 X-0.863101238 Y0.894697219
N2880 X-0.826741016 Y0.930846207
N2885 X-0.7891073 Y0.965667484
N2890 X-0.750225848 Y0.999089864
N2895 X-0.710137285 Y1.031054249
N2900 X-0.668905664 Y1.061530001
N2905 X-0.626593349 Y1.090486557
N2910 X-0.583258689 Y1.1178896
N2915 X-0.53895665 Y1.143699406
N2920 X-0.493740547 Y1.167872196
N2925 X-0.447658103 Y1.190349399
N2930 X-0.400749342 Y1.211046835
N2935 X-0.353083761 Y1.229936269
N2940 X-0.304734538 Y1.246999981
N2945 X-0.255772823 Y1.262217394
N2950 X-0.206268115 Y1.275562827
N2955 X-0.156289621 Y1.287006919
N2960 X-0.105905918 Y1.29650957
N2965 X-0.055183304 Y1.303995238
N2970 X-0.004202704 Y1.309453709
N2975 X0.046953798 Y1.312893244
N2980 X0.098205983 Y1.314318349
N2985 X0.149474604 Y1.313729774
N2990 X0.200680391 Y1.311124967
N2995 X0.251742442 Y1.306489959
N3000 X0.30257317 Y1.299777594
N3005 X0.353089806 Y1.291009197
N3010 X0.403214252 Y1.280222164
N3015 X0.452870234 Y1.267451039
N3020 X0.501982096 Y1.252725481
N3025 X0.550473919 Y1.236071249
N3030 X0.598265618 Y1.217503285
N3035 X0.64526175 Y1.197004994
N3040 X0.691389775 Y1.174621357
N3045 X0.736586728 Y1.150412822
N3050 X0.780791786 Y1.124437287
N3055 X0.823943972 Y1.096747841
N3060 X0.865981109 Y1.06739322
N3065 X0.906836968 Y1.036415476
N3070 X0.946419033 Y1.003825946
N3075 X0.984666629 Y0.969680125
N3080 X1.021537781 Y0.934052355
N3085 X1.056992538 Y0.897014873
N3090 X1.090990577 Y0.85863579
N3095 X1.123489545 Y0.818979383
N3100 X1.154444912 Y0.778106629
N3105 X1.183781061 Y0.736056501
N3110 X1.211439418 Y0.692884415
N3115 X1.237400085 Y0.648670572
N3120 X1.261644889 Y0.603493067
N3125 X1.284155958 Y0.557427181
N3130 X1.304914069 Y0.51054519
N3135 X1.323895943 Y0.462916329
N3140 X1.34106208 Y0.414603376
N3145 X1.356350005 Y0.365663664
N3150 X1.369752508 Y0.316174387
N3155 X1.381272594 Y0.266213304
N3160 X1.390913265 Y0.215855865
N3165 X1.398677225 Y0.165175096
N3170 X1.404563724 Y0.114242139
N3175 X1.408566903 Y0.063126655
N3180 X1.410644261 Y0.011896763
N3185 X1.410778376 Y-0.039375058
N3190 X1.408990725 Y-0.090615881
N3195 X1.405303084 Y-0.141755089
N3200 X1.39973708 Y-0.192724081
N3205 X1.392312688 Y-0.243455688
N3210 X1.383045377 Y-0.293883207
N3215 X1.371938 Y-0.343937611
N3220 X1.358963373 Y-0.393540803
N3225 X1.344146278 Y-0.442625143
N3230 X1.327525312 Y-0.491128381
N3235 X1.309138771 Y-0.538990178
N3240 X1.289024203 Y-0.586151814
N3245 X1.267217201 Y-0.632555203
N3250 X1.243748702 Y-0.67814076
N3255 X1.218626518 Y-0.722836322
N3260 X1.191856955 Y-0.766565143
N3265 X1.163491377 Y-0.809275935
N3270 X1.133582273 Y-0.850920414
N3275 X1.102181457 Y-0.891452023
N3280 X1.069339842 Y-0.930825106
N3285 X1.035106013 Y-0.968994005
N3290 X0.999522547 Y-1.005907885
N3295 X0.962607842 Y-1.04149045
N3300 X0.924402597 Y-1.075683729
N3305 X0.884970868 Y-1.108455057
N3310 X0.844374904 Y-1.139772445
N3315 X0.802675983 Y-1.169605631
N3320 X0.759934102 Y-1.197924351
N3325 X0.716207009 Y-1.224696768
N3330 X0.671545164 Y-1.249878726
N3335 X0.625985776 Y-1.273398212
N3340 X0.579592112 Y-1.295225789
N3345 X0.532433517 Y-1.315347566
N3350 X0.484577765 Y-1.333749876
N3355 X0.436091536 Y-1.350420253
N3360 X0.387040161 Y-1.365346083
N3365 X0.337487243 Y-1.378511444
N3370 X0.287490623 Y-1.389876088
N3375 X0.237108741 Y-1.399388351
N3380 X0.186412259 Y-1.407048984
N3385 X0.135471032 Y-1.412863393
N3390 X0.084353301 Y-1.416837737
N3395 X0.033126009 Y-1.418978323
N3400 X-0.018145037 Y-1.419290708
N3405 X-0.069394623 Y-1.417775041
N3410 X-0.120555125 Y-1.41439558
N3415 X-0.171556454 Y-1.409134302
N3420 X-0.222331896 Y-1.402015836
N3425 X-0.272816448 Y-1.393064364
N3430 X-0.322946639 Y-1.382304064
N3435 X-0.372660141 Y-1.369758816
N3440 X-0.42189538 Y-1.355451148
N3445 X-0.470587775 Y-1.339392925
N3450 X-0.518659043 Y-1.321561168
N3455 X-0.56604269 Y-1.30197525
N3460 X-0.612681907 Y-1.280677375
N3465 X-0.658521277 Y-1.257708467
N3470 X-0.703506695 Y-1.233109001
N3475 X-0.747584996 Y-1.206919002
N3480 X-0.790703315 Y-1.179176766
N3485 X-0.832796773 Y-1.149902944
N3490 X-0.873784418 Y-1.11909979
N3495 X-0.91361594 Y-1.086815661
N3500 X-0.952248911 Y-1.053106503
N3505 X-0.989641956 Y-1.018026908
N3510 X-1.025754748 Y-0.981630641
N3515 X-1.060547416 Y-0.943970493
N3520 X-1.093979257 Y-0.905097226
N3525 X-1.125982915 Y-0.865039976
N3530 X-1.156489154 Y-0.823830957
N3535 X-1.185469515 Y-0.781534901
N3540 X-1.212898765 Y-0.738216836
N3545 X-1.238751975 Y-0.693940065
N3550 X-1.263005114 Y-0.648767066
N3555 X-1.285634679 Y-0.602759189
N3560 X-1.306611309 Y-0.55597463
N3565 X-1.325866369 Y-0.508455554
N3570 X-1.343358107 Y-0.460259558
N3575 X-1.359080217 Y-0.411457565
N3580 X-1.37302624 Y-0.362118661
N3585 X-1.385190168 Y-0.312310467
N3590 X-1.395566445 Y-0.26209942
N3595 X-1.404149514 Y-0.211550927
N3600 X-1.41091925 Y-0.16072782
N3605 X-1.415817081 Y-0.109690306
N3610 X-1.418836999 Y-0.058507328
N3615 X-1.419992522 Y-0.007248352
N3620 X-1.419297166 Y0.044018927
N3625 X-1.416763997 Y0.095228313
N3630 X-1.412406381 Y0.146314788
N3635 X-1.406237084 Y0.197214273
N3640 X-1.398243791 Y0.247859354
N3645 X-1.388394513 Y0.29817645
N3650 X-1.376716133 Y0.3481007
N3655 X-1.363244845 Y0.397571353
N3660 X-1.348017745 Y0.446530027
N3665 X-1.331072529 Y0.494920888
N3670 X-1.312447495 Y0.542690435
N3675 X-1.292181841 Y0.589787341
N3680 X-1.270297794 Y0.63615446
N3685 X-1.246797306 Y0.681723572
N3690 X-1.221727386 Y0.726448495
N3695 X-1.19514165 Y0.770289278
N3700 X-1.167092661 Y0.813208603
N3705 X-1.137631559 Y0.855171249
N3710 X-1.106807453 Y0.89614305
N3715 X-1.074667503 Y0.93609104
N3720 X-1.041256386 Y0.974982179
N3725 X-1.006592578 Y1.012760973
N3730 X-0.97069913 Y1.049373507
N3735 X-0.933625079 Y1.084790042
N3740 X-0.895419008 Y1.118982345
N3745 X-0.856128452 Y1.151922782
N3750 X-0.815799818 Y1.183583718
N3755 X-0.774478237 Y1.213937444
N3760 X-0.732207937 Y1.242955351
N3765 X-0.68902654 Y1.270599215
N3770 X-0.644952744 Y1.296796874
N3775 X-0.600031229 Y1.321512808
N3780 X-0.554314411 Y1.34472464
N3785 X-0.507854702 Y1.366411344
N3790 X-0.460704481 Y1.386552645
N3795 X-0.412915898 Y1.405128719
N3800 X-0.364541069 Y1.422119741
N3805 X-0.315630229 Y1.43749973
N3810 X-0.266222278 Y1.451199149
N3815 X-0.216370999 Y1.463185258
N3820 X-0.166137162 Y1.473450698
N3825 X-0.1155813 Y1.481990213
N3830 X-0.064763478 Y1.488799448
N3835 X-0.01374336 Y1.493875398
N3840 X0.037419747 Y1.497215211
N3845 X0.08866695 Y1.498809424
N3850 X0.139938527 Y1.49860292
N3855 X0.191170775 Y1.496584134
N3860 X0.242300484 Y1.492767034
N3865 X0.293265816 Y1.487167689
N3870 X0.344006133 Y1.47980322
N3875 X0.394462 Y1.470691351
N3880 X0.444574694 Y1.459850101
N3885 X0.494284329 Y1.447289384
N3890 X0.543518066 Y1.43297646
N3895 X0.592212377 Y1.416924094
N3900 X0.640310903 Y1.399165927
N3905 X0.687759204 Y1.379737253
N3910 X0.734504865 Y1.358673817
N3915 X0.780496672 Y1.336011812
N3920 X0.82568499 Y1.311787132
N3925 X0.870017104 Y1.286029065
N3930 X0.913417245 Y1.25872995
N3935 X0.95582902 Y1.229919148
N3940 X0.997208723 Y1.19964472
N3945 X1.037515205 Y1.167955549
N3950 X1.076709342 Y1.134900446
N3955 X1.114753588 Y1.100528221
N3960 X1.151611899 Y1.064887159
N3965 X1.187246503 Y1.028022691
N3970 X1.221589216 Y0.989951787
N3975 X1.254589276 Y0.950711318
N3980 X1.286218598 Y0.910357828
N3985 X1.316451275 Y0.868947637
N3990 X1.345263804 Y0.826537065
N3995 X1.372634107 Y0.783181754
N4000 X1.398541758 Y0.738936822
N4005 X1.422966784 Y0.693856487
N4010 X1.445862627 Y0.647980622
N4015 X1.467178375 Y0.601349515
N4020 X1.486900209 Y0.554022338
N4025 X1.505018219 Y0.50605819
N4030 X1.521523994 Y0.457515679
N4035 X1.536411225 Y0.40845259
N4040 X1.549674958 Y0.358925917
N4045 X1.561310986 Y0.308991755
N4050 X1.571304291 Y0.258703082
N4055 X1.579608016 Y0.208107975
N4060 X1.5862139 Y0.157263298
N4065 X1.591126149 Y0.106227154
N4070 X1.59435077 Y0.055056656
N4075 X1.595895722 Y0.003807943
N4080 X1.595770318 Y-0.047463901
N4085 X1.593984769 Y-0.098704794
N4090 X1.590548388 Y-0.149861508
N4095 X1.585440148 Y-0.200878391
N4100 X1.578643679 Y-0.251697931
N4105 X1.570176102 Y-0.302265892
N4110 X1.560056491 Y-0.352529278
N4115 X1.548305271 Y-0.402436519
N4120 X1.53494482 Y-0.451937135
N4125 X1.519997965 Y-0.500982127
N4130 X1.503488436 Y-0.549523399
N4135 X1.48543095 Y-0.5975103
N4140 X1.465812142 Y-0.644880355
N4145 X1.444650785 Y-0.691581636
N4150 X1.421977366 Y-0.737567887
N4155 X1.397824175 Y-0.782794502
N4160 X1.372224703 Y-0.827218379
N4165 X1.345213342 Y-0.870798216
N4170 X1.316824785 Y-0.91349369
N4175 X1.287094326 Y-0.955265976
N4180 X1.256037359 Y-0.99606161
N4185 X1.223665373 Y-1.035821719
N4190 X1.19001734 Y-1.074508081
N4195 X1.155134937 Y-1.112085102
N4200 X1.119060667 Y-1.148519441
N4205 X1.081837632 Y-1.183779484
N4210 X1.043509761 Y-1.217835118
N4215 X1.004120759 Y-1.25065781
N4220 X0.963711926 Y-1.28221632
N4225 X0.922305565 Y-1.312454254
N4230 X0.879938546 Y-1.341330761
N4235 X0.836659379 Y-1.368821362
N4240 X0.792517174 Y-1.394903679
N4245 X0.747561492 Y-1.419557286
N4250 X0.70184212 Y-1.442764012
N4255 X0.655408769 Y-1.464507186
N4260 X0.6083113 Y-1.484771488
N4265 X0.560593643 Y-1.503528985
N4270 X0.512293493 Y-1.520731168
N4275 X0.463461613 Y-1.536360162
N4280 X0.414151057 Y-1.550406058
N4285 X0.364414913 Y-1.562861345
N4290 X0.314306105 Y-1.573720617
N4295 X0.263877215 Y-1.582980569
N4300 X0.213180414 Y-1.590638949
N4305 X0.162267272 Y-1.596694406
N4310 X0.111186523 Y-1.601118854
N4315 X0.059989297 Y-1.603886762
N4320 X0.008729398 Y-1.605000684
N4325 X-0.042539807 Y-1.604465725
N4330 X-0.093765606 Y-1.602289695
N4335 X-0.144896047 Y-1.598482357
N4340 X-0.195879955 Y-1.593054674
N4345 X-0.246666961 Y-1.586019261
N4350 X-0.297206462 Y-1.577383477
N4355 X-0.347441951 Y-1.567126297
N4360 X-0.397319681 Y-1.555250573
N4365 X-0.446788946 Y-1.541774329
N4370 X-0.495800221 Y-1.526717389
N4375 X-0.544305298 Y-1.510101829
N4380 X-0.592257132 Y-1.491951379
N4385 X-0.639609915 Y-1.47229097
N4390 X-0.686318856 Y-1.451146434
N4395 X-0.73233289 Y-1.428529484
N4400 X-0.777592396 Y-1.404438169
N4405 X-0.822050815 Y-1.378898621
N4410 X-0.86566467 Y-1.351942228
N4415 X-0.908392433 Y-1.323602181
N4420 X-0.950194156 Y-1.293913173
N4425 X-0.991031617 Y-1.262911248
N4430 X-1.03086817 Y-1.230633278
N4435 X-1.069667321 Y-1.19711553
N4440 X-1.107374852 Y-1.162374226
N4445 X-1.143940678 Y-1.12643317
N4450 X-1.179329729 Y-1.089332836
N4455 X-1.213509342 Y-1.051115351
N4460 X-1.246449027 Y-1.01182427
N4465 X-1.278120627 Y-0.971503896
N4470 X-1.308497331 Y-0.93019936
N4475 X-1.337554511 Y-0.887956019
N4480 X-1.365262129 Y-0.844815397
N4485 X-1.391567471 Y-0.80080588
N4490 X-1.416439447 Y-0.755970572
N4495 X-1.439855681 Y-0.710358056
N4500 X-1.461796798 Y-0.66401797
N4505 X-1.482245828 Y-0.617000362
N4510 X-1.501188203 Y-0.569355807
N4515 X-1.518611007 Y-0.521134842
N4520 X-1.534503276 Y-0.472388005
N4525 X-1.548836926 Y-0.42316035
N4530 X-1.56157426 Y-0.373495658
N4535 X-1.572704015 Y-0.323446229
N4540 X-1.582219282 Y-0.27306491
N4545 X-1.590115405 Y-0.222404585
N4550 X-1.596390732 Y-0.171518063
N4555 X-1.601045563 Y-0.120457805
N4560 X-1.604082153 Y-0.069275813
N4565 X-1.605502151 Y-0.018023481
N4570 X-1.605279877 Y0.033248034
N4575 X-1.603404668 Y0.084485726
N4580 X-1.599882832 Y0.135636621
N4585 X-1.594723379 Y0.186648369
N4590 X-1.587938023 Y0.237469392
N4595 X-1.579541785 Y0.288049236
N4600 X-1.569551483 Y0.338338529
N4605 X-1.557986793 Y0.388289249
N4610 X-1.544861981 Y0.437852905
N4615 X-1.53016999 Y0.486974829
N4620 X-1.513931995 Y0.535607601
N4625 X-1.49617458 Y0.58370639
N4630 X-1.476925377 Y0.631227794
N4635 X-1.456213823 Y0.678130398
N4640 X-1.434071608 Y0.724374741
N4645 X-1.410531622 Y0.769923428
N4650 X-1.385627807 Y0.814741014
N4655 X-1.359392001 Y0.858792132
N4660 X-1.33183667 Y0.902030149
N4665 X-1.302992903 Y0.944419395
N4670 X-1.272898246 Y0.98593006
N4675 X-1.24158679 Y1.026530604
N4680 X-1.209091952 Y1.066190464
N4685 X-1.175448125 Y1.104880355
N4690 X-1.140690075 Y1.142572493
N4695 X-1.104853097 Y1.179240294
N4700 X-1.067972333 Y1.214858078
N4705 X-1.030073767 Y1.249390925
N4710 X-0.991177897 Y1.282796484
N4715 X-0.951323547 Y1.315052453
N4720 X-0.910545484 Y1.346132474
N4725 X-0.868878252 Y1.376009813
N4730 X-0.826357068 Y1.404658941
N4735 X-0.783018578 Y1.432055826
N4740 X-0.738900102 Y1.458178242
N4745 X-0.694039788 Y1.483005013
N4750 X-0.648473604 Y1.506511208
N4755 X-0.602228172 Y1.52865117
N4760 X-0.555343778 Y1.549403724
N4765 X-0.507861648 Y1.568749646
N4770 X-0.459822895 Y1.586668811
N4775 X-0.411269533 Y1.603142746
N4780 X-0.362244741 Y1.618155682
N4785 X-0.312792504 Y1.631694253
N4790 X-0.262957333 Y1.643747044
N4795 X-0.212782987 Y1.654299488
N4800 X-0.162309455 Y1.663312837
N4805 X-0.111583537 Y1.670775977
N4810 X-0.060652893 Y1.6766826
N4815 X-0.009565151 Y1.681025347
N4820 X0.041631714 Y1.683800014
N4825 X0.092889549 Y1.685005098
N4830 X0.144160254 Y1.6846415
N4835 X0.195395984 Y1.682713276
N4840 X0.24654869 Y1.679217722
N4845 X0.297567751 Y1.674131258
N4850 X0.348404073 Y1.667461395
N4855 X0.399009036 Y1.659218045
N4860 X0.449334205 Y1.649410068
N4865 X0.499331707 Y1.638049178
N4870 X0.548954536 Y1.625149945
N4875 X0.598156659 Y1.610728887
N4880 X0.646893133 Y1.594804929
N4885 X0.695116539 Y1.577388733
N4890 X0.742772245 Y1.558474443
N4895 X0.789817149 Y1.53808834
N4900 X0.836208073 Y1.516254755
N4905 X0.881901914 Y1.492997718
N4910 X0.92685692 Y1.468342909
N4915 X0.971032766 Y1.442317662
N4920 X1.014390855 Y1.414951715
N4925 X1.056894092 Y1.386276005
N4930 X1.098500575 Y1.356314111
N4935 X1.139158189 Y1.325076696
N4940 X1.17883442 Y1.292601758
N4945 X1.217496677 Y1.258926241
N4950 X1.255111619 Y1.224084614
N4955 X1.291646732 Y1.188112394
N4960 X1.327071753 Y1.151046453
N4965 X1.361358522 Y1.112925162
N4970 X1.394480608 Y1.073787719
N4975 X1.42640692 Y1.033668743
N4980 X1.457090903 Y0.992591813
N4985 X1.48651123 Y0.950600557
N4990 X1.514649279 Y0.907739504
N4995 X1.541483271 Y0.864050257
N5000 X1.566992031 Y0.819574266
N5005 X1.591156937 Y0.774353883
N5010 X1.613960867 Y0.728432212
N5015 X1.635389103 Y0.681852731
N5020 X1.655425425 Y0.634657792
N5025 X1.674032136 Y0.586881149
N5030 X1.691194519 Y0.538566882
N5035 X1.70690972 Y0.489762674
N5040 X1.721169029 Y0.440513393
N5045 X1.733963283 Y0.390863381
N5050 X1.745284824 Y0.34085698
N5055 X1.755128095 Y0.29053872
N5060 X1.76348949 Y0.239953112
N5065 X1.770367209 Y0.189144499
N5070 X1.775740976 Y0.138154884
N5075 X1.779594421 Y0.087027906
N5080 X1.781938658 Y0.035809525
N5085 X1.782779393 Y-0.015455578
N5090 X1.78211933 Y-0.066723326
N5095 X1.779961323 Y-0.117949895
N5100 X1.776310628 Y-0.16909175
N5105 X1.771174303 Y-0.220105817
N5110 X1.76456106 Y-0.270949518
N5115 X1.756473301 Y-0.321579618
N5120 X1.746896759 Y-0.371949316
N5125 X1.735846602 Y-0.422016392
N5130 X1.723343406 Y-0.47174052
N5135 X1.709402189 Y-0.521080776
N5140 X1.694036619 Y-0.569996158
N5145 X1.677261713 Y-0.618446343
N5150 X1.659093992 Y-0.666391643
N5155 X1.639552229 Y-0.713793537
N5160 X1.618655648 Y-0.760613915
N5165 X1.5964053 Y-0.806806369
N5170 X1.572812148 Y-0.852327572
N5175 X1.547907732 Y-0.897144858
N5180 X1.521719835 Y-0.941224436
N5185 X1.494272638 Y-0.984531162
N5190 X1.465590019 Y-1.027029668
N5195 X1.43569751 Y-1.068686087
N5200 X1.404621845 Y-1.109467454
N5205 X1.372391408 Y-1.149342454
N5210 X1.339029628 Y-1.18827587
N5215 X1.304547468 Y-1.226220469
N5220 X1.268978419 Y-1.26314824
N5225 X1.232360329 Y-1.299036131
N5230 X1.194726914 Y-1.333857709
N5235 X1.156110313 Y-1.36758564
N5240 X1.116543041 Y-1.400193042
N5245 X1.076058591 Y-1.431654682
N5250 X1.034691803 Y-1.461946683
N5255 X0.992478048 Y-1.491046815
N5260 X0.949442556 Y-1.518917234
N5265 X0.905614613 Y-1.545524147
N5270 X0.861037247 Y-1.570855539
N5275 X0.815751534 Y-1.594897593
N5280 X0.769796221 Y-1.617633639
N5285 X0.723209231 Y-1.639045505
N5290 X0.67602916 Y-1.65911697
N5295 X0.628295358 Y-1.677833317
N5300 X0.58004751 Y-1.695181479
N5305 X0.531324176 Y-1.711145686
N5310 X0.482158361 Y-1.725690046
N5315 X0.432592077 Y-1.738804945
N5320 X0.382669479 Y-1.750490534
N5325 X0.332433032 Y-1.760743209
N5330 X0.281924169 Y-1.769556361
N5335 X0.231184246 Y-1.776923683
N5340 X0.18025479 Y-1.782840519
N5345 X0.129177439 Y-1.787304015
N5350 X0.077993818 Y-1.79031297
N5355 X0.026744933 Y-1.791852365
N5360 X-0.024527037 Y-1.791903428
N5365 X-0.075779177 Y-1.790476521
N5370 X-0.126969448 Y-1.787582758
N5375 X-0.178056233 Y-1.783228596
N5380 X-0.228997985 Y-1.777418692
N5385 X-0.279753358 Y-1.770158602
N5390 X-0.330281295 Y-1.761455536
N5395 X-0.380541208 Y-1.751318504
N5400 X-0.430492341 Y-1.739755615
N5405 X-0.480088437 Y-1.726753806
N5410 X-0.529287293 Y-1.712321484
N5415 X-0.578051177 Y-1.69648163
N5420 X-0.626342428 Y-1.679254667
N5425 X-0.674122563 Y-1.660656816
N5430 X-0.721352945 Y-1.640704147
N5435 X-0.767995579 Y-1.619413781
N5440 X-0.814013218 Y-1.596804191
N5445 X-0.859369593 Y-1.572895651
N5450 X-0.904023779 Y-1.547699876
N5455 X-0.947928091 Y-1.521219269
N5460 X-0.991050014 Y-1.493482665
N5465 X-1.033359513 Y-1.464521904
N5470 X-1.074825197 Y-1.43436537
N5475 X-1.115414251 Y-1.403039046
N5480 X-1.155094237 Y-1.370568764
N5485 X-1.193833689 Y-1.336982006
N5490 X-1.231602271 Y-1.302307009
N5495 X-1.26837032 Y-1.266572907
N5500 X-1.304093609 Y-1.229794269
N5505 X-1.338735565 Y-1.191995425
N5510 X-1.372276066 Y-1.153215874
N5515 X-1.404694234 Y-1.113493311
N5520 X-1.435966492 Y-1.072862505
N5525 X-1.466068358 Y-1.031357172
N5530 X-1.494976104 Y-0.989011404
N5535 X-1.522667051 Y-0.94586027
N5540 X-1.549120475 Y-0.901939512
N5545 X-1.574310543 Y-0.857282098
N5550 X-1.598195354 Y-0.811913258
N5555 X-1.620758838 Y-0.765873015
N5560 X-1.641991983 Y-0.719204249
N5565 X-1.661883677 Y-0.671948185
N5570 X-1.680420102 Y-0.624144171
N5575 X-1.69758669 Y-0.575831406
N5580 X-1.713370676 Y-0.527049425
N5585 X-1.727760495 Y-0.477838141
N5590 X-1.740746385 Y-0.42823784
N5595 X-1.752301314 Y-0.378284867
N5600 X-1.7624011 Y-0.328017483
N5605 X-1.771047998 Y-0.277479878
N5610 X-1.778244559 Y-0.226715456
N5615 X-1.783990034 Y-0.175766382
N5620 X-1.788281568 Y-0.124674303
N5625 X-1.791116459 Y-0.073480737
N5630 X-1.792493805 Y-0.022227246
N5635 X-1.792414508 Y0.029044689
N5640 X-1.790877064 Y0.080293623
N5645 X-1.787858798 Y0.131476705
N5650 X-1.783362712 Y0.182551211
N5655 X-1.777404875 Y0.233475862
N5660 X-1.769999707 Y0.284210284
N5665 X-1.761158921 Y0.334714304
N5670 X-1.75089318 Y0.384948122
N5675 X-1.7392151 Y0.434872447
N5680 X-1.726138498 Y0.484448831
N5685 X-1.711678843 Y0.533639653
N5690 X-1.695844846 Y0.582405413
N5695 X-1.678632601 Y0.630701996
N5700 X-1.660065989 Y0.678494221
N5705 X-1.640172943 Y0.725749759
N5710 X-1.618981099 Y0.772437298
N5715 X-1.596514935 Y0.818525149
N5720 X-1.57279773 Y0.863981848
N5725 X-1.547853215 Y0.908776831
N5730 X-1.521706468 Y0.952880814
N5735 X-1.494382423 Y0.996265261
N5740 X-1.465902554 Y1.03889991
N5745 X-1.436274221 Y1.080744661
N5750 X-1.405523856 Y1.12177188
N5755 X-1.373683899 Y1.16195934
N5760 X-1.34078559 Y1.20128519
N5765 X-1.306858363 Y1.2397269
N5770 X-1.271929253 Y1.277260518
N5775 X-1.236024166 Y1.313861637
N5780 X-1.19917036 Y1.349507279
N5785 X-1.161394795 Y1.384174617
N5790 X-1.122724428 Y1.417840973
N5795 X-1.083174953 Y1.450470001
N5800 X-1.042767397 Y1.482030313
N5805 X-1.001535326 Y1.512505389
N5810 X-0.959511404 Y1.541879008
N5815 X-0.916727547 Y1.5701342
N5820 X-0.873213866 Y1.597252042
N5825 X-0.828999647 Y1.623212108
N5830 X-0.784115003 Y1.647994875
N5835 X-0.738590721 Y1.671582019
N5840 X-0.69245789 Y1.693955669
N5845 X-0.645742491 Y1.715085938
N5850 X-0.598469944 Y1.734938584
N5855 X-0.550676932 Y1.753503094
N5860 X-0.502400135 Y1.770770756
N5865 X-0.453675901 Y1.78673211
N5870 X-0.404539409 Y1.801375291
N5875 X-0.355025727 Y1.814687383
N5880 X-0.305170356 Y1.826656522
N5885 X-0.255009396 Y1.837272344
N5890 X-0.204579305 Y1.846525688
N5895 X-0.153914512 Y1.854393126
N5900 X-0.103050555 Y1.860848825
N5905 X-0.052027341 Y1.865893537
N5910 X-0.000884457 Y1.869529814
N5915 X0.050339032 Y1.87175961
N5920 X0.101604434 Y1.872581722
N5925 X0.152873073 Y1.871994649
N5930 X0.204106184 Y1.869998391
N5935 X0.255265086 Y1.8665946
N5940 X0.306311048 Y1.861785528
N5945 X0.357203183 Y1.855555857
N5950 X0.407899834 Y1.847896576
N5955 X0.458362459 Y1.838822252
N5960 X0.508553175 Y1.828348055
N5965 X0.558434509 Y1.8164875
N5970 X0.607968728 Y1.803252153
N5975 X0.657118099 Y1.788652225
N5980 X0.7058456 Y1.772700633
N5985 X0.754114511 Y1.755411193
N5990 X0.801888488 Y1.736797573
N5995 X0.849122926 Y1.716854516
N6000 X0.895778025 Y1.695591484
N6005 X0.941821346 Y1.673034157
N6010 X0.987221125 Y1.649208219
N6015 X1.031945822 Y1.624137848
N6020 X1.075962848 Y1.597844972
N6025 X1.119239612 Y1.570350617
N6030 X1.161744726 Y1.54167776
N6035 X1.203447928 Y1.511850582
N6040 X1.244318429 Y1.480892211
N6045 X1.284312451 Y1.448809706
N6050 X1.323397028 Y1.415625144
N6055 X1.361548657 Y1.381372016
N6060 X1.398744508 Y1.346083513
N6065 X1.434961755 Y1.309791024
N6070 X1.470175766 Y1.272524586
N6075 X1.504361761 Y1.234312884
N6080 X1.537496612 Y1.195186179
N6085 X1.569558542 Y1.155175562
N6090 X1.600525473 Y1.114311594
N6095 X1.630359259 Y1.072613048
N6100 X1.659033467 Y1.03010891
N6105 X1.686535482 Y0.986836952
N6110 X1.712852238 Y0.942834193
N6115 X1.737971268 Y0.89813683
N6120 X1.761877556 Y0.852779328
N6125 X1.784555931 Y0.806795481
N6130 X1.805991676 Y0.760219454
N6135 X1.826172626 Y0.713086241
N6140 X1.845087367 Y0.665430685
N6145 X1.862708264 Y0.617281696
N6150 X1.879012941 Y0.568671264
N6155 X1.893998844 Y0.519638212
N6160 X1.907663571 Y0.470220686
N6165 X1.920004717 Y0.42045612
N6170 X1.931018379 Y0.370380972
N6175 X1.940698549 Y0.320031098
N6180 X1.949039519 Y0.269442111
N6185 X1.956038437 Y0.218650056
N6190 X1.961693651 Y0.167690882
N6195 X1.965993296 Y0.116599498
N6200 X1.968917546 Y0.065410949
N6205 X1.970471209 Y0.014162501
N6210 X1.970661944 Y-0.037109141
N6215 X1.969496659 Y-0.088367894
N6220 X1.966982113 Y-0.139578196
N6225 X1.96312236 Y-0.190704695
N6230 X1.957920405 Y-0.241712135
N6235 X1.951381653 Y-0.292565466
N6240 X1.943513164 Y-0.34323009
N6245 X1.934319744 Y-0.393671126
N6250 X1.923788026 Y-0.443849826
N6255 X1.911925669 Y-0.49373071
N6260 X1.898749344 Y-0.543280662
N6265 X1.884274971 Y-0.592467165
N6270 X1.868518469 Y-0.641258045
N6275 X1.851493805 Y-0.689621047
N6280 X1.833213296 Y-0.737523432
N6285 X1.813689555 Y-0.78493276
N6290 X1.792937451 Y-0.831817417
N6295 X1.770973806 Y-0.878146765
N6300 X1.747801172 Y-0.923883483
N6305 X1.723424806 Y-0.968990176
N6310 X1.697868888 Y-1.013439133
N6315 X1.671157446 Y-1.057203548
N6320 X1.643314061 Y-1.100256537
N6325 X1.61436156 Y-1.142571667
N6330 X1.584320669 Y-1.184121154
N6335 X1.553211362 Y-1.224876914
N6340 X1.521055267 Y-1.264811839
N6345 X1.48787551 Y-1.303900621
N6350 X1.453692369 Y-1.342114877
N6355 X1.418514402 Y-1.379415257
N6360 X1.382367292 Y-1.415777432
N6365 X1.345281676 Y-1.451181877
N6370 X1.307286991 Y-1.485608919
N6375 X1.268412522 Y-1.519039334
N6380 X1.22868628 Y-1.551452997
N6385 X1.188134997 Y-1.582828281
N6390 X1.146785331 Y-1.613143711
N6395 X1.104665741 Y-1.642379911
N6400 X1.061805365 Y-1.67051901
N6405 X1.018225152 Y-1.69752977
N6410 X0.973949207 Y-1.723384256
N6415 X0.929011848 Y-1.748071355
N6420 X0.883447016 Y-1.771580253
N6425 X0.837288053 Y-1.793899837
N6430 X0.790567774 Y-1.815019442
N6435 X0.743317942 Y-1.834926004
N6440 X0.695569722 Y-1.853605406
N6445 X0.647354952 Y-1.871045481
N6450 X0.598706336 Y-1.887235867
N6455 X0.549655261 Y-1.902162747
N6460 X0.500229325 Y-1.915796986
N6465 X0.45046307 Y-1.928131524
N6470 X0.400392277 Y-1.93916471
N6475 X0.35005209 Y-1.948895192
N6480 X0.299477277 Y-1.957321618
N6485 X0.248702004 Y-1.964441284
N6490 X0.197760045 Y-1.970249536
N6495 X0.14668521 Y-1.974741568
N6500 X0.095511506 Y-1.977914825
N6505 X0.044273054 Y-1.979769159
N6510 X-0.006996306 Y-1.980288949
N6515 X-0.058261639 Y-1.979462481
N6520 X-0.109487932 Y-1.977298016
N6525 X-0.160640713 Y-1.973803663
N6530 X-0.211685962 Y-1.968987082
N6535 X-0.262590074 Y-1.962855932
N6540 X-0.313319409 Y-1.955416071
N6545 X-0.363840156 Y-1.946671253
N6550 X-0.414118654 Y-1.936626885
N6555 X-0.464121676 Y-1.925290476
N6560 X-0.513815354 Y-1.912666831
N6565 X-0.563161167 Y-1.898745289
N6570 X-0.612125697 Y-1.883536962
N6575 X-0.660677707 Y-1.867059122
N6580 X-0.708786371 Y-1.849328439
N6585 X-0.756421202 Y-1.830361734
N6590 X-0.803551787 Y-1.810174476
N6595 X-0.850146962 Y-1.788780333
N6600 X-0.896175264 Y-1.766192519
N6605 X-0.941606131 Y-1.742425753
N6610 X-0.986409976 Y-1.717497307
N6615 X-1.030550454 Y-1.691412137
N6620 X-1.073991145 Y-1.664177452
N6625 X-1.116706292 Y-1.635818331
N6630 X-1.158670591 Y-1.606359707
N6635 X-1.199859109 Y-1.575825759
N6640 X-1.240247066 Y-1.544240516
N6645 X-1.279808855 Y-1.511626356
N6650 X-1.31851782 Y-1.478004305
N6655 X-1.356347302 Y-1.44339599
N6660 X-1.393272971 Y-1.407824689
N6665 X-1.429268544 Y-1.371312479
N6670 X-1.464295425 Y-1.333870024
N6675 X-1.498330334 Y-1.295523756
N6680 X-1.5313557 Y-1.256304613
N6685 X-1.563353952 Y-1.216242933
N6690 X-1.594307366 Y-1.175368752
N6695 X-1.624198373 Y-1.133711207
N6700 X-1.653007597 Y-1.091298456
N6705 X-1.680714765 Y-1.048157684
N6710 X-1.707301102 Y-1.004317201
N6715 X-1.732749789 Y-0.959806743
N6720 X-1.75703304 Y-0.914649813
N6725 X-1.780122472 Y-0.868871118
N6730 X-1.802008922 Y-0.8225052
N6735 X-1.82268383 Y-0.775586451
N6740 X-1.842138185 Y-0.728148588
N6745 X-1.860363127 Y-0.680225027
N6750 X-1.877348892 Y-0.631848433
N6755 X-1.893083768 Y-0.583050533
N6760 X-1.907555738 Y-0.533863353
N6765 X-1.920755491 Y-0.484319597
N6770 X-1.932672065 Y-0.434451629
N6775 X-1.943278425 Y-0.38428866
N6780 X-1.952567514 Y-0.333865158
N6785 X-1.960540381 Y-0.283216848
N6790 X-1.967197779 Y-0.232378911
N6795 X-1.972540608 Y-0.181386039
N6800 X-1.976569168 Y-0.130272559
N6805 X-1.979282109 Y-0.079072385
N6810 X-1.980676426 Y-0.027819351
N6815 X-1.980750617 Y0.023452593
N6820 X-1.979505884 Y0.07470948
N6825 X-1.976932466 Y0.125916849
N6830 X-1.973018796 Y0.177039255
N6835 X-1.96777569 Y0.228042471
N6840 X-1.961215012 Y0.278892986
N6845 X-1.953348175 Y0.329557892
N6850 X-1.944186894 Y0.380004748
N6855 X-1.933741832 Y0.430201583
N6860 X-1.922022902 Y0.480116334
N6865 X-1.909038213 Y0.529716897
N6870 X-1.894798279 Y0.578971735
N6875 X-1.879314813 Y0.627849947
N6880 X-1.862585413 Y0.676315863
N6885 X-1.844619391 Y0.72433712
N6890 X-1.825439423 Y0.771886495
N6895 X-1.805066987 Y0.818937332
N6900 X-1.783523259 Y0.865463497
N6905 X-1.760829115 Y0.911439535
N6910 X-1.737004978 Y0.95684029
N6915 X-1.712069624 Y1.001640305
N6920 X-1.686039872 Y1.045813598
N6925 X-1.658934045 Y1.089334713
N6930 X-1.630771216 Y1.132179546
N6935 X-1.601559646 Y1.174316106
N6940 X-1.571313753 Y1.215716685
N6945 X-1.540060419 Y1.256362059
N6950 X-1.507825176 Y1.29623323
N6955 X-1.474632804 Y1.335311049
N6960 X-1.440507333 Y1.373576818
N6965 X-1.405472192 Y1.411011613
N6970 X-1.369549909 Y1.447595912
N6975 X-1.332761209 Y1.483308687
N6980 X-1.295126367 Y1.518128763
N6985 X-1.25666716 Y1.552036165
N6990 X-1.217400333 Y1.585004761
N6995 X-1.177340079 Y1.617004665
N7000 X-1.136513582 Y1.648021007
N7005 X-1.094948175 Y1.678039971
N7010 X-1.052670591 Y1.70704729
N7015 X-1.009707038 Y1.735028545
N7020 X-0.966083497 Y1.761969319
N7025 X-0.921825574 Y1.787854593
N7030 X-0.876957525 Y1.812667546
N7035 X-0.83150353 Y1.836389857
N7040 X-0.78548897 Y1.859005755
N7045 X-0.738937273 Y1.880494215
N7050 X-0.691868489 Y1.90082535
N7055 X-0.644312205 Y1.919988197
N7060 X-0.596298909 Y1.937975395
N7065 X-0.547858636 Y1.954778987
N7070 X-0.499021237 Y1.97039071
N7075 X-0.449816411 Y1.984802607
N7080 X-0.400273631 Y1.998005965
N7085 X-0.350421921 Y2.009990272
N7090 X-0.300290303 Y2.020743813
N7095 X-0.249908703 Y2.030257578
N7100 X-0.199306199 Y2.038516247
N7105 X-0.148511506 Y2.045495942
N7110 X-0.097557334 Y2.051196061
N7115 X-0.046476351 Y2.055617655
N7120 X0.004699142 Y2.058761927
N7125 X0.055937096 Y2.060629927
N7130 X0.107205665 Y2.061222857
N7135 X0.158473131 Y2.060541168
N7140 X0.209707707 Y2.058582756
N7145 X0.260877422 Y2.055345821
N7150 X0.311950267 Y2.050831111
N7155 X0.362892864 Y2.045028416
N7160 X0.413670803 Y2.037927973
N7165 X0.464252149 Y2.029540745
N7170 X0.51460544 Y2.019878147
N7175 X0.564699548 Y2.008951292
N7180 X0.6145038 Y1.996771294
N7185 X0.663987708 Y1.983348967
N7190 X0.713120783 Y1.968694071
N7195 X0.761871788 Y1.952814718
N7200 X0.81020971 Y1.935719017
N7205 X0.858103985 Y1.917417181
N7210 X0.905518419 Y1.897905905
N7215 X0.952419596 Y1.877191198
N7220 X0.998780483 Y1.855294085
N7225 X1.044574422 Y1.832234841
N7230 X1.08977498 Y1.80803299
N7235 X1.134356026 Y1.782708055
N7240 X1.178291876 Y1.756279713
N7245 X1.221556326 Y1.728765983
N7250 X1.264122189 Y1.700183388
N7255 X1.30596236 Y1.670548747
N7260 X1.347050704 Y1.639880083
N7265 X1.387350878 Y1.608182952
N7270 X1.426835849 Y1.575475678
N7275 X1.46548564 Y1.541785743
N7280 X1.50328073 Y1.507139732
N7285 X1.540201593 Y1.471563474
N7290 X1.576229156 Y1.435082954
N7295 X1.611344345 Y1.397723401
N7300 X1.645527937 Y1.359509446
N7305 X1.678758606 Y1.320464217
N7310 X1.711015927 Y1.280610843
N7315 X1.742279473 Y1.239973354
N7320 X1.772516806 Y1.198566542
N7325 X1.801707651 Y1.156415414
N7330 X1.829840893 Y1.113551283
N7335 X1.856905419 Y1.070004411
N7340 X1.882889515 Y1.025804384
N7345 X1.907782067 Y0.980980565
N7350 X1.931572261 Y0.935562014
N7355 X1.954248383 Y0.889577115
N7360 X1.975797368 Y0.843053352
N7365 X1.996205397 Y0.79601791
N7370 X2.015460307 Y0.748498796
N7375 X2.033536115 Y0.700518766
N7380 X2.050417802 Y0.652105677
N7385 X2.066103567 Y0.603292007
N7390 X2.080590406 Y0.554109183
N7395 X2.093875314 Y0.504588217
N7400 X2.105955289 Y0.454759598
N7405 X2.116827477 Y0.404653549
N7410 X2.126488573 Y0.354299996
N7415 X2.134934072 Y0.303728374
N7420 X2.142157667 Y0.252967782
N7425 X2.148155303 Y0.202047769
N7430 X2.152911359 Y0.15099685
N7435 X2.156413371 Y0.099844585
N7440 X2.158666896 Y0.048622146
N7445 X2.159677941 Y-0.002639883
N7450 X2.159451462 Y-0.053911378
N7455 X2.157992416 Y-0.105162606
N7460 X2.155305457 Y-0.15636415
N7465 X2.151395542 Y-0.207486847
N7470 X2.146266427 Y-0.258501665
N7475 X2.139920062 Y-0.309379364
N7480 X2.132359152 Y-0.360090789
N7485 X2.123581443 Y-0.410605866
N7490 X2.113577024 Y-0.460892287
N7495 X2.102356257 Y-0.510921441
N7500 X2.08993296 Y-0.560665581
N7505 X2.076319897 Y-0.610097375
N7510 X2.061529385 Y-0.659189675
N7515 X2.045573287 Y-0.707915674
N7520 X2.02846407 Y-0.756248865
N7525 X2.010213296 Y-0.804162589
N7530 X1.99083103 Y-0.851629888
N7535 X1.970326431 Y-0.898623279
N7540 X1.948709112 Y-0.945115277
N7545 X1.92597622 Y-0.991072167
N7550 X1.902139468 Y-1.036466238
N7555 X1.877219133 Y-1.081274738
N7560 X1.851235037 Y-1.12547469
N7565 X1.824205804 Y-1.169043563
N7570 X1.796150358 Y-1.211958682
N7575 X1.76708687 Y-1.254197669
N7580 X1.737033814 Y-1.29573837
N7585 X1.706008611 Y-1.336558184
N7590 X1.67402718 Y-1.376633231
N7595 X1.641106643 Y-1.415940232
N7600 X1.607256612 Y-1.454450052
N7605 X1.572487899 Y-1.492132202
N7610 X1.536825285 Y-1.528969712
N7615 X1.500293852 Y-1.564945611
N7620 X1.462917929 Y-1.60004353
N7625 X1.424721395 Y-1.634246496
N7630 X1.385727529 Y-1.667537539
N7635 X1.345960061 Y-1.69990059
N7640 X1.305441819 Y-1.731318677
N7645 X1.264195029 Y-1.761773778
N7650 X1.222241169 Y-1.79124742
N7655 X1.179601189 Y-1.81971933
N7660 X1.136289657 Y-1.847158868
N7665 X1.092332179 Y-1.873551166
N7670 X1.047757367 Y-1.898887064
N7675 X1.002593303 Y-1.923156949
N7680 X0.956867473 Y-1.946351059
N7685 X0.91060691 Y-1.968459332
N7690 X0.863838646 Y-1.989472307
N7695 X0.816589265 Y-2.00937992
N7700 X0.768885199 Y-2.02817196
N7705 X0.72075198 Y-2.045835961
N7710 X0.67221589 Y-2.062360508
N7715 X0.623299606 Y-2.077723225
N7720 X0.574028398 Y-2.09190654
N7725 X0.524432415 Y-2.10490865
N7730 X0.474541394 Y-2.116728355
N7735 X0.424384508 Y-2.12736355
N7740 X0.37399063 Y-2.136811985
N7745 X0.323388295 Y-2.145071405
N7750 X0.272605832 Y-2.152139709
N7755 X0.221671495 Y-2.158014343
N7760 X0.170613236 Y-2.162691101
N7765 X0.119459075 Y-2.166165179
N7770 X0.068237063 Y-2.168428616
N7775 X0.016975505 Y-2.16946324
N7780 X-0.03429613 Y-2.169270703
N7785 X-0.08554866 Y-2.167857914
N7790 X-0.136753321 Y-2.165231029
N7795 X-0.187881669 Y-2.161395756
N7800 X-0.238905535 Y-2.156357502
N7805 X-0.289796901 Y-2.150121674
N7810 X-0.340527963 Y-2.142693527
N7815 X-0.391070824 Y-2.134077568
N7820 X-0.441397344 Y-2.124276349
N7825 X-0.491479175 Y-2.113293325
N7830 X-0.541284967 Y-2.101119635
N7835 X-0.590784418 Y-2.087754678
N7840 X-0.63995106 Y-2.073212871
N7845 X-0.68875861 Y-2.057508333
N7850 X-0.737181311 Y-2.04065413
N7855 X-0.785193256 Y-2.022663327
N7860 X-0.832768913 Y-2.00354854
N7865 X-0.879882752 Y-1.983322234
N7870 X-0.926509467 Y-1.961997025
N7875 X-0.972622999 Y-1.939583576
N7880 X-1.018196767 Y-1.916092249
N7885 X-1.06320216 Y-1.891529354
N7890 X-1.107605611 Y-1.865894288
N7895 X-1.151383468 Y-1.839205074
N7900 X-1.194514102 Y-1.811482137
N7905 X-1.236976263 Y-1.782745602
N7910 X-1.27874855 Y-1.753015293
N7915 X-1.319809561 Y-1.722310134
N7920 X-1.36013827 Y-1.690649198
N7925 X-1.399713351 Y-1.658051108
N7930 X-1.438513628 Y-1.624534637
N7935 X-1.476515973 Y-1.590116005
N7940 X-1.513697707 Y-1.554812634
N7945 X-1.550026691 Y-1.518632183
N7950 X-1.585477994 Y-1.481591322
N7955 X-1.620036148 Y-1.443715884
N7960 X-1.653686133 Y-1.405031249
N7965 X-1.686412631 Y-1.365562349
N7970 X-1.718200323 Y-1.325333513
N7975 X-1.74903359 Y-1.28436862
N7980 X-1.778897413 Y-1.242691626
N7985 X-1.807776173 Y-1.200326109
N7990 X-1.83565335 Y-1.157294972
N7995 X-1.862511372 Y-1.113620443
N8000 X-1.888327861 Y-1.069322271
N8005 X-1.913074283 Y-1.024417577
N8010 X-1.936740275 Y-0.978934145
N8015 X-1.959318026 Y-0.932900887
N8020 X-1.980799427 Y-0.886345961
N8025 X-2.001176669 Y-0.839297152
N8030 X-2.02044119 Y-0.791781944
N8035 X-2.038584431 Y-0.743827369
N8040 X-2.055598281 Y-0.695460537
N8045 X-2.07147373 Y-0.646708256
N8050 X-2.086199813 Y-0.597596544
N8055 X-2.099765117 Y-0.548151609
N8060 X-2.112145311 Y-0.498396731
N8065 X-2.123329433 Y-0.448359429
N8070 X-2.133317482 Y-0.398069705
N8075 X-2.142109908 Y-0.347557218
N8080 X-2.149706412 Y-0.296851087
N8085 X-2.156106543 Y-0.245980128
N8090 X-2.1613097 Y-0.194972819
N8095 X-2.165315283 Y-0.143857528
N8100 X-2.168122539 Y-0.092662441
N8105 X-2.169729368 Y-0.041415626
N8110 X-2.170132464 Y0.009854786
N8115 X-2.169322517 Y0.061120382
N8120 X-2.167285108 Y0.112351883
N8125 X-2.164027146 Y0.163520265
N8130 X-2.159557793 Y0.21459709
N8135 X-2.153885609 Y0.265554368
N8140 X-2.147019454 Y0.316364559
N8145 X-2.138967439 Y0.367000347
N8150 X-2.129737974 Y0.417434775
N8155 X-2.119339169 Y0.467641185
N8160 X-2.107779135 Y0.517592993
N8165 X-2.095064328 Y0.56726343
N8170 X-2.081200607 Y0.6166255
N8175 X-2.066182715 Y0.665648753
N8180 X-2.050015157 Y0.714304992
N8185 X-2.032715354 Y0.762570223
N8190 X-2.014300579 Y0.810421245
N8195 X-1.994788102 Y0.857835154
N8200 X-1.974194444 Y0.904789497
N8205 X-1.952535674 Y0.951262271
N8210 X-1.929827863 Y0.997231551
N8215 X-1.906086328 Y1.042675559
N8220 X-1.88132669 Y1.087572969
N8225 X-1.855562315 Y1.131901478
N8230 X-1.828805969 Y1.175638334
N8235 X-1.801060504 Y1.218754551
N8240 X-1.772338236 Y1.261226173
N8245 X-1.742660643 Y1.303036006
N8250 X-1.712049199 Y1.344167003
N8255 X-1.680524631 Y1.384602494
N8260 X-1.648107213 Y1.424325658
N8265 X-1.614816921 Y1.463320124
N8270 X-1.580672527 Y1.501568922
N8275 X-1.545692954 Y1.539055682
N8280 X-1.509896526 Y1.575763132
N8285 X-1.473300814 Y1.611673701
N8290 X-1.435921887 Y1.646768315
N8295 X-1.397769808 Y1.681020842
N8300 X-1.358857192 Y1.714406952
N8305 X-1.319207169 Y1.74691358
N8310 X-1.278842566 Y1.778528859
N8315 X-1.23778606 Y1.809240026
N8320 X-1.19605988 Y1.839035064
N8325 X-1.153685953 Y1.867901359
N8330 X-1.110685754 Y1.895826295
N8335 X-1.067080535 Y1.922796655
N8340 X-1.022891398 Y1.948799374
N8345 X-0.978139141 Y1.973820484
N8350 X-0.932843516 Y1.997843765
N8355 X-0.887021268 Y2.02084684
N8360 X-0.840689066 Y2.042804628
N8365 X-0.793872067 Y2.063708869
N8370 X-0.746595728 Y2.083552353
N8375 X-0.698885129 Y2.102327872
N8380 X-0.650765427 Y2.120028368
N8385 X-0.602261213 Y2.136646481
N8390 X-0.553397194 Y2.152174702
N8395 X-0.504197812 Y2.166605221
N8400 X-0.454687584 Y2.179930229
N8405 X-0.404890841 Y2.192140865
N8410 X-0.354831613 Y2.203226465
N8415 X-0.30453252 Y2.213167356
N8420 X-0.254017481 Y2.221944914
N8425 X-0.203313921 Y2.229558689
N8430 X-0.152449204 Y2.236008231
N8435 X-0.101450409 Y2.24129414
N8440 X-0.050344401 Y2.245416416
N8445 X0.000842153 Y2.248375209
N8450 X0.052082717 Y2.25017022
N8455 X0.103350831 Y2.250801146
N8460 X0.154620052 Y2.25026769
N8465 X0.205863874 Y2.248567746
N8470 X0.257055478 Y2.245697863
N8475 X0.308166827 Y2.241642269
N8480 X0.359169667 Y2.236395708
N8485 X0.410036966 Y2.229966441
N8490 X0.460742027 Y2.222362729
N8495 X0.511258493 Y2.21359313
N8500 X0.561560308 Y2.203666206
N8505 X0.611621564 Y2.192589767
N8510 X0.661416542 Y2.180371923
N8515 X0.710919598 Y2.167020182
N8520 X0.760105013 Y2.152542355
N8525 X0.80894673 Y2.136943997
N8530 X0.857417264 Y2.120227964
N8535 X0.905484703 Y2.102385994
N8540 X0.953122762 Y2.083427399
N8545 X1.000307864 Y2.063367799
N8550 X1.047016805 Y2.042223112
N8555 X1.093226831 Y2.020009409
N8560 X1.138915565 Y1.996742309
N8565 X1.184060555 Y1.97243698
N8570 X1.228639573 Y1.947108742
N8575 X1.272630616 Y1.920772162
N8580 X1.316011083 Y1.893441809
N8585 X1.35875792 Y1.865130447
N8590 X1.400844394 Y1.835846788
N8595 X1.442238965 Y1.805592635
N8600 X1.482920909 Y1.774386909
N8605 X1.522872354 Y1.742251389
N8610 X1.562075878 Y1.7092074
N8615 X1.600514359 Y1.675276569
N8620 X1.638170678 Y1.640479771
N8625 X1.675028313 Y1.604838033
N8630 X1.711070143 Y1.56837148
N8635 X1.746279499 Y1.531100686
N8640 X1.780639408 Y1.493045176
N8645 X1.814130948 Y1.454223423
N8650 X1.84673069 Y1.414649693
N8655 X1.878409949 Y1.374335402
N8660 X1.909155207 Y1.333304428
N8665 X1.938955652 Y1.291582002
N8670 X1.967800321 Y1.249193357
N8675 X1.995678849 Y1.206163121
N8680 X2.022581025 Y1.1625157
N8685 X2.048496487 Y1.118275425
N8690 X2.07341502 Y1.073465948
N8695 X2.097325963 Y1.02811085
N8700 X2.120218803 Y0.982233483
N8705 X2.142080923 Y0.935856076
N8710 X2.162893851 Y0.888998452
N8715 X2.182633407 Y0.841678559
N8720 X2.201292684 Y0.793922454
N8725 X2.218868075 Y0.74575687
N8730 X2.235355828 Y0.697208164
N8735 X2.250752336 Y0.648302544
N8740 X2.265054447 Y0.599065691
N8745 X2.278258857 Y0.549523173
N8750 X2.29036196 Y0.499700148
N8755 X2.301360153 Y0.449621621
N8760 X2.31124923 Y0.399312372
N8765 X2.320024085 Y0.348796807
N8770 X2.327673604 Y0.298098654
N8775 X2.334177963 Y0.247240893
N8780 X2.33953551 Y0.196249598
N8785 X2.343749549 Y0.145151061
N8790 X2.346823384 Y0.093971284
N8795 X2.348760019 Y0.042735883
N8800 X2.349563208 Y-0.008529823
N8805 X2.349236256 Y-0.059800777
N8810 X2.347782465 Y-0.111052155
N8815 X2.345204541 Y-0.162259312
N8820 X2.341505486 Y-0.213397694
N8825 X2.336686953 Y-0.264442755
N8830 X2.330746838 Y-0.315369508
N8835 X2.323671476 Y-0.366150939
N8840 X2.315461917 Y-0.416761458
N8845 X2.306127773 Y-0.467176663
N8850 X2.295678957 Y-0.517372634
N8855 X2.28412478 Y-0.567325832
N8860 X2.271475154 Y-0.617012903
N8865 X2.257739841 Y-0.666410867
N8870 X2.242928302 Y-0.715496859
N8875 X2.2270497 Y-0.764248165
N8880 X2.210113195 Y-0.81264203
N8885 X2.192127348 Y-0.860655852
N8890 X2.173098467 Y-0.908265977
N8895 X2.153022346 Y-0.955444021
N8900 X2.131900637 Y-1.002163249
N8905 X2.10974821 Y-1.048402786
N8910 X2.086580682 Y-1.094141983
N8915 X2.062413073 Y-1.139360938
N8920 X2.037261002 Y-1.184039604
N8925 X2.011139337 Y-1.22815853
N8930 X1.984063546 Y-1.271698419
N8935 X1.9560485 Y-1.314639895
N8940 X1.927108614 Y-1.356963661
N8945 X1.897258308 Y-1.398650342
N8950 X1.866510797 Y-1.439679664
N8955 X1.83487359 Y-1.480026996
N8960 X1.802349391 Y-1.519662752
N8965 X1.768956372 Y-1.55856936
N8970 X1.734714658 Y-1.596731051
N8975 X1.699643924 Y-1.634132505
N8980 X1.663764143 Y-1.670758405
N8985 X1.62709484 Y-1.706594032
N8990 X1.589655989 Y-1.741624517
N8995 X1.551466664 Y-1.775835593
N9000 X1.512546089 Y-1.809212392
N9005 X1.472913337 Y-1.841740195
N9010 X1.43258673 Y-1.873403835
N9015 X1.391582339 Y-1.904184687
N9020 X1.349909625 Y-1.934054367
N9025 X1.30758676 Y-1.962995604
N9030 X1.264637174 Y-1.990998186
N9035 X1.221083919 Y-2.018052499
N9040 X1.176950124 Y-2.044148933
N9045 X1.132258618 Y-2.069278327
N9050 X1.087032153 Y-2.093431668
N9055 X1.041293332 Y-2.116600097
N9060 X0.995064533 Y-2.138774752
N9065 X0.948367832 Y-2.159946472
N9070 X0.901225383 Y-2.180105945
N9075 X0.853658361 Y-2.199242209
N9080 X0.805684337 Y-2.217333936
N9085 X0.757322161 Y-2.234361003
N9090 X0.708596838 Y-2.250319053
N9095 X0.659533298 Y-2.265204783
N9100 X0.610156247 Y-2.279015188
N9105 X0.56049024 Y-2.291747116
N9110 X0.510559533 Y-2.303397862
N9115 X0.460388304 Y-2.313965174
N9120 X0.410000508 Y-2.323446199
N9125 X0.359419988 Y-2.331838232
N9130 X0.308670341 Y-2.339138421
N9135 X0.257775145 Y-2.345342861
N9140 X0.206757305 Y-2.35044179
N9145 X0.155639526 Y-2.354415383
N9150 X0.104446589 Y-2.357261688
N9155 X0.053203528 Y-2.358983708
N9160 X0.001935057 Y-2.359585199
N9165 X-0.049334347 Y-2.359069464
N9170 X-0.100580463 Y-2.357440558
N9175 X-0.151779286 Y-2.354702236
N9180 X-0.202906995 Y-2.350858553
N9185 X-0.253939929 Y-2.345912963
N9190 X-0.304854479 Y-2.339869372
N9195 X-0.355627105 Y-2.332730932
N9200 X-0.406233833 Y-2.324498244
N9205 X-0.456648173 Y-2.315159595
N9210 X-0.50684422 Y-2.304710779
N9215 X-0.556798544 Y-2.293161708
N9220 X-0.60648813 Y-2.280521994
N9225 X-0.655890187 Y-2.266801399
N9230 X-0.704982337 Y-2.252010285
N9235 X-0.753742428 Y-2.236158566
N9240 X-0.802148308 Y-2.219256303
N9245 X-0.850178351 Y-2.20131386
N9250 X-0.897810628 Y-2.182340697
N9255 X-0.945023514 Y-2.162346577
N9260 X-0.991794706 Y-2.141340211
N9265 X-1.038098598 Y-2.119322649
N9270 X-1.083905828 Y-2.096289687
N9275 X-1.129195071 Y-2.072254391
N9280 X-1.173946651 Y-2.04723208
N9285 X-1.21814112 Y-2.021238522
N9290 X-1.26175933 Y-1.994289188
N9295 X-1.304782657 Y-1.966399846
N9300 X-1.347192329 Y-1.937586116
N9305 X-1.388970172 Y-1.907863467
N9310 X-1.430097715 Y-1.877247518
N9315 X-1.470556785 Y-1.845753137
N9320 X-1.510328608 Y-1.813395643
N9325 X-1.54939246 Y-1.780186601
N9330 X-1.587718153 Y-1.746128413
N9335 X-1.62528391 Y-1.711233845
N9340 X-1.662074712 Y-1.675523172
N9345 X-1.698075692 Y-1.639016369
N9350 X-1.733272583 Y-1.601733711
N9355 X-1.767651265 Y-1.563695322
N9360 X-1.801197923 Y-1.524921027
N9365 X-1.83389904 Y-1.4854311
N9370 X-1.865740949 Y-1.445245067
N9375 X-1.896710133 Y-1.404382901
N9380 X-1.926792926 Y-1.362863676
N9385 X-1.955974609 Y-1.320706315
N9390 X-1.984231303 Y-1.277923434
N9395 X-2.011537627 Y-1.234527723
N9400 X-2.037883068 Y-1.190542086
N9405 X-2.063258614 Y-1.145989876
N9410 X-2.087655706 Y-1.100894447
N9415 X-2.111065932 Y-1.055278928
N9420 X-2.133481334 Y-1.009166297
N9425 X-2.1548938 Y-0.962579607
N9430 X-2.175295822 Y-0.915541536
N9435 X-2.194679591 Y-0.868074838
N9440 X-2.213037145 Y-0.820201964
N9445 X-2.230360226 Y-0.771945067
N9450 X-2.246635467 Y-0.723324723
N9455 X-2.261837336 Y-0.674358203
N9460 X-2.275957123 Y-0.625068747
N9465 X-2.288991973 Y-0.575481362
N9470 X-2.300939635 Y-0.525620828
N9475 X-2.311798156 Y-0.475511851
N9480 X-2.321565883 Y-0.425178873
N9485 X-2.330241466 Y-0.374646187
N9490 X-2.337823402 Y-0.323937897
N9495 X-2.34431064 Y-0.273077957
N9500 X-2.349701829 Y-0.222090192
N9505 X-2.353995316 Y-0.170998273
N9510 X-2.357188097 Y-0.11982578
N9515 X-2.359263503 Y-0.068595808
N9520 X-2.360210269 Y-0.017332553
N9525 X-2.360032149 Y0.033939133
N9530 X-2.3587338 Y0.085194693
N9535 X-2.356320329 Y0.136409857
N9540 X-2.35279729 Y0.187560667
N9545 X-2.348170243 Y0.238623469
N9550 X-2.342445193 Y0.289574815
N9555 X-2.335628149 Y0.340391595
N9560 X-2.327725118 Y0.391050849
N9565 X-2.318742106 Y0.441529807
N9570 X-2.308684822 Y0.491805715
N9575 X-2.297553415 Y0.541854806
N9580 X-2.285337073 Y0.591650159
N9585 X-2.272042102 Y0.641168459
N9590 X-2.257680217 Y0.690387891
N9595 X-2.242263434 Y0.739287204
N9600 X-2.225804366 Y0.787845521
N9605 X-2.208315331 Y0.836042569
N9610 X-2.189809093 Y0.883858223
N9615 X-2.170298569 Y0.931272957
N9620 X-2.149796223 Y0.978267324
N9625 X-2.128314972 Y1.024822325
N9630 X-2.10586683 Y1.070919037
N9635 X-2.082464113 Y1.116538386
N9640 X-2.058111626 Y1.161657994
N9645 X-2.032808319 Y1.206251204
N9650 X-2.006567857 Y1.250299544
N9655 X-1.979406612 Y1.293786267
N9660 X-1.951341404 Y1.336694853
N9665 X-1.922388452 Y1.379009757
N9670 X-1.892564578 Y1.420715362
N9675 X-1.861886152 Y1.461796498
N9680 X-1.830369544 Y1.502237996
N9685 X-1.798030823 Y1.542025138
N9690 X-1.76488591 Y1.581143357
N9695 X-1.730950423 Y1.619577783
N9700 X-1.696239532 Y1.657313399
N9705 X-1.660764349 Y1.694331282
N9710 X-1.624528179 Y1.730604697
N9715 X-1.587546792 Y1.766117877
N9720 X-1.549838359 Y1.800858205
N9725 X-1.511421354 Y1.834813366
N9730 X-1.472314249 Y1.867971345
N9735 X-1.432535517 Y1.900320729
N9740 X-1.392103781 Y1.931849803
N9745 X-1.351037063 Y1.962547452
N9750 X-1.309353686 Y1.992402264
N9755 X-1.267071671 Y2.021403125
N9760 X-1.224209042 Y2.04953877
N9765 X-1.180783369 Y2.076797335
N9770 X-1.136810123 Y2.103163351
N9775 X-1.092298463 Y2.128609935
N9780 X-1.047266112 Y2.15312327
N9785 X-1.001733495 Y2.176694495
N9790 X-0.955721337 Y2.199315199
N9795 X-0.909250365 Y2.220977723
N9800 X-0.862341227 Y2.241674408
N9805 X-0.815014727 Y2.261398045
N9810 X-0.767291587 Y2.280141575
N9815 X-0.71919246 Y2.29789809
N9820 X-0.670737995 Y2.31466053
N9825 X-0.62194873 Y2.330421988
N9830 X-0.572845166 Y2.345175255
N9835 X-0.523446376 Y2.358907564
N9840 X-0.473768843 Y2.371594587
N9845 X-0.42383408 Y2.383228062
N9850 X-0.373664841 Y2.393804685
N9855 X-0.323283916 Y2.403322055
N9860 X-0.272714003 Y2.411777917
N9865 X-0.221977797 Y2.41917077
N9870 X-0.171097846 Y2.425499113
N9875 X-0.120096667 Y2.430762043
N9880 X-0.06899668 Y2.43495836
N9885 X-0.017820252 Y2.438087313
N9890 X0.033410316 Y2.440148151
N9895 X0.084672734 Y2.441139221
N9900 X0.13594465 Y2.441049861
N9905 X0.187202927 Y2.4398634
N9910 X0.23842408 Y2.43758089
N9915 X0.289584915 Y2.434206234
N9920 X0.34066234 Y2.429743939
N9925 X0.391633567 Y2.424198511
N9930 X0.44247601 Y2.417575506
N9935 X0.493167216 Y2.40988018
N9940 X0.543685035 Y2.401118391
N9945 X0.594007387 Y2.391295996
N9950 X0.644112309 Y2.380418702
N9955 X0.693977987 Y2.368492517
N9960 X0.743582192 Y2.355521946
N9965 X0.792899094 Y2.341498277
N9970 X0.841903011 Y2.326417457
N9975 X0.89057239 Y2.310289548
N9980 X0.938885907 Y2.293124912
N9985 X0.986822759 Y2.274934964
N9990 X1.034362448 Y2.255730967
N9995 X1.081484847 Y2.235524485
N10000 X1.128170058 Y2.214327685
N10005 X1.174398557 Y2.192152429
N10010 X1.22015097 Y2.169010733
N10015 X1.265408073 Y2.144914762
N10020 X1.310150417 Y2.119876081
N10025 X1.354357652 Y2.09390415
N10030 X1.398000792 Y2.066995215
N10035 X1.441057911 Y2.039158138
N10040 X1.483511136 Y2.010408386
N10045 X1.525343197 Y1.980762332
N10050 X1.566537572 Y1.950236193
N10055 X1.607077891 Y1.918846791
N10060 X1.646948386 Y1.886610797
N10065 X1.686133738 Y1.853545181
N10070 X1.724618476 Y1.819666765
N10075 X1.762387584 Y1.784992518
N10080 X1.799426342 Y1.749539112
N10085 X1.835719882 Y1.713323067
N10090 X1.871249582 Y1.67635745
N10095 X1.905987357 Y1.638646614
N10100 X1.939916686 Y1.600206781
N10105 X1.973025104 Y1.561057774
N10110 X2.005300597 Y1.521219269
N10115 X2.0367319 Y1.480711389
N10120 X2.067308351 Y1.43955426
N10125 X2.097019135 Y1.397768156
N10130 X2.125854492 Y1.355373052
N10135 X2.153804359 Y1.312389073
N10140 X2.180859273 Y1.268836344
N10145 X2.207009623 Y1.224734389
N10150 X2.232245798 Y1.180103032
N10155 X2.256553229 Y1.134959243
N10160 X2.279906986 Y1.089314739
N10165 X2.302296105 Y1.043189417
N10170 X2.323713978 Y0.996605205
N10175 X2.344154448 Y0.94958388
N10180 X2.363612107 Y0.902147368
N10185 X2.3820817 Y0.854317598
N10190 X2.399558871 Y0.806116269
N10195 X2.416039114 Y0.757565085
N10200 X2.431518525 Y0.708685597
N10205 X2.445993198 Y0.659499206
N10210 X2.45945923 Y0.610027126
N10215 X2.471912865 Y0.560290569
N10220 X2.483345542 Y0.510309475
N10225 X2.493736688 Y0.460101451
N10230 X2.503080143 Y0.409688011
N10235 X2.511375007 Y0.359091421
N10240 X2.518620979 Y0.308334039
N10245 X2.52481836 Y0.257437961
N10250 X2.529967601 Y0.20642519
N10255 X2.534070353 Y0.155317605
N10260 X2.537127818 Y0.104136842
N10265 X2.539141497 Y0.052904407
N10270 X2.540113194 Y0.001641621
N10275 X2.54004501 Y-0.049630328
N10280 X2.538938447 Y-0.100890389
N10285 X2.536793206 Y-0.152117483
N10290 X2.533593666 Y-0.203289554
N10295 X2.529337425 Y-0.254384589
N10300 X2.524028988 Y-0.305381047
N10305 X2.517673613 Y-0.356257619
N10310 X2.510276855 Y-0.406993243
N10315 X2.501844872 Y-0.457567155
N10320 X2.492384272 Y-0.50795878
N10325 X2.481902115 Y-0.558147806
N10330 X2.470405158 Y-0.608114182
N10335 X2.45790061 Y-0.657837935
N10340 X2.444395831 Y-0.707299465
N10345 X2.429898029 Y-0.756479023
N10350 X2.414413512 Y-0.805356934
N10355 X2.397935972 Y-0.853909019
N10360 X2.380464058 Y-0.9021123
N10365 X2.362007381 Y-0.949947027
N10370 X2.342576004 Y-0.997394276
N10375 X2.32218059 Y-1.044435201
N10380 X2.300832553 Y-1.091051477
N10385 X2.278543007 Y-1.137225008
N10390 X2.255323966 Y-1.182938148
N10395 X2.231186994 Y-1.228173399
N10400 X2.206144258 Y-1.272913565
N10405 X2.180207771 Y-1.317141525
N10410 X2.153389548 Y-1.360840535
N10415 X2.125701604 Y-1.403993622
N10420 X2.097147994 Y-1.44657901
N10425 X2.067729319 Y-1.488571317
N10430 X2.037458645 Y-1.529953724
N10435 X2.00635054 Y-1.57071046
N10440 X1.974419872 Y-1.610825907
N10445 X1.941681959 Y-1.650285195
N10450 X1.908152122 Y-1.689074058
N10455 X1.87384643 Y-1.727178228
N10460 X1.838780501 Y-1.764584188
N10465 X1.802970255 Y-1.801278122
N10470 X1.766431914 Y-1.837247113
N10475 X1.729181395 Y-1.872477944
N10480 X1.691234318 Y-1.906957551
N10485 X1.652604051 Y-1.940669863
N10490 X1.613295848 Y-1.973589199
N10495 X1.573324579 Y-2.005700239
N10500 X1.532708115 Y-2.036990969
N10505 X1.49146448 Y-2.067450426
N10510 X1.449612144 Y-2.097068096
N10515 X1.407169883 Y-2.125833917
N10520 X1.364156318 Y-2.153738277
N10525 X1.320590372 Y-2.180771865
N10530 X1.27649067 Y-2.20692597
N10535 X1.231876133 Y-2.232191882
N10540 X1.186765686 Y-2.256561189
N10545 X1.141178026 Y-2.280025632
N10550 X1.095131251 Y-2.30257605
N10555 X1.048638201 Y-2.324190966
N10560 X1.001714496 Y-2.34485461
N10565 X0.954380336 Y-2.364559774
N10570 X0.906655995 Y-2.383300301
N10575 X0.858561974 Y-2.401070632
N10580 X0.810118848 Y-2.417865813
N10585 X0.761347042 Y-2.433681188
N10590 X0.712267132 Y-2.448512851
N10595 X0.662899543 Y-2.462357198
N10600 X0.61326485 Y-2.475210625
N10605 X0.56338329 Y-2.487070129
N10610 X0.513275139 Y-2.497932554
N10615 X0.462960596 Y-2.507794898
N10620 X0.412458322 Y-2.516645747
N10625 X0.361786565 Y-2.524468129
N10630 X0.310966274 Y-2.531258891
N10635 X0.260018664 Y-2.537017282
N10640 X0.20896493 Y-2.541743301
N10645 X0.157826153 Y-2.545436949
N10650 X0.106623314 Y-2.548098827
N10655 X0.0553773 Y-2.549731037
N10660 X0.004108857 Y-2.55033478
N10665 X-0.047161401 Y-2.54991216
N10670 X-0.098412985 Y-2.548465579
N10675 X-0.14962553 Y-2.545997439
N10680 X-0.200778781 Y-2.542509845
N10685 X-0.251852283 Y-2.538002495
N10690 X-0.302824017 Y-2.532461872
N10695 X-0.353672673 Y-2.525886776
N10700 X-0.404377434 Y-2.518281111
N10705 X-0.45491778 Y-2.509650433
N10710 X-0.505273398 Y-2.5
N10715 X-0.555424202 Y-2.489336269
N10720 X-0.605350292 Y-2.477665849
N10725 X-0.655032105 Y-2.464995497
N10730 X-0.704450232 Y-2.451332873
N10735 X-0.75358541 Y-2.436685337
N10740 X-0.802418641 Y-2.421060547
N10745 X-0.850931002 Y-2.404466314
N10750 X-0.899103495 Y-2.386909845
N10755 X-0.946912766 Y-2.368387237
N10760 X-0.99433591 Y-2.348896988
N10765 X-1.041353706 Y-2.328448558
N10770 X-1.08794768 Y-2.307051711
N10775 X-1.134099435 Y-2.284717259
N10780 X-1.179791173 Y-2.261456016
N10785 X-1.225005398 Y-2.237279847
N10790 X-1.269724838 Y-2.212200165
N10795 X-1.313932824 Y-2.186229435
N10800 X-1.35761246 Y-2.159379824
N10805 X-1.400747524 Y-2.131663645
N10810 X-1.443321799 Y-2.103093665
N10815 X-1.485319213 Y-2.073682199
N10820 X-1.526719942 Y-2.043436606
N10825 X-1.567498755 Y-2.012357487
N10830 X-1.607638382 Y-1.980457156
N10835 X-1.647123202 Y-1.947749881
N10840 X-1.685938347 Y-1.914250682
N10845 X-1.7240691 Y-1.879974425
N10850 X-1.761501793 Y-1.844937032
N10855 X-1.798222459 Y-1.80915427
N10860 X-1.834218033 Y-1.772642211
N10865 X-1.869475748 Y-1.735417073
N10870 X-1.903982988 Y-1.697495078
N10875 X-1.93772729 Y-1.658892744
N10880 X-1.970696487 Y-1.619626443
N10885 X-2.002876913 Y-1.579711043
N10890 X-2.034244537 Y-1.539153752
N10895 X-2.06478239 Y-1.497968088
N10900 X-2.094478908 Y-1.456171772
N10905 X-2.123323275 Y-1.413782826
N10910 X-2.151305281 Y-1.370819873
N10915 X-2.178415313 Y-1.327301236
N10920 X-2.204644061 Y-1.283245988
N10925 X-2.229983112 Y-1.238672977
N10930 X-2.254424208 Y-1.193601353
N10935 X-2.277959388 Y-1.148050113
N10940 X-2.300580843 Y-1.102038331
N10945 X-2.322281364 Y-1.05558508
N10950 X-2.343053442 Y-1.008709284
N10955 X-2.362879806 Y-0.961425811
N10960 X-2.381742432 Y-0.913749605
N10965 X-2.399634113 Y-0.865700564
N10970 X-2.416548842 Y-0.817299039
N10975 X-2.43248151 Y-0.768565381
N10980 X-2.447427314 Y-0.719520088
N10985 X-2.461382348 Y-0.670183737
N10990 X-2.474343157 Y-0.620576979
N10995 X-2.486306739 Y-0.570720275
N11000 X-2.497270389 Y-0.520634201
N11005 X-2.507231855 Y-0.470339182
N11010 X-2.516189035 Y-0.419855643
N11015 X-2.524139825 Y-0.369203898
N11020 X-2.531078068 Y-0.318403469
N11025 X-2.536986344 Y-0.267473056
N11030 X-2.541861046 Y-0.216433326
N11035 X-2.545701575 Y-0.165305363
N11040 X-2.54850763 Y-0.11411022
N11045 X-2.550280714 Y-0.062868886
N11050 X-2.551022327 Y-0.011602254
N11055 X-2.550734873 Y0.039668937
N11060 X-2.549420755 Y0.090924088
N11065 X-2.547083276 Y0.142142782
N11070 X-2.543726343 Y0.193304753
N11075 X-2.539353258 Y0.244389932
N11080 X-2.533968828 Y0.295378392
N11085 X-2.527575756 Y0.346250234
N11090 X-2.520166232 Y0.396984018
N11095 X-2.511736952 Y0.44755838
N11100 X-2.502293174 Y0.49795316
N11105 X-2.491841204 Y0.548148531
N11110 X-2.48038765 Y0.598124857
N11115 X-2.467940173 Y0.647862953
N11120 X-2.454506882 Y0.697343931
N11125 X-2.440096487 Y0.746549171
N11130 X-2.424718001 Y0.795460498
N11135 X-2.408380584 Y0.844059967
N11140 X-2.391093998 Y0.892329929
N11145 X-2.372868005 Y0.940253115
N11150 X-2.353712367 Y0.987812403
N11155 X-2.333634294 Y1.034989545
N11160 X-2.312631682 Y1.081762464
N11165 X-2.290711891 Y1.128112688
N11170 X-2.267885584 Y1.174023245
N11175 X-2.244164174 Y1.219477766
N11180 X-2.219559377 Y1.264460256
N11185 X-2.194083356 Y1.308955095
N11190 X-2.167748729 Y1.352947115
N11195 X-2.14056826 Y1.396421748
N11200 X-2.112555016 Y1.439364426
N11205 X-2.083722362 Y1.481761181
N11210 X-2.054083216 Y1.523598348
N11215 X-2.023650943 Y1.564862109
N11220 X-1.99243906 Y1.605539247
N11225 X-1.960457779 Y1.645614444
N11230 X-1.927711307 Y1.685066674
N11235 X-1.894210455 Y1.723880618
N11240 X-1.859969041 Y1.762042609
N11245 X-1.825000733 Y1.799539731
N11250 X-1.789319647 Y1.836359219
N11255 X-1.7529402 Y1.872489058
N11260 X-1.715877413 Y1.907917233
N11265 X-1.678146152 Y1.94263278
N11270 X-1.639761286 Y1.976624286
N11275 X-1.600738135 Y2.009881087
N11280 X-1.561092016 Y2.042392671
N11285 X-1.520838099 Y2.074148524
N11290 X-1.479991703 Y2.105138734
N11295 X-1.438566343 Y2.135350685
N11300 X-1.396570581 Y2.164764404
N11305 X-1.354017783 Y2.193366374
N11310 X-1.310923569 Y2.22114608
N11315 X-1.267303857 Y2.248093012
N11320 X-1.223175169 Y2.274198006
N11325 X-1.178553874 Y2.299451903
N11330 X-1.133456868 Y2.323846141
N11335 X-1.087901198 Y2.347372761
N11340 X-1.041903984 Y2.370023953
N11345 X-0.995482497 Y2.391792207
N11350 X-0.948654085 Y2.412670916
N11355 X-0.901436092 Y2.432652871
N11360 X-0.853845942 Y2.451731614
N11365 X-0.805900003 Y2.469897683
N11370 X-0.757611568 Y2.487132606
N11375 X-0.708997606 Y2.503426619
N11380 X-0.660076141 Y2.518773116
N11385 X-0.610865758 Y2.533165939
N11390 X-0.561384967 Y2.546599681
N11395 X-0.511652579 Y2.559070137
N11400 X-0.461687591 Y2.570572801
N11405 X-0.411508891 Y2.581104669
N11410 X-0.361135625 Y2.590662438
N11415 X-0.31058685 Y2.599243705
N11420 X-0.259881639 Y2.606846366
N11425 X-0.209039046 Y2.61346832
N11430 X-0.158078164 Y2.619107765
N11435 X-0.107017465 Y2.62375779
N11440 X-0.055875332 Y2.627404881
N11445 X-0.004671386 Y2.630045433
N11450 X0.046574591 Y2.631678844
N11455 X0.09784277 Y2.632304214
N11460 X0.149113343 Y2.631922144
N11465 X0.200366542 Y2.630534135
N11470 X0.251582683 Y2.628141388
N11475 X0.302742166 Y2.624746608
N11480 X0.353825487 Y2.620352197
N11485 X0.404813346 Y2.614961759
N11490 X0.455686464 Y2.608578599
N11495 X0.50642573 Y2.601206622
N11500 X0.55701207 Y2.592849731
N11505 X0.607424683 Y2.583501621
N11510 X0.65764262 Y2.573158685
N11515 X0.707646242 Y2.561824829
N11520 X0.757416102 Y2.549504858
N11525 X0.806932975 Y2.536204781
N11530 X0.856177938 Y2.521930604
N11535 X0.905132219 Y2.506689387
N11540 X0.953777569 Y2.490489089
N11545 X1.002095666 Y2.473337519
N11550 X1.050068713 Y2.455243088
N11555 X1.097678988 Y2.436214807
N11560 X1.14490922 Y2.416261688
N11565 X1.191742064 Y2.395393041
N11570 X1.23815957 Y2.373616226
N11575 X1.284139288 Y2.350929591
N11580 X1.329661993 Y2.327339443
N11585 X1.374710263 Y2.302855244
N11590 X1.419266979 Y2.277487507
N11595 X1.463315318 Y2.251247196
N11600 X1.506839362 Y2.224146024
N11605 X1.54982334 Y2.196195858
N11610 X1.592251635 Y2.167409611
N11615 X1.634109377 Y2.137799751
N11620 X1.675382149 Y2.107379643
N11625 X1.716055382 Y2.076162503
N11630 X1.75611526 Y2.04416215
N11635 X1.795547966 Y2.011392098
N11640 X1.834336829 Y1.977862411
N11645 X1.872460673 Y1.943578345
N11650 X1.90990433 Y1.908552966
N11655 X1.946654132 Y1.872799941
N11660 X1.982696713 Y1.836334289
N11665 X2.018019308 Y1.799170727
N11670 X2.052609902 Y1.761324875
N11675 X2.086456779 Y1.722812502
N11680 X2.119548978 Y1.683649529
N11685 X2.151875383 Y1.643852474
N11690 X2.183426234 Y1.603437409
N11695 X2.214191317 Y1.562421303
N11700 X2.24416117 Y1.520820528
N11705 X2.273326483 Y1.478651753
N11710 X2.301672387 Y1.435927894
N11715 X2.329181761 Y1.392660667
N11720 X2.355844393 Y1.348866741
N11725 X2.38165112 Y1.304562786
N11730 X2.406593233 Y1.259766451
N11735 X2.422908573 Y1.22905581
N11740 X2.446658367 Y1.182862079
N11745 X2.461268958 Y1.152916255
N11750 X2.4683278 Y1.137943268
N11755 X2.531955449 Y0.988213922
N11760 X2.537676293 Y0.97324101
N11765 X2.546732745 Y0.948730979
N11770 X2.548708578 Y0.943295111
N11775 X2.599789176 Y0.79356569
N11780 X2.604251471 Y0.778592778
N11785 X2.612344637 Y0.748646879
N11790 X2.647571414 Y0.613890445
N11795 X2.651598172 Y0.598439645
N11800 X2.654864694 Y0.583944584
N11805 X2.68252215 Y0.4342152
N11810 X2.68793842 Y0.404269339
N11815 X2.690331767 Y0.389296389
N11820 X2.706806453 Y0.239567006
N11825 X2.710021312 Y0.209621125
N11830 X2.711469996 Y0.194648195
N11835 X2.718037583 Y0.014972938
N11840 X2.718551516 Y0.
N11845 X2.717490309 Y-0.029945876
N11850 X2.711469996 Y-0.194648195
N11855 X2.710021312 Y-0.209621125
N11860 X2.706806453 Y-0.239567006
N11865 X2.690331767 Y-0.389296389
N11870 X2.68793842 Y-0.404269339
N11875 X2.681559765 Y-0.439425679
N11880 X2.654864694 Y-0.583944584
N11885 X2.651473819 Y-0.598917533
N11890 X2.616271072 Y-0.733673967
N11895 X2.612344637 Y-0.748646879
N11900 X2.604251471 Y-0.778592778
N11905 X2.599789176 Y-0.79356569
N11910 X2.548708578 Y-0.943295111
N11915 X2.543208806 Y-0.958268023
N11920 X2.537676293 Y-0.97324101
N11925 X2.531752098 Y-0.988692486
N11930 X2.4683278 Y-1.137943268
N11935 X2.461268958 Y-1.152916255
N11940 X2.446658367 Y-1.182862079
N11945 X2.392771413 Y-1.287672689
N11950 X2.384995138 Y-1.302645676
N11955 X2.366963334 Y-1.336375109
N11960 X2.360339728 Y-1.347564487
N11965 X2.277078704 Y-1.483987373
N11970 X2.268864038 Y-1.497293758
N11975 X2.24711711 Y-1.528181091
N11980 X2.194260875 Y-1.602104367
N11985 X2.162125054 Y-1.647023178
N11990 X2.15723248 Y-1.65382145
N11995 X2.12643721 Y-1.69194199
N12000 X2.037386256 Y-1.798948303
N12005 X2.026692338 Y-1.811725586
N12010 X2.007424662 Y-1.832105982
N12015 X1.897150475 Y-1.94648202
N12020 X1.887578439 Y-1.955997737
N12025 X1.872597642 Y-1.969929042
N12030 X1.748369322 Y-2.081238454
N12035 X1.737770621 Y-2.090370148
N12040 X1.730480945 Y-2.096211291
N12045 X1.594746958 Y-2.2010219
N12050 X1.587962804 Y-2.206162881
N12055 X1.574274499 Y-2.215994887
N12060 X1.42317419 Y-2.315965187
N12065 X1.415506198 Y-2.320805347
N12070 X1.408193393 Y-2.325070899
N12075 X1.273366372 Y-2.400738273
N12080 X1.258385576 Y-2.409002499
N12085 X1.225837047 Y-2.425615956
N12090 X1.21344326 Y-2.431631314
N12095 X1.066574112 Y-2.500480742
N12100 X1.063635443 Y-2.501814985
N12105 X1.018693128 Y-2.519080545
N12110 X0.910731113 Y-2.56037254
N12115 X0.898846829 Y-2.564734211
N12120 X0.868885311 Y-2.575512083
N12125 X0.853904514 Y-2.580158204
N12130 X0.719077493 Y-2.620720751
N12135 X0.704096697 Y-2.625027454
N12140 X0.674135178 Y-2.63298305
N12145 X0.664938529 Y-2.635237025
N12150 X0.524327323 Y-2.666559595
N12155 X0.509346564 Y-2.669761538
N12160 X0.479385008 Y-2.67522887
N12165 X0.464404211 Y-2.677686496
N12170 X0.329577191 Y-2.69752953
N12175 X0.314596394 Y-2.69968979
N12180 X0.284634838 Y-2.702887528
N12185 X0.26965406 Y-2.704300467
N12190 X0.119846252 Y-2.715263367
N12195 X0.104865465 Y-2.715831967
N12200 X0.089884687 Y-2.716358215
N12205 X0.074903904 Y-2.716767619
N12210 X-0.074903904
N12215 X-0.089884687 Y-2.716358215
N12220 X-0.104865465 Y-2.715831967
N12225 X-0.119846252 Y-2.715263367
N12230 X-0.26965406 Y-2.704300467
N12235 X-0.284634838 Y-2.702887528
N12240 X-0.314596394 Y-2.69968979
N12245 X-0.329577191 Y-2.69752953
N12250 X-0.464404211 Y-2.677686496
N12255 X-0.479385008 Y-2.67522887
N12260 X-0.509346564 Y-2.669761538
N12265 X-0.524327323 Y-2.666559595
N12270 X-0.664938529 Y-2.635237025
N12275 X-0.674135178 Y-2.63298305
N12280 X-0.704096697 Y-2.625027454
N12285 X-0.720595412 Y-2.620264189
N12290 X-0.853904514 Y-2.580158204
N12295 X-0.868885311 Y-2.575512083
N12300 X-0.898846829 Y-2.564734211
N12305 X-0.910731113 Y-2.56037254
N12310 X-1.033673925 Y-2.513338525
N12315 X-1.063635443 Y-2.501814985
N12320 X-1.066574112 Y-2.500480742
N12325 X-1.21344326 Y-2.431631314
N12330 X-1.225837047 Y-2.425615956
N12335 X-1.258385576 Y-2.409002499
N12340 X-1.273366372 Y-2.400738273
N12345 X-1.408193393 Y-2.325070899
N12350 X-1.415506198 Y-2.320805347
N12355 X-1.42317419 Y-2.315965187
N12360 X-1.574274499 Y-2.215994887
N12365 X-1.587962804 Y-2.206162881
N12370 X-1.594746958 Y-2.2010219
N12375 X-1.730480945 Y-2.096211291
N12380 X-1.737770621 Y-2.090370148
N12385 X-1.748369322 Y-2.081238454
N12390 X-1.872597642 Y-1.969929042
N12395 X-1.887578439 Y-1.955997737
N12400 X-1.897150475 Y-1.94648202
N12405 X-2.007424662 Y-1.832105982
N12410 X-2.026692338 Y-1.811725586
N12415 X-2.039213556 Y-1.796752599
N12420 X-2.127270886 Y-1.690934249
N12425 X-2.15723248 Y-1.65382145
N12430 X-2.187194073 Y-1.611982331
N12435 X-2.237108786 Y-1.542212569
N12440 X-2.247780026 Y-1.527239732
N12445 X-2.268864038 Y-1.497293758
N12450 X-2.278095756 Y-1.482320921
N12455 X-2.360339728 Y-1.347564487
N12460 X-2.366963334 Y-1.336375109
N12465 X-2.384995138 Y-1.302645676
N12470 X-2.392771413 Y-1.287672689
N12475 X-2.446658367 Y-1.182862079
N12480 X-2.461268958 Y-1.152916255
N12485 X-2.4683278 Y-1.137943268
N12490 X-2.531955449 Y-0.988213922
N12495 X-2.537676293 Y-0.97324101
N12500 X-2.546732745 Y-0.948730979
N12505 X-2.548708578 Y-0.943295111
N12510 X-2.599789176 Y-0.79356569
N12515 X-2.604251471 Y-0.778592778
N12520 X-2.612344637 Y-0.748646879
N12525 X-2.647571414 Y-0.613890445
N12530 X-2.651598172 Y-0.598439645
N12535 X-2.654864694 Y-0.583944584
N12540 X-2.68252215 Y-0.4342152
N12545 X-2.68793842 Y-0.404269339
N12550 X-2.690331767 Y-0.389296389
N12555 X-2.706806453 Y-0.239567006
N12560 X-2.710021312 Y-0.209621125
N12565 X-2.711469996 Y-0.194648195
N12570 X-2.718037583 Y-0.014972938
N12575 X-2.718551516 Y0.
N12580 X-2.717490309 Y0.029945876
N12585 X-2.711469996 Y0.194648195
N12590 X-2.710021312 Y0.209621125
N12595 X-2.706806453 Y0.239567006
N12600 X-2.690331767 Y0.389296389
N12605 X-2.68793842 Y0.404269339
N12610 X-2.681559765 Y0.439425679
N12615 X-2.654864694 Y0.583944584
N12620 X-2.651473819 Y0.598917533
N12625 X-2.616271072 Y0.733673967
N12630 X-2.612344637 Y0.748646879
N12635 X-2.604251471 Y0.778592778
N12640 X-2.599789176 Y0.79356569
N12645 X-2.548708578 Y0.943295111
N12650 X-2.543208806 Y0.958268023
N12655 X-2.537676293 Y0.97324101
N12660 X-2.531752098 Y0.988692486
N12665 X-2.4683278 Y1.137943268
N12670 X-2.461268958 Y1.152916255
N12675 X-2.446658367 Y1.182862079
N12680 X-2.392771413 Y1.287672689
N12685 X-2.384995138 Y1.302645676
N12690 X-2.366963334 Y1.336375109
N12695 X-2.360339728 Y1.347564487
N12700 X-2.277078704 Y1.483987373
N12705 X-2.268864038 Y1.497293758
N12710 X-2.24711711 Y1.528181091
N12715 X-2.194260875 Y1.602104367
N12720 X-2.162125054 Y1.647023178
N12725 X-2.15723248 Y1.65382145
N12730 X-2.12643721 Y1.69194199
N12735 X-2.037386256 Y1.798948303
N12740 X-2.026692338 Y1.811725586
N12745 X-2.007424662 Y1.832105982
N12750 X-1.897150475 Y1.94648202
N12755 X-1.887578439 Y1.955997737
N12760 X-1.872597642 Y1.969929042
N12765 X-1.748369322 Y2.081238454
N12770 X-1.737770621 Y2.090370148
N12775 X-1.730480945 Y2.096211291
N12780 X-1.594746958 Y2.2010219
N12785 X-1.587962804 Y2.206162881
N12790 X-1.574274499 Y2.215994887
N12795 X-1.42317419 Y2.315965187
N12800 X-1.415506198 Y2.320805347
N12805 X-1.408193393 Y2.325070899
N12810 X-1.273366372 Y2.400738273
N12815 X-1.258385576 Y2.409002499
N12820 X-1.225837047 Y2.425615956
N12825 X-1.21344326 Y2.431631314
N12830 X-1.066574112 Y2.500480742
N12835 X-1.063635443 Y2.501814985
N12840 X-1.018693128 Y2.519080545
N12845 X-0.910731113 Y2.56037254
N12850 X-0.898846829 Y2.564734211
N12855 X-0.868885311 Y2.575512083
N12860 X-0.853904514 Y2.580158204
N12865 X-0.719077493 Y2.620720751
N12870 X-0.704096697 Y2.625027454
N12875 X-0.674135178 Y2.63298305
N12880 X-0.664938529 Y2.635237025
N12885 X-0.524327323 Y2.666559595
N12890 X-0.509346564 Y2.669761538
N12895 X-0.479385008 Y2.67522887
N12900 X-0.464404211 Y2.677686496
N12905 X-0.329577191 Y2.69752953
N12910 X-0.314596394 Y2.69968979
N12915 X-0.284634838 Y2.702887528
N12920 X-0.26965406 Y2.704300467
N12925 X-0.119846252 Y2.715263367
N12930 X-0.104865465 Y2.715831967
N12935 X-0.089884687 Y2.716358215
N12940 X-0.074903904 Y2.716767619
N12945 X0.074903904
N12950 X0.089884687 Y2.716358215
N12955 X0.104865465 Y2.715831967
N12960 X0.119846252 Y2.715263367
N12965 X0.26965406 Y2.704300467
N12970 X0.284634838 Y2.702887528
N12975 X0.314596394 Y2.69968979
N12980 X0.329577191 Y2.69752953
N12985 X0.464404211 Y2.677686496
N12990 X0.479385008 Y2.67522887
N12995 X0.509346564 Y2.669761538
N13000 X0.524327323 Y2.666559595
N13005 X0.664938529 Y2.635237025
N13010 X0.674135178 Y2.63298305
N13015 X0.704096697 Y2.625027454
N13020 X0.720595412 Y2.620264189
N13025 X0.853904514 Y2.580158204
N13030 X0.868885311 Y2.575512083
N13035 X0.898846829 Y2.564734211
N13040 X0.910731113 Y2.56037254
N13045 X1.033673925 Y2.513338525
N13050 X1.063635443 Y2.501814985
N13055 X1.066574112 Y2.500480742
N13060 X1.21344326 Y2.431631314
N13065 X1.225837047 Y2.425615956
N13070 X1.258385576 Y2.409002499
N13075 X1.273366372 Y2.400738273
N13080 X1.408193393 Y2.325070899
N13085 X1.415506198 Y2.320805347
N13090 X1.42317419 Y2.315965187
N13095 X1.574274499 Y2.215994887
N13100 X1.587962804 Y2.206162881
N13105 X1.594746958 Y2.2010219
N13110 X1.730480945 Y2.096211291
N13115 X1.737770621 Y2.090370148
N13120 X1.748369322 Y2.081238454
N13125 X1.872597642 Y1.969929042
N13130 X1.887578439 Y1.955997737
N13135 X1.897150475 Y1.94648202
N13140 X2.007424662 Y1.832105982
N13145 X2.026692338 Y1.811725586
N13150 X2.039213556 Y1.796752599
N13155 X2.127270886 Y1.690934249
N13160 X2.15723248 Y1.65382145
N13165 X2.187194073 Y1.611982331
N13170 X2.237108786 Y1.542212569
N13175 X2.247780026 Y1.527239732
N13180 X2.268864038 Y1.497293758
N13185 X2.278095756 Y1.482320921
N13190 X2.360339728 Y1.347564487
N13195 X2.366963334 Y1.336375109
N13200 X2.384995138 Y1.302645676
N13205 X2.392771413 Y1.287672689
N13210 X2.422908573 Y1.22905581
N13215 X2.424231497 Y1.224992372 Z-0.124698715
N13220 X2.425528835 Y1.221007525 Z-0.123809693
N13225 X2.426775684 Y1.217177759 Z-0.122349994
N13230 X2.42709902 Y1.213775066 Z-0.120569217
N13235 X2.42739889 Y1.210619289 Z-0.118377143
N13240 X2.427670637 Y1.207759437 Z-0.115807817
N13245 X2.427436712 Y1.205144455 Z-0.112775961
N13250 X2.427239709 Y1.202942208 Z-0.109429874
N13255 X2.427082939 Y1.201189723 Z-0.105825818
N13260 X2.42696904 Y1.199916468 Z-0.102024392
N13265 X2.426899926 Y1.199143849 Z-0.098089512
N13270 X2.426876759 Y1.198884859 Z-0.09408734
N13275 G0 Z0.199999997
N13280 X0.051552686 Y0.053301332
N13285 Z-0.149999998
N13290 G1 Z-0.199999997 F10.
N13295 X0.051474673 Y0.053605889 Z-0.205598221
N13300 X0.051241617 Y0.054515729 Z-0.211126044
N13305 X0.050856447 Y0.056019411 Z-0.216513951
N13310 X0.050324007 Y0.058098025 Z-0.221694185
N13315 X0.049650993 Y0.060725432 Z-0.226601601
N13320 X0.048845869 Y0.063868589 Z-0.231174488
N13325 X0.04791876 Y0.067487971 Z-0.235355337
N13330 X0.046881325 Y0.071538061 Z-0.239091571
N13335 X0.045746609 Y0.075967927 Z-0.242336207
N13340 X0.044528883 Y0.08072186 Z-0.24504844
N13345 X0.04324346 Y0.085740078 Z-0.247194163
N13350 X0.041906505 Y0.090959474 Z-0.248746392
N13355 X0.040534831 Y0.096314409 Z-0.249685607
N13360 X0.039145688 Y0.101737544 Z-0.249999996
N13365 G2 X0. Y0.373937126 I1.236568075 J0.316748488
N13370 G1 Y0.379937127
N13375 X0.002843224 Y0.385220708
N13380 X0.006131888 Y0.390239137
N13385 X0.010194499 Y0.395185103
N13390 X0.016066647 Y0.401265264
N13395 X0.024100711 Y0.408346672
N13400 X0.031369805 Y0.413782766
N13405 X0.040524635 Y0.419544986
N13410 X0.052365065 Y0.425730765
N13415 X0.0672859 Y0.432058282
N13420 X0.08007899 Y0.436308328
N13425 X0.096015611 Y0.440215051
N13430 X0.115605809 Y0.443377645
N13435 X0.135093092 Y0.444934387
N13440 X0.155106295 Y0.444921809
N13445 X0.179224315 Y0.442964674
N13450 X0.20320453 Y0.439062456
N13455 X0.226901648 Y0.433221727
N13460 X0.255072361 Y0.423823717
N13465 X0.279862393 Y0.413274164
N13470 X0.30640649 Y0.399364299
N13475 X0.334708559 Y0.381500777
N13480 X0.358903802 Y0.363359264
N13485 X0.386894219 Y0.338625307
N13490 X0.40894377 Y0.315737236
N13495 X0.432854938 Y0.286552305
N13500 X0.45329995 Y0.257052793
N13505 X0.472421533 Y0.224094297
N13510 X0.489132611 Y0.189086771
N13515 X0.502873631 Y0.153129946
N13520 X0.514330413 Y0.113979184
N13525 X0.522219816 Y0.075909204
N13530 X0.527430707 Y0.034100845
N13535 X0.529144918 Y-0.005140518
N13540 X0.527568164 Y-0.048099531
N13545 X0.522934846 Y-0.087509625
N13550 X0.514407684 Y-0.130150468
N13555 X0.503416099 Y-0.168706357
N13560 X0.488093932 Y-0.209654147
N13565 X0.470898808 Y-0.24633096
N13570 X0.449200878 Y-0.284337828
N13575 X0.426120195 Y-0.318140984
N13580 X0.39868092 Y-0.352112365
N13585 X0.370193692 Y-0.382098363
N13590 X0.33781994 Y-0.411109999
N13595 X0.304552026 Y-0.436418188
N13600 X0.268185983 Y-0.45972749
N13605 X0.230910853 Y-0.479592977
N13610 X0.191586825 Y-0.49665222
N13615 X0.151181934 Y-0.510445317
N13620 X0.109996758 Y-0.520901342
N13625 X0.067459106 Y-0.528128016
N13630 X0.0255329 Y-0.531824517
N13635 X-0.018083039 Y-0.532155863
N13640 X-0.059634705 Y-0.529127797
N13645 X-0.103210333 Y-0.522404243
N13650 X-0.143307185 Y-0.512870578
N13655 X-0.185706127 Y-0.499112362
N13660 X-0.223332127 Y-0.483464632
N13665 X-0.263420165 Y-0.462875854
N13670 X-0.297652511 Y-0.441660919
N13675 X-0.334333547 Y-0.414626091
N13680 X-0.364361373 Y-0.388528418
N13685 X-0.396600183 Y-0.355609834
N13690 X-0.421747485 Y-0.325425929
N13695 X-0.448605094 Y-0.287346708
N13700 X-0.468336804 Y-0.253971993
N13705 X-0.488984228 Y-0.211618003
N13710 X-0.502934719 Y-0.1759944
N13715 X-0.516628881 Y-0.130586953
N13720 X-0.524644777 Y-0.093446435
N13725 X-0.530863184 Y-0.046691341
N13730 X-0.532853547 Y-0.00836101
N13735 X-0.53151968 Y0.038490694
N13740 X-0.527309545 Y0.07703225
N13745 X-0.518559471 Y0.122739668
N13750 X-0.508131643 Y0.160493081
N13755 X-0.492304216 Y0.203874881
N13760 X-0.475803172 Y0.239837921
N13765 X-0.453424228 Y0.279797419
N13770 X-0.431154131 Y0.312996511
N13775 X-0.402915459 Y0.348551893
N13780 X-0.375338089 Y0.378062519
N13785 X-0.342075919 Y0.408367247
N13790 X-0.309796915 Y0.433344916
N13795 X-0.266859869 Y0.461366834
N13800 X-0.223553838 Y0.488815082
N13805 X-0.179662986 Y0.515318105
N13810 X-0.134671438 Y0.539906269
N13815 X-0.088193257 Y0.561553362
N13820 X-0.043939657 Y0.57821638
N13825 X-0.000926319 Y0.590574497
N13830 X0.041547699 Y0.599159218
N13835 X0.08342818 Y0.604170364
N13840 X0.125616479 Y0.605805765
N13845 X0.167316039 Y0.604070153
N13850 X0.208909042 Y0.598972989
N13855 X0.250739864 Y0.590393975
N13860 X0.291797721 Y0.578470756
N13865 X0.333056675 Y0.56280076
N13870 X0.373009734 Y0.543829738
N13875 X0.412346923 Y0.521115506
N13880 X0.450263662 Y0.494952127
N13885 X0.486692556 Y0.465231054
N13890 X0.521222813 Y0.432102586
N13895 X0.553392763 Y0.395847794
N13900 X0.583014 Y0.356510943
N13905 X0.609756229 Y0.314334509
N13910 X0.633269558 Y0.269687889
N13915 X0.653443374 Y0.222551541
N13920 X0.66977974 Y0.173951753
N13925 X0.682195678 Y0.124205773
N13930 X0.690698098 Y0.07364366
N13935 X0.695241267 Y0.022573347
N13940 X0.695873396 Y-0.028694753
N13945 X0.692586598 Y-0.079861288
N13950 X0.685463928 Y-0.130636148
N13955 X0.674536322 Y-0.180730106
N13960 X0.659917471 Y-0.229873826
N13965 X0.641677511 Y-0.277791699
N13970 X0.619947629 Y-0.324231208
N13975 X0.594826007 Y-0.368927107
N13980 X0.566446612 Y-0.411628701
N13985 X0.53496924 Y-0.452100836
N13990 X0.500564613 Y-0.490115834
N13995 X0.46344667 Y-0.525486375
N14000 X0.423823267 Y-0.55802563
N14005 X0.381920169 Y-0.587571324
N14010 X0.337968699 Y-0.613973723
N14015 X0.292206411 Y-0.637095819
N14020 X0.244883928 Y-0.656829068
N14025 X0.196249466 Y-0.673061881
N14030 X0.146561082 Y-0.685706401
N14035 X0.096078191 Y-0.694667185
N14040 X0.045071484 Y-0.699876124
N14045 X-0.006180223 Y-0.701318425
N14050 X-0.057398503 Y-0.698972086
N14055 X-0.108309787 Y-0.692900935
N14060 X-0.158637715 Y-0.683107226
N14065 X-0.208125227 Y-0.669698039
N14070 X-0.256497898 Y-0.65270101
N14075 X-0.303521551 Y-0.632265872
N14080 X-0.348924877 Y-0.608446617
N14085 X-0.392487218 Y-0.581407059
N14090 X-0.433949673 Y-0.551246057
N14095 X-0.47307052 Y-0.518104298
N14100 X-0.509667284 Y-0.48219478
N14105 X-0.543495801 Y-0.443666263
N14110 X-0.574451694 Y-0.402793884
N14115 X-0.602303002 Y-0.359745964
N14120 X-0.626989875 Y-0.314808493
N14125 X-0.648299465 Y-0.268174626
N14130 X-0.666208718 Y-0.220132174
N14135 X-0.680540791 Y-0.170904032
N14140 X-0.691282017 Y-0.120769777
N14145 X-0.698314952 Y-0.069982419
N14150 X-0.701577494 Y-0.01881433
N14155 X-0.701087216 Y0.032455323
N14160 X-0.696790124 Y0.083546929
N14165 X-0.688794804 Y0.134191701
N14170 X-0.677089691 Y0.184109718
N14175 X-0.661807699 Y0.233051289
N14180 X-0.642980515 Y0.280741481
N14185 X-0.620764635 Y0.326950494
N14190 X-0.595235562 Y0.37141492
N14195 X-0.566558275 Y0.413917031
N14200 X-0.534846501 Y0.454205753
N14205 X-0.500258724 Y0.492054196
N14210 X-0.463496005 Y0.527793817
N14215 X-0.424994671 Y0.561653272
N14220 X-0.384944368 Y0.593665641
N14225 X-0.343422139 Y0.623744229
N14230 X-0.300490331 Y0.651774144
N14235 X-0.256178848 Y0.677567805
N14240 X-0.210497041 Y0.700848497
N14245 X-0.163500422 Y0.721345661
N14250 X-0.115304819 Y0.738838601
N14255 X-0.066071186 Y0.753151751
N14260 X-0.015990616 Y0.764140557
N14265 X0.034724113 Y0.77167939
N14270 X0.085840197 Y0.775674835
N14275 X0.13711062 Y0.776076429
N14280 X0.188281536 Y0.772858567
N14285 X0.239098279 Y0.766041147
N14290 X0.289301365 Y0.755626348
N14295 X0.338627898 Y0.741636697
N14300 X0.386824045 Y0.724145334
N14305 X0.433663796 Y0.703292156
N14310 X0.478941925 Y0.679235759
N14315 X0.522473703 Y0.652146978
N14320 X0.56408807 Y0.622195972
N14325 X0.603564368 Y0.58947841
N14330 X0.640698681 Y0.554125065
N14335 X0.675381488 Y0.516363655
N14340 X0.707523316 Y0.476417204
N14345 X0.737051701 Y0.434501903
N14350 X0.763784318 Y0.390750517
N14355 X0.787569181 Y0.34532915
N14360 X0.808393599 Y0.298476613
N14365 X0.826247884 Y0.250413737
N14370 X0.841112662 Y0.201343833
N14375 X0.852849089 Y0.151433156
N14380 X0.861395663 Y0.100878486
N14385 X0.866804874 Y0.049892631
N14390 X0.869125156 Y-0.001326837
N14395 X0.868388649 Y-0.052593543
N14400 X0.864506369 Y-0.103718343
N14405 X0.857480642 Y-0.154506691
N14410 X0.847411193 Y-0.204780196
N14415 X0.834391211 Y-0.254371485
N14420 X0.818496314 Y-0.303117459
N14425 X0.799679418 Y-0.350811726
N14430 X0.777993014 Y-0.397271547
N14435 X0.753573395 Y-0.442354811
N14440 X0.726551521 Y-0.48592819
N14445 X0.697043787 Y-0.527858021
N14450 X0.665065886 Y-0.567935846
N14455 X0.630726176 Y-0.606009491
N14460 X0.594195756 Y-0.641986517
N14465 X0.555636676 Y-0.675780229
N14470 X0.515197281 Y-0.707299615
N14475 X0.472954014 Y-0.73635687
N14480 X0.429046511 Y-0.762832296
N14485 X0.383660699 Y-0.786684892
N14490 X0.33697271 Y-0.807875611
N14495 X0.289147388 Y-0.826356918
N14500 X0.240307023 Y-0.84195933
N14505 X0.190618151 Y-0.854601823
N14510 X0.140270811 Y-0.864295359
N14515 X0.089446165 Y-0.87105353
N14520 X0.038317475 Y-0.874884222
N14525 X-0.012948568 Y-0.87566556
N14530 X-0.06416952 Y-0.873378243
N14535 X-0.115167963 Y-0.868088955
N14540 X-0.165776042 Y-0.859864678
N14545 X-0.215832755 Y-0.848767664
N14550 X-0.265146428 Y-0.834732731
N14555 X-0.313535394 Y-0.817782034
N14560 X-0.360849035 Y-0.798027609
N14565 X-0.40694402 Y-0.775576088
N14570 X-0.451678441 Y-0.750523214
N14575 X-0.49485154 Y-0.722866359
N14580 X-0.536284935 Y-0.692665446
N14585 X-0.57587128 Y-0.660081173
N14590 X-0.613507098 Y-0.625262148
N14595 X-0.649084707 Y-0.588342599
N14600 X-0.682421857 Y-0.54938812
N14605 X-0.71336551 Y-0.508506505
N14610 X-0.741860698 Y-0.465882069
N14615 X-0.767852303 Y-0.421686435
N14620 X-0.791278899 Y-0.376079289
N14625 X-0.81198407 Y-0.329173907
N14630 X-0.829847065 Y-0.281114259
N14635 X-0.844856022 Y-0.232088265
N14640 X-0.85700343 Y-0.182276035
N14645 X-0.866280728 Y-0.131850355
N14650 X-0.872549673 Y-0.080963045
N14655 X-0.875753117 Y-0.029791223
N14660 X-0.875937319 Y0.021480444
N14665 X-0.873151464 Y0.072676699
N14670 X-0.867444136 Y0.123630058
N14675 X-0.858739117 Y0.174157676
N14680 X-0.847028973 Y0.22407451
N14685 X-0.832411849 Y0.273218756
N14690 X-0.814984314 Y0.321438031
N14695 X-0.794839559 Y0.368586788
N14700 X-0.771960311 Y0.41447095
N14705 X-0.746372328 Y0.45890151
N14710 X-0.718288572 Y0.501798157
N14715 X-0.687924708 Y0.543112192
N14720 X-0.655489118 Y0.582820562
N14725 X-0.621166717 Y0.620909788
N14730 X-0.58510311 Y0.657354715
N14735 X-0.547384803 Y0.692084305
N14740 X-0.508109228 Y0.725042613
N14745 X-0.467368787 Y0.75617197
N14750 X-0.42524518 Y0.785402388
N14755 X-0.381816917 Y0.812656748
N14760 X-0.337148914 Y0.837827968
N14765 X-0.291270271 Y0.860718329
N14770 X-0.244281649 Y0.881233816
N14775 X-0.196303645 Y0.899315031
N14780 X-0.147459817 Y0.914906554
N14785 X-0.097870799 Y0.927935322
N14790 X-0.047640505 Y0.938218034
N14795 X0.003083265 Y0.945695817
N14800 X0.054141504 Y0.950372726
N14805 X0.105378919 Y0.952255519
N14810 X0.15664264 Y0.951334135
N14815 X0.20776942 Y0.947477911
N14820 X0.258588904 Y0.940680992
N14825 X0.308941274 Y0.931013738
N14830 X0.358674658 Y0.918547488
N14835 X0.407642042 Y0.903348397
N14840 X0.455666264 Y0.885390259
N14845 X0.502587716 Y0.864721659
N14850 X0.548279492 Y0.841460491
N14855 X0.592620316 Y0.815717367
N14860 X0.635493496 Y0.787597867
N14865 X0.676750574 Y0.757156507
N14870 X0.716232765 Y0.724446079
N14875 X0.753861149 Y0.689619019
N14880 X0.789560408 Y0.652817178
N14885 X0.8232562 Y0.614172455
N14890 X0.854860666 Y0.573799479
N14895 X0.884223097 Y0.531767823
N14900 X0.911272229 Y0.488211376
N14905 X0.93598501 Y0.443288135
N14910 X0.958333428 Y0.397143101
N14915 X0.978285947 Y0.349912681
N14920 X0.995769726 Y0.301713737
N14925 X1.010673928 Y0.252655791
N14930 X1.023001633 Y0.202887884
N14935 X1.032772965 Y0.152555601
N14940 X1.040001441 Y0.101795703
N14945 X1.044693294 Y0.050738834
N14950 X1.046787998 Y-0.000490357
N14955 X1.046231638 Y-0.051759336
N14960 X1.043076327 Y-0.102934152
N14965 X1.037376734 Y-0.15388837
N14970 X1.029180091 Y-0.204500946
N14975 X1.018521316 Y-0.254652801
N14980 X1.005357908 Y-0.304206244
N14985 X0.98968994 Y-0.353025602
N14990 X0.971602643 Y-0.401001314
N14995 X0.951178543 Y-0.448029736
N15000 X0.928493485 Y-0.494010242
N15005 X0.903607466 Y-0.538837703
N15010 X0.876508773 Y-0.582363324
N15015 X0.847252298 Y-0.624468871
N15020 X0.815948802 Y-0.665075572
N15025 X0.782704391 Y-0.704109312
N15030 X0.747619389 Y-0.74149725
N15035 X0.710776697 Y-0.777154457
N15040 X0.67220365 Y-0.810932174
N15045 X0.631993211 Y-0.842743145
N15050 X0.590270561 Y-0.87254314
N15055 X0.547155658 Y-0.900290632
N15060 X0.50276302 Y-0.925944321
N15065 X0.457191092 Y-0.949439402
N15070 X0.410505618 Y-0.970635677
N15075 X0.362823441 Y-0.98948321
N15080 X0.314275449 Y-1.00597284
N15085 X0.264987495 Y-1.020097883
N15090 X0.215080854 Y-1.03185128
N15095 X0.164666814 Y-1.041191732
N15100 X0.113849621 Y-1.048005697
