%
(SAW BLADE BORE)
(T1  D=0.125 CR=0. - ZMIN=-0.14 - FLAT END MILL)
N10 G90 G94 G17 G91.1
N15 G20
N20 G53 G0 Z0.
(2D ADAPTIVE1)
N25 T1 M6
N30 S3000 M3
N35 G54
N40 M8
N45 G0 X0. Y0.
N50 G43 Z0.6 H1
N55 G0 Z0.2
N60 Z0.102
N65 G1 Z-0.12 F1.667
N70 X-0.0014 Y-0.0004 F5.
N75 X-0.0016 Y0.0011
N80 X-0.0005 Y0.0021
N85 X0.001
N90 X0.0022 Y0.0012
N95 X0.0026 Y-0.0003
N100 X0.0023 Y-0.0017
N105 X0.0015 Y-0.003
N110 X0.0003 Y-0.0039
N115 X-0.0012 Y-0.0042
N120 X-0.0027 Y-0.004
N125 X-0.004 Y-0.0033
N130 X-0.0051 Y-0.0023
N135 X-0.0066 Y0.0003
N140 X-0.0067 Y0.0033
N145 X-0.0055 Y0.006
N150 X-0.0033 Y0.0081
N155 X-0.0005 Y0.0093
N160 X0.0024 Y0.0095
N165 X0.0053 Y0.0087
N170 X0.0079 Y0.007
N175 X0.0118 Y0.0025
N180 X0.013 Y-0.0033
N185 X0.0115 Y-0.0091
N190 X0.0078 Y-0.0138
N195 X0.0026 Y-0.0168
N200 X-0.0034 Y-0.0177
N205 X-0.0093 Y-0.0167
N210 X-0.0146 Y-0.0139
N215 X-0.0188 Y-0.0096
N220 X-0.0217 Y-0.0043
N225 X-0.023 Y0.0015
N230 X-0.0227 Y0.0075
N235 X-0.0209 Y0.0132
N240 X-0.0178 Y0.0183
N245 X-0.0135 Y0.0226
N250 X-0.0084 Y0.0257
N255 X-0.0027 Y0.0275
N260 X0.0033 Y0.0281
N265 X0.0093 Y0.0275
N270 X0.015 Y0.0257
N275 X0.0202 Y0.0228
N280 X0.0249 Y0.019
N285 X0.0286 Y0.0144
N290 X0.0315 Y0.0091
N295 X0.0334 Y0.0034
N300 X0.0343 Y-0.0025
N305 X0.0341 Y-0.0085
N310 X0.0328 Y-0.0144
N315 X0.0307 Y-0.02
N320 X0.0276 Y-0.0251
N325 X0.0238 Y-0.0297
N330 X0.0192 Y-0.0337
N335 X0.0141 Y-0.0369
N340 X0.0086 Y-0.0393
N345 X0.0028 Y-0.0408
N350 X-0.0031 Y-0.0415
N355 X-0.0091 Y-0.0413
N360 X-0.015 Y-0.0403
N365 X-0.0207 Y-0.0384
N370 X-0.0261 Y-0.0358
N375 X-0.0311 Y-0.0325
N380 X-0.0356 Y-0.0285
N385 X-0.0396 Y-0.024
N390 X-0.0429 Y-0.019
N395 X-0.0455 Y-0.0136
N400 X-0.0475 Y-0.0079
N405 X-0.0487 Y-0.002
N410 X-0.0492 Y0.004
N415 X-0.0489 Y0.0099
N420 X-0.0479 Y0.0159
N425 X-0.0462 Y0.0216
N430 X-0.0438 Y0.0271
N435 X-0.0408 Y0.0323
N440 X-0.0372 Y0.0371
N445 X-0.0331 Y0.0415
N450 X-0.0285 Y0.0454
N455 X-0.0235 Y0.0487
N460 X-0.0182 Y0.0515
N465 X-0.0126 Y0.0536
N470 X-0.0068 Y0.0552
N475 X-0.0009 Y0.0561
N480 X0.0051 Y0.0563
N485 X0.0111 Y0.056
N490 X0.017 Y0.055
N495 X0.0228 Y0.0534
N500 X0.0284 Y0.0512
N505 X0.0337 Y0.0485
N510 X0.0388 Y0.0452
N515 X0.0435 Y0.0415
N520 X0.0478 Y0.0373
N525 X0.0516 Y0.0327
N530 X0.055 Y0.0278
N535 X0.0579 Y0.0225
N540 X0.0603 Y0.017
N545 X0.0621 Y0.0113
N550 X0.0634 Y0.0054
N555 X0.0642 Y-0.0005
N560 X0.0643 Y-0.0065
N565 X0.064 Y-0.0125
N570 X0.063 Y-0.0184
N575 X0.0616 Y-0.0243
N580 X0.0596 Y-0.0299
N585 X0.0571 Y-0.0354
N590 X0.0541 Y-0.0406
N595 X0.0507 Y-0.0455
N600 X0.0469 Y-0.0502
N605 X0.0427 Y-0.0544
N610 X0.0381 Y-0.0583
N615 X0.0332 Y-0.0618
N620 X0.028 Y-0.0648
N625 X0.0226 Y-0.0674
N630 X0.017 Y-0.0695
N635 X0.0112 Y-0.0712
N640 X0.0054 Y-0.0724
N645 X-0.0006 Y-0.073
N650 X-0.0066 Y-0.0732
N655 X-0.0126 Y-0.0729
N660 X-0.0187 Y-0.0721
N665 X-0.0245 Y-0.0708
N670 X-0.0303 Y-0.0691
N675 X-0.0361 Y-0.0668
N680 X-0.0415 Y-0.0641
N685 X-0.0468 Y-0.0609
N690 X-0.0519 Y-0.0574
N695 X-0.0566 Y-0.0534
N700 X-0.0611 Y-0.0489
N705 X-0.0651 Y-0.0443
N710 X-0.0689 Y-0.0391
N715 X-0.0722 Y-0.0337
N720 X-0.0751 Y-0.0281
N725 X-0.0776 Y-0.0221
N730 X-0.0795 Y-0.0159
N735 X-0.081 Y-0.0097
N740 X-0.082 Y-0.0031
N745 X-0.0824 Y0.0034
N750 Y0.0099
N755 X-0.0817 Y0.0166
N760 X-0.0806 Y0.0232
N765 X-0.079 Y0.0295
N770 X-0.0767 Y0.036
N775 X-0.074 Y0.0422
N780 X-0.0708 Y0.0482
N785 X-0.0671 Y0.0539
N790 X-0.0628 Y0.0595
N795 X-0.0582 Y0.0646
N800 X-0.0532 Y0.0693
N805 X-0.0476 Y0.0738
N810 X-0.0417 Y0.0778
N815 X-0.0356 Y0.0813
N820 X-0.0292 Y0.0842
N825 X-0.0224 Y0.0868
N830 X-0.0154 Y0.0887
N835 X-0.0083 Y0.0901
N840 X-0.0011 Y0.0909
N845 X0.0063 Y0.0912
N850 X0.0137 Y0.0908
N855 X0.021 Y0.0899
N860 X0.0282 Y0.0884
N865 X0.0354 Y0.0862
N870 X0.0425 Y0.0835
N875 X0.0494 Y0.0802
N880 X0.0559 Y0.0763
N885 X0.0621 Y0.072
N890 X0.068 Y0.0672
N895 X0.0736 Y0.0618
N900 X0.0787 Y0.0559
N905 X0.0834 Y0.0496
N910 X0.0875 Y0.043
N915 X0.0911 Y0.0361
N920 X0.0942 Y0.0288
N925 X0.0967 Y0.0213
N930 X0.0985 Y0.0135
N935 X0.0998 Y0.0055
N940 X0.1004 Y-0.0026
N945 Y-0.0106
N950 X0.0997 Y-0.0187
N955 X0.0984 Y-0.0267
N960 X0.0964 Y-0.0347
N965 X0.0938 Y-0.0425
N970 X0.0905 Y-0.0501
N975 X0.0866 Y-0.0576
N980 X0.0821 Y-0.0647
N985 X0.077 Y-0.0714
N990 X0.0714 Y-0.0777
N995 X0.0653 Y-0.0836
N1000 X0.0587 Y-0.089
N1005 X0.0516 Y-0.0939
N1010 X0.0441 Y-0.0982
N1015 X0.0363 Y-0.1019
N1020 X0.0282 Y-0.105
N1025 X0.0198 Y-0.1074
N1030 X0.0112 Y-0.1092
N1035 X0.0025 Y-0.1102
N1040 X-0.0064 Y-0.1106
N1045 X-0.0153 Y-0.1103
N1050 X-0.0242 Y-0.1092
N1055 X-0.033 Y-0.1074
N1060 X-0.0417 Y-0.1049
N1065 X-0.0502 Y-0.1017
N1070 X-0.0585 Y-0.0978
N1075 X-0.0664 Y-0.0932
N1080 X-0.074 Y-0.088
N1085 X-0.0812 Y-0.0822
N1090 X-0.0879 Y-0.0758
N1095 X-0.0941 Y-0.0689
N1100 X-0.0997 Y-0.0614
N1105 X-0.1048 Y-0.0535
N1110 X-0.1092 Y-0.0451
N1115 X-0.1129 Y-0.0364
N1120 X-0.116 Y-0.0274
N1125 X-0.1183 Y-0.0182
N1130 X-0.1199 Y-0.0087
N1135 X-0.1207 Y0.0009
N1140 X-0.1208 Y0.0106
N1145 X-0.12 Y0.0203
N1150 X-0.1185 Y0.0299
N1155 X-0.1162 Y0.0394
N1160 X-0.1132 Y0.0488
N1165 X-0.1094 Y0.0579
N1170 X-0.1048 Y0.0667
N1175 X-0.0995 Y0.0752
N1180 X-0.0936 Y0.0832
N1185 X-0.087 Y0.0908
N1190 X-0.0797 Y0.0978
N1195 X-0.0719 Y0.1043
N1200 X-0.0636 Y0.1102
N1205 X-0.0548 Y0.1153
N1210 X-0.0455 Y0.1198
N1215 X-0.0359 Y0.1236
N1220 X-0.026 Y0.1265
N1225 X-0.0158 Y0.1287
N1230 X-0.0055 Y0.13
N1235 X0.005 Y0.1306
N1240 X0.0155 Y0.1302
N1245 X0.026 Y0.1291
N1250 X0.0364 Y0.127
N1255 X0.0467 Y0.1242
N1260 X0.0567 Y0.1205
N1265 X0.0664 Y0.116
N1270 X0.0758 Y0.1107
N1275 X0.0848 Y0.1047
N1280 X0.0933 Y0.0979
N1285 X0.1012 Y0.0904
N1290 X0.1085 Y0.0824
N1295 X0.1152 Y0.0737
N1300 X0.1212 Y0.0644
N1305 X0.1265 Y0.0547
N1310 X0.131 Y0.0445
N1315 X0.1347 Y0.034
N1320 X0.1375 Y0.0231
N1325 X0.1394 Y0.0121
N1330 X0.1405 Y0.0009
N1335 X0.1406 Y-0.0104
N1340 X0.1399 Y-0.0218
N1345 X0.1382 Y-0.033
N1350 X0.1356 Y-0.0442
N1355 X0.1321 Y-0.0552
N1360 X0.1277 Y-0.0658
N1365 X0.1225 Y-0.0762
N1370 X0.1164 Y-0.0861
N1375 X0.1096 Y-0.0955
N1380 X0.102 Y-0.1044
N1385 X0.0936 Y-0.1127
N1390 X0.0846 Y-0.1203
N1395 X0.075 Y-0.1271
N1400 X0.0648 Y-0.1333
N1405 X0.0541 Y-0.1385
N1410 X0.043 Y-0.143
N1415 X0.0315 Y-0.1465
N1420 X0.0197 Y-0.1491
N1425 X0.0078 Y-0.1508
N1430 X-0.0044 Y-0.1515
N1435 X-0.0166 Y-0.1512
N1440 X-0.0287 Y-0.1499
N1445 X-0.0408 Y-0.1477
N1450 X-0.0527 Y-0.1445
N1455 X-0.0643 Y-0.1403
N1460 X-0.0756 Y-0.1352
N1465 X-0.0865 Y-0.1292
N1470 X-0.097 Y-0.1223
N1475 X-0.1068 Y-0.1145
N1480 X-0.1161 Y-0.106
N1485 X-0.1246 Y-0.0967
N1490 X-0.1324 Y-0.0868
N1495 X-0.1394 Y-0.0762
N1500 X-0.1456 Y-0.065
N1505 X-0.1509 Y-0.0533
N1510 X-0.1552 Y-0.0412
N1515 X-0.1585 Y-0.0288
N1520 X-0.1609 Y-0.0161
N1525 X-0.1622 Y-0.0032
N1530 X-0.1625 Y0.0098
N1535 X-0.1617 Y0.0228
N1540 X-0.1599 Y0.0358
N1545 X-0.157 Y0.0486
N1550 X-0.1531 Y0.0612
N1555 X-0.1482 Y0.0735
N1560 X-0.1423 Y0.0854
N1565 X-0.1355 Y0.0968
N1570 X-0.1277 Y0.1077
N1575 X-0.119 Y0.1179
N1580 X-0.1096 Y0.1275
N1585 X-0.0993 Y0.1363
N1590 X-0.0884 Y0.1442
N1595 X-0.0768 Y0.1513
N1600 X-0.0646 Y0.1574
N1605 X-0.0519 Y0.1626
N1610 X-0.0388 Y0.1667
N1615 X-0.0254 Y0.1698
N1620 X-0.0118 Y0.1719
N1625 X0.0021 Y0.1728
N1630 X0.016 Y0.1726
N1635 X0.0298 Y0.1712
N1640 X0.0436 Y0.1688
N1645 X0.0572 Y0.1653
N1650 X0.0705 Y0.1606
N1655 X0.0834 Y0.1549
N1660 X0.0959 Y0.1482
N1665 X0.1078 Y0.1404
N1670 X0.1191 Y0.1317
N1675 X0.1296 Y0.1221
N1680 X0.1395 Y0.1116
N1685 X0.1484 Y0.1004
N1690 X0.1565 Y0.0884
N1695 X0.1636 Y0.0758
N1700 X0.1696 Y0.0626
N1705 X0.1746 Y0.0489
N1710 X0.1786 Y0.0349
N1715 X0.1813 Y0.0205
N1720 X0.1829 Y0.0059
N1725 X0.1834 Y-0.0089
N1730 X0.1826 Y-0.0236
N1735 X0.1807 Y-0.0383
N1740 X0.1776 Y-0.0529
N1745 X0.1733 Y-0.0672
N1750 X0.1679 Y-0.0811
N1755 X0.1613 Y-0.0946
N1760 X0.1537 Y-0.1076
N1765 X0.145 Y-0.12
N1770 X0.1353 Y-0.1316
N1775 X0.1247 Y-0.1425
N1780 X0.1132 Y-0.1525
N1785 X0.1009 Y-0.1616
N1790 X0.0879 Y-0.1697
N1795 X0.0742 Y-0.1767
N1800 X0.06 Y-0.1826
N1805 X0.0453 Y-0.1874
N1810 X0.0302 Y-0.191
N1815 X0.0148 Y-0.1934
N1820 X-0.0007 Y-0.1946
N1825 X-0.0164 Y-0.1945
N1830 X-0.032 Y-0.1931
N1835 X-0.0475 Y-0.1905
N1840 X-0.0628 Y-0.1867
N1845 X-0.0778 Y-0.1816
N1850 X-0.0924 Y-0.1753
N1855 X-0.1065 Y-0.1678
N1860 X-0.1199 Y-0.1592
N1865 X-0.1327 Y-0.1495
N1870 X-0.1447 Y-0.1388
N1875 X-0.1558 Y-0.1272
N1880 X-0.1659 Y-0.1146
N1885 X-0.1751 Y-0.1012
N1890 X-0.1832 Y-0.0872
N1895 X-0.1901 Y-0.0724
N1900 X-0.1958 Y-0.0571
N1905 X-0.2003 Y-0.0414
N1910 X-0.2036 Y-0.0253
N1915 X-0.2055 Y-0.009
N1920 X-0.2062 Y0.0075
N1925 X-0.2055 Y0.0241
N1930 X-0.2034 Y0.0405
N1935 X-0.2001 Y0.0568
N1940 X-0.1954 Y0.0729
N1945 X-0.1895 Y0.0885
N1950 X-0.1822 Y0.1037
N1955 X-0.1738 Y0.1182
N1960 X-0.1642 Y0.1321
N1965 X-0.1535 Y0.1452
N1970 X-0.1418 Y0.1575
N1975 X-0.129 Y0.1688
N1980 X-0.1154 Y0.179
N1985 X-0.1009 Y0.1882
N1990 X-0.0857 Y0.1961
N1995 X-0.0699 Y0.2029
N2000 X-0.0536 Y0.2084
N2005 X-0.0368 Y0.2126
N2010 X-0.0197 Y0.2154
N2015 X-0.0023 Y0.2168
N2020 X0.0151
N2025 X0.0325 Y0.2155
N2030 X0.0498 Y0.2127
N2035 X0.0669 Y0.2085
N2040 X0.0836 Y0.203
N2045 X0.0999 Y0.1961
N2050 X0.1156 Y0.1879
N2055 X0.1307 Y0.1785
N2060 X0.1449 Y0.1679
N2065 X0.1583 Y0.1561
N2070 X0.1708 Y0.1432
N2075 X0.1822 Y0.1294
N2080 X0.1925 Y0.1146
N2085 X0.2016 Y0.0991
N2090 X0.2094 Y0.0828
N2095 X0.2159 Y0.0659
N2100 X0.2211 Y0.0484
N2105 X0.2248 Y0.0306
N2110 X0.2271 Y0.0125
N2115 X0.228 Y-0.0058
N2120 X0.2273 Y-0.0241
N2125 X0.2252 Y-0.0424
N2130 X0.2217 Y-0.0605
N2135 X0.2166 Y-0.0783
N2140 X0.2102 Y-0.0957
N2145 X0.2023 Y-0.1125
N2150 X0.1932 Y-0.1287
N2155 X0.1827 Y-0.1442
N2160 X0.1709 Y-0.1588
N2165 X0.158 Y-0.1724
N2170 X0.1441 Y-0.185
N2175 X0.1291 Y-0.1965
N2180 X0.1132 Y-0.2067
N2185 X0.0965 Y-0.2157
N2190 X0.0791 Y-0.2233
N2195 X0.0611 Y-0.2295
N2200 X0.0426 Y-0.2343
N2205 X0.0237 Y-0.2375
N2210 X0.0046 Y-0.2393
N2215 X-0.0147 Y-0.2395
N2220 X-0.0339 Y-0.2381
N2225 X-0.053 Y-0.2352
N2230 X-0.0719 Y-0.2308
N2235 X-0.0904 Y-0.2248
N2240 X-0.1084 Y-0.2174
N2245 X-0.1258 Y-0.2085
N2250 X-0.1425 Y-0.1982
N2255 X-0.1583 Y-0.1867
N2260 X-0.1732 Y-0.1738
N2265 X-0.187 Y-0.1598
N2270 X-0.1997 Y-0.1446
N2275 X-0.2111 Y-0.1285
N2280 X-0.2213 Y-0.1114
N2285 X-0.23 Y-0.0935
N2290 X-0.2374 Y-0.075
N2295 X-0.2432 Y-0.0559
N2300 X-0.2475 Y-0.0363
N2305 X-0.2502 Y-0.0164
N2310 X-0.2512 Y0.0037
N2315 X-0.2507 Y0.0238
N2320 X-0.2486 Y0.0439
N2325 X-0.2448 Y0.0638
N2330 X-0.2395 Y0.0834
N2335 X-0.2325 Y0.1026
N2340 X-0.2241 Y0.1211
N2345 X-0.2141 Y0.139
N2350 X-0.2028 Y0.1561
N2355 X-0.19 Y0.1722
N2360 X-0.176 Y0.1873
N2365 X-0.1608 Y0.2012
N2370 X-0.1445 Y0.2139
N2375 X-0.1271 Y0.2253
N2380 X-0.1089 Y0.2353
N2385 X-0.0899 Y0.2438
N2390 X-0.0702 Y0.2507
N2395 X-0.0499 Y0.2561
N2400 X-0.0293 Y0.2598
N2405 X-0.0084 Y0.2619
N2410 X0.0127 Y0.2623
N2415 X0.0338 Y0.261
N2420 X0.0547 Y0.258
N2425 X0.0754 Y0.2533
N2430 X0.0957 Y0.247
N2435 X0.1154 Y0.239
N2440 X0.1345 Y0.2295
N2445 X0.1529 Y0.2184
N2450 X0.1703 Y0.2059
N2455 X0.1866 Y0.1919
N2460 X0.2019 Y0.1767
N2465 X0.2159 Y0.1603
N2470 X0.2285 Y0.1427
N2475 X0.2398 Y0.1242
N2480 X0.2495 Y0.1048
N2485 X0.2577 Y0.0846
N2490 X0.2642 Y0.0638
N2495 X0.269 Y0.0424
N2500 X0.2722 Y0.0207
N2505 X0.2735 Y-0.0012
N2510 X0.2731 Y-0.0232
N2515 X0.271 Y-0.0451
N2520 X0.2671 Y-0.0669
N2525 X0.2614 Y-0.0883
N2530 X0.254 Y-0.1092
N2535 X0.245 Y-0.1296
N2540 X0.2343 Y-0.1491
N2545 X0.222 Y-0.1678
N2550 X0.2083 Y-0.1855
N2555 X0.1932 Y-0.2021
N2560 X0.1767 Y-0.2174
N2565 X0.159 Y-0.2314
N2570 X0.1403 Y-0.2439
N2575 X0.1205 Y-0.2549
N2580 X0.0999 Y-0.2644
N2585 X0.0785 Y-0.2721
N2590 X0.0566 Y-0.2781
N2595 X0.0341 Y-0.2824
N2600 X0.0114 Y-0.2848
N2605 X-0.0115 Y-0.2854
N2610 X-0.0345 Y-0.2842
N2615 X-0.0573 Y-0.2811
N2620 X-0.0798 Y-0.2762
N2625 X-0.1019 Y-0.2695
N2630 X-0.1235 Y-0.261
N2635 X-0.1443 Y-0.2508
N2640 X-0.1643 Y-0.239
N2645 X-0.1833 Y-0.2255
N2650 X-0.2012 Y-0.2105
N2655 X-0.2115 Y-0.2004
N2660 X-0.2129 Y-0.1989
N2665 X-0.2313 Y-0.1764
N2670 X-0.2422 Y-0.1631
N2675 X-0.2433 Y-0.1614
N2680 X-0.2691 Y-0.1132
N2685 X-0.2699 Y-0.1115
N2690 X-0.2705 Y-0.1098
N2695 X-0.2846 Y-0.0632
N2700 X-0.2864 Y-0.0572
N2705 X-0.2865 Y-0.0566
N2710 X-0.2872 Y-0.0499
N2715 X-0.2918 Y-0.0033
N2720 X-0.292 Y0.
N2725 X-0.2918 Y0.0033
N2730 X-0.2872 Y0.0499
N2735 X-0.2865 Y0.0566
N2740 X-0.2864 Y0.0572
N2745 X-0.2846 Y0.0632
N2750 X-0.2705 Y0.1098
N2755 X-0.2699 Y0.1115
N2760 X-0.2691 Y0.1132
N2765 X-0.2433 Y0.1614
N2770 X-0.2422 Y0.1631
N2775 X-0.2094 Y0.203
N2780 X-0.2064 Y0.2065
N2785 X-0.2027 Y0.2097
N2790 X-0.1665 Y0.2394
N2795 X-0.162 Y0.243
N2800 X-0.1598 Y0.2442
N2805 X-0.1132 Y0.2691
N2810 X-0.1122 Y0.2696
N2815 X-0.1066 Y0.2715
N2820 X-0.0599 Y0.2856
N2825 X-0.0566 Y0.2865
N2830 X-0.0533 Y0.2869
N2835 X-0.0067 Y0.2914
N2840 X0. Y0.292
N2845 X0.0067 Y0.2914
N2850 X0.0533 Y0.2869
N2855 X0.0566 Y0.2865
N2860 X0.0599 Y0.2856
N2865 X0.1066 Y0.2715
N2870 X0.1122 Y0.2696
N2875 X0.1132 Y0.2691
N2880 X0.1598 Y0.2442
N2885 X0.162 Y0.243
N2890 X0.1665 Y0.2394
N2895 X0.2027 Y0.2097
N2900 X0.2064 Y0.2065
N2905 X0.2094 Y0.203
N2910 X0.2422 Y0.1631
N2915 X0.2433 Y0.1614
N2920 X0.2691 Y0.1132
N2925 X0.2699 Y0.1115
N2930 X0.2705 Y0.1098
N2935 X0.2846 Y0.0632
N2940 X0.2864 Y0.0572
N2945 X0.2865 Y0.0566
N2950 X0.2872 Y0.0499
N2955 X0.2918 Y0.0033
N2960 X0.292 Y0.
N2965 X0.2918 Y-0.0033
N2970 X0.2872 Y-0.0499
N2975 X0.2865 Y-0.0566
N2980 X0.2864 Y-0.0572
N2985 X0.2846 Y-0.0632
N2990 X0.2705 Y-0.1098
N2995 X0.2699 Y-0.1115
N3000 X0.2691 Y-0.1132
N3005 X0.2433 Y-0.1614
N3010 X0.2422 Y-0.1631
N3015 X0.2094 Y-0.203
N3020 X0.2064 Y-0.2065
N3025 X0.2027 Y-0.2097
N3030 X0.1665 Y-0.2394
N3035 X0.162 Y-0.243
N3040 X0.1598 Y-0.2442
N3045 X0.1132 Y-0.2691
N3050 X0.1122 Y-0.2696
N3055 X0.1066 Y-0.2715
N3060 X0.0599 Y-0.2856
N3065 X0.0566 Y-0.2865
N3070 X0.0533 Y-0.2869
N3075 X0.0067 Y-0.2914
N3080 X0. Y-0.292
N3085 X-0.0067 Y-0.2914
N3090 X-0.0533 Y-0.2869
N3095 X-0.0566 Y-0.2865
N3100 X-0.0599 Y-0.2856
N3105 X-0.1066 Y-0.2715
N3110 X-0.1122 Y-0.2696
N3115 X-0.1132 Y-0.2691
N3120 X-0.1598 Y-0.2442
N3125 X-0.162 Y-0.243
N3130 X-0.1665 Y-0.2394
N3135 X-0.2027 Y-0.2097
N3140 X-0.2064 Y-0.2065
N3145 X-0.2094 Y-0.203
N3150 X-0.2129 Y-0.1989
N3155 G2 X-0.1998 Y-0.1792 I0.0099 J0.0076
N3160 G1 X-0.1971 Y-0.1799 Z-0.1197
N3165 X-0.1946 Y-0.1805 Z-0.1188
N3170 X-0.1923 Y-0.1811 Z-0.1173
N3175 X-0.1904 Y-0.1816 Z-0.1153
N3180 X-0.1889 Y-0.182 Z-0.1129
N3185 X-0.188 Y-0.1822 Z-0.1103
N3190 X-0.1877 Y-0.1823 Z-0.1075
N3195 G0 Z0.6
(BORE2)
N3200 G0 X0.2813 Y0.0125
N3205 Z0.6
N3210 Z-0.06
N3215 G1 Z-0.1275 F5.
N3220 G18 G2 X0.2937 Z-0.14 I0.0125 K0.
N3225 G1 X0.3
N3230 G17 G2 X0.3125 Y0. I0. J-0.0125
N3235 G3 X-0.3125 I-0.3125 J0.
N3240 X0.3125 I0.3125 J0.
N3245 G2 X0.3 Y-0.0125 I-0.0125 J0.
N3250 G1 X0.2937
N3255 G18 G3 X0.2813 Z-0.1275 I0. K0.0125
N3260 G0 Z0.6
N3265 G17
N3270 M9
N3275 G53 G0 Z0.
N3280 M30
%
