%
(SAW BLADE BORING)
(T1  D=0.125 CR=0. - ZMIN=-0.1 - FLAT END MILL)
N10 G90 G94 G17 G91.1
N15 G20
N20 G53 G0 Z0.
(2D POCKET1)
N25 M9
N30 T1 M6
N35 S3000 M3
N40 G54
N45 M8
N50 G0 X-0.096 Y-0.0252
N55 G43 Z0.6 H1
N60 G0 Z0.2
N65 G1 Z-0.1 F4.921
N70 G2 X-0.088 Y-0.0172 I0.008 J0.
N75 G1 X-0.084
N80 G2 X-0.076 Y-0.0252 I0. J-0.008
N85 X-0.116 I-0.02 J0.
N90 X-0.036 I0.04 J0.
N95 X-0.156 I-0.06 J0.
N100 X0.004 I0.08 J0.
N105 X-0.196 I-0.1 J0.
N110 X0.044 I0.12 J0.
N115 X-0.236 I-0.14 J0.
N120 X0.084 I0.16 J0.
N125 X-0.276 I-0.18 J0.
N130 X0.124 I0.2 J0.
N135 X-0.316 I-0.22 J0.
N140 X0.164 I0.24 J0.
N145 X-0.356 I-0.26 J0.
N150 X0.204 I0.28 J0.
N155 X-0.396 I-0.3 J0.
N160 X0.2165 I0.3062 J0.
N165 X-0.4085 I-0.3125 J0.
N170 X0.2165 I0.3125 J0.
N175 G1 X0.2163 Y-0.0276 Z-0.0995
N180 X0.2156 Y-0.0299 Z-0.099
N185 X0.2147 Y-0.0317 Z-0.0977
N190 X0.2135 Y-0.0334 Z-0.0963
N195 X0.2115 Y-0.0352 Z-0.0923
N200 X0.2107 Y-0.0358 Z-0.0875
N205 Z0.2
N210 G0 Z0.6
N215 M9
N220 G53 Z0.
N225 M30
%
