%
(SAW BLADE BORING)
(T2  D=0.125 CR=0. - ZMIN=-0.14 - FLAT END MILL)
N10 G90 G94 G17 G91.1
N15 G20
N20 G53 G0 Z0.
(2D CONTOUR2)
N25 M9
N30 T2 M6
N35 S3000 M3
N40 G54
N45 M8
N50 G0 X0.2615 Y0.0125
N55 G43 Z0.6 H2
N60 G0 Z0.2
N65 G1 Z0.0394 F1.667
N70 Z-0.1275
N75 G18 G2 X0.274 Z-0.14 I0.0125 K0.
N80 G1 X0.304 F5.
N85 G17 G2 X0.3165 Y0. I0. J-0.0125
N90 X-0.3165 I-0.3165 J0.
N95 X0.3165 I0.3165 J0.
N100 X0.304 Y-0.0125 I-0.0125 J0.
N105 G1 X0.274
N110 G18 G3 X0.2615 Z-0.1275 I0. K0.0125
N115 G1 Z0.2
N120 G0 Z0.6
N125 G17
N130 M9
N135 G53 G0 Z0.
N140 M30
%
