%
(SAW BLADE BORING)
(T1  D=0.125 CR=0. - ZMIN=-0.12 - FLAT END MILL)
N10 G90 G94 G17 G91.1
N15 G20
N20 G53 G0 Z0.
(2D ADAPTIVE1)
N25 M9
N30 T1 M6
N35 S3000 M3
N40 G54
N45 M8
N50 G0 X-0.096 Y-0.0252
N55 G43 Z0.6 H1
N60 G0 Z0.2
N65 Z0.102
N70 G1 Z-0.12 F1.64
N75 X-0.0975 Y-0.0251 F4.921
N80 X-0.0971 Y-0.0237
N85 X-0.0957 Y-0.0231
N90 X-0.0943 Y-0.0237
N95 X-0.0935 Y-0.025
N100 X-0.0937 Y-0.0265
N105 X-0.0945 Y-0.0277
N110 X-0.0958 Y-0.0286
N115 X-0.0972 Y-0.0289
N120 X-0.0987 Y-0.0287
N125 X-0.1 Y-0.0279
N130 X-0.101 Y-0.0268
N135 X-0.1016 Y-0.0254
N140 X-0.102 Y-0.0224
N145 X-0.1009 Y-0.0196
N150 X-0.0988 Y-0.0176
N155 X-0.096 Y-0.0165
N160 X-0.093
N165 X-0.0901 Y-0.0174
N170 X-0.0878 Y-0.0193
N175 X-0.0861 Y-0.0217
N180 X-0.0841 Y-0.0274
N185 X-0.0853 Y-0.0333
N190 X-0.0889 Y-0.0381
N195 X-0.0941 Y-0.041
N200 X-0.1001 Y-0.0417
N205 X-0.1059 Y-0.0403
N210 X-0.111 Y-0.0371
N215 X-0.1148 Y-0.0325
N220 X-0.1171 Y-0.0269
N225 X-0.1177 Y-0.021
N230 X-0.1167 Y-0.0151
N235 X-0.1141 Y-0.0096
N240 X-0.1103 Y-0.005
N245 X-0.1054 Y-0.0015
N250 X-0.0999 Y0.0008
N255 X-0.0939 Y0.0017
N260 X-0.088 Y0.0012
N265 X-0.0822 Y-0.0005
N270 X-0.0769 Y-0.0034
N275 X-0.0723 Y-0.0072
N280 X-0.0686 Y-0.0119
N285 X-0.0658 Y-0.0172
N290 X-0.0641 Y-0.0229
N295 X-0.0634 Y-0.0289
N300 X-0.0638 Y-0.0349
N305 X-0.0653 Y-0.0407
N310 X-0.0678 Y-0.0462
N315 X-0.0712 Y-0.0511
N320 X-0.0753 Y-0.0555
N325 X-0.0801 Y-0.059
N330 X-0.0855 Y-0.0618
N335 X-0.0911 Y-0.0637
N340 X-0.0971 Y-0.0647
N345 X-0.1031 Y-0.0648
N350 X-0.109 Y-0.064
N355 X-0.1148 Y-0.0624
N360 X-0.1202 Y-0.0599
N365 X-0.1253 Y-0.0567
N370 X-0.1299 Y-0.0528
N375 X-0.1339 Y-0.0483
N380 X-0.1372 Y-0.0433
N385 X-0.1398 Y-0.0379
N390 X-0.1417 Y-0.0322
N395 X-0.1429 Y-0.0264
N400 X-0.1433 Y-0.0204
N405 X-0.1429 Y-0.0144
N410 X-0.1418 Y-0.0085
N415 X-0.1399 Y-0.0028
N420 X-0.1374 Y0.0027
N425 X-0.1342 Y0.0077
N430 X-0.1304 Y0.0124
N435 X-0.1261 Y0.0166
N440 X-0.1214 Y0.0202
N445 X-0.1162 Y0.0233
N450 X-0.1107 Y0.0258
N455 X-0.105 Y0.0276
N460 X-0.0991 Y0.0287
N465 X-0.0932 Y0.0293
N470 X-0.0872 Y0.0291
N475 X-0.0812 Y0.0283
N480 X-0.0754 Y0.0269
N485 X-0.0697 Y0.0248
N490 X-0.0643 Y0.0222
N495 X-0.0593 Y0.019
N500 X-0.0545 Y0.0154
N505 X-0.0502 Y0.0112
N510 X-0.0463 Y0.0066
N515 X-0.0429 Y0.0017
N520 X-0.04 Y-0.0035
N525 X-0.0376 Y-0.0091
N530 X-0.0358 Y-0.0148
N535 X-0.0346 Y-0.0207
N540 X-0.0339 Y-0.0266
N545 X-0.0338 Y-0.0326
N550 X-0.0343 Y-0.0386
N555 X-0.0353 Y-0.0445
N560 X-0.0369 Y-0.0503
N565 X-0.0391 Y-0.0559
N570 X-0.0417 Y-0.0613
N575 X-0.0448 Y-0.0664
N580 X-0.0484 Y-0.0712
N585 X-0.0524 Y-0.0757
N590 X-0.0568 Y-0.0798
N595 X-0.0615 Y-0.0835
N600 X-0.0666 Y-0.0867
N605 X-0.0719 Y-0.0895
N610 X-0.0774 Y-0.0919
N615 X-0.0831 Y-0.0937
N620 X-0.089 Y-0.095
N625 X-0.0949 Y-0.0959
N630 X-0.1009 Y-0.0962
N635 X-0.1069 Y-0.096
N640 X-0.1129 Y-0.0953
N645 X-0.1188 Y-0.0942
N650 X-0.1245 Y-0.0925
N655 X-0.1301 Y-0.0904
N660 X-0.1356 Y-0.0878
N665 X-0.1409 Y-0.0847
N670 X-0.1458 Y-0.0813
N675 X-0.1504 Y-0.0775
N680 X-0.1549 Y-0.0732
N685 X-0.1589 Y-0.0686
N690 X-0.1626 Y-0.0636
N695 X-0.1659 Y-0.0584
N700 X-0.1687 Y-0.0529
N705 X-0.1712 Y-0.0471
N710 X-0.1731 Y-0.0412
N715 X-0.1746 Y-0.035
N720 X-0.1757 Y-0.0287
N725 X-0.1761 Y-0.0225
N730 Y-0.0159
N735 X-0.1756 Y-0.0095
N740 X-0.1746 Y-0.0032
N745 X-0.173 Y0.0032
N750 X-0.1709 Y0.0094
N755 X-0.1683 Y0.0154
N760 X-0.1652 Y0.0214
N765 X-0.1616 Y0.027
N770 X-0.1577 Y0.0323
N775 X-0.1531 Y0.0374
N780 X-0.1482 Y0.0421
N785 X-0.143 Y0.0463
N790 X-0.1374 Y0.0503
N795 X-0.1313 Y0.0538
N800 X-0.125 Y0.0567
N805 X-0.1186 Y0.0592
N810 X-0.1118 Y0.0612
N815 X-0.1048 Y0.0626
N820 X-0.0978 Y0.0635
N825 X-0.0908 Y0.0637
N830 X-0.0835 Y0.0635
N835 X-0.0763 Y0.0626
N840 X-0.0692 Y0.0612
N845 X-0.0623 Y0.0592
N850 X-0.0554 Y0.0566
N855 X-0.0486 Y0.0534
N860 X-0.0422 Y0.0497
N865 X-0.0361 Y0.0456
N870 X-0.0303 Y0.0409
N875 X-0.0248 Y0.0356
N880 X-0.0197 Y0.0299
N885 X-0.0152 Y0.0239
N890 X-0.0111 Y0.0175
N895 X-0.0075 Y0.0108
N900 X-0.0044 Y0.0037
N905 X-0.0019 Y-0.0038
N910 X0. Y-0.0113
N915 X0.0013 Y-0.019
N920 X0.002 Y-0.0268
N925 Y-0.0346
N930 X0.0014 Y-0.0426
N935 X0.0002 Y-0.0505
N940 X-0.0017 Y-0.0584
N945 X-0.0042 Y-0.066
N950 X-0.0073 Y-0.0735
N955 X-0.011 Y-0.0807
N960 X-0.0153 Y-0.0876
N965 X-0.0202 Y-0.0942
N970 X-0.0256 Y-0.1004
N975 X-0.0316 Y-0.1062
N980 X-0.038 Y-0.1116
N985 X-0.0449 Y-0.1164
N990 X-0.0522 Y-0.1207
N995 X-0.0598 Y-0.1244
N1000 X-0.0677 Y-0.1275
N1005 X-0.0759 Y-0.1299
N1010 X-0.0843 Y-0.1317
N1015 X-0.0928 Y-0.1328
N1020 X-0.1015 Y-0.1333
N1025 X-0.1101 Y-0.133
N1030 X-0.1188 Y-0.1321
N1035 X-0.1274 Y-0.1304
N1040 X-0.1359 Y-0.128
N1045 X-0.1443 Y-0.125
N1050 X-0.1524 Y-0.1212
N1055 X-0.1602 Y-0.1169
N1060 X-0.1676 Y-0.1118
N1065 X-0.1747 Y-0.1062
N1070 X-0.1813 Y-0.1
N1075 X-0.1874 Y-0.0932
N1080 X-0.193 Y-0.086
N1085 X-0.1981 Y-0.0783
N1090 X-0.2025 Y-0.0702
N1095 X-0.2062 Y-0.0617
N1100 X-0.2093 Y-0.0529
N1105 X-0.2116 Y-0.0438
N1110 X-0.2133 Y-0.0345
N1115 X-0.2142 Y-0.0252
N1120 X-0.2143 Y-0.0157
N1125 X-0.2137 Y-0.0062
N1130 X-0.2123 Y0.0033
N1135 X-0.2101 Y0.0126
N1140 X-0.2072 Y0.0218
N1145 X-0.2036 Y0.0307
N1150 X-0.1992 Y0.0394
N1155 X-0.1941 Y0.0477
N1160 X-0.1883 Y0.0557
N1165 X-0.1819 Y0.0631
N1170 X-0.1749 Y0.0701
N1175 X-0.1673 Y0.0765
N1180 X-0.1592 Y0.0823
N1185 X-0.1506 Y0.0875
N1190 X-0.1416 Y0.0919
N1195 X-0.1322 Y0.0957
N1200 X-0.1225 Y0.0987
N1205 X-0.1126 Y0.1009
N1210 X-0.1025 Y0.1023
N1215 X-0.0922 Y0.1029
N1220 X-0.0819 Y0.1027
N1225 X-0.0716 Y0.1016
N1230 X-0.0614 Y0.0997
N1235 X-0.0513 Y0.097
N1240 X-0.0415 Y0.0935
N1245 X-0.0319 Y0.0892
N1250 X-0.0226 Y0.084
N1255 X-0.0138 Y0.0782
N1260 X-0.0054 Y0.0716
N1265 X0.0025 Y0.0644
N1270 X0.0097 Y0.0565
N1275 X0.0164 Y0.048
N1280 X0.0224 Y0.039
N1285 X0.0276 Y0.0295
N1290 X0.0321 Y0.0196
N1295 X0.0358 Y0.0093
N1300 X0.0386 Y-0.0013
N1305 X0.0406 Y-0.0121
N1310 X0.0418 Y-0.0232
N1315 X0.042 Y-0.0343
N1320 X0.0414 Y-0.0454
N1325 X0.0398 Y-0.0565
N1330 X0.0374 Y-0.0674
N1335 X0.0341 Y-0.0782
N1340 X0.0299 Y-0.0887
N1345 X0.0249 Y-0.0989
N1350 X0.019 Y-0.1087
N1355 X0.0123 Y-0.118
N1360 X0.0049 Y-0.1268
N1365 X-0.0032 Y-0.135
N1370 X-0.012 Y-0.1425
N1375 X-0.0214 Y-0.1494
N1380 X-0.0313 Y-0.1554
N1385 X-0.0418 Y-0.1607
N1390 X-0.0527 Y-0.1652
N1395 X-0.0639 Y-0.1687
N1400 X-0.0754 Y-0.1714
N1405 X-0.0872 Y-0.1731
N1410 X-0.099 Y-0.1739
N1415 X-0.111 Y-0.1738
N1420 X-0.123 Y-0.1727
N1425 X-0.1348 Y-0.1706
N1430 X-0.1465 Y-0.1675
N1435 X-0.158 Y-0.1635
N1440 X-0.1692 Y-0.1586
N1445 X-0.1799 Y-0.1528
N1450 X-0.1902 Y-0.1461
N1455 X-0.2 Y-0.1386
N1460 X-0.2092 Y-0.1303
N1465 X-0.2176 Y-0.1212
N1470 X-0.2254 Y-0.1115
N1475 X-0.2324 Y-0.1011
N1480 X-0.2385 Y-0.0902
N1485 X-0.2438 Y-0.0788
N1490 X-0.2482 Y-0.0669
N1495 X-0.2516 Y-0.0547
N1500 X-0.254 Y-0.0422
N1505 X-0.2554 Y-0.0296
N1510 X-0.2558 Y-0.0168
N1515 X-0.2552 Y-0.004
N1520 X-0.2535 Y0.0088
N1525 X-0.2508 Y0.0214
N1530 X-0.2471 Y0.0339
N1535 X-0.2424 Y0.046
N1540 X-0.2367 Y0.0577
N1545 X-0.23 Y0.069
N1550 X-0.2225 Y0.0798
N1555 X-0.2141 Y0.0899
N1560 X-0.2048 Y0.0994
N1565 X-0.1948 Y0.1081
N1570 X-0.1841 Y0.116
N1575 X-0.1728 Y0.1231
N1580 X-0.1609 Y0.1293
N1585 X-0.1485 Y0.1344
N1590 X-0.1356 Y0.1386
N1595 X-0.1225 Y0.1418
N1600 X-0.109 Y0.1439
N1605 X-0.0954 Y0.1449
N1610 X-0.0818
N1615 X-0.0681 Y0.1437
N1620 X-0.0545 Y0.1414
N1625 X-0.0411 Y0.138
N1630 X-0.028 Y0.1336
N1635 X-0.0152 Y0.1281
N1640 X-0.0029 Y0.1215
N1645 X0.0089 Y0.114
N1650 X0.0201 Y0.1056
N1655 X0.0306 Y0.0962
N1660 X0.0403 Y0.086
N1665 X0.0493 Y0.075
N1670 X0.0573 Y0.0632
N1675 X0.0644 Y0.0509
N1680 X0.0705 Y0.0379
N1685 X0.0755 Y0.0245
N1690 X0.0795 Y0.0107
N1695 X0.0824 Y-0.0035
N1700 X0.0841 Y-0.0178
N1705 X0.0847 Y-0.0323
N1710 X0.0841 Y-0.0469
N1715 X0.0823 Y-0.0614
N1720 X0.0793 Y-0.0757
N1725 X0.0752 Y-0.0898
N1730 X0.07 Y-0.1036
N1735 X0.0637 Y-0.117
N1740 X0.0563 Y-0.1298
N1745 X0.0478 Y-0.1421
N1750 X0.0384 Y-0.1536
N1755 X0.028 Y-0.1644
N1760 X0.0168 Y-0.1744
N1765 X0.0048 Y-0.1835
N1770 X-0.008 Y-0.1915
N1775 X-0.0214 Y-0.1986
N1780 X-0.0354 Y-0.2046
N1785 X-0.0498 Y-0.2094
N1790 X-0.0646 Y-0.2131
N1795 X-0.0797 Y-0.2156
N1800 X-0.0951 Y-0.2169
N1805 X-0.1105
N1810 X-0.1259 Y-0.2157
N1815 X-0.1412 Y-0.2133
N1820 X-0.1563 Y-0.2096
N1825 X-0.1711 Y-0.2047
N1830 X-0.1856 Y-0.1987
N1835 X-0.1995 Y-0.1914
N1840 X-0.2128 Y-0.1831
N1845 X-0.2255 Y-0.1736
N1850 X-0.2374 Y-0.1632
N1855 X-0.2485 Y-0.1518
N1860 X-0.2586 Y-0.1395
N1865 X-0.2677 Y-0.1264
N1870 X-0.2758 Y-0.1126
N1875 X-0.2828 Y-0.0981
N1880 X-0.2886 Y-0.0831
N1885 X-0.2932 Y-0.0676
N1890 X-0.2965 Y-0.0518
N1895 X-0.2986 Y-0.0357
N1900 X-0.2994 Y-0.0194
N1905 X-0.2988 Y-0.0031
N1910 X-0.297 Y0.0132
N1915 X-0.2938 Y0.0293
N1920 X-0.2893 Y0.0451
N1925 X-0.2836 Y0.0606
N1930 X-0.2766 Y0.0756
N1935 X-0.2684 Y0.0901
N1940 X-0.2591 Y0.1038
N1945 X-0.2487 Y0.1169
N1950 X-0.2372 Y0.129
N1955 X-0.2247 Y0.1403
N1960 X-0.2114 Y0.1505
N1965 X-0.1972 Y0.1597
N1970 X-0.1823 Y0.1677
N1975 X-0.1667 Y0.1745
N1980 X-0.1506 Y0.18
N1985 X-0.1341 Y0.1843
N1990 X-0.1173 Y0.1872
N1995 X-0.1002 Y0.1888
N2000 X-0.083 Y0.189
N2005 X-0.0658 Y0.1878
N2010 X-0.0487 Y0.1852
N2015 X-0.0318 Y0.1813
N2020 X-0.0152 Y0.1759
N2025 X0.0009 Y0.1693
N2030 X0.0165 Y0.1614
N2035 X0.0314 Y0.1522
N2040 X0.0456 Y0.1418
N2045 X0.0589 Y0.1303
N2050 X0.0713 Y0.1177
N2055 X0.0827 Y0.1042
N2060 X0.093 Y0.0897
N2065 X0.1021 Y0.0744
N2070 X0.11 Y0.0584
N2075 X0.1166 Y0.0417
N2080 X0.1218 Y0.0246
N2085 X0.1257 Y0.007
N2090 X0.1281 Y-0.0109
N2095 X0.1291 Y-0.0289
N2100 X0.1287 Y-0.047
N2105 X0.1268 Y-0.0651
N2110 X0.1234 Y-0.083
N2115 X0.1186 Y-0.1006
N2120 X0.1124 Y-0.1178
N2125 X0.1048 Y-0.1345
N2130 X0.0958 Y-0.1506
N2135 X0.0856 Y-0.166
N2140 X0.0742 Y-0.1805
N2145 X0.0616 Y-0.1941
N2150 X0.0479 Y-0.2067
N2155 X0.0332 Y-0.2181
N2160 X0.0176 Y-0.2284
N2165 X0.0011 Y-0.2374
N2170 X-0.016 Y-0.245
N2175 X-0.0337 Y-0.2513
N2180 X-0.052 Y-0.2562
N2185 X-0.0706 Y-0.2596
N2190 X-0.0894 Y-0.2614
N2195 X-0.1084 Y-0.2618
N2200 X-0.1274 Y-0.2607
N2205 X-0.1463 Y-0.258
N2210 X-0.165 Y-0.2537
N2215 X-0.1834 Y-0.248
N2220 X-0.2012 Y-0.2409
N2225 X-0.2185 Y-0.2322
N2230 X-0.235 Y-0.2222
N2235 X-0.2508 Y-0.2109
N2240 X-0.2656 Y-0.1984
N2245 X-0.2794 Y-0.1846
N2250 X-0.292 Y-0.1697
N2255 X-0.3035 Y-0.1539
N2260 X-0.3137 Y-0.1371
N2265 X-0.3225 Y-0.1195
N2270 X-0.3299 Y-0.1013
N2275 X-0.3358 Y-0.0824
N2280 X-0.3402 Y-0.0631
N2285 X-0.3431 Y-0.0435
N2290 X-0.3443 Y-0.0236
N2295 X-0.344 Y-0.0037
N2300 X-0.3421 Y0.0162
N2305 X-0.3385 Y0.0359
N2310 X-0.3334 Y0.0553
N2315 X-0.3267 Y0.0743
N2320 X-0.3185 Y0.0927
N2325 X-0.3089 Y0.1105
N2330 X-0.2978 Y0.1274
N2335 X-0.2853 Y0.1435
N2340 X-0.2716 Y0.1585
N2345 X-0.2567 Y0.1724
N2350 X-0.2407 Y0.1851
N2355 X-0.2236 Y0.1965
N2360 X-0.2057 Y0.2066
N2365 X-0.187 Y0.2151
N2370 X-0.1676 Y0.2222
N2375 X-0.1476 Y0.2277
N2380 X-0.1272 Y0.2316
N2385 X-0.1066 Y0.2338
N2390 X-0.0858 Y0.2344
N2395 X-0.0649 Y0.2333
N2400 X-0.0442 Y0.2305
N2405 X-0.0237 Y0.226
N2410 X-0.0035 Y0.2199
N2415 X0.0161 Y0.2122
N2420 X0.035 Y0.203
N2425 X0.0533 Y0.1922
N2430 X0.0706 Y0.1799
N2435 X0.0869 Y0.1663
N2440 X0.1021 Y0.1514
N2445 X0.1161 Y0.1353
N2450 X0.1288 Y0.118
N2455 X0.1401 Y0.0998
N2460 X0.1499 Y0.0807
N2465 X0.1581 Y0.0608
N2470 X0.1648 Y0.0402
N2475 X0.1697 Y0.0192
N2480 X0.173 Y-0.0023
N2485 X0.1746 Y-0.0239
N2490 X0.1744 Y-0.0457
N2495 X0.1725 Y-0.0674
N2500 X0.1688 Y-0.089
N2505 X0.1634 Y-0.1102
N2510 X0.1562 Y-0.131
N2515 X0.1475 Y-0.1512
N2520 X0.1371 Y-0.1706
N2525 X0.1251 Y-0.1892
N2530 X0.1117 Y-0.2069
N2535 X0.0969 Y-0.2234
N2540 X0.0807 Y-0.2387
N2545 X0.0634 Y-0.2527
N2550 X0.0449 Y-0.2653
N2555 X0.0254 Y-0.2763
N2560 X0.0051 Y-0.2858
N2565 X-0.0159 Y-0.2937
N2570 X-0.0376 Y-0.2999
N2575 X-0.0598 Y-0.3043
N2580 X-0.0822 Y-0.3069
N2585 X-0.1049 Y-0.3077
N2590 X-0.1276 Y-0.3067
N2595 X-0.1502 Y-0.3038
N2600 X-0.1725 Y-0.2992
N2605 X-0.1945 Y-0.2927
N2610 X-0.2159 Y-0.2845
N2615 X-0.2366 Y-0.2746
N2620 X-0.2565 Y-0.2631
N2625 X-0.2754 Y-0.2499
N2630 X-0.2933 Y-0.2352
N2635 X-0.31 Y-0.2192
N2640 X-0.3253 Y-0.2017
N2645 X-0.3393 Y-0.1831
N2650 X-0.3517 Y-0.1634
N2655 X-0.3625 Y-0.1427
N2660 X-0.3681 Y-0.1296
N2665 X-0.3687 Y-0.1276
N2670 X-0.3771 Y-0.1
N2675 X-0.3822 Y-0.0833
N2680 X-0.3827 Y-0.08
N2685 X-0.388 Y-0.0267
N2690 Y-0.025
N2695 X-0.3879 Y-0.0233
N2700 X-0.3827 Y0.03
N2705 X-0.3824 Y0.0317
N2710 X-0.382 Y0.0333
N2715 X-0.3664 Y0.085
N2720 X-0.3657 Y0.0867
N2725 X-0.3622 Y0.0933
N2730 X-0.3397 Y0.1355
N2735 X-0.3383 Y0.1377
N2740 X-0.3036 Y0.18
N2745 X-0.3017 Y0.182
N2750 X-0.2598 Y0.2164
N2755 X-0.2583 Y0.2175
N2760 X-0.2569 Y0.2184
N2765 X-0.2098 Y0.2435
N2770 X-0.2082 Y0.2444
N2775 X-0.2065 Y0.245
N2780 X-0.1572 Y0.26
N2785 X-0.1532 Y0.2611
N2790 X-0.1465 Y0.2619
N2795 X-0.0984 Y0.2666
N2800 X-0.096 Y0.2668
N2805 X-0.0933 Y0.2666
N2810 X-0.04 Y0.2613
N2815 X-0.0348 Y0.26
N2820 X0.0133 Y0.2454
N2825 X0.0167 Y0.2441
N2830 X0.0619 Y0.22
N2835 X0.0666 Y0.2173
N2840 X0.0733 Y0.2119
N2845 X0.1091 Y0.1825
N2850 X0.1104 Y0.1814
N2855 X0.1116 Y0.18
N2860 X0.1445 Y0.14
N2865 X0.1465 Y0.1374
N2870 X0.1489 Y0.1333
N2875 X0.1732 Y0.0878
N2880 X0.1737 Y0.0867
N2885 X0.1758 Y0.08
N2890 X0.19 Y0.0333
N2895 X0.1904 Y0.0317
N2900 X0.1907 Y0.03
N2905 X0.1959 Y-0.0233
N2910 X0.196 Y-0.025
N2915 Y-0.0267
N2920 X0.1907 Y-0.08
N2925 X0.1901 Y-0.0833
N2930 X0.175 Y-0.1333
N2935 X0.1732 Y-0.1383
N2940 X0.1473 Y-0.1866
N2945 X0.1465 Y-0.1879
N2950 X0.1257 Y-0.2133
N2955 X0.1113 Y-0.2309
N2960 X0.1087 Y-0.2333
N2965 X0.0681 Y-0.2666
N2970 X0.0666 Y-0.2678
N2975 X0.06 Y-0.2715
N2980 X0.0192 Y-0.2933
N2985 X0.0163 Y-0.2948
N2990 X0.0133 Y-0.2959
N2995 X-0.0333 Y-0.31
N3000 X-0.04 Y-0.3118
N3005 X-0.0933 Y-0.3171
N3010 X-0.0966 Y-0.3172
N3015 X-0.0999 Y-0.317
N3020 X-0.1465 Y-0.3124
N3025 X-0.1532 Y-0.3116
N3030 X-0.1599 Y-0.3096
N3035 X-0.2065 Y-0.2955
N3040 X-0.2089 Y-0.2945
N3045 X-0.2564 Y-0.2691
N3050 X-0.2581 Y-0.2681
N3055 X-0.2601 Y-0.2666
N3060 X-0.3007 Y-0.2333
N3065 X-0.3023 Y-0.2319
N3070 X-0.3039 Y-0.2302
N3075 X-0.3382 Y-0.1883
N3080 X-0.3394 Y-0.1866
N3085 X-0.3643 Y-0.14
N3090 X-0.3655 Y-0.1377
N3095 X-0.3664 Y-0.1354
N3100 X-0.3687 Y-0.1276
N3105 G2 X-0.3491 Y-0.1144 I0.0121 J0.0032
N3110 G1 X-0.3469 Y-0.1161 Z-0.1197
N3115 X-0.3448 Y-0.1177 Z-0.1188
N3120 X-0.3429 Y-0.1191 Z-0.1173
N3125 X-0.3413 Y-0.1203 Z-0.1153
N3130 X-0.3401 Y-0.1212 Z-0.1129
N3135 X-0.3394 Y-0.1217 Z-0.1103
N3140 X-0.3391 Y-0.1219 Z-0.1075
N3145 G0 Z0.6
N3150 M9
N3155 G53 Z0.
N3160 M30
%
