%
(SMALL SUPPORT ARM)
(T1  D=0.125 CR=0. - ZMIN=-0.499999992 - FLAT END MILL)
N10 G90 G94 G17 G91.1
N15 G20
N20 G53 G0 Z0.
(BORE2)
N25 M9
N30 T1 M6
N35 S3000 M3
N40 G54
N45 M8
N50 G0 X0.03125 Y-0.0125
N55 G43 Z1.400000054 H1
N60 G0 Z0.080000003
N65 G1 Z0.0125 F10.
N70 G18 G2 X0.043750002 Z0. I0.012500002 K0.
N75 G1 X0.049999999
N80 G17 G3 X0.062499999 Y0. I0. J0.0125
N85 X-0.062499999 Z-0.019685039 I-0.062499999 J0.
N90 X0.062499999 Z-0.039370078 I0.062499999 J0.
N95 X-0.062499999 Z-0.059055117 I-0.062499999 J0.
N100 X0.062499999 Z-0.078740156 I0.062499999 J0.
N105 X-0.062499999 Z-0.098425195 I-0.062499999 J0.
N110 X0.062499999 Z-0.118110234 I0.062499999 J0.
N115 X-0.062499999 Z-0.137795274 I-0.062499999 J0.
N120 X0.062499999 Z-0.157480313 I0.062499999 J0.
N125 X-0.062499999 Z-0.177165352 I-0.062499999 J0.
N130 X0.062499999 Z-0.196850391 I0.062499999 J0.
N135 X-0.062499999 Z-0.21653543 I-0.062499999 J0.
N140 X0.062499999 Z-0.236220469 I0.062499999 J0.
N145 X-0.0625 Z-0.255905508 I-0.062499999 J0.
N150 X0.0625 Z-0.275590547 I0.0625 J0.
N155 X-0.0625 Z-0.295275586 I-0.0625 J0.
N160 X0.0625 Z-0.314960625 I0.0625 J0.
N165 X-0.0625 Z-0.334645664 I-0.0625 J0.
N170 X0.0625 Z-0.354330703 I0.0625 J0.
N175 X-0.0625 Z-0.374015742 I-0.0625 J0.
N180 X0.0625 Z-0.393700781 I0.0625 J0.
N185 X-0.0625 Z-0.413385821 I-0.0625 J0.
N190 X0.0625 Z-0.43307086 I0.0625 J0.
N195 X-0.0625 Z-0.452755899 I-0.0625 J0.
N200 X0.0625 Z-0.472440938 I0.0625 J0.
N205 X-0.0625 Z-0.492125977 I-0.0625 J0.
N210 X-0.019313562 Y-0.059441032 Z-0.499999992 I0.0625 J0.
N215 X0.019313562 Y0.059441032 I0.019313562 J0.059441032
N220 X-0.019313562 Y-0.059441032 I-0.019313562 J-0.059441032
N225 X-0.003562643 Y-0.051415539 I0.003862712 J0.011888207
N230 G1 X-0.001631287 Y-0.045471435
N235 X-0.000771752 Y-0.04282606 Z-0.499686591
N240 X0.000044682 Y-0.040313334 Z-0.498762102
N245 X0.000777075 Y-0.038059258 Z-0.497272884
N250 X0.001388704 Y-0.036176859 Z-0.495293612
N255 X0.001848897 Y-0.03476053 Z-0.492923536
N260 X0.002134579 Y-0.033881289 Z-0.4902815
N265 X0.002231426 Y-0.033583228 Z-0.487499988
N270 G0 X0.002231425 Z0.999999985
N275 X4.755659329 Y-0.0125
N280 Z0.080000003
N285 G1 Z0.0125 F10.
N290 G18 G2 X4.768159521 Z0. I0.012500192 K0.
N295 G1 X4.774409317
N300 G17 G3 X4.786909509 Y0. I0. J0.0125
N305 X4.661909392 Z-0.019685039 I-0.06250006 J0.
N310 X4.786909502 Z-0.039370078 I0.062500057 J0.
N315 X4.661909399 Z-0.059055116 I-0.062500053 J0.
N320 X4.786909496 Z-0.078740155 I0.06250005 J0.
N325 X4.661909405 Z-0.098425194 I-0.062500047 J0.
N330 X4.786909489 Z-0.118110233 I0.062500043 J0.
N335 X4.661909412 Z-0.137795271 I-0.06250004 J0.
N340 X4.786909482 Z-0.15748031 I0.062500037 J0.
N345 X4.661909419 Z-0.177165349 I-0.062500033 J0.
N350 X4.786909476 Z-0.196850388 I0.06250003 J0.
N355 X4.661909425 Z-0.216535427 I-0.062500027 J0.
N360 X4.786909469 Z-0.236220465 I0.062500023 J0.
N365 X4.661909432 Z-0.255905504 I-0.06250002 J0.
N370 X4.786909462 Z-0.275590543 I0.062500017 J0.
N375 X4.661909439 Z-0.295275582 I-0.062500013 J0.
N380 X4.786909455 Z-0.31496062 I0.06250001 J0.
N385 X4.661909445 Z-0.334645659 I-0.062500007 J0.
N390 X4.786909449 Z-0.354330698 I0.062500003 J0.
N395 X4.661909452 Z-0.374015737 I-0.0625 J0.
N400 X4.786909442 Z-0.393700775 I0.062499997 J0.
N405 X4.661909459 Z-0.413385814 I-0.062499993 J0.
N410 X4.786909435 Z-0.433070853 I0.06249999 J0.
N415 X4.661909466 Z-0.452755892 I-0.062499987 J0.
N420 X4.786909429 Z-0.472440931 I0.062499983 J0.
N425 X4.661909472 Z-0.492125969 I-0.06249998 J0.
N430 X4.705095967 Y-0.059441032 Z-0.499999992 I0.062499977 J0.
N435 X4.743722931 Y0.059441032 I0.019313482 J0.059441032
N440 X4.705095967 Y-0.059441032 I-0.019313482 J-0.059441032
N445 X4.720846762 Y-0.051415539 I0.003862756 J0.011888207
N450 G1 X4.72277814 Y-0.045471435
N455 X4.723637681 Y-0.042826061 Z-0.499686593
N460 X4.724454121 Y-0.040313336 Z-0.498762105
N465 X4.725186521 Y-0.03805926 Z-0.497272888
N470 X4.725798155 Y-0.036176861 Z-0.495293617
N475 X4.726258355 Y-0.03476053 Z-0.49292354
N480 X4.726544044 Y-0.03388129 Z-0.490281503
N485 X4.726640897 Y-0.033583228 Z-0.487499988
N490 G0 Z1.400000054
N495 M9
N500 G53 Z0.
N505 M30
%
