%
(STAIR STUD HOLE FIXTURE)
(T1  D=0.25 CR=0. - ZMIN=-0.75 - FLAT END MILL)
N10 G90 G94 G17 G91.1
N15 G20
N20 G53 G0 Z0.
(2D ADAPTIVE1)
N25 T1 M6
N30 S3000 M3
N35 G54
N40 G0 X-1.8158 Y-1.7942
N45 G43 Z0.6 H1
N50 G0 Z0.2
N55 Z-0.2
N60 G1 Z-0.225 F15.
N65 X-1.8155 Y-1.794 Z-0.2289
N70 X-1.8148 Y-1.7936 Z-0.2327
N75 X-1.8135 Y-1.7928 Z-0.2363
N80 X-1.8118 Y-1.7917 Z-0.2397
N85 X-1.8096 Y-1.7903 Z-0.2427
N90 X-1.8071 Y-1.7887 Z-0.2452
N95 X-1.8042 Y-1.787 Z-0.2473
N100 X-1.8012 Y-1.785 Z-0.2488
N105 X-1.7979 Y-1.783 Z-0.2497
N110 X-1.7946 Y-1.7809 Z-0.25
N115 G3 X-1.6866 Y-1.6959 I-0.3385 J0.5411
N120 G1 X-1.6827 Y-1.6918
N125 X-1.6749 Y-1.6782
N130 X-1.6666 Y-1.6607
N135 X-1.6579 Y-1.6376
N140 X-1.6488 Y-1.606
N145 X-1.6416 Y-1.5705
N150 X-1.6366 Y-1.5347
N155 X-1.6332 Y-1.4987
N160 X-1.6307 Y-1.4626
N165 X-1.629 Y-1.4264
N170 X-1.6278 Y-1.3903
N175 X-1.627 Y-1.3541
N180 X-1.6264 Y-1.3179
N185 X-1.626 Y-1.2817
N190 X-1.6257 Y-1.2456
N195 X-1.6255 Y-1.2094
N200 X-1.6253 Y-1.1732
N205 X-1.6252 Y-1.1008
N210 X-1.6251 Y-0.9923
N215 X-1.625 Y-0.6667
N220 Y0.2741
N225 Y1.4862
N230 Y1.4874
N235 X-1.6248 Y1.4956
N240 X-1.6242 Y1.5121
N245 X-1.6232 Y1.5203
N250 X-1.6216 Y1.5285
N255 X-1.6194 Y1.5367
N260 X-1.6189 Y1.5383
N265 X-1.6165 Y1.5449
N270 X-1.6129 Y1.5532
N275 X-1.6107 Y1.5578
N280 X-1.6088 Y1.5614
N285 X-1.6035 Y1.5696
N290 X-1.5942 Y1.5819
N295 X-1.5903 Y1.586
N300 X-1.586 Y1.5903
N305 X-1.5819 Y1.5942
N310 X-1.5696 Y1.6035
N315 X-1.5614 Y1.6088
N320 X-1.5578 Y1.6107
N325 X-1.5532 Y1.6129
N330 X-1.5449 Y1.6165
N335 X-1.5383 Y1.6189
N340 X-1.5367 Y1.6194
N345 X-1.5285 Y1.6216
N350 X-1.5203 Y1.6232
N355 X-1.5121 Y1.6242
N360 X-1.4956 Y1.6248
N365 X-1.4874 Y1.625
N370 X1.4874
N375 X1.4956 Y1.6248
N380 X1.5121 Y1.6242
N385 X1.5203 Y1.6232
N390 X1.5285 Y1.6216
N395 X1.5367 Y1.6194
N400 X1.5383 Y1.6189
N405 X1.5449 Y1.6165
N410 X1.5532 Y1.6129
N415 X1.5578 Y1.6107
N420 X1.5614 Y1.6088
N425 X1.5696 Y1.6035
N430 X1.5819 Y1.5942
N435 X1.586 Y1.5903
N440 X1.5903 Y1.586
N445 X1.5942 Y1.5819
N450 X1.6035 Y1.5696
N455 X1.6088 Y1.5614
N460 X1.6107 Y1.5578
N465 X1.6129 Y1.5532
N470 X1.6165 Y1.5449
N475 X1.6189 Y1.5383
N480 X1.6194 Y1.5367
N485 X1.6216 Y1.5285
N490 X1.6232 Y1.5203
N495 X1.6242 Y1.5121
N500 X1.6248 Y1.4956
N505 X1.625 Y1.4874
N510 Y-1.4874
N515 X1.6248 Y-1.4956
N520 X1.6242 Y-1.5121
N525 X1.6232 Y-1.5203
N530 X1.6216 Y-1.5285
N535 X1.6194 Y-1.5367
N540 X1.6189 Y-1.5383
N545 X1.6165 Y-1.5449
N550 X1.6129 Y-1.5532
N555 X1.6107 Y-1.5578
N560 X1.6088 Y-1.5614
N565 X1.6035 Y-1.5696
N570 X1.5942 Y-1.5819
N575 X1.5903 Y-1.586
N580 X1.586 Y-1.5903
N585 X1.5819 Y-1.5942
N590 X1.5696 Y-1.6035
N595 X1.5614 Y-1.6088
N600 X1.5578 Y-1.6107
N605 X1.5532 Y-1.6129
N610 X1.5449 Y-1.6165
N615 X1.5383 Y-1.6189
N620 X1.5367 Y-1.6194
N625 X1.5285 Y-1.6216
N630 X1.5203 Y-1.6232
N635 X1.5121 Y-1.6242
N640 X1.4956 Y-1.6248
N645 X1.4874 Y-1.625
N650 X-1.4874
N655 X-1.4956 Y-1.6248
N660 X-1.5121 Y-1.6242
N665 X-1.5203 Y-1.6232
N670 X-1.5285 Y-1.6216
N675 X-1.5367 Y-1.6194
N680 X-1.5383 Y-1.6189
N685 X-1.5449 Y-1.6165
N690 X-1.5532 Y-1.6129
N695 X-1.5578 Y-1.6107
N700 X-1.5614 Y-1.6088
N705 X-1.5696 Y-1.6035
N710 X-1.5819 Y-1.5942
N715 X-1.586 Y-1.5903
N720 X-1.5903 Y-1.586
N725 X-1.5942 Y-1.5819
N730 X-1.6035 Y-1.5696
N735 X-1.6088 Y-1.5614
N740 X-1.6107 Y-1.5578
N745 X-1.6129 Y-1.5532
N750 X-1.6165 Y-1.5449
N755 X-1.6189 Y-1.5383
N760 X-1.6194 Y-1.5367
N765 X-1.6216 Y-1.5285
N770 X-1.6232 Y-1.5203
N775 X-1.6242 Y-1.5121
N780 X-1.6248 Y-1.4956
N785 X-1.625 Y-1.4874
N790 Y-1.0683
N795 X-1.6253 Y-1.0654
N800 X-1.6259 Y-1.0625
N805 X-1.6272 Y-1.0598 Z-0.2498
N810 X-1.6285 Y-1.0571 Z-0.2493
N815 X-1.6297 Y-1.0545 Z-0.2484
N820 X-1.632 Y-1.0523 Z-0.2469
N825 X-1.6341 Y-1.0503 Z-0.245
N830 X-1.636 Y-1.0484 Z-0.2427
N835 X-1.6383 Y-1.0473 Z-0.2397
N840 X-1.6402 Y-1.0465 Z-0.2364
N845 X-1.6415 Y-1.0458 Z-0.2327
N850 X-1.6423 Y-1.0454 Z-0.2289
N855 X-1.6426 Y-1.0453 Z-0.225
N860 G0 Z0.2
N865 X-1.8158 Y-1.7942
N870 Z-0.45
N875 G1 Z-0.475 F15.
N880 X-1.8155 Y-1.794 Z-0.4789
N885 X-1.8148 Y-1.7936 Z-0.4827
N890 X-1.8135 Y-1.7928 Z-0.4863
N895 X-1.8118 Y-1.7917 Z-0.4897
N900 X-1.8096 Y-1.7903 Z-0.4927
N905 X-1.8071 Y-1.7887 Z-0.4952
N910 X-1.8042 Y-1.787 Z-0.4973
N915 X-1.8012 Y-1.785 Z-0.4988
N920 X-1.7979 Y-1.783 Z-0.4997
N925 X-1.7946 Y-1.7809 Z-0.5
N930 G3 X-1.6866 Y-1.6959 I-0.3385 J0.5411
N935 G1 X-1.6827 Y-1.6918
N940 X-1.6749 Y-1.6782
N945 X-1.6666 Y-1.6607
N950 X-1.6579 Y-1.6376
N955 X-1.6488 Y-1.606
N960 X-1.6416 Y-1.5705
N965 X-1.6366 Y-1.5347
N970 X-1.6332 Y-1.4987
N975 X-1.6307 Y-1.4626
N980 X-1.629 Y-1.4264
N985 X-1.6278 Y-1.3903
N990 X-1.627 Y-1.3541
N995 X-1.6264 Y-1.3179
N1000 X-1.626 Y-1.2817
N1005 X-1.6257 Y-1.2456
N1010 X-1.6255 Y-1.2094
N1015 X-1.6253 Y-1.1732
N1020 X-1.6252 Y-1.1008
N1025 X-1.6251 Y-0.9923
N1030 X-1.625 Y-0.6667
N1035 Y0.2741
N1040 Y1.4862
N1045 Y1.4874
N1050 X-1.6248 Y1.4956
N1055 X-1.6242 Y1.5121
N1060 X-1.6232 Y1.5203
N1065 X-1.6216 Y1.5285
N1070 X-1.6194 Y1.5367
N1075 X-1.6189 Y1.5383
N1080 X-1.6165 Y1.5449
N1085 X-1.6129 Y1.5532
N1090 X-1.6107 Y1.5578
N1095 X-1.6088 Y1.5614
N1100 X-1.6035 Y1.5696
N1105 X-1.5942 Y1.5819
N1110 X-1.5903 Y1.586
N1115 X-1.586 Y1.5903
N1120 X-1.5819 Y1.5942
N1125 X-1.5696 Y1.6035
N1130 X-1.5614 Y1.6088
N1135 X-1.5578 Y1.6107
N1140 X-1.5532 Y1.6129
N1145 X-1.5449 Y1.6165
N1150 X-1.5383 Y1.6189
N1155 X-1.5367 Y1.6194
N1160 X-1.5285 Y1.6216
N1165 X-1.5203 Y1.6232
N1170 X-1.5121 Y1.6242
N1175 X-1.4956 Y1.6248
N1180 X-1.4874 Y1.625
N1185 X1.4874
N1190 X1.4956 Y1.6248
N1195 X1.5121 Y1.6242
N1200 X1.5203 Y1.6232
N1205 X1.5285 Y1.6216
N1210 X1.5367 Y1.6194
N1215 X1.5383 Y1.6189
N1220 X1.5449 Y1.6165
N1225 X1.5532 Y1.6129
N1230 X1.5578 Y1.6107
N1235 X1.5614 Y1.6088
N1240 X1.5696 Y1.6035
N1245 X1.5819 Y1.5942
N1250 X1.586 Y1.5903
N1255 X1.5903 Y1.586
N1260 X1.5942 Y1.5819
N1265 X1.6035 Y1.5696
N1270 X1.6088 Y1.5614
N1275 X1.6107 Y1.5578
N1280 X1.6129 Y1.5532
N1285 X1.6165 Y1.5449
N1290 X1.6189 Y1.5383
N1295 X1.6194 Y1.5367
N1300 X1.6216 Y1.5285
N1305 X1.6232 Y1.5203
N1310 X1.6242 Y1.5121
N1315 X1.6248 Y1.4956
N1320 X1.625 Y1.4874
N1325 Y-1.4874
N1330 X1.6248 Y-1.4956
N1335 X1.6242 Y-1.5121
N1340 X1.6232 Y-1.5203
N1345 X1.6216 Y-1.5285
N1350 X1.6194 Y-1.5367
N1355 X1.6189 Y-1.5383
N1360 X1.6165 Y-1.5449
N1365 X1.6129 Y-1.5532
N1370 X1.6107 Y-1.5578
N1375 X1.6088 Y-1.5614
N1380 X1.6035 Y-1.5696
N1385 X1.5942 Y-1.5819
N1390 X1.5903 Y-1.586
N1395 X1.586 Y-1.5903
N1400 X1.5819 Y-1.5942
N1405 X1.5696 Y-1.6035
N1410 X1.5614 Y-1.6088
N1415 X1.5578 Y-1.6107
N1420 X1.5532 Y-1.6129
N1425 X1.5449 Y-1.6165
N1430 X1.5383 Y-1.6189
N1435 X1.5367 Y-1.6194
N1440 X1.5285 Y-1.6216
N1445 X1.5203 Y-1.6232
N1450 X1.5121 Y-1.6242
N1455 X1.4956 Y-1.6248
N1460 X1.4874 Y-1.625
N1465 X-1.4874
N1470 X-1.4956 Y-1.6248
N1475 X-1.5121 Y-1.6242
N1480 X-1.5203 Y-1.6232
N1485 X-1.5285 Y-1.6216
N1490 X-1.5367 Y-1.6194
N1495 X-1.5383 Y-1.6189
N1500 X-1.5449 Y-1.6165
N1505 X-1.5532 Y-1.6129
N1510 X-1.5578 Y-1.6107
N1515 X-1.5614 Y-1.6088
N1520 X-1.5696 Y-1.6035
N1525 X-1.5819 Y-1.5942
N1530 X-1.586 Y-1.5903
N1535 X-1.5903 Y-1.586
N1540 X-1.5942 Y-1.5819
N1545 X-1.6035 Y-1.5696
N1550 X-1.6088 Y-1.5614
N1555 X-1.6107 Y-1.5578
N1560 X-1.6129 Y-1.5532
N1565 X-1.6165 Y-1.5449
N1570 X-1.6189 Y-1.5383
N1575 X-1.6194 Y-1.5367
N1580 X-1.6216 Y-1.5285
N1585 X-1.6232 Y-1.5203
N1590 X-1.6242 Y-1.5121
N1595 X-1.6248 Y-1.4956
N1600 X-1.625 Y-1.4874
N1605 Y-1.0683
N1610 X-1.6253 Y-1.0654
N1615 X-1.6259 Y-1.0625
N1620 X-1.6272 Y-1.0598 Z-0.4998
N1625 X-1.6285 Y-1.0571 Z-0.4993
N1630 X-1.6297 Y-1.0545 Z-0.4984
N1635 X-1.632 Y-1.0523 Z-0.4969
N1640 X-1.6341 Y-1.0503 Z-0.495
N1645 X-1.636 Y-1.0484 Z-0.4927
N1650 X-1.6383 Y-1.0473 Z-0.4897
N1655 X-1.6402 Y-1.0465 Z-0.4864
N1660 X-1.6415 Y-1.0458 Z-0.4827
N1665 X-1.6423 Y-1.0454 Z-0.4789
N1670 X-1.6426 Y-1.0453 Z-0.475
N1675 G0 Z0.2
N1680 X-1.8158 Y-1.7942
N1685 Z-0.7
N1690 G1 Z-0.725 F15.
N1695 X-1.8155 Y-1.794 Z-0.7289
N1700 X-1.8148 Y-1.7936 Z-0.7327
N1705 X-1.8135 Y-1.7928 Z-0.7363
N1710 X-1.8118 Y-1.7917 Z-0.7397
N1715 X-1.8096 Y-1.7903 Z-0.7427
N1720 X-1.8071 Y-1.7887 Z-0.7452
N1725 X-1.8042 Y-1.787 Z-0.7473
N1730 X-1.8012 Y-1.785 Z-0.7488
N1735 X-1.7979 Y-1.783 Z-0.7497
N1740 X-1.7946 Y-1.7809 Z-0.75
N1745 G3 X-1.6866 Y-1.6959 I-0.3385 J0.5411
N1750 G1 X-1.6827 Y-1.6918
N1755 X-1.6749 Y-1.6782
N1760 X-1.6666 Y-1.6607
N1765 X-1.6579 Y-1.6376
N1770 X-1.6488 Y-1.606
N1775 X-1.6416 Y-1.5705
N1780 X-1.6366 Y-1.5347
N1785 X-1.6332 Y-1.4987
N1790 X-1.6307 Y-1.4626
N1795 X-1.629 Y-1.4264
N1800 X-1.6278 Y-1.3903
N1805 X-1.627 Y-1.3541
N1810 X-1.6264 Y-1.3179
N1815 X-1.626 Y-1.2817
N1820 X-1.6257 Y-1.2456
N1825 X-1.6255 Y-1.2094
N1830 X-1.6253 Y-1.1732
N1835 X-1.6252 Y-1.1008
N1840 X-1.6251 Y-0.9923
N1845 X-1.625 Y-0.6667
N1850 Y0.2741
N1855 Y1.4862
N1860 Y1.4874
N1865 X-1.6248 Y1.4956
N1870 X-1.6242 Y1.5121
N1875 X-1.6232 Y1.5203
N1880 X-1.6216 Y1.5285
N1885 X-1.6194 Y1.5367
N1890 X-1.6189 Y1.5383
N1895 X-1.6165 Y1.5449
N1900 X-1.6129 Y1.5532
N1905 X-1.6107 Y1.5578
N1910 X-1.6088 Y1.5614
N1915 X-1.6035 Y1.5696
N1920 X-1.5942 Y1.5819
N1925 X-1.5903 Y1.586
N1930 X-1.586 Y1.5903
N1935 X-1.5819 Y1.5942
N1940 X-1.5696 Y1.6035
N1945 X-1.5614 Y1.6088
N1950 X-1.5578 Y1.6107
N1955 X-1.5532 Y1.6129
N1960 X-1.5449 Y1.6165
N1965 X-1.5383 Y1.6189
N1970 X-1.5367 Y1.6194
N1975 X-1.5285 Y1.6216
N1980 X-1.5203 Y1.6232
N1985 X-1.5121 Y1.6242
N1990 X-1.4956 Y1.6248
N1995 X-1.4874 Y1.625
N2000 X1.4874
N2005 X1.4956 Y1.6248
N2010 X1.5121 Y1.6242
N2015 X1.5203 Y1.6232
N2020 X1.5285 Y1.6216
N2025 X1.5367 Y1.6194
N2030 X1.5383 Y1.6189
N2035 X1.5449 Y1.6165
N2040 X1.5532 Y1.6129
N2045 X1.5578 Y1.6107
N2050 X1.5614 Y1.6088
N2055 X1.5696 Y1.6035
N2060 X1.5819 Y1.5942
N2065 X1.586 Y1.5903
N2070 X1.5903 Y1.586
N2075 X1.5942 Y1.5819
N2080 X1.6035 Y1.5696
N2085 X1.6088 Y1.5614
N2090 X1.6107 Y1.5578
N2095 X1.6129 Y1.5532
N2100 X1.6165 Y1.5449
N2105 X1.6189 Y1.5383
N2110 X1.6194 Y1.5367
N2115 X1.6216 Y1.5285
N2120 X1.6232 Y1.5203
N2125 X1.6242 Y1.5121
N2130 X1.6248 Y1.4956
N2135 X1.625 Y1.4874
N2140 Y-1.4874
N2145 X1.6248 Y-1.4956
N2150 X1.6242 Y-1.5121
N2155 X1.6232 Y-1.5203
N2160 X1.6216 Y-1.5285
N2165 X1.6194 Y-1.5367
N2170 X1.6189 Y-1.5383
N2175 X1.6165 Y-1.5449
N2180 X1.6129 Y-1.5532
N2185 X1.6107 Y-1.5578
N2190 X1.6088 Y-1.5614
N2195 X1.6035 Y-1.5696
N2200 X1.5942 Y-1.5819
N2205 X1.5903 Y-1.586
N2210 X1.586 Y-1.5903
N2215 X1.5819 Y-1.5942
N2220 X1.5696 Y-1.6035
N2225 X1.5614 Y-1.6088
N2230 X1.5578 Y-1.6107
N2235 X1.5532 Y-1.6129
N2240 X1.5449 Y-1.6165
N2245 X1.5383 Y-1.6189
N2250 X1.5367 Y-1.6194
N2255 X1.5285 Y-1.6216
N2260 X1.5203 Y-1.6232
N2265 X1.5121 Y-1.6242
N2270 X1.4956 Y-1.6248
N2275 X1.4874 Y-1.625
N2280 X-1.4874
N2285 X-1.4956 Y-1.6248
N2290 X-1.5121 Y-1.6242
N2295 X-1.5203 Y-1.6232
N2300 X-1.5285 Y-1.6216
N2305 X-1.5367 Y-1.6194
N2310 X-1.5383 Y-1.6189
N2315 X-1.5449 Y-1.6165
N2320 X-1.5532 Y-1.6129
N2325 X-1.5578 Y-1.6107
N2330 X-1.5614 Y-1.6088
N2335 X-1.5696 Y-1.6035
N2340 X-1.5819 Y-1.5942
N2345 X-1.586 Y-1.5903
N2350 X-1.5903 Y-1.586
N2355 X-1.5942 Y-1.5819
N2360 X-1.6035 Y-1.5696
N2365 X-1.6088 Y-1.5614
N2370 X-1.6107 Y-1.5578
N2375 X-1.6129 Y-1.5532
N2380 X-1.6165 Y-1.5449
N2385 X-1.6189 Y-1.5383
N2390 X-1.6194 Y-1.5367
N2395 X-1.6216 Y-1.5285
N2400 X-1.6232 Y-1.5203
N2405 X-1.6242 Y-1.5121
N2410 X-1.6248 Y-1.4956
N2415 X-1.625 Y-1.4874
N2420 Y-1.0683
N2425 G3 X-1.6426 Y-1.0453 I-0.025 J-0.0009
N2430 G1 X-1.6464 Y-1.0441 Z-0.7497
N2435 X-1.65 Y-1.043 Z-0.7488
N2440 X-1.6535 Y-1.0419 Z-0.7473
N2445 X-1.6567 Y-1.041 Z-0.7452
N2450 X-1.6595 Y-1.0401 Z-0.7427
N2455 X-1.6619 Y-1.0393 Z-0.7397
N2460 X-1.6639 Y-1.0387 Z-0.7363
N2465 X-1.6653 Y-1.0383 Z-0.7327
N2470 X-1.6662 Y-1.038 Z-0.7289
N2475 X-1.6665 Y-1.0379 Z-0.725
N2480 G0 Z0.6
(BORE1)
N2485 G0 X-0.742 Y-0.0392
N2490 Z0.6
N2495 Z0.055
N2500 G1 Z0. F15.
N2505 X-0.738 Y-0.0432
N2510 X-0.7365 Y-0.0429
N2515 X-0.7352 Y-0.0421
N2520 X-0.7343 Y-0.0408
N2525 X-0.734 Y-0.0392
N2530 G3 X-0.75 Z-0.0197 I-0.008 J0.
N2535 X-0.734 Z-0.0394 I0.008 J0.
N2540 X-0.75 Z-0.0591 I-0.008 J0.
N2545 X-0.734 Z-0.0787 I0.008 J0.
N2550 X-0.75 Z-0.0984 I-0.008 J0.
N2555 X-0.734 Z-0.1181 I0.008 J0.
N2560 X-0.75 Z-0.1378 I-0.008 J0.
N2565 X-0.734 Z-0.1575 I0.008 J0.
N2570 X-0.75 Z-0.1772 I-0.008 J0.
N2575 X-0.734 Z-0.1969 I0.008 J0.
N2580 X-0.75 Z-0.2165 I-0.008 J0.
N2585 X-0.734 Z-0.2362 I0.008 J0.
N2590 X-0.75 Z-0.2559 I-0.008 J0.
N2595 X-0.734 Z-0.2756 I0.008 J0.
N2600 X-0.75 Z-0.2953 I-0.008 J0.
N2605 X-0.734 Z-0.315 I0.008 J0.
N2610 X-0.75 Z-0.3346 I-0.008 J0.
N2615 X-0.734 Z-0.3543 I0.008 J0.
N2620 X-0.75 Z-0.374 I-0.008 J0.
N2625 X-0.734 Z-0.3937 I0.008 J0.
N2630 X-0.75 Z-0.4134 I-0.008 J0.
N2635 X-0.734 Z-0.4331 I0.008 J0.
N2640 X-0.75 Z-0.4528 I-0.008 J0.
N2645 X-0.734 Z-0.4724 I0.008 J0.
N2650 X-0.75 Z-0.4921 I-0.008 J0.
N2655 X-0.734 Z-0.5118 I0.008 J0.
N2660 X-0.75 Z-0.5315 I-0.008 J0.
N2665 X-0.734 Z-0.5512 I0.008 J0.
N2670 X-0.75 Z-0.5709 I-0.008 J0.
N2675 X-0.734 Z-0.5906 I0.008 J0.
N2680 X-0.75 Z-0.6102 I-0.008 J0.
N2685 X-0.734 Z-0.6299 I0.008 J0.
N2690 X-0.75 Z-0.6496 I-0.008 J0.
N2695 X-0.734 Z-0.6693 I0.008 J0.
N2700 X-0.75 Z-0.689 I-0.008 J0.
N2705 X-0.734 Z-0.7087 I0.008 J0.
N2710 X-0.75 Z-0.7283 I-0.008 J0.
N2715 X-0.734 Z-0.748 I0.008 J0.
N2720 X-0.7344 Y-0.0368 Z-0.75 I-0.008 J0.
N2725 X-0.7496 Y-0.0417 I-0.0076 J-0.0025
N2730 X-0.7344 Y-0.0368 I0.0076 J0.0025
N2735 G1 X-0.7352 Y-0.0354
N2740 X-0.7364 Y-0.0344
N2745 X-0.7379 Y-0.034
N2750 X-0.7394 Y-0.0342
N2755 X-0.742 Y-0.0392
N2760 G0 Z0.2
N2765 X0.887 Y0.0233
N2770 Z0.055
N2775 G1 Z0. F15.
N2780 X0.891 Y0.0193
N2785 X0.8925 Y0.0196
N2790 X0.8938 Y0.0204
N2795 X0.8947 Y0.0217
N2800 X0.895 Y0.0233
N2805 G3 X0.879 Z-0.0197 I-0.008 J0.
N2810 X0.895 Z-0.0394 I0.008 J0.
N2815 X0.879 Z-0.0591 I-0.008 J0.
N2820 X0.895 Z-0.0787 I0.008 J0.
N2825 X0.879 Z-0.0984 I-0.008 J0.
N2830 X0.895 Z-0.1181 I0.008 J0.
N2835 X0.879 Z-0.1378 I-0.008 J0.
N2840 X0.895 Z-0.1575 I0.008 J0.
N2845 X0.879 Z-0.1772 I-0.008 J0.
N2850 X0.895 Z-0.1969 I0.008 J0.
N2855 X0.879 Z-0.2165 I-0.008 J0.
N2860 X0.895 Z-0.2362 I0.008 J0.
N2865 X0.879 Z-0.2559 I-0.008 J0.
N2870 X0.895 Z-0.2756 I0.008 J0.
N2875 X0.879 Z-0.2953 I-0.008 J0.
N2880 X0.895 Z-0.315 I0.008 J0.
N2885 X0.879 Z-0.3346 I-0.008 J0.
N2890 X0.895 Z-0.3543 I0.008 J0.
N2895 X0.879 Z-0.374 I-0.008 J0.
N2900 X0.895 Z-0.3937 I0.008 J0.
N2905 X0.879 Z-0.4134 I-0.008 J0.
N2910 X0.895 Z-0.4331 I0.008 J0.
N2915 X0.879 Z-0.4528 I-0.008 J0.
N2920 X0.895 Z-0.4724 I0.008 J0.
N2925 X0.879 Z-0.4921 I-0.008 J0.
N2930 X0.895 Z-0.5118 I0.008 J0.
N2935 X0.879 Z-0.5315 I-0.008 J0.
N2940 X0.895 Z-0.5512 I0.008 J0.
N2945 X0.879 Z-0.5709 I-0.008 J0.
N2950 X0.895 Z-0.5906 I0.008 J0.
N2955 X0.879 Z-0.6102 I-0.008 J0.
N2960 X0.895 Z-0.6299 I0.008 J0.
N2965 X0.879 Z-0.6496 I-0.008 J0.
N2970 X0.895 Z-0.6693 I0.008 J0.
N2975 X0.879 Z-0.689 I-0.008 J0.
N2980 X0.895 Z-0.7087 I0.008 J0.
N2985 X0.879 Z-0.7283 I-0.008 J0.
N2990 X0.895 Z-0.748 I0.008 J0.
N2995 X0.8946 Y0.0257 Z-0.75 I-0.008 J0.
N3000 X0.8794 Y0.0208 I-0.0076 J-0.0025
N3005 X0.8946 Y0.0257 I0.0076 J0.0025
N3010 G1 X0.8938 Y0.0271
N3015 X0.8926 Y0.0281
N3020 X0.8911 Y0.0285
N3025 X0.8896 Y0.0283
N3030 X0.887 Y0.0233
N3035 G0 Z0.6
N3040 G53 Z0.
N3045 M30
%
