%
(STAIR STUD HOLE FIXTURE HOLES ONLY)
(T1  D=0.25 CR=0. - ZMIN=-0.75 - FLAT END MILL)
N10 G90 G94 G17 G91.1
N15 G20
N20 G53 G0 Z0.
(BORE1)
N25 T1 M6
N30 S3000 M3
N35 G54
N40 G0 X-0.726 Y-0.0927
N45 G43 Z0.6 H1
N50 G0 Z0.08
N55 G1 Z0.025 F15.
N60 G18 G2 X-0.701 Z0. I0.025 K0.
N65 G1 X-0.6885
N70 G17 G3 X-0.668 Y-0.0723 I0. J0.0205
N75 X-0.75 Z-0.0197 I-0.041 J0.
N80 X-0.668 Z-0.0394 I0.041 J0.
N85 X-0.75 Z-0.0591 I-0.041 J0.
N90 X-0.668 Z-0.0787 I0.041 J0.
N95 X-0.75 Z-0.0984 I-0.041 J0.
N100 X-0.668 Z-0.1181 I0.041 J0.
N105 X-0.75 Z-0.1378 I-0.041 J0.
N110 X-0.668 Z-0.1575 I0.041 J0.
N115 X-0.75 Z-0.1772 I-0.041 J0.
N120 X-0.668 Z-0.1969 I0.041 J0.
N125 X-0.75 Z-0.2165 I-0.041 J0.
N130 X-0.668 Z-0.2362 I0.041 J0.
N135 X-0.75 Z-0.2559 I-0.041 J0.
N140 X-0.668 Z-0.2756 I0.041 J0.
N145 X-0.75 Z-0.2953 I-0.041 J0.
N150 X-0.668 Z-0.315 I0.041 J0.
N155 X-0.75 Z-0.3346 I-0.041 J0.
N160 X-0.668 Z-0.3543 I0.041 J0.
N165 X-0.75 Z-0.374 I-0.041 J0.
N170 X-0.668 Z-0.3937 I0.041 J0.
N175 X-0.75 Z-0.4134 I-0.041 J0.
N180 X-0.668 Z-0.4331 I0.041 J0.
N185 X-0.75 Z-0.4528 I-0.041 J0.
N190 X-0.668 Z-0.4724 I0.041 J0.
N195 X-0.75 Z-0.4921 I-0.041 J0.
N200 X-0.668 Z-0.5118 I0.041 J0.
N205 X-0.75 Z-0.5315 I-0.041 J0.
N210 X-0.668 Z-0.5512 I0.041 J0.
N215 X-0.75 Z-0.5709 I-0.041 J0.
N220 X-0.668 Z-0.5906 I0.041 J0.
N225 X-0.75 Z-0.6102 I-0.041 J0.
N230 X-0.668 Z-0.6299 I0.041 J0.
N235 X-0.75 Z-0.6496 I-0.041 J0.
N240 X-0.668 Z-0.6693 I0.041 J0.
N245 X-0.75 Z-0.689 I-0.041 J0.
N250 X-0.668 Z-0.7087 I0.041 J0.
N255 X-0.75 Z-0.7283 I-0.041 J0.
N260 X-0.7026 Y-0.1127 Z-0.7392 I0.041 J0.
N265 X-0.67 Y-0.0596 Z-0.75 I-0.0064 J0.0405
N270 X-0.748 Y-0.0849 I-0.039 J-0.0127
N275 X-0.67 Y-0.0596 I0.039 J0.0127
N280 X-0.6958 Y-0.0464 I-0.0195 J-0.0063
N285 G1 X-0.7077 Y-0.0503
N290 X-0.7114 Y-0.0515 Z-0.7497
N295 X-0.7151 Y-0.0527 Z-0.7488
N300 X-0.7185 Y-0.0538 Z-0.7473
N305 X-0.7217 Y-0.0548 Z-0.7452
N310 X-0.7245 Y-0.0557 Z-0.7427
N315 X-0.727 Y-0.0565 Z-0.7397
N320 X-0.7289 Y-0.0572 Z-0.7363
N325 X-0.7303 Y-0.0576 Z-0.7327
N330 X-0.7312 Y-0.0579 Z-0.7289
N335 X-0.7315 Y-0.058 Z-0.725
N340 G0 Z0.2
N345 X0.817 Y-0.0303
N350 Z0.08
N355 G1 Z0.025 F15.
N360 G18 G2 X0.842 Z0. I0.025 K0.
N365 G1 X0.8545
N370 G17 G3 X0.875 Y-0.0097 I0. J0.0205
N375 X0.793 Z-0.0197 I-0.041 J0.
N380 X0.875 Z-0.0394 I0.041 J0.
N385 X0.793 Z-0.0591 I-0.041 J0.
N390 X0.875 Z-0.0787 I0.041 J0.
N395 X0.793 Z-0.0984 I-0.041 J0.
N400 X0.875 Z-0.1181 I0.041 J0.
N405 X0.793 Z-0.1378 I-0.041 J0.
N410 X0.875 Z-0.1575 I0.041 J0.
N415 X0.793 Z-0.1772 I-0.041 J0.
N420 X0.875 Z-0.1969 I0.041 J0.
N425 X0.793 Z-0.2165 I-0.041 J0.
N430 X0.875 Z-0.2362 I0.041 J0.
N435 X0.793 Z-0.2559 I-0.041 J0.
N440 X0.875 Z-0.2756 I0.041 J0.
N445 X0.793 Z-0.2953 I-0.041 J0.
N450 X0.875 Z-0.315 I0.041 J0.
N455 X0.793 Z-0.3346 I-0.041 J0.
N460 X0.875 Z-0.3543 I0.041 J0.
N465 X0.793 Z-0.374 I-0.041 J0.
N470 X0.875 Z-0.3937 I0.041 J0.
N475 X0.793 Z-0.4134 I-0.041 J0.
N480 X0.875 Z-0.4331 I0.041 J0.
N485 X0.793 Z-0.4528 I-0.041 J0.
N490 X0.875 Z-0.4724 I0.041 J0.
N495 X0.793 Z-0.4921 I-0.041 J0.
N500 X0.875 Z-0.5118 I0.041 J0.
N505 X0.793 Z-0.5315 I-0.041 J0.
N510 X0.875 Z-0.5512 I0.041 J0.
N515 X0.793 Z-0.5709 I-0.041 J0.
N520 X0.875 Z-0.5906 I0.041 J0.
N525 X0.793 Z-0.6102 I-0.041 J0.
N530 X0.875 Z-0.6299 I0.041 J0.
N535 X0.793 Z-0.6496 I-0.041 J0.
N540 X0.875 Z-0.6693 I0.041 J0.
N545 X0.793 Z-0.689 I-0.041 J0.
N550 X0.875 Z-0.7087 I0.041 J0.
N555 X0.793 Z-0.7283 I-0.041 J0.
N560 X0.8404 Y-0.0502 Z-0.7392 I0.041 J0.
N565 X0.873 Y0.0029 Z-0.75 I-0.0064 J0.0405
N570 X0.795 Y-0.0224 I-0.039 J-0.0127
N575 X0.873 Y0.0029 I0.039 J0.0127
N580 X0.8472 Y0.0161 I-0.0195 J-0.0063
N585 G1 X0.8353 Y0.0122
N590 X0.8316 Y0.011 Z-0.7497
N595 X0.8279 Y0.0098 Z-0.7488
N600 X0.8245 Y0.0087 Z-0.7473
N605 X0.8213 Y0.0077 Z-0.7452
N610 X0.8185 Y0.0068 Z-0.7427
N615 X0.816 Y0.006 Z-0.7397
N620 X0.8141 Y0.0053 Z-0.7363
N625 X0.8127 Y0.0049 Z-0.7327
N630 X0.8118 Y0.0046 Z-0.7289
N635 X0.8115 Y0.0045 Z-0.725
N640 G0 Z0.6
N645 G53 Z0.
N650 M30
%
