%
(SUPPORT POST NORTH AND WEST BOTTOM)
(T1  D=0.5 CR=0. - ZMIN=-0.8 - FLAT END MILL)
N10 G90 G94 G17 G91.1
N15 G20
N20 G53 G0 Z0.
(SLOT1 11)
N25 T1 M6
N30 S3000 M3
N35 G54
N40 G0 X5.1025 Y0.
N45 G43 Z0.75 H1
N50 G0 Z0.1
N55 G1 X4.4775 Z0.0813 F15.
N60 X5.1025 Z0.0625
N65 X4.4775 Z0.0438
N70 X5.1025 Z0.025
N75 X4.4775 Z0.0062
N80 X5.1025 Z-0.0125
N85 X4.4775 Z-0.0312
N90 X5.1025 Z-0.05
N95 X4.4775
N100 X5.1025
N105 X4.4775 Z-0.0708
N110 X5.1025 Z-0.0917
N115 X4.4775 Z-0.1125
N120 X5.1025 Z-0.1333
N125 X4.4775 Z-0.1542
N130 X5.1025 Z-0.175
N135 X4.4775 Z-0.1958
N140 X5.1025 Z-0.2167
N145 X4.4775 Z-0.2375
N150 X5.1025 Z-0.2583
N155 X4.4775 Z-0.2792
N160 X5.1025 Z-0.3
N165 X4.4775
N170 X5.1025
N175 X4.4775 Z-0.3208
N180 X5.1025 Z-0.3417
N185 X4.4775 Z-0.3625
N190 X5.1025 Z-0.3833
N195 X4.4775 Z-0.4042
N200 X5.1025 Z-0.425
N205 X4.4775 Z-0.4458
N210 X5.1025 Z-0.4667
N215 X4.4775 Z-0.4875
N220 X5.1025 Z-0.5083
N225 X4.4775 Z-0.5292
N230 X5.1025 Z-0.55
N235 X4.4775
N240 X5.1025
N245 X4.4775 Z-0.5708
N250 X5.1025 Z-0.5917
N255 X4.4775 Z-0.6125
N260 X5.1025 Z-0.6333
N265 X4.4775 Z-0.6542
N270 X5.1025 Z-0.675
N275 X4.4775 Z-0.6958
N280 X5.1025 Z-0.7167
N285 X4.4775 Z-0.7375
N290 X5.1025 Z-0.7583
N295 X4.4775 Z-0.7792
N300 X5.1025 Z-0.8
N305 X4.4775
N310 X5.1025
N315 G0 Z0.75
N320 X10.4575
N325 Z0.1
N330 G1 X9.8325 Z0.0813 F15.
N335 X10.4575 Z0.0625
N340 X9.8325 Z0.0438
N345 X10.4575 Z0.025
N350 X9.8325 Z0.0062
N355 X10.4575 Z-0.0125
N360 X9.8325 Z-0.0312
N365 X10.4575 Z-0.05
N370 X9.8325
N375 X10.4575
N380 X9.8325 Z-0.0708
N385 X10.4575 Z-0.0917
N390 X9.8325 Z-0.1125
N395 X10.4575 Z-0.1333
N400 X9.8325 Z-0.1542
N405 X10.4575 Z-0.175
N410 X9.8325 Z-0.1958
N415 X10.4575 Z-0.2167
N420 X9.8325 Z-0.2375
N425 X10.4575 Z-0.2583
N430 X9.8325 Z-0.2792
N435 X10.4575 Z-0.3
N440 X9.8325
N445 X10.4575
N450 X9.8325 Z-0.3208
N455 X10.4575 Z-0.3417
N460 X9.8325 Z-0.3625
N465 X10.4575 Z-0.3833
N470 X9.8325 Z-0.4042
N475 X10.4575 Z-0.425
N480 X9.8325 Z-0.4458
N485 X10.4575 Z-0.4667
N490 X9.8325 Z-0.4875
N495 X10.4575 Z-0.5083
N500 X9.8325 Z-0.5292
N505 X10.4575 Z-0.55
N510 X9.8325
N515 X10.4575
N520 X9.8325 Z-0.5708
N525 X10.4575 Z-0.5917
N530 X9.8325 Z-0.6125
N535 X10.4575 Z-0.6333
N540 X9.8325 Z-0.6542
N545 X10.4575 Z-0.675
N550 X9.8325 Z-0.6958
N555 X10.4575 Z-0.7167
N560 X9.8325 Z-0.7375
N565 X10.4575 Z-0.7583
N570 X9.8325 Z-0.7792
N575 X10.4575 Z-0.8
N580 X9.8325
N585 X10.4575
N590 G0 Z0.75
N595 X15.8125
N600 Z0.1
N605 G1 X15.1875 Z0.0813 F15.
N610 X15.8125 Z0.0625
N615 X15.1875 Z0.0438
N620 X15.8125 Z0.025
N625 X15.1875 Z0.0062
N630 X15.8125 Z-0.0125
N635 X15.1875 Z-0.0312
N640 X15.8125 Z-0.05
N645 X15.1875
N650 X15.8125
N655 X15.1875 Z-0.0708
N660 X15.8125 Z-0.0917
N665 X15.1875 Z-0.1125
N670 X15.8125 Z-0.1333
N675 X15.1875 Z-0.1542
N680 X15.8125 Z-0.175
N685 X15.1875 Z-0.1958
N690 X15.8125 Z-0.2167
N695 X15.1875 Z-0.2375
N700 X15.8125 Z-0.2583
N705 X15.1875 Z-0.2792
N710 X15.8125 Z-0.3
N715 X15.1875
N720 X15.8125
N725 X15.1875 Z-0.3208
N730 X15.8125 Z-0.3417
N735 X15.1875 Z-0.3625
N740 X15.8125 Z-0.3833
N745 X15.1875 Z-0.4042
N750 X15.8125 Z-0.425
N755 X15.1875 Z-0.4458
N760 X15.8125 Z-0.4667
N765 X15.1875 Z-0.4875
N770 X15.8125 Z-0.5083
N775 X15.1875 Z-0.5292
N780 X15.8125 Z-0.55
N785 X15.1875
N790 X15.8125
N795 X15.1875 Z-0.5708
N800 X15.8125 Z-0.5917
N805 X15.1875 Z-0.6125
N810 X15.8125 Z-0.6333
N815 X15.1875 Z-0.6542
N820 X15.8125 Z-0.675
N825 X15.1875 Z-0.6958
N830 X15.8125 Z-0.7167
N835 X15.1875 Z-0.7375
N840 X15.8125 Z-0.7583
N845 X15.1875 Z-0.7792
N850 X15.8125 Z-0.8
N855 X15.1875
N860 X15.8125
N865 G0 Z0.75
N870 G53 Z0.
N875 M30
%
