%
(TENNON)
(T1  D=0.5 CR=0. - ZMIN=-0.562500015 - FLAT END MILL)
N10 G90 G94 G17 G91.1
N15 G20
N20 G53 G0 Z0.
(2D ADAPTIVE3)
N25 M9
N30 T1 M6
N35 S4000 M3
N40 G54
N45 G0 X0.815621999 Y-0.549886396
N50 G43 Z0.599999991 H1
N55 G0 Z0.199999997
N60 Z-0.099999998
N65 G1 Z-0.149999998 F15.
N70 X0.815472406 Y-0.549609879 Z-0.155598219
N75 X0.815025503 Y-0.548783806 Z-0.161126039
N80 X0.81428691 Y-0.547418563 Z-0.166513944
N85 X0.813265916 Y-0.545531319 Z-0.171694176
N90 X0.811975361 Y-0.543145808 Z-0.176601592
N95 X0.810431473 Y-0.540292029 Z-0.181174478
N100 X0.808653668 Y-0.53700587 Z-0.185355327
N105 X0.806664303 Y-0.533328655 Z-0.189091562
N110 X0.804488396 Y-0.529306629 Z-0.192336199
N115 X0.802153309 Y-0.52499037 Z-0.195048434
N120 X0.799688408 Y-0.520434158 Z-0.197194158
N125 X0.797124691 Y-0.515695289 Z-0.198746389
N130 X0.794494397 Y-0.510833358 Z-0.199685606
N135 X0.791830604 Y-0.505909507 Z-0.199999997
N140 G2 X0.687792996 Y-0.251348751 I1.122722851 J0.607390901
N145 G1 X0.686672091 Y-0.24686834 F5.
N150 X0.688369406 Y-0.241113422
N155 X0.690682554 Y-0.235577249
N160 X0.693398198 Y-0.230226986
N165 X0.696424875 Y-0.225046338
N170 X0.699707767 Y-0.220024116
N175 X0.703209028 Y-0.215151629
N180 X0.706900499 Y-0.210421573
N185 X0.710760026 Y-0.205827698
N190 X0.714769889 Y-0.201364371
N195 X0.718915143 Y-0.197026542
N200 X0.723183249 Y-0.192809537
N205 X0.727563392 Y-0.188709038
N210 X0.732046262 Y-0.184721027
N215 X0.736623449 Y-0.180841694
N220 X0.741287667 Y-0.177067471
N225 X0.74603246 Y-0.173394962
N230 X0.750851819 Y-0.169820973
N235 X0.755740564 Y-0.166342409
N240 X0.760693813 Y-0.162956358
N245 X0.765707211 Y-0.159660005
N250 X0.770776704 Y-0.156450656
N255 X0.775898761 Y-0.153325759
N260 X0.781069853 Y-0.150282815
N265 X0.786286977 Y-0.147319441
N270 X0.79154728 Y-0.144433346
N275 X0.796848057 Y-0.141622326
N280 X0.843772287 Y-0.116362074
N285 X0.882126065 Y-0.079362646
N290 X0.913061532 Y-0.035969491
N295 X0.937836865 Y0.011212584
N300 X0.957585958 Y0.060709466
N305 X0.973275177 Y0.111638983
N310 X0.985707336 Y0.163459909
N315 X0.995539117 Y0.215836472
N320 X1.003302401 Y0.268559324
N325 X1.009424915 Y0.321497805
N330 X1.014248855 Y0.374570381
N335 X1.018046657 Y0.427726235
N340 X1.021034887 Y0.480933715
N345 X1.02338498 Y0.534173222
N350 X1.02523248 Y0.587432553
N355 X1.026684468 Y0.640704087
N360 X1.027825423 Y0.693983243
N365 X1.028721652 Y0.747267055
N370 X1.029425719 Y0.80055372
N375 X1.029978624 Y0.853842187
N380 X1.030412884 Y0.907131781
N385 X1.030753879 Y0.96042205
N390 X1.031021584 Y1.013712695
N395 X1.031231843 Y1.067003641
N400 X1.031526505 Y1.173585907
N405 X1.031708154 Y1.280168548
N410 X1.031820117 Y1.38675104
N415 X1.029441864 Y1.399859932
N420 X1.021727314 Y1.425364487
N425 X0.995360172 Y1.471675813
N430 X0.957797569 Y1.509478111
N435 X0.914077834 Y1.539950183
N440 X0.866697942 Y1.564345172
N445 X0.817079094 Y1.583785861
N450 X0.767335967 Y1.602906205
N455 X0.716267533 Y1.618137209
N460 X0.664365123 Y1.630224844
N465 X0.611939167 Y1.639789521
N470 X0.559185434 Y1.647340219
N475 X0.50622726 Y1.653289945
N480 X0.453141918 Y1.657971059
N485 X0.399977692 Y1.661649989
N490 X0.346764692 Y1.664538496
N495 X0.293521543 Y1.666804637
N500 X0.240259828 Y1.668581625
N505 X0.226978242 Y1.667534085
N510 X0.213902654 Y1.664979289
N515 X0.188504561 Y1.656921417
N520 X0.142132842 Y1.63066068
N525 X0.103679032 Y1.593765199
N530 X0.072326275 Y1.550672636
N535 X0.047017824 Y1.503774388
N540 X0.026729672 Y1.454496008
N545 X0.010549777 Y1.403720135
N550 X-0.00230241 Y1.352001851
N555 X-0.012479349 Y1.299691238
N560 X-0.020517913 Y1.247009668
N565 X-0.026854884 Y1.194096438
N570 X-0.031842608 Y1.141038955
N575 X-0.035763467 Y1.087892112
N580 X-0.038842608 Y1.034689776
N585 X-0.041258837 Y0.981453197
N590 X-0.043153692 Y0.928195593
N595 X-0.044638956 Y0.874924923
N600 X-0.045802715 Y0.821646292
N605 X-0.046714291 Y0.768362706
N610 X-0.047428157 Y0.715076191
N615 X-0.047987089 Y0.661787724
N620 X-0.048424653 Y0.608498205
N625 X-0.048767164 Y0.555207973
N630 X-0.049035244 Y0.501917291
N635 X-0.049245052 Y0.448626346
N640 X-0.049537739 Y0.342044079
N645 X-0.049716971 Y0.235461532
N650 X-0.047839974 Y0.222271578
N655 X-0.041102889 Y0.196491658
N660 X-0.017197246 Y0.148863023
N665 X0.018405031 Y0.109208944
N670 X0.060718346 Y0.076812168
N675 X0.107132591 Y0.050626566
N680 X0.156107024 Y0.029615333
N685 X0.206691412 Y0.012846697
N690 X0.258289378 Y-0.000480634
N695 X0.310524411 Y-0.0110385
N700 X0.363158729 Y-0.019380889
N705 X0.416442278 Y-0.018468846
N710 X0.423602119 Y-0.017495087
N715 X0.431616813 Y-0.016685725
N720 X0.439668302 Y-0.016431356
N725 X0.447718102 Y-0.01673319
N730 X0.455041157 Y-0.017261424
N735 X0.470027435 Y-0.017795016
N740 X0.485013714 Y-0.018177165
N745 X0.514986271
N750 X0.529972549 Y-0.017795016
N755 X0.544958866 Y-0.017261424
N760 X0.559945144 Y-0.016180414
N765 X0.590761703 Y-0.011255003
N770 X0.619890258 Y-0.004122416
N775 X0.634876537 Y-0.00037318
N780 X0.664849094 Y0.007341582
N785 X0.679835372 Y0.012846381
N790 X0.695358937 Y0.018699724
N795 X0.709807929 Y0.025240373
N800 X0.726511272 Y0.033677087
N805 X0.739780561 Y0.040648138
N810 X0.769753118 Y0.056593967
N815 X0.782062425 Y0.063631816
N820 X0.784739397 Y0.065309302
N825 X0.799725675 Y0.075392085
N830 X0.804082315 Y0.078609177
N835 X0.814711954 Y0.086950664
N840 X0.839578974 Y0.108563909
N845 X0.844684511 Y0.113087142
N850 X0.856234333 Y0.123541271
N855 X0.874657068 Y0.140426253
N860 X0.88738096 Y0.153495993
N865 X0.904629625 Y0.174891292
N870 X0.911119116 Y0.183450725
N875 X0.934602182 Y0.217452763
N880 X0.95115549 Y0.24336017
N885 X0.960139102 Y0.25833755
N890 X0.973794141 Y0.288292273
N895 X0.97957964 Y0.303269634
N900 X0.994547296 Y0.342793427
N905 X0.996553842 Y0.348201737
N910 X1.00144957 Y0.363179079
N915 X1.004862748 Y0.378156459
N920 X1.009533649 Y0.39914165
N925 X1.012580226 Y0.423088562
N930 X1.014459189 Y0.438065904
N935 X1.017983129 Y0.468020627
N940 X1.019055975 Y0.482998007
N945 X1.020000037 Y0.512952729
N950 Y1.112047256
N955 X1.019055975 Y1.142002016
N960 X1.017983129 Y1.156979358
N965 X1.014459189 Y1.186934118
N970 X1.010692927 Y1.216888803
N975 X1.009533649 Y1.225858373
N980 X1.004862748 Y1.246843563
N985 X1.00144957 Y1.261820906
N990 X0.996553842 Y1.276798248
N995 X0.994547296 Y1.282206558
N1000 X0.979561017 Y1.321779687
N1005 X0.973794291 Y1.336707768
N1010 X0.960139252 Y1.366662453
N1015 X0.95115564 Y1.381639796
N1020 X0.934602182 Y1.407547297
N1025 X0.911118365 Y1.441549316
N1030 X0.904629625 Y1.450107604
N1035 X0.887379984 Y1.471504001
N1040 X0.874657068 Y1.484572643
N1045 X0.856232831 Y1.501458686
N1050 X0.844684511 Y1.511911257
N1055 X0.839577097 Y1.516436029
N1060 X0.814711954 Y1.53804749
N1065 X0.804079611 Y1.546390864
N1070 X0.799725675 Y1.549605873
N1075 X0.784739397 Y1.559688838
N1080 X0.782059347 Y1.561368206
N1085 X0.769753118 Y1.568404521
N1090 X0.739780561 Y1.584351908
N1095 X0.726513299 Y1.591322891
N1100 X0.709807929 Y1.599761182
N1105 X0.695364119 Y1.606300234
N1110 X0.679835372 Y1.612155644
N1115 X0.664849094 Y1.617660372
N1120 X0.634876537 Y1.625374471
N1125 X0.619890258 Y1.629123237
N1130 X0.590761928 Y1.636255069
N1135 X0.559945144 Y1.641180384
N1140 X0.544958866 Y1.642261415
N1145 X0.529972549 Y1.642795022
N1150 X0.514986271 Y1.643177093
N1155 X0.485013714
N1160 X0.470027435 Y1.642795022
N1165 X0.455041157 Y1.642261415
N1170 X0.440054878 Y1.641180384
N1175 X0.409238057 Y1.636255069
N1180 X0.380109727 Y1.629123237
N1185 X0.365123448 Y1.625374471
N1190 X0.335150891 Y1.617660372
N1195 X0.320164613 Y1.612155644
N1200 X0.304635866 Y1.606300234
N1205 X0.290192037 Y1.599761182
N1210 X0.27348661 Y1.591322891
N1215 X0.26021948 Y1.584352058
N1220 X0.230246904 Y1.568404671
N1225 X0.217940244 Y1.561368206
N1230 X0.215260626 Y1.559688989
N1235 X0.200274347 Y1.549606173
N1240 X0.195919998 Y1.546390864
N1245 X0.185288069 Y1.538047791
N1250 X0.160422006 Y1.516436029
N1255 X0.155315493 Y1.511912158
N1260 X0.143765981 Y1.501458686
N1265 X0.125342927 Y1.484573995
N1270 X0.112618583 Y1.471504001
N1275 X0.09537036 Y1.450109557
N1280 X0.088880025 Y1.441549316
N1285 X0.065397799 Y1.407550001
N1290 X0.048842402 Y1.381639796
N1295 X0.039859025 Y1.366662453
N1300 X0.026203734 Y1.336707768
N1305 X0.020418995 Y1.321730426
N1310 X0.005452668 Y1.282205056
N1315 X0.003446902 Y1.276798248
N1320 X-0.001448817 Y1.261820906
N1325 X-0.004861973 Y1.246843563
N1330 X-0.009533616 Y1.225854844
N1335 X-0.012579716 Y1.201911461
N1340 X-0.014458822 Y1.186934118
N1345 X-0.017983048 Y1.156979358
N1350 X-0.019056003 Y1.142002016
N1355 X-0.020000001 Y1.112047256
N1360 Y0.512952729
N1365 X-0.019056003 Y0.482998007
N1370 X-0.017983048 Y0.468020627
N1375 X-0.014458822 Y0.438065904
N1380 X-0.010692274 Y0.408111182
N1385 X-0.009533616 Y0.399145179
N1390 X-0.004861973 Y0.378156459
N1395 X-0.001448817 Y0.363179079
N1400 X0.003446902 Y0.348201737
N1405 X0.005452668 Y0.342794967
N1410 X0.020438951 Y0.303217313
N1415 X0.026203887 Y0.288292273
N1420 X0.039859198 Y0.25833755
N1425 X0.048842547 Y0.24336017
N1430 X0.065397799 Y0.217450059
N1435 X0.088879292 Y0.183450725
N1440 X0.09537036 Y0.174889396
N1445 X0.112617645 Y0.153495993
N1450 X0.125342927 Y0.140424901
N1455 X0.143764479 Y0.123541271
N1460 X0.155315493 Y0.11308624
N1465 X0.160420147 Y0.108563909
N1470 X0.185288069 Y0.08695028
N1475 X0.195917238 Y0.078609177
N1480 X0.200274347 Y0.075391784
N1485 X0.215260626 Y0.065309067
N1490 X0.217937184 Y0.063631816
N1495 X0.230246904 Y0.05659377
N1500 X0.26021948 Y0.04064804
N1505 X0.273488676 Y0.033677087
N1510 X0.290192037 Y0.025240357
N1515 X0.304641085 Y0.018699724
N1520 X0.320164613 Y0.012846381
N1525 X0.335150891 Y0.007341582
N1530 X0.365123448 Y-0.00037318
N1535 X0.380109727 Y-0.004122416
N1540 X0.395096005 Y-0.007792045
N1545 X0.399031554 Y-0.009457315 Z-0.199698711 F15.
N1550 X0.402890982 Y-0.011090376 Z-0.198809685
N1555 X0.406600209 Y-0.012659881 Z-0.197349984
N1560 X0.409462956 Y-0.014839675 Z-0.195455563
N1565 X0.41210327 Y-0.016850101 Z-0.193105544
N1570 X0.414475527 Y-0.018656419 Z-0.190340535
N1575 X0.416538734 Y-0.020227416 Z-0.187208314
N1580 X0.417927217 Y-0.021760179 Z-0.183936207
N1585 X0.419030378 Y-0.022977972 Z-0.18043136
N1590 X0.419830933 Y-0.023861716 Z-0.176748693
N1595 X0.420316338 Y-0.024397562 Z-0.172945907
N1600 X0.420478986 Y-0.024577114 Z-0.169082589
N1605 G0 Z0.199999997
N1610 X0.815621999 Y-0.549886396
N1615 Z-0.299999995
N1620 G1 Z-0.350000014 F15.
N1625 X0.815472405 Y-0.549609878 Z-0.355598234
N1630 X0.815025501 Y-0.548783803 Z-0.361126054
N1635 X0.814286908 Y-0.547418559 Z-0.366513958
N1640 X0.813265914 Y-0.545531315 Z-0.37169419
N1645 X0.811975358 Y-0.543145803 Z-0.376601604
N1650 X0.81043147 Y-0.540292024 Z-0.381174489
N1655 X0.808653665 Y-0.537005864 Z-0.385355336
N1660 X0.8066643 Y-0.53332865 Z-0.38909157
N1665 X0.804488393 Y-0.529306623 Z-0.392336205
N1670 X0.802153306 Y-0.524990365 Z-0.395048437
N1675 X0.799688406 Y-0.520434153 Z-0.39719416
N1680 X0.797124689 Y-0.515695286 Z-0.398746389
N1685 X0.794494396 Y-0.510833356 Z-0.399685604
N1690 X0.791830604 Y-0.505909507 Z-0.399999994
N1695 G2 X0.687792996 Y-0.251348751 I1.122722851 J0.607390901
N1700 G1 X0.686672091 Y-0.24686834 F5.
N1705 X0.688369406 Y-0.241113422
N1710 X0.690682554 Y-0.235577249
N1715 X0.693398198 Y-0.230226986
N1720 X0.696424875 Y-0.225046338
N1725 X0.699707767 Y-0.220024116
N1730 X0.703209028 Y-0.215151629
N1735 X0.706900499 Y-0.210421573
N1740 X0.710760026 Y-0.205827698
N1745 X0.714769889 Y-0.201364371
N1750 X0.718915143 Y-0.197026542
N1755 X0.723183249 Y-0.192809537
N1760 X0.727563392 Y-0.188709038
N1765 X0.732046262 Y-0.184721027
N1770 X0.736623449 Y-0.180841694
N1775 X0.741287667 Y-0.177067471
N1780 X0.74603246 Y-0.173394962
N1785 X0.750851819 Y-0.169820973
N1790 X0.755740564 Y-0.166342409
N1795 X0.760693813 Y-0.162956358
N1800 X0.765707211 Y-0.159660005
N1805 X0.770776704 Y-0.156450656
N1810 X0.775898761 Y-0.153325759
N1815 X0.781069853 Y-0.150282815
N1820 X0.786286977 Y-0.147319441
N1825 X0.79154728 Y-0.144433346
N1830 X0.796848057 Y-0.141622326
N1835 X0.843772287 Y-0.116362074
N1840 X0.882126065 Y-0.079362646
N1845 X0.913061532 Y-0.035969491
N1850 X0.937836865 Y0.011212584
N1855 X0.957585958 Y0.060709466
N1860 X0.973275177 Y0.111638983
N1865 X0.985707336 Y0.163459909
N1870 X0.995539117 Y0.215836472
N1875 X1.003302401 Y0.268559324
N1880 X1.009424915 Y0.321497805
N1885 X1.014248855 Y0.374570381
N1890 X1.018046657 Y0.427726235
N1895 X1.021034887 Y0.480933715
N1900 X1.02338498 Y0.534173222
N1905 X1.02523248 Y0.587432553
N1910 X1.026684468 Y0.640704087
N1915 X1.027825423 Y0.693983243
N1920 X1.028721652 Y0.747267055
N1925 X1.029425719 Y0.80055372
N1930 X1.029978624 Y0.853842187
N1935 X1.030412884 Y0.907131781
N1940 X1.030753879 Y0.96042205
N1945 X1.031021584 Y1.013712695
N1950 X1.031231843 Y1.067003641
N1955 X1.031526505 Y1.173585907
N1960 X1.031708154 Y1.280168548
N1965 X1.031820117 Y1.38675104
N1970 X1.029441864 Y1.399859932
N1975 X1.021727314 Y1.425364487
N1980 X0.995360172 Y1.471675813
N1985 X0.957797569 Y1.509478111
N1990 X0.914077834 Y1.539950183
N1995 X0.866697942 Y1.564345172
N2000 X0.817079094 Y1.583785861
N2005 X0.767335967 Y1.602906205
N2010 X0.716267533 Y1.618137209
N2015 X0.664365123 Y1.630224844
N2020 X0.611939167 Y1.639789521
N2025 X0.559185434 Y1.647340219
N2030 X0.50622726 Y1.653289945
N2035 X0.453141918 Y1.657971059
N2040 X0.399977692 Y1.661649989
N2045 X0.346764692 Y1.664538496
N2050 X0.293521543 Y1.666804637
N2055 X0.240259828 Y1.668581625
N2060 X0.226978242 Y1.667534085
N2065 X0.213902654 Y1.664979289
N2070 X0.188504561 Y1.656921417
N2075 X0.142132842 Y1.63066068
N2080 X0.103679032 Y1.593765199
N2085 X0.072326275 Y1.550672636
N2090 X0.047017824 Y1.503774388
N2095 X0.026729672 Y1.454496008
N2100 X0.010549777 Y1.403720135
N2105 X-0.00230241 Y1.352001851
N2110 X-0.012479349 Y1.299691238
N2115 X-0.020517913 Y1.247009668
N2120 X-0.026854884 Y1.194096438
N2125 X-0.031842608 Y1.141038955
N2130 X-0.035763467 Y1.087892112
N2135 X-0.038842608 Y1.034689776
N2140 X-0.041258837 Y0.981453197
N2145 X-0.043153692 Y0.928195593
N2150 X-0.044638956 Y0.874924923
N2155 X-0.045802715 Y0.821646292
N2160 X-0.046714291 Y0.768362706
N2165 X-0.047428157 Y0.715076191
N2170 X-0.047987089 Y0.661787724
N2175 X-0.048424653 Y0.608498205
N2180 X-0.048767164 Y0.555207973
N2185 X-0.049035244 Y0.501917291
N2190 X-0.049245052 Y0.448626346
N2195 X-0.049537739 Y0.342044079
N2200 X-0.049716971 Y0.235461532
N2205 X-0.047839974 Y0.222271578
N2210 X-0.041102889 Y0.196491658
N2215 X-0.017197246 Y0.148863023
N2220 X0.018405031 Y0.109208944
N2225 X0.060718346 Y0.076812168
N2230 X0.107132591 Y0.050626566
N2235 X0.156107024 Y0.029615333
N2240 X0.206691412 Y0.012846697
N2245 X0.258289378 Y-0.000480634
N2250 X0.310524411 Y-0.0110385
N2255 X0.363158729 Y-0.019380889
N2260 X0.416442278 Y-0.018468846
N2265 X0.423602119 Y-0.017495087
N2270 X0.431616813 Y-0.016685725
N2275 X0.439668302 Y-0.016431356
N2280 X0.447718102 Y-0.01673319
N2285 X0.455041157 Y-0.017261424
N2290 X0.470027435 Y-0.017795016
N2295 X0.485013714 Y-0.018177165
N2300 X0.514986271
N2305 X0.529972549 Y-0.017795016
N2310 X0.544958866 Y-0.017261424
N2315 X0.559945144 Y-0.016180414
N2320 X0.590761703 Y-0.011255003
N2325 X0.619890258 Y-0.004122416
N2330 X0.634876537 Y-0.00037318
N2335 X0.664849094 Y0.007341582
N2340 X0.679835372 Y0.012846381
N2345 X0.695358937 Y0.018699724
N2350 X0.709807929 Y0.025240373
N2355 X0.726511272 Y0.033677087
N2360 X0.739780561 Y0.040648138
N2365 X0.769753118 Y0.056593967
N2370 X0.782062425 Y0.063631816
N2375 X0.784739397 Y0.065309302
N2380 X0.799725675 Y0.075392085
N2385 X0.804082315 Y0.078609177
N2390 X0.814711954 Y0.086950664
N2395 X0.839578974 Y0.108563909
N2400 X0.844684511 Y0.113087142
N2405 X0.856234333 Y0.123541271
N2410 X0.874657068 Y0.140426253
N2415 X0.88738096 Y0.153495993
N2420 X0.904629625 Y0.174891292
N2425 X0.911119116 Y0.183450725
N2430 X0.934602182 Y0.217452763
N2435 X0.95115549 Y0.24336017
N2440 X0.960139102 Y0.25833755
N2445 X0.973794141 Y0.288292273
N2450 X0.97957964 Y0.303269634
N2455 X0.994547296 Y0.342793427
N2460 X0.996553842 Y0.348201737
N2465 X1.00144957 Y0.363179079
N2470 X1.004862748 Y0.378156459
N2475 X1.009533649 Y0.39914165
N2480 X1.012580226 Y0.423088562
N2485 X1.014459189 Y0.438065904
N2490 X1.017983129 Y0.468020627
N2495 X1.019055975 Y0.482998007
N2500 X1.020000037 Y0.512952729
N2505 Y1.112047256
N2510 X1.019055975 Y1.142002016
N2515 X1.017983129 Y1.156979358
N2520 X1.014459189 Y1.186934118
N2525 X1.010692927 Y1.216888803
N2530 X1.009533649 Y1.225858373
N2535 X1.004862748 Y1.246843563
N2540 X1.00144957 Y1.261820906
N2545 X0.996553842 Y1.276798248
N2550 X0.994547296 Y1.282206558
N2555 X0.979561017 Y1.321779687
N2560 X0.973794291 Y1.336707768
N2565 X0.960139252 Y1.366662453
N2570 X0.95115564 Y1.381639796
N2575 X0.934602182 Y1.407547297
N2580 X0.911118365 Y1.441549316
N2585 X0.904629625 Y1.450107604
N2590 X0.887379984 Y1.471504001
N2595 X0.874657068 Y1.484572643
N2600 X0.856232831 Y1.501458686
N2605 X0.844684511 Y1.511911257
N2610 X0.839577097 Y1.516436029
N2615 X0.814711954 Y1.53804749
N2620 X0.804079611 Y1.546390864
N2625 X0.799725675 Y1.549605873
N2630 X0.784739397 Y1.559688838
N2635 X0.782059347 Y1.561368206
N2640 X0.769753118 Y1.568404521
N2645 X0.739780561 Y1.584351908
N2650 X0.726513299 Y1.591322891
N2655 X0.709807929 Y1.599761182
N2660 X0.695364119 Y1.606300234
N2665 X0.679835372 Y1.612155644
N2670 X0.664849094 Y1.617660372
N2675 X0.634876537 Y1.625374471
N2680 X0.619890258 Y1.629123237
N2685 X0.590761928 Y1.636255069
N2690 X0.559945144 Y1.641180384
N2695 X0.544958866 Y1.642261415
N2700 X0.529972549 Y1.642795022
N2705 X0.514986271 Y1.643177093
N2710 X0.485013714
N2715 X0.470027435 Y1.642795022
N2720 X0.455041157 Y1.642261415
N2725 X0.440054878 Y1.641180384
N2730 X0.409238057 Y1.636255069
N2735 X0.380109727 Y1.629123237
N2740 X0.365123448 Y1.625374471
N2745 X0.335150891 Y1.617660372
N2750 X0.320164613 Y1.612155644
N2755 X0.304635866 Y1.606300234
N2760 X0.290192037 Y1.599761182
N2765 X0.27348661 Y1.591322891
N2770 X0.26021948 Y1.584352058
N2775 X0.230246904 Y1.568404671
N2780 X0.217940244 Y1.561368206
N2785 X0.215260626 Y1.559688989
N2790 X0.200274347 Y1.549606173
N2795 X0.195919998 Y1.546390864
N2800 X0.185288069 Y1.538047791
N2805 X0.160422006 Y1.516436029
N2810 X0.155315493 Y1.511912158
N2815 X0.143765981 Y1.501458686
N2820 X0.125342927 Y1.484573995
N2825 X0.112618583 Y1.471504001
N2830 X0.09537036 Y1.450109557
N2835 X0.088880025 Y1.441549316
N2840 X0.065397799 Y1.407550001
N2845 X0.048842402 Y1.381639796
N2850 X0.039859025 Y1.366662453
N2855 X0.026203734 Y1.336707768
N2860 X0.020418995 Y1.321730426
N2865 X0.005452668 Y1.282205056
N2870 X0.003446902 Y1.276798248
N2875 X-0.001448817 Y1.261820906
N2880 X-0.004861973 Y1.246843563
N2885 X-0.009533616 Y1.225854844
N2890 X-0.012579716 Y1.201911461
N2895 X-0.014458822 Y1.186934118
N2900 X-0.017983048 Y1.156979358
N2905 X-0.019056003 Y1.142002016
N2910 X-0.020000001 Y1.112047256
N2915 Y0.512952729
N2920 X-0.019056003 Y0.482998007
N2925 X-0.017983048 Y0.468020627
N2930 X-0.014458822 Y0.438065904
N2935 X-0.010692274 Y0.408111182
N2940 X-0.009533616 Y0.399145179
N2945 X-0.004861973 Y0.378156459
N2950 X-0.001448817 Y0.363179079
N2955 X0.003446902 Y0.348201737
N2960 X0.005452668 Y0.342794967
N2965 X0.020438951 Y0.303217313
N2970 X0.026203887 Y0.288292273
N2975 X0.039859198 Y0.25833755
N2980 X0.048842547 Y0.24336017
N2985 X0.065397799 Y0.217450059
N2990 X0.088879292 Y0.183450725
N2995 X0.09537036 Y0.174889396
N3000 X0.112617645 Y0.153495993
N3005 X0.125342927 Y0.140424901
N3010 X0.143764479 Y0.123541271
N3015 X0.155315493 Y0.11308624
N3020 X0.160420147 Y0.108563909
N3025 X0.185288069 Y0.08695028
N3030 X0.195917238 Y0.078609177
N3035 X0.200274347 Y0.075391784
N3040 X0.215260626 Y0.065309067
N3045 X0.217937184 Y0.063631816
N3050 X0.230246904 Y0.05659377
N3055 X0.26021948 Y0.04064804
N3060 X0.273488676 Y0.033677087
N3065 X0.290192037 Y0.025240357
N3070 X0.304641085 Y0.018699724
N3075 X0.320164613 Y0.012846381
N3080 X0.335150891 Y0.007341582
N3085 X0.365123448 Y-0.00037318
N3090 X0.380109727 Y-0.004122416
N3095 X0.395096005 Y-0.007792045
N3100 X0.399031554 Y-0.009457315 Z-0.399698707 F15.
N3105 X0.402890982 Y-0.011090376 Z-0.398809681
N3110 X0.406600209 Y-0.012659881 Z-0.397349981
N3115 X0.409462957 Y-0.014839676 Z-0.395455555
N3120 X0.412103272 Y-0.016850102 Z-0.393105532
N3125 X0.414475528 Y-0.01865642 Z-0.390340518
N3130 X0.416538734 Y-0.020227416 Z-0.387208292
N3135 X0.417927216 Y-0.021760177 Z-0.383936189
N3140 X0.419030376 Y-0.02297797 Z-0.380431346
N3145 X0.419830931 Y-0.023861714 Z-0.376748683
N3150 X0.420316336 Y-0.02439756 Z-0.372945901
N3155 X0.420478986 Y-0.024577114 Z-0.369082586
N3160 G0 Z0.199999997
N3165 X0.815621999 Y-0.549886396
N3170 Z-0.462500017
N3175 G1 Z-0.512499997 F15.
N3180 X0.815472406 Y-0.549609881 Z-0.518098218
N3185 X0.815025504 Y-0.548783808 Z-0.523626039
N3190 X0.814286912 Y-0.547418566 Z-0.529013944
N3195 X0.813265918 Y-0.545531323 Z-0.534194178
N3200 X0.811975363 Y-0.543145813 Z-0.539101595
N3205 X0.810431476 Y-0.540292035 Z-0.543674482
N3210 X0.808653671 Y-0.537005876 Z-0.547855333
N3215 X0.806664306 Y-0.533328661 Z-0.55159157
N3220 X0.804488399 Y-0.529306635 Z-0.554836209
N3225 X0.802153312 Y-0.524990375 Z-0.557548445
N3230 X0.799688411 Y-0.520434162 Z-0.559694171
N3235 X0.797124692 Y-0.515695292 Z-0.561246404
N3240 X0.794494397 Y-0.51083336 Z-0.562185622
N3245 X0.791830604 Y-0.505909507 Z-0.562500015
N3250 G2 X0.687792996 Y-0.251348751 I1.122722851 J0.607390901
N3255 G1 X0.686672091 Y-0.24686834 F5.
N3260 X0.688369406 Y-0.241113422
N3265 X0.690682554 Y-0.235577249
N3270 X0.693398198 Y-0.230226986
N3275 X0.696424875 Y-0.225046338
N3280 X0.699707767 Y-0.220024116
N3285 X0.703209028 Y-0.215151629
N3290 X0.706900499 Y-0.210421573
N3295 X0.710760026 Y-0.205827698
N3300 X0.714769889 Y-0.201364371
N3305 X0.718915143 Y-0.197026542
N3310 X0.723183249 Y-0.192809537
N3315 X0.727563392 Y-0.188709038
N3320 X0.732046262 Y-0.184721027
N3325 X0.736623449 Y-0.180841694
N3330 X0.741287667 Y-0.177067471
N3335 X0.74603246 Y-0.173394962
N3340 X0.750851819 Y-0.169820973
N3345 X0.755740564 Y-0.166342409
N3350 X0.760693813 Y-0.162956358
N3355 X0.765707211 Y-0.159660005
N3360 X0.770776704 Y-0.156450656
N3365 X0.775898761 Y-0.153325759
N3370 X0.781069853 Y-0.150282815
N3375 X0.786286977 Y-0.147319441
N3380 X0.79154728 Y-0.144433346
N3385 X0.796848057 Y-0.141622326
N3390 X0.843772287 Y-0.116362074
N3395 X0.882126065 Y-0.079362646
N3400 X0.913061532 Y-0.035969491
N3405 X0.937836865 Y0.011212584
N3410 X0.957585958 Y0.060709466
N3415 X0.973275177 Y0.111638983
N3420 X0.985707336 Y0.163459909
N3425 X0.995539117 Y0.215836472
N3430 X1.003302401 Y0.268559324
N3435 X1.009424915 Y0.321497805
N3440 X1.014248855 Y0.374570381
N3445 X1.018046657 Y0.427726235
N3450 X1.021034887 Y0.480933715
N3455 X1.02338498 Y0.534173222
N3460 X1.02523248 Y0.587432553
N3465 X1.026684468 Y0.640704087
N3470 X1.027825423 Y0.693983243
N3475 X1.028721652 Y0.747267055
N3480 X1.029425719 Y0.80055372
N3485 X1.029978624 Y0.853842187
N3490 X1.030412884 Y0.907131781
N3495 X1.030753879 Y0.96042205
N3500 X1.031021584 Y1.013712695
N3505 X1.031231843 Y1.067003641
N3510 X1.031526505 Y1.173585907
N3515 X1.031708154 Y1.280168548
N3520 X1.031820117 Y1.38675104
N3525 X1.029441864 Y1.399859932
N3530 X1.021727314 Y1.425364487
N3535 X0.995360172 Y1.471675813
N3540 X0.957797569 Y1.509478111
N3545 X0.914077834 Y1.539950183
N3550 X0.866697942 Y1.564345172
N3555 X0.817079094 Y1.583785861
N3560 X0.767335967 Y1.602906205
N3565 X0.716267533 Y1.618137209
N3570 X0.664365123 Y1.630224844
N3575 X0.611939167 Y1.639789521
N3580 X0.559185434 Y1.647340219
N3585 X0.50622726 Y1.653289945
N3590 X0.453141918 Y1.657971059
N3595 X0.399977692 Y1.661649989
N3600 X0.346764692 Y1.664538496
N3605 X0.293521543 Y1.666804637
N3610 X0.240259828 Y1.668581625
N3615 X0.226978242 Y1.667534085
N3620 X0.213902654 Y1.664979289
N3625 X0.188504561 Y1.656921417
N3630 X0.142132842 Y1.63066068
N3635 X0.103679032 Y1.593765199
N3640 X0.072326275 Y1.550672636
N3645 X0.047017824 Y1.503774388
N3650 X0.026729672 Y1.454496008
N3655 X0.010549777 Y1.403720135
N3660 X-0.00230241 Y1.352001851
N3665 X-0.012479349 Y1.299691238
N3670 X-0.020517913 Y1.247009668
N3675 X-0.026854884 Y1.194096438
N3680 X-0.031842608 Y1.141038955
N3685 X-0.035763467 Y1.087892112
N3690 X-0.038842608 Y1.034689776
N3695 X-0.041258837 Y0.981453197
N3700 X-0.043153692 Y0.928195593
N3705 X-0.044638956 Y0.874924923
N3710 X-0.045802715 Y0.821646292
N3715 X-0.046714291 Y0.768362706
N3720 X-0.047428157 Y0.715076191
N3725 X-0.047987089 Y0.661787724
N3730 X-0.048424653 Y0.608498205
N3735 X-0.048767164 Y0.555207973
N3740 X-0.049035244 Y0.501917291
N3745 X-0.049245052 Y0.448626346
N3750 X-0.049537739 Y0.342044079
N3755 X-0.049716971 Y0.235461532
N3760 X-0.047839974 Y0.222271578
N3765 X-0.041102889 Y0.196491658
N3770 X-0.017197246 Y0.148863023
N3775 X0.018405031 Y0.109208944
N3780 X0.060718346 Y0.076812168
N3785 X0.107132591 Y0.050626566
N3790 X0.156107024 Y0.029615333
N3795 X0.206691412 Y0.012846697
N3800 X0.258289378 Y-0.000480634
N3805 X0.310524411 Y-0.0110385
N3810 X0.363158729 Y-0.019380889
N3815 X0.416442278 Y-0.018468846
N3820 X0.423602119 Y-0.017495087
N3825 X0.431616813 Y-0.016685725
N3830 X0.439668302 Y-0.016431356
N3835 X0.447718102 Y-0.01673319
N3840 X0.455041157 Y-0.017261424
N3845 X0.470027435 Y-0.017795016
N3850 X0.485013714 Y-0.018177165
N3855 X0.514986271
N3860 X0.529972549 Y-0.017795016
N3865 X0.544958866 Y-0.017261424
N3870 X0.559945144 Y-0.016180414
N3875 X0.590761703 Y-0.011255003
N3880 X0.619890258 Y-0.004122416
N3885 X0.634876537 Y-0.00037318
N3890 X0.664849094 Y0.007341582
N3895 X0.679835372 Y0.012846381
N3900 X0.695358937 Y0.018699724
N3905 X0.709807929 Y0.025240373
N3910 X0.726511272 Y0.033677087
N3915 X0.739780561 Y0.040648138
N3920 X0.769753118 Y0.056593967
N3925 X0.782062425 Y0.063631816
N3930 X0.784739397 Y0.065309302
N3935 X0.799725675 Y0.075392085
N3940 X0.804082315 Y0.078609177
N3945 X0.814711954 Y0.086950664
N3950 X0.839578974 Y0.108563909
N3955 X0.844684511 Y0.113087142
N3960 X0.856234333 Y0.123541271
N3965 X0.874657068 Y0.140426253
N3970 X0.88738096 Y0.153495993
N3975 X0.904629625 Y0.174891292
N3980 X0.911119116 Y0.183450725
N3985 X0.934602182 Y0.217452763
N3990 X0.95115549 Y0.24336017
N3995 X0.960139102 Y0.25833755
N4000 X0.973794141 Y0.288292273
N4005 X0.97957964 Y0.303269634
N4010 X0.994547296 Y0.342793427
N4015 X0.996553842 Y0.348201737
N4020 X1.00144957 Y0.363179079
N4025 X1.004862748 Y0.378156459
N4030 X1.009533649 Y0.39914165
N4035 X1.012580226 Y0.423088562
N4040 X1.014459189 Y0.438065904
N4045 X1.017983129 Y0.468020627
N4050 X1.019055975 Y0.482998007
N4055 X1.020000037 Y0.512952729
N4060 Y1.112047256
N4065 X1.019055975 Y1.142002016
N4070 X1.017983129 Y1.156979358
N4075 X1.014459189 Y1.186934118
N4080 X1.010692927 Y1.216888803
N4085 X1.009533649 Y1.225858373
N4090 X1.004862748 Y1.246843563
N4095 X1.00144957 Y1.261820906
N4100 X0.996553842 Y1.276798248
N4105 X0.994547296 Y1.282206558
N4110 X0.979561017 Y1.321779687
N4115 X0.973794291 Y1.336707768
N4120 X0.960139252 Y1.366662453
N4125 X0.95115564 Y1.381639796
N4130 X0.934602182 Y1.407547297
N4135 X0.911118365 Y1.441549316
N4140 X0.904629625 Y1.450107604
N4145 X0.887379984 Y1.471504001
N4150 X0.874657068 Y1.484572643
N4155 X0.856232831 Y1.501458686
N4160 X0.844684511 Y1.511911257
N4165 X0.839577097 Y1.516436029
N4170 X0.814711954 Y1.53804749
N4175 X0.804079611 Y1.546390864
N4180 X0.799725675 Y1.549605873
N4185 X0.784739397 Y1.559688838
N4190 X0.782059347 Y1.561368206
N4195 X0.769753118 Y1.568404521
N4200 X0.739780561 Y1.584351908
N4205 X0.726513299 Y1.591322891
N4210 X0.709807929 Y1.599761182
N4215 X0.695364119 Y1.606300234
N4220 X0.679835372 Y1.612155644
N4225 X0.664849094 Y1.617660372
N4230 X0.634876537 Y1.625374471
N4235 X0.619890258 Y1.629123237
N4240 X0.590761928 Y1.636255069
N4245 X0.559945144 Y1.641180384
N4250 X0.544958866 Y1.642261415
N4255 X0.529972549 Y1.642795022
N4260 X0.514986271 Y1.643177093
N4265 X0.485013714
N4270 X0.470027435 Y1.642795022
N4275 X0.455041157 Y1.642261415
N4280 X0.440054878 Y1.641180384
N4285 X0.409238057 Y1.636255069
N4290 X0.380109727 Y1.629123237
N4295 X0.365123448 Y1.625374471
N4300 X0.335150891 Y1.617660372
N4305 X0.320164613 Y1.612155644
N4310 X0.304635866 Y1.606300234
N4315 X0.290192037 Y1.599761182
N4320 X0.27348661 Y1.591322891
N4325 X0.26021948 Y1.584352058
N4330 X0.230246904 Y1.568404671
N4335 X0.217940244 Y1.561368206
N4340 X0.215260626 Y1.559688989
N4345 X0.200274347 Y1.549606173
N4350 X0.195919998 Y1.546390864
N4355 X0.185288069 Y1.538047791
N4360 X0.160422006 Y1.516436029
N4365 X0.155315493 Y1.511912158
N4370 X0.143765981 Y1.501458686
N4375 X0.125342927 Y1.484573995
N4380 X0.112618583 Y1.471504001
N4385 X0.09537036 Y1.450109557
N4390 X0.088880025 Y1.441549316
N4395 X0.065397799 Y1.407550001
N4400 X0.048842402 Y1.381639796
N4405 X0.039859025 Y1.366662453
N4410 X0.026203734 Y1.336707768
N4415 X0.020418995 Y1.321730426
N4420 X0.005452668 Y1.282205056
N4425 X0.003446902 Y1.276798248
N4430 X-0.001448817 Y1.261820906
N4435 X-0.004861973 Y1.246843563
N4440 X-0.009533616 Y1.225854844
N4445 X-0.012579716 Y1.201911461
N4450 X-0.014458822 Y1.186934118
N4455 X-0.017983048 Y1.156979358
N4460 X-0.019056003 Y1.142002016
N4465 X-0.020000001 Y1.112047256
N4470 Y0.512952729
N4475 X-0.019056003 Y0.482998007
N4480 X-0.017983048 Y0.468020627
N4485 X-0.014458822 Y0.438065904
N4490 X-0.010692274 Y0.408111182
N4495 X-0.009533616 Y0.399145179
N4500 X-0.004861973 Y0.378156459
N4505 X-0.001448817 Y0.363179079
N4510 X0.003446902 Y0.348201737
N4515 X0.005452668 Y0.342794967
N4520 X0.020438951 Y0.303217313
N4525 X0.026203887 Y0.288292273
N4530 X0.039859198 Y0.25833755
N4535 X0.048842547 Y0.24336017
N4540 X0.065397799 Y0.217450059
N4545 X0.088879292 Y0.183450725
N4550 X0.09537036 Y0.174889396
N4555 X0.112617645 Y0.153495993
N4560 X0.125342927 Y0.140424901
N4565 X0.143764479 Y0.123541271
N4570 X0.155315493 Y0.11308624
N4575 X0.160420147 Y0.108563909
N4580 X0.185288069 Y0.08695028
N4585 X0.195917238 Y0.078609177
N4590 X0.200274347 Y0.075391784
N4595 X0.215260626 Y0.065309067
N4600 X0.217937184 Y0.063631816
N4605 X0.230246904 Y0.05659377
N4610 X0.26021948 Y0.04064804
N4615 X0.273488676 Y0.033677087
N4620 X0.290192037 Y0.025240357
N4625 X0.304641085 Y0.018699724
N4630 X0.320164613 Y0.012846381
N4635 X0.335150891 Y0.007341582
N4640 X0.365123448 Y-0.00037318
N4645 X0.380109727 Y-0.004122416
N4650 X0.395096005 Y-0.007792045
N4655 G2 X0.420478986 Y-0.024577114 I-0.013579609 J-0.048120617 F15.
N4660 G1 X0.423987456 Y-0.028939541 Z-0.562185625
N4665 X0.427451805 Y-0.033247108 Z-0.561246408
N4670 X0.430828466 Y-0.037445644 Z-0.559694178
N4675 X0.434074977 Y-0.041482351 Z-0.557548453
N4680 X0.43715051 Y-0.045306465 Z-0.554836218
N4685 X0.440016389 Y-0.048869895 Z-0.551591581
N4690 X0.442636574 Y-0.052127829 Z-0.547855344
N4695 X0.444978114 Y-0.055039296 Z-0.543674494
N4700 X0.447011564 Y-0.057567684 Z-0.539101606
N4705 X0.448711351 Y-0.059681196 Z-0.534194188
N4710 X0.450056099 Y-0.061353254 Z-0.529013953
N4715 X0.451028899 Y-0.06256283 Z-0.523626045
N4720 X0.451617515 Y-0.063294714 Z-0.518098222
N4725 X0.451814546 Y-0.063539701 Z-0.512499997
N4730 G0 Z0.599999991
N4735 G53 Z0.
N4740 M30
%
