%
(TENON JIG)
(T1  D=0.237 CR=0. - ZMIN=-0.75 - FLAT END MILL)
N10 G90 G94 G17 G91.1
N15 G20
N20 G53 G0 Z0.
(2D ADAPTIVE2)
N25 M9
N30 T1 M6
N35 S3000 M3
N40 G54
N45 M8
N50 G0 X-0.031 Y2.0469
N55 G43 Z0.6 H1
N60 G0 Z0.2
N65 Z-0.1
N70 G1 Z-0.15 F15.
N75 X-0.0309 Y2.0466 Z-0.1556
N80 X-0.0307 Y2.0457 Z-0.1611
N85 X-0.0303 Y2.0442 Z-0.1665
N90 X-0.0297 Y2.0421 Z-0.1717
N95 X-0.0291 Y2.0395 Z-0.1766
N100 X-0.0283 Y2.0364 Z-0.1812
N105 X-0.0273 Y2.0328 Z-0.1854
N110 X-0.0263 Y2.0287 Z-0.1891
N115 X-0.0252 Y2.0243 Z-0.1923
N120 X-0.0239 Y2.0195 Z-0.195
N125 X-0.0227 Y2.0145 Z-0.1972
N130 X-0.0213 Y2.0093 Z-0.1987
N135 X-0.0199 Y2.0039 Z-0.1997
N140 X-0.0186 Y1.9985 Z-0.2
N145 G2 X0. Y1.8695 I-0.5861 J-0.1501
N150 G1 Y1.8651
N155 X0.0083 Y1.8309
N160 X0.0153 Y1.7963
N165 X0.0202 Y1.7615
N170 X0.0236 Y1.7264
N175 X0.0251 Y1.7052
N180 X0.0249 Y1.6963
N185 X0.0232 Y1.6876
N190 X0.0199 Y1.6794
N195 X0.0178 Y1.6751
N200 X0.0153 Y1.6695
N205 X0.0107 Y1.6545
N210 X0.0079 Y1.6395
N215 X0.0067 Y1.6245
N220 X0.0065 Y1.6095
N225 Y1.4446
N230 Y0.1555
N235 Y0.1405
N240 X0.0067 Y0.1255
N245 X0.0079 Y0.1105
N250 X0.0107 Y0.0955
N255 X0.0153 Y0.0805
N260 X0.0178 Y0.0749
N265 X0.0205 Y0.0694
N270 X0.0227 Y0.0655
N275 X0.0274 Y0.058
N280 X0.033 Y0.0505
N285 X0.0355 Y0.0476
N290 X0.0476 Y0.0355
N295 X0.0505 Y0.033
N300 X0.058 Y0.0274
N305 X0.0655 Y0.0227
N310 X0.0694 Y0.0205
N315 X0.0749 Y0.0178
N320 X0.0805 Y0.0153
N325 X0.0955 Y0.0107
N330 X0.1105 Y0.0079
N335 X0.1255 Y0.0067
N340 X0.1405 Y0.0065
N345 X0.3054
N350 X1.5946
N355 X1.6095
N360 X1.6245 Y0.0067
N365 X1.6395 Y0.0079
N370 X1.6545 Y0.0107
N375 X1.6695 Y0.0153
N380 X1.6751 Y0.0178
N385 X1.6806 Y0.0205
N390 X1.6845 Y0.0227
N395 X1.692 Y0.0275
N400 X1.6995 Y0.033
N405 X1.7024 Y0.0355
N410 X1.7145 Y0.0476
N415 X1.717 Y0.0505
N420 X1.7226 Y0.058
N425 X1.7273 Y0.0655
N430 X1.7295 Y0.0694
N435 X1.7322 Y0.0749
N440 X1.7347 Y0.0805
N445 X1.7393 Y0.0955
N450 X1.7421 Y0.1105
N455 X1.7433 Y0.1255
N460 X1.7435 Y0.1405
N465 Y0.3054
N470 Y1.5946
N475 Y1.6095
N480 X1.7433 Y1.6245
N485 X1.7421 Y1.6395
N490 X1.7393 Y1.6545
N495 X1.7347 Y1.6695
N500 X1.7322 Y1.6751
N505 X1.7295 Y1.6806
N510 X1.7273 Y1.6845
N515 X1.7225 Y1.692
N520 X1.717 Y1.6995
N525 X1.7145 Y1.7024
N530 X1.7024 Y1.7145
N535 X1.6995 Y1.717
N540 X1.692 Y1.7225
N545 X1.6845 Y1.7273
N550 X1.6806 Y1.7295
N555 X1.6751 Y1.7322
N560 X1.6695 Y1.7347
N565 X1.6545 Y1.7393
N570 X1.6395 Y1.7421
N575 X1.6245 Y1.7433
N580 X1.6095 Y1.7435
N585 X1.4446
N590 X0.1555
N595 X0.1405
N600 X0.1255 Y1.7433
N605 X0.1213 Y1.744 Z-0.1997
N610 X0.1171 Y1.7446 Z-0.1988
N615 X0.1131 Y1.7452 Z-0.1973
N620 X0.1098 Y1.7466 Z-0.1955
N625 X0.1068 Y1.7479 Z-0.1931
N630 X0.104 Y1.7491 Z-0.1903
N635 X0.1016 Y1.7501 Z-0.1872
N640 X0.0999 Y1.7513 Z-0.1839
N645 X0.0985 Y1.7522 Z-0.1804
N650 X0.0975 Y1.7528 Z-0.1767
N655 X0.0969 Y1.7532 Z-0.1729
N660 X0.0967 Y1.7534 Z-0.1691
N665 G0 Z0.2
N670 X0.9437 Y1.219
N675 Z0.1
N680 G2 X0.8063 Y1.0407 Z0.0876 I-0.0687 J-0.0892 F13.123
N685 X0.9437 Y1.219 Z0.0753 I0.0687 J0.0892
N690 X0.8063 Y1.0407 Z0.0629 I-0.0687 J-0.0892
N695 X0.9437 Y1.219 Z0.0506 I0.0687 J0.0892
N700 X0.8063 Y1.0407 Z0.0382 I-0.0687 J-0.0892
N705 X0.9437 Y1.219 Z0.0259 I0.0687 J0.0892
N710 X0.8063 Y1.0407 Z0.0135 I-0.0687 J-0.0892
N715 X0.9437 Y1.219 Z0.0012 I0.0687 J0.0892
N720 X0.8063 Y1.0407 Z-0.0112 I-0.0687 J-0.0892
N725 X0.9437 Y1.219 Z-0.0235 I0.0687 J0.0892
N730 X0.8063 Y1.0407 Z-0.0359 I-0.0687 J-0.0892
N735 X0.9437 Y1.219 Z-0.0482 I0.0687 J0.0892
N740 X0.8063 Y1.0407 Z-0.0606 I-0.0687 J-0.0892
N745 X0.9437 Y1.219 Z-0.0729 I0.0687 J0.0892
N750 X0.8063 Y1.0407 Z-0.0853 I-0.0687 J-0.0892
N755 X0.9437 Y1.219 Z-0.0976 I0.0687 J0.0892
N760 X0.8063 Y1.0407 Z-0.11 I-0.0687 J-0.0892
N765 X0.9437 Y1.219 Z-0.1223 I0.0687 J0.0892
N770 X0.8063 Y1.0407 Z-0.1347 I-0.0687 J-0.0892
N775 X0.9437 Y1.219 Z-0.147 I0.0687 J0.0892
N780 X0.8063 Y1.0407 Z-0.1594 I-0.0687 J-0.0892
N785 X0.9437 Y1.219 Z-0.1717 I0.0687 J0.0892
N790 X0.8063 Y1.0407 Z-0.1841 I-0.0687 J-0.0892
N795 X0.9437 Y1.219 Z-0.1964 I0.0687 J0.0892
N800 X0.9876 Y1.1298 Z-0.2 I-0.0687 J-0.0892
N805 X0.7624 I-0.1126 J0.
N810 X0.9876 I0.1126 J0.
N815 G1 Y1.1254 F15.
N820 X0.9887 Y1.1212
N825 X1.0006 Y1.0991
N830 X1.0038 Y1.0916
N835 X1.0058 Y1.0836
N840 X1.0065 Y1.0755
N845 Y1.0249
N850 X1.0062 Y1.0189
N855 X1.0037 Y1.0058
N860 X0.9991 Y0.9921
N865 X0.9922 Y0.978
N870 X0.9829 Y0.964
N875 X0.9709 Y0.9504
N880 X0.9563 Y0.9376
N885 X0.9391 Y0.9263
N890 X0.9195 Y0.9167
N895 X0.8976 Y0.9095
N900 X0.8738 Y0.9051
N905 X0.8486 Y0.9037
N910 X0.8224 Y0.9059
N915 X0.7958 Y0.9116
N920 X0.7765 Y0.9186
N925 X0.7656 Y0.9241
N930 X0.7564 Y0.9321
N935 X0.7494 Y0.9421
N940 X0.745 Y0.9535
N945 X0.7435 Y0.9656
N950 Y1.1448
N955 X0.7436 Y1.1598
N960 X0.7439 Y1.1748
N965 X0.7447 Y1.1898
N970 X0.7465 Y1.2048
N975 X0.7488 Y1.2198
N980 X0.7542 Y1.2348
N985 X0.7551 Y1.237
N990 X0.7606 Y1.2498
N995 X0.7708 Y1.2648
N1000 X0.7761 Y1.2723
N1005 X0.7836 Y1.2798
N1010 X0.7851 Y1.2811
N1015 X0.8001 Y1.294
N1020 X0.8011 Y1.2947
N1025 X0.815 Y1.3025
N1030 X0.83 Y1.3097
N1035 X0.845 Y1.3137
N1040 X0.86 Y1.3169
N1045 X0.875 Y1.3172
N1050 X0.89 Y1.3169
N1055 X0.905 Y1.3137
N1060 X0.92 Y1.3097
N1065 X0.935 Y1.3025
N1070 X0.9489 Y1.2947
N1075 X0.95 Y1.294
N1080 X0.9649 Y1.2811
N1085 X0.9664 Y1.2798
N1090 X0.9739 Y1.2723
N1095 X0.9799 Y1.2637
N1100 X0.9894 Y1.2498
N1105 X0.9949 Y1.237
N1110 X0.9958 Y1.2348
N1115 X1.0012 Y1.2198
N1120 X1.0035 Y1.2048
N1125 X1.0053 Y1.1898
N1130 X1.0061 Y1.1748
N1135 X1.0064 Y1.1598
N1140 X1.0065 Y1.1448
N1145 Y1.0755
N1150 G2 X1.0046 Y1.0633 I-0.05 J0.0017
N1155 G3 X1.0044 Y1.039 I0.0433 J-0.0125
N1160 G2 X1.0065 Y1.0249 I-0.0601 J-0.0163
N1165 G1 Y0.92
N1170 X1.006 Y0.91
N1175 X1.0036 Y0.8969
N1180 X0.9989 Y0.8826
N1185 X0.9919 Y0.8681
N1190 X0.9817 Y0.8526
N1195 X0.9689 Y0.8378
N1200 X0.9521 Y0.823
N1205 X0.9322 Y0.8097
N1210 X0.9087 Y0.7981
N1215 X0.8807 Y0.7887
N1220 X0.8507 Y0.7829
N1225 X0.8189 Y0.781
N1230 X0.7899 Y0.7832
N1235 X0.7832 Y0.7846
N1240 X0.7724 Y0.7882
N1245 X0.7628 Y0.7941
N1250 X0.7547 Y0.802
N1255 X0.7486 Y0.8116
N1260 X0.7448 Y0.8222
N1265 X0.7435 Y0.8335
N1270 Y0.9656
N1275 G2 X0.8069 Y1.012 I0.05 J-0.0017
N1280 G1 X0.97 Y0.9664
N1285 G2 X1.0065 Y0.92 I-0.0135 J-0.0482
N1290 G1 Y0.8068
N1295 X1.0059 Y0.7953
N1300 X1.0034 Y0.7817
N1305 X0.9984 Y0.7663
N1310 X0.9906 Y0.7501
N1315 X0.9798 Y0.7337
N1320 X0.9649 Y0.7166
N1325 X0.9468 Y0.7006
N1330 X0.9238 Y0.6852
N1335 X0.8966 Y0.6718
N1340 X0.8672 Y0.6619
N1345 X0.8377 Y0.6562
N1350 X0.8101 Y0.6546
N1355 X0.7836 Y0.6566
N1360 X0.7832 Y0.6567
N1365 X0.7724 Y0.6602
N1370 X0.7628 Y0.6661
N1375 X0.7547 Y0.6741
N1380 X0.7486 Y0.6836
N1385 X0.7448 Y0.6943
N1390 X0.7435 Y0.7056
N1395 Y0.8335
N1400 G2 X0.8016 Y0.8811 I0.05 J-0.0017
N1405 G1 X0.9646 Y0.8544
N1410 G2 X1.0065 Y0.8068 I-0.0081 J-0.0493
N1415 G1 Y0.6801
N1420 X1.0062 Y0.6741
N1425 X1.0033 Y0.6589
N1430 X0.9981 Y0.6433
N1435 X0.9894 Y0.6256
N1440 X0.978 Y0.6085
N1445 X0.962 Y0.5903
N1450 X0.943 Y0.5738
N1455 X0.9188 Y0.5578
N1460 X0.8911 Y0.5444
N1465 X0.8622 Y0.5348
N1470 X0.8337 Y0.5295
N1475 X0.8066 Y0.5281
N1480 X0.7897 Y0.5295
N1485 X0.7778 Y0.5319
N1490 X0.7667 Y0.5372
N1495 X0.7573 Y0.5451
N1500 X0.7501 Y0.5549
N1505 X0.7455 Y0.5663
N1510 X0.7438 Y0.5784
N1515 X0.7436 Y0.5902
N1520 X0.7435 Y0.6052
N1525 Y0.7056
N1530 G2 X0.8012 Y0.7532 I0.05 J-0.0017
N1535 G1 X0.9642 Y0.7278
N1540 G2 X1.0065 Y0.6801 I-0.0077 J-0.0494
N1545 G1 Y0.6052
N1550 X1.0064 Y0.5902
N1555 X1.0061 Y0.5752
N1560 X1.0054 Y0.5602
N1565 X1.0009 Y0.5346
N1570 X0.9961 Y0.519
N1575 X0.988 Y0.5017
N1580 X0.9768 Y0.4842
N1585 X0.9616 Y0.4663
N1590 X0.9555 Y0.4608
N1595 G2 X0.8796 Y0.5225 I-0.0313 J0.039
N1600 G1 X0.8949 Y0.5525
N1605 X0.9108 Y0.5838
N1610 G2 X1.0054 Y0.5602 I0.0446 J-0.0226
N1615 G1 X1.0035 Y0.5452
N1620 X1.0012 Y0.5302
N1625 X0.9958 Y0.5152
N1630 X0.9949 Y0.513
N1635 X0.9894 Y0.5002
N1640 X0.9792 Y0.4853
N1645 X0.9739 Y0.4778
N1650 X0.9664 Y0.4703
N1655 X0.9649 Y0.4689
N1660 X0.95 Y0.456
N1665 X0.9489 Y0.4553
N1670 X0.935 Y0.4475
N1675 X0.92 Y0.4403
N1680 X0.905 Y0.4363
N1685 X0.89 Y0.4331
N1690 X0.875 Y0.4328
N1695 X0.86 Y0.4331
N1700 X0.845 Y0.4363
N1705 X0.83 Y0.4403
N1710 X0.815 Y0.4475
N1715 X0.8011 Y0.4553
N1720 X0.8001 Y0.456
N1725 X0.7851 Y0.4689
N1730 X0.7836 Y0.4703
N1735 X0.7761 Y0.4778
N1740 X0.7701 Y0.4862
N1745 X0.7606 Y0.5002
N1750 X0.7551 Y0.513
N1755 X0.7542 Y0.5152
N1760 X0.7488 Y0.5302
N1765 X0.7465 Y0.5452
N1770 X0.7446 Y0.5602
N1775 X0.7439 Y0.5752
N1780 X0.7438 Y0.5784
N1785 X0.7444 Y0.5826 Z-0.1997
N1790 X0.745 Y0.5868 Z-0.1988
N1795 X0.7456 Y0.5908 Z-0.1973
N1800 X0.7469 Y0.5941 Z-0.1955
N1805 X0.7482 Y0.5972 Z-0.1931
N1810 X0.7494 Y0.5999 Z-0.1903
N1815 X0.7503 Y0.6023 Z-0.1872
N1820 X0.7515 Y0.604 Z-0.1839
N1825 X0.7524 Y0.6054 Z-0.1804
N1830 X0.753 Y0.6064 Z-0.1767
N1835 X0.7534 Y0.607 Z-0.1729
N1840 X0.7535 Y0.6072 Z-0.1691
N1845 G0 Z0.2
N1850 X-0.031 Y2.0469
N1855 Z-0.3
N1860 G1 Z-0.35 F15.
N1865 X-0.0309 Y2.0466 Z-0.3556
N1870 X-0.0307 Y2.0457 Z-0.3611
N1875 X-0.0303 Y2.0442 Z-0.3665
N1880 X-0.0297 Y2.0421 Z-0.3717
N1885 X-0.0291 Y2.0395 Z-0.3766
N1890 X-0.0283 Y2.0364 Z-0.3812
N1895 X-0.0273 Y2.0328 Z-0.3854
N1900 X-0.0263 Y2.0287 Z-0.3891
N1905 X-0.0252 Y2.0243 Z-0.3923
N1910 X-0.0239 Y2.0195 Z-0.395
N1915 X-0.0227 Y2.0145 Z-0.3972
N1920 X-0.0213 Y2.0093 Z-0.3987
N1925 X-0.0199 Y2.0039 Z-0.3997
N1930 X-0.0186 Y1.9985 Z-0.4
N1935 G2 X0. Y1.8695 I-0.5861 J-0.1501
N1940 G1 Y1.8651
N1945 X0.0083 Y1.8309
N1950 X0.0153 Y1.7963
N1955 X0.0202 Y1.7615
N1960 X0.0236 Y1.7264
N1965 X0.0251 Y1.7052
N1970 X0.0249 Y1.6963
N1975 X0.0232 Y1.6876
N1980 X0.0199 Y1.6794
N1985 X0.0178 Y1.6751
N1990 X0.0153 Y1.6695
N1995 X0.0107 Y1.6545
N2000 X0.0079 Y1.6395
N2005 X0.0067 Y1.6245
N2010 X0.0065 Y1.6095
N2015 Y1.4446
N2020 Y0.1555
N2025 Y0.1405
N2030 X0.0067 Y0.1255
N2035 X0.0079 Y0.1105
N2040 X0.0107 Y0.0955
N2045 X0.0153 Y0.0805
N2050 X0.0178 Y0.0749
N2055 X0.0205 Y0.0694
N2060 X0.0227 Y0.0655
N2065 X0.0274 Y0.058
N2070 X0.033 Y0.0505
N2075 X0.0355 Y0.0476
N2080 X0.0476 Y0.0355
N2085 X0.0505 Y0.033
N2090 X0.058 Y0.0274
N2095 X0.0655 Y0.0227
N2100 X0.0694 Y0.0205
N2105 X0.0749 Y0.0178
N2110 X0.0805 Y0.0153
N2115 X0.0955 Y0.0107
N2120 X0.1105 Y0.0079
N2125 X0.1255 Y0.0067
N2130 X0.1405 Y0.0065
N2135 X0.3054
N2140 X1.5946
N2145 X1.6095
N2150 X1.6245 Y0.0067
N2155 X1.6395 Y0.0079
N2160 X1.6545 Y0.0107
N2165 X1.6695 Y0.0153
N2170 X1.6751 Y0.0178
N2175 X1.6806 Y0.0205
N2180 X1.6845 Y0.0227
N2185 X1.692 Y0.0275
N2190 X1.6995 Y0.033
N2195 X1.7024 Y0.0355
N2200 X1.7145 Y0.0476
N2205 X1.717 Y0.0505
N2210 X1.7226 Y0.058
N2215 X1.7273 Y0.0655
N2220 X1.7295 Y0.0694
N2225 X1.7322 Y0.0749
N2230 X1.7347 Y0.0805
N2235 X1.7393 Y0.0955
N2240 X1.7421 Y0.1105
N2245 X1.7433 Y0.1255
N2250 X1.7435 Y0.1405
N2255 Y0.3054
N2260 Y1.5946
N2265 Y1.6095
N2270 X1.7433 Y1.6245
N2275 X1.7421 Y1.6395
N2280 X1.7393 Y1.6545
N2285 X1.7347 Y1.6695
N2290 X1.7322 Y1.6751
N2295 X1.7295 Y1.6806
N2300 X1.7273 Y1.6845
N2305 X1.7225 Y1.692
N2310 X1.717 Y1.6995
N2315 X1.7145 Y1.7024
N2320 X1.7024 Y1.7145
N2325 X1.6995 Y1.717
N2330 X1.692 Y1.7225
N2335 X1.6845 Y1.7273
N2340 X1.6806 Y1.7295
N2345 X1.6751 Y1.7322
N2350 X1.6695 Y1.7347
N2355 X1.6545 Y1.7393
N2360 X1.6395 Y1.7421
N2365 X1.6245 Y1.7433
N2370 X1.6095 Y1.7435
N2375 X1.4446
N2380 X0.1555
N2385 X0.1405
N2390 X0.1255 Y1.7433
N2395 X0.1213 Y1.744 Z-0.3997
N2400 X0.1171 Y1.7446 Z-0.3988
N2405 X0.1131 Y1.7452 Z-0.3973
N2410 X0.1098 Y1.7466 Z-0.3955
N2415 X0.1068 Y1.7479 Z-0.3931
N2420 X0.104 Y1.7491 Z-0.3903
N2425 X0.1016 Y1.7501 Z-0.3872
N2430 X0.0999 Y1.7513 Z-0.3839
N2435 X0.0985 Y1.7522 Z-0.3804
N2440 X0.0975 Y1.7528 Z-0.3767
N2445 X0.0969 Y1.7532 Z-0.3729
N2450 X0.0967 Y1.7534 Z-0.3691
N2455 G0 Z0.2
N2460 X0.9437 Y1.219
N2465 Z-0.1
N2470 G2 X0.8063 Y1.0407 Z-0.1124 I-0.0687 J-0.0892 F13.123
N2475 X0.9437 Y1.219 Z-0.1247 I0.0687 J0.0892
N2480 X0.8063 Y1.0407 Z-0.1371 I-0.0687 J-0.0892
N2485 X0.9437 Y1.219 Z-0.1494 I0.0687 J0.0892
N2490 X0.8063 Y1.0407 Z-0.1618 I-0.0687 J-0.0892
N2495 X0.9437 Y1.219 Z-0.1741 I0.0687 J0.0892
N2500 X0.8063 Y1.0407 Z-0.1865 I-0.0687 J-0.0892
N2505 X0.9437 Y1.219 Z-0.1988 I0.0687 J0.0892
N2510 X0.8063 Y1.0407 Z-0.2112 I-0.0687 J-0.0892
N2515 X0.9437 Y1.219 Z-0.2235 I0.0687 J0.0892
N2520 X0.8063 Y1.0407 Z-0.2359 I-0.0687 J-0.0892
N2525 X0.9437 Y1.219 Z-0.2482 I0.0687 J0.0892
N2530 X0.8063 Y1.0407 Z-0.2606 I-0.0687 J-0.0892
N2535 X0.9437 Y1.219 Z-0.2729 I0.0687 J0.0892
N2540 X0.8063 Y1.0407 Z-0.2853 I-0.0687 J-0.0892
N2545 X0.9437 Y1.219 Z-0.2976 I0.0687 J0.0892
N2550 X0.8063 Y1.0407 Z-0.31 I-0.0687 J-0.0892
N2555 X0.9437 Y1.219 Z-0.3223 I0.0687 J0.0892
N2560 X0.8063 Y1.0407 Z-0.3347 I-0.0687 J-0.0892
N2565 X0.9437 Y1.219 Z-0.347 I0.0687 J0.0892
N2570 X0.8063 Y1.0407 Z-0.3594 I-0.0687 J-0.0892
N2575 X0.9437 Y1.219 Z-0.3717 I0.0687 J0.0892
N2580 X0.8063 Y1.0407 Z-0.3841 I-0.0687 J-0.0892
N2585 X0.9437 Y1.219 Z-0.3964 I0.0687 J0.0892
N2590 X0.9876 Y1.1298 Z-0.4 I-0.0687 J-0.0892
N2595 X0.7624 I-0.1126 J0.
N2600 X0.9876 I0.1126 J0.
N2605 G1 Y1.1254 F15.
N2610 X0.9887 Y1.1212
N2615 X1.0006 Y1.0991
N2620 X1.0038 Y1.0916
N2625 X1.0058 Y1.0836
N2630 X1.0065 Y1.0755
N2635 Y1.0249
N2640 X1.0062 Y1.0189
N2645 X1.0037 Y1.0058
N2650 X0.9991 Y0.9921
N2655 X0.9922 Y0.978
N2660 X0.9829 Y0.964
N2665 X0.9709 Y0.9504
N2670 X0.9563 Y0.9376
N2675 X0.9391 Y0.9263
N2680 X0.9195 Y0.9167
N2685 X0.8976 Y0.9095
N2690 X0.8738 Y0.9051
N2695 X0.8486 Y0.9037
N2700 X0.8224 Y0.9059
N2705 X0.7958 Y0.9116
N2710 X0.7765 Y0.9186
N2715 X0.7656 Y0.9241
N2720 X0.7564 Y0.9321
N2725 X0.7494 Y0.9421
N2730 X0.745 Y0.9535
N2735 X0.7435 Y0.9656
N2740 Y1.1448
N2745 X0.7436 Y1.1598
N2750 X0.7439 Y1.1748
N2755 X0.7447 Y1.1898
N2760 X0.7465 Y1.2048
N2765 X0.7488 Y1.2198
N2770 X0.7542 Y1.2348
N2775 X0.7551 Y1.237
N2780 X0.7606 Y1.2498
N2785 X0.7708 Y1.2648
N2790 X0.7761 Y1.2723
N2795 X0.7836 Y1.2798
N2800 X0.7851 Y1.2811
N2805 X0.8001 Y1.294
N2810 X0.8011 Y1.2947
N2815 X0.815 Y1.3025
N2820 X0.83 Y1.3097
N2825 X0.845 Y1.3137
N2830 X0.86 Y1.3169
N2835 X0.875 Y1.3172
N2840 X0.89 Y1.3169
N2845 X0.905 Y1.3137
N2850 X0.92 Y1.3097
N2855 X0.935 Y1.3025
N2860 X0.9489 Y1.2947
N2865 X0.95 Y1.294
N2870 X0.9649 Y1.2811
N2875 X0.9664 Y1.2798
N2880 X0.9739 Y1.2723
N2885 X0.9799 Y1.2637
N2890 X0.9894 Y1.2498
N2895 X0.9949 Y1.237
N2900 X0.9958 Y1.2348
N2905 X1.0012 Y1.2198
N2910 X1.0035 Y1.2048
N2915 X1.0053 Y1.1898
N2920 X1.0061 Y1.1748
N2925 X1.0064 Y1.1598
N2930 X1.0065 Y1.1448
N2935 Y1.0755
N2940 G2 X1.0046 Y1.0633 I-0.05 J0.0017
N2945 G3 X1.0044 Y1.039 I0.0433 J-0.0125
N2950 G2 X1.0065 Y1.0249 I-0.0601 J-0.0163
N2955 G1 Y0.92
N2960 X1.006 Y0.91
N2965 X1.0036 Y0.8969
N2970 X0.9989 Y0.8826
N2975 X0.9919 Y0.8681
N2980 X0.9817 Y0.8526
N2985 X0.9689 Y0.8378
N2990 X0.9521 Y0.823
N2995 X0.9322 Y0.8097
N3000 X0.9087 Y0.7981
N3005 X0.8807 Y0.7887
N3010 X0.8507 Y0.7829
N3015 X0.8189 Y0.781
N3020 X0.7899 Y0.7832
N3025 X0.7832 Y0.7846
N3030 X0.7724 Y0.7882
N3035 X0.7628 Y0.7941
N3040 X0.7547 Y0.802
N3045 X0.7486 Y0.8116
N3050 X0.7448 Y0.8222
N3055 X0.7435 Y0.8335
N3060 Y0.9656
N3065 G2 X0.8069 Y1.012 I0.05 J-0.0017
N3070 G1 X0.97 Y0.9664
N3075 G2 X1.0065 Y0.92 I-0.0135 J-0.0482
N3080 G1 Y0.8068
N3085 X1.0059 Y0.7953
N3090 X1.0034 Y0.7817
N3095 X0.9984 Y0.7663
N3100 X0.9906 Y0.7501
N3105 X0.9798 Y0.7337
N3110 X0.9649 Y0.7166
N3115 X0.9468 Y0.7006
N3120 X0.9238 Y0.6852
N3125 X0.8966 Y0.6718
N3130 X0.8672 Y0.6619
N3135 X0.8377 Y0.6562
N3140 X0.8101 Y0.6546
N3145 X0.7836 Y0.6566
N3150 X0.7832 Y0.6567
N3155 X0.7724 Y0.6602
N3160 X0.7628 Y0.6661
N3165 X0.7547 Y0.6741
N3170 X0.7486 Y0.6836
N3175 X0.7448 Y0.6943
N3180 X0.7435 Y0.7056
N3185 Y0.8335
N3190 G2 X0.8016 Y0.8811 I0.05 J-0.0017
N3195 G1 X0.9646 Y0.8544
N3200 G2 X1.0065 Y0.8068 I-0.0081 J-0.0493
N3205 G1 Y0.6801
N3210 X1.0062 Y0.6741
N3215 X1.0033 Y0.6589
N3220 X0.9981 Y0.6433
N3225 X0.9894 Y0.6256
N3230 X0.978 Y0.6085
N3235 X0.962 Y0.5903
N3240 X0.943 Y0.5738
N3245 X0.9188 Y0.5578
N3250 X0.8911 Y0.5444
N3255 X0.8622 Y0.5348
N3260 X0.8337 Y0.5295
N3265 X0.8066 Y0.5281
N3270 X0.7897 Y0.5295
N3275 X0.7778 Y0.5319
N3280 X0.7667 Y0.5372
N3285 X0.7573 Y0.5451
N3290 X0.7501 Y0.5549
N3295 X0.7455 Y0.5663
N3300 X0.7438 Y0.5784
N3305 X0.7436 Y0.5902
N3310 X0.7435 Y0.6052
N3315 Y0.7056
N3320 G2 X0.8012 Y0.7532 I0.05 J-0.0017
N3325 G1 X0.9642 Y0.7278
N3330 G2 X1.0065 Y0.6801 I-0.0077 J-0.0494
N3335 G1 Y0.6052
N3340 X1.0064 Y0.5902
N3345 X1.0061 Y0.5752
N3350 X1.0054 Y0.5602
N3355 X1.0009 Y0.5346
N3360 X0.9961 Y0.519
N3365 X0.988 Y0.5017
N3370 X0.9768 Y0.4842
N3375 X0.9616 Y0.4663
N3380 X0.9555 Y0.4608
N3385 G2 X0.8796 Y0.5225 I-0.0313 J0.039
N3390 G1 X0.8949 Y0.5525
N3395 X0.9108 Y0.5838
N3400 G2 X1.0054 Y0.5602 I0.0446 J-0.0226
N3405 G1 X1.0035 Y0.5452
N3410 X1.0012 Y0.5302
N3415 X0.9958 Y0.5152
N3420 X0.9949 Y0.513
N3425 X0.9894 Y0.5002
N3430 X0.9792 Y0.4853
N3435 X0.9739 Y0.4778
N3440 X0.9664 Y0.4703
N3445 X0.9649 Y0.4689
N3450 X0.95 Y0.456
N3455 X0.9489 Y0.4553
N3460 X0.935 Y0.4475
N3465 X0.92 Y0.4403
N3470 X0.905 Y0.4363
N3475 X0.89 Y0.4331
N3480 X0.875 Y0.4328
N3485 X0.86 Y0.4331
N3490 X0.845 Y0.4363
N3495 X0.83 Y0.4403
N3500 X0.815 Y0.4475
N3505 X0.8011 Y0.4553
N3510 X0.8001 Y0.456
N3515 X0.7851 Y0.4689
N3520 X0.7836 Y0.4703
N3525 X0.7761 Y0.4778
N3530 X0.7701 Y0.4862
N3535 X0.7606 Y0.5002
N3540 X0.7551 Y0.513
N3545 X0.7542 Y0.5152
N3550 X0.7488 Y0.5302
N3555 X0.7465 Y0.5452
N3560 X0.7446 Y0.5602
N3565 X0.7439 Y0.5752
N3570 X0.7438 Y0.5784
N3575 X0.7444 Y0.5826 Z-0.3997
N3580 X0.745 Y0.5868 Z-0.3988
N3585 X0.7456 Y0.5908 Z-0.3973
N3590 X0.7469 Y0.5941 Z-0.3955
N3595 X0.7482 Y0.5972 Z-0.3931
N3600 X0.7494 Y0.5999 Z-0.3903
N3605 X0.7503 Y0.6023 Z-0.3872
N3610 X0.7515 Y0.604 Z-0.3839
N3615 X0.7524 Y0.6054 Z-0.3804
N3620 X0.753 Y0.6064 Z-0.3767
N3625 X0.7534 Y0.607 Z-0.3729
N3630 X0.7535 Y0.6072 Z-0.3691
N3635 G0 Z0.2
N3640 X-0.031 Y2.0469
N3645 Z-0.5
N3650 G1 Z-0.55 F15.
N3655 X-0.0309 Y2.0466 Z-0.5556
N3660 X-0.0307 Y2.0457 Z-0.5611
N3665 X-0.0303 Y2.0442 Z-0.5665
N3670 X-0.0297 Y2.0421 Z-0.5717
N3675 X-0.0291 Y2.0395 Z-0.5766
N3680 X-0.0283 Y2.0364 Z-0.5812
N3685 X-0.0273 Y2.0328 Z-0.5854
N3690 X-0.0263 Y2.0287 Z-0.5891
N3695 X-0.0252 Y2.0243 Z-0.5923
N3700 X-0.0239 Y2.0195 Z-0.595
N3705 X-0.0227 Y2.0145 Z-0.5972
N3710 X-0.0213 Y2.0093 Z-0.5987
N3715 X-0.0199 Y2.0039 Z-0.5997
N3720 X-0.0186 Y1.9985 Z-0.6
N3725 G2 X0. Y1.8695 I-0.5861 J-0.1501
N3730 G1 Y1.8651
N3735 X0.0083 Y1.8309
N3740 X0.0153 Y1.7963
N3745 X0.0202 Y1.7615
N3750 X0.0236 Y1.7264
N3755 X0.0251 Y1.7052
N3760 X0.0249 Y1.6963
N3765 X0.0232 Y1.6876
N3770 X0.0199 Y1.6794
N3775 X0.0178 Y1.6751
N3780 X0.0153 Y1.6695
N3785 X0.0107 Y1.6545
N3790 X0.0079 Y1.6395
N3795 X0.0067 Y1.6245
N3800 X0.0065 Y1.6095
N3805 Y1.4446
N3810 Y0.1555
N3815 Y0.1405
N3820 X0.0067 Y0.1255
N3825 X0.0079 Y0.1105
N3830 X0.0107 Y0.0955
N3835 X0.0153 Y0.0805
N3840 X0.0178 Y0.0749
N3845 X0.0205 Y0.0694
N3850 X0.0227 Y0.0655
N3855 X0.0274 Y0.058
N3860 X0.033 Y0.0505
N3865 X0.0355 Y0.0476
N3870 X0.0476 Y0.0355
N3875 X0.0505 Y0.033
N3880 X0.058 Y0.0274
N3885 X0.0655 Y0.0227
N3890 X0.0694 Y0.0205
N3895 X0.0749 Y0.0178
N3900 X0.0805 Y0.0153
N3905 X0.0955 Y0.0107
N3910 X0.1105 Y0.0079
N3915 X0.1255 Y0.0067
N3920 X0.1405 Y0.0065
N3925 X0.3054
N3930 X1.5946
N3935 X1.6095
N3940 X1.6245 Y0.0067
N3945 X1.6395 Y0.0079
N3950 X1.6545 Y0.0107
N3955 X1.6695 Y0.0153
N3960 X1.6751 Y0.0178
N3965 X1.6806 Y0.0205
N3970 X1.6845 Y0.0227
N3975 X1.692 Y0.0275
N3980 X1.6995 Y0.033
N3985 X1.7024 Y0.0355
N3990 X1.7145 Y0.0476
N3995 X1.717 Y0.0505
N4000 X1.7226 Y0.058
N4005 X1.7273 Y0.0655
N4010 X1.7295 Y0.0694
N4015 X1.7322 Y0.0749
N4020 X1.7347 Y0.0805
N4025 X1.7393 Y0.0955
N4030 X1.7421 Y0.1105
N4035 X1.7433 Y0.1255
N4040 X1.7435 Y0.1405
N4045 Y0.3054
N4050 Y1.5946
N4055 Y1.6095
N4060 X1.7433 Y1.6245
N4065 X1.7421 Y1.6395
N4070 X1.7393 Y1.6545
N4075 X1.7347 Y1.6695
N4080 X1.7322 Y1.6751
N4085 X1.7295 Y1.6806
N4090 X1.7273 Y1.6845
N4095 X1.7225 Y1.692
N4100 X1.717 Y1.6995
N4105 X1.7145 Y1.7024
N4110 X1.7024 Y1.7145
N4115 X1.6995 Y1.717
N4120 X1.692 Y1.7225
N4125 X1.6845 Y1.7273
N4130 X1.6806 Y1.7295
N4135 X1.6751 Y1.7322
N4140 X1.6695 Y1.7347
N4145 X1.6545 Y1.7393
N4150 X1.6395 Y1.7421
N4155 X1.6245 Y1.7433
N4160 X1.6095 Y1.7435
N4165 X1.4446
N4170 X0.1555
N4175 X0.1405
N4180 X0.1255 Y1.7433
N4185 X0.1213 Y1.744 Z-0.5997
N4190 X0.1171 Y1.7446 Z-0.5988
N4195 X0.1131 Y1.7452 Z-0.5973
N4200 X0.1098 Y1.7466 Z-0.5955
N4205 X0.1068 Y1.7479 Z-0.5931
N4210 X0.104 Y1.7491 Z-0.5903
N4215 X0.1016 Y1.7501 Z-0.5872
N4220 X0.0999 Y1.7513 Z-0.5839
N4225 X0.0985 Y1.7522 Z-0.5804
N4230 X0.0975 Y1.7528 Z-0.5767
N4235 X0.0969 Y1.7532 Z-0.5729
N4240 X0.0967 Y1.7534 Z-0.5691
N4245 G0 Z0.2
N4250 X0.9437 Y1.219
N4255 Z-0.3
N4260 G2 X0.8063 Y1.0407 Z-0.3124 I-0.0687 J-0.0892 F13.123
N4265 X0.9437 Y1.219 Z-0.3247 I0.0687 J0.0892
N4270 X0.8063 Y1.0407 Z-0.3371 I-0.0687 J-0.0892
N4275 X0.9437 Y1.219 Z-0.3494 I0.0687 J0.0892
N4280 X0.8063 Y1.0407 Z-0.3618 I-0.0687 J-0.0892
N4285 X0.9437 Y1.219 Z-0.3741 I0.0687 J0.0892
N4290 X0.8063 Y1.0407 Z-0.3865 I-0.0687 J-0.0892
N4295 X0.9437 Y1.219 Z-0.3988 I0.0687 J0.0892
N4300 X0.8063 Y1.0407 Z-0.4112 I-0.0687 J-0.0892
N4305 X0.9437 Y1.219 Z-0.4235 I0.0687 J0.0892
N4310 X0.8063 Y1.0407 Z-0.4359 I-0.0687 J-0.0892
N4315 X0.9437 Y1.219 Z-0.4482 I0.0687 J0.0892
N4320 X0.8063 Y1.0407 Z-0.4606 I-0.0687 J-0.0892
N4325 X0.9437 Y1.219 Z-0.4729 I0.0687 J0.0892
N4330 X0.8063 Y1.0407 Z-0.4853 I-0.0687 J-0.0892
N4335 X0.9437 Y1.219 Z-0.4976 I0.0687 J0.0892
N4340 X0.8063 Y1.0407 Z-0.51 I-0.0687 J-0.0892
N4345 X0.9437 Y1.219 Z-0.5223 I0.0687 J0.0892
N4350 X0.8063 Y1.0407 Z-0.5347 I-0.0687 J-0.0892
N4355 X0.9437 Y1.219 Z-0.547 I0.0687 J0.0892
N4360 X0.8063 Y1.0407 Z-0.5594 I-0.0687 J-0.0892
N4365 X0.9437 Y1.219 Z-0.5717 I0.0687 J0.0892
N4370 X0.8063 Y1.0407 Z-0.5841 I-0.0687 J-0.0892
N4375 X0.9437 Y1.219 Z-0.5964 I0.0687 J0.0892
N4380 X0.9876 Y1.1298 Z-0.6 I-0.0687 J-0.0892
N4385 X0.7624 I-0.1126 J0.
N4390 X0.9876 I0.1126 J0.
N4395 G1 Y1.1254 F15.
N4400 X0.9887 Y1.1212
N4405 X1.0006 Y1.0991
N4410 X1.0038 Y1.0916
N4415 X1.0058 Y1.0836
N4420 X1.0065 Y1.0755
N4425 Y1.0249
N4430 X1.0062 Y1.0189
N4435 X1.0037 Y1.0058
N4440 X0.9991 Y0.9921
N4445 X0.9922 Y0.978
N4450 X0.9829 Y0.964
N4455 X0.9709 Y0.9504
N4460 X0.9563 Y0.9376
N4465 X0.9391 Y0.9263
N4470 X0.9195 Y0.9167
N4475 X0.8976 Y0.9095
N4480 X0.8738 Y0.9051
N4485 X0.8486 Y0.9037
N4490 X0.8224 Y0.9059
N4495 X0.7958 Y0.9116
N4500 X0.7765 Y0.9186
N4505 X0.7656 Y0.9241
N4510 X0.7564 Y0.9321
N4515 X0.7494 Y0.9421
N4520 X0.745 Y0.9535
N4525 X0.7435 Y0.9656
N4530 Y1.1448
N4535 X0.7436 Y1.1598
N4540 X0.7439 Y1.1748
N4545 X0.7447 Y1.1898
N4550 X0.7465 Y1.2048
N4555 X0.7488 Y1.2198
N4560 X0.7542 Y1.2348
N4565 X0.7551 Y1.237
N4570 X0.7606 Y1.2498
N4575 X0.7708 Y1.2648
N4580 X0.7761 Y1.2723
N4585 X0.7836 Y1.2798
N4590 X0.7851 Y1.2811
N4595 X0.8001 Y1.294
N4600 X0.8011 Y1.2947
N4605 X0.815 Y1.3025
N4610 X0.83 Y1.3097
N4615 X0.845 Y1.3137
N4620 X0.86 Y1.3169
N4625 X0.875 Y1.3172
N4630 X0.89 Y1.3169
N4635 X0.905 Y1.3137
N4640 X0.92 Y1.3097
N4645 X0.935 Y1.3025
N4650 X0.9489 Y1.2947
N4655 X0.95 Y1.294
N4660 X0.9649 Y1.2811
N4665 X0.9664 Y1.2798
N4670 X0.9739 Y1.2723
N4675 X0.9799 Y1.2637
N4680 X0.9894 Y1.2498
N4685 X0.9949 Y1.237
N4690 X0.9958 Y1.2348
N4695 X1.0012 Y1.2198
N4700 X1.0035 Y1.2048
N4705 X1.0053 Y1.1898
N4710 X1.0061 Y1.1748
N4715 X1.0064 Y1.1598
N4720 X1.0065 Y1.1448
N4725 Y1.0755
N4730 G2 X1.0046 Y1.0633 I-0.05 J0.0017
N4735 G3 X1.0044 Y1.039 I0.0433 J-0.0125
N4740 G2 X1.0065 Y1.0249 I-0.0601 J-0.0163
N4745 G1 Y0.92
N4750 X1.006 Y0.91
N4755 X1.0036 Y0.8969
N4760 X0.9989 Y0.8826
N4765 X0.9919 Y0.8681
N4770 X0.9817 Y0.8526
N4775 X0.9689 Y0.8378
N4780 X0.9521 Y0.823
N4785 X0.9322 Y0.8097
N4790 X0.9087 Y0.7981
N4795 X0.8807 Y0.7887
N4800 X0.8507 Y0.7829
N4805 X0.8189 Y0.781
N4810 X0.7899 Y0.7832
N4815 X0.7832 Y0.7846
N4820 X0.7724 Y0.7882
N4825 X0.7628 Y0.7941
N4830 X0.7547 Y0.802
N4835 X0.7486 Y0.8116
N4840 X0.7448 Y0.8222
N4845 X0.7435 Y0.8335
N4850 Y0.9656
N4855 G2 X0.8069 Y1.012 I0.05 J-0.0017
N4860 G1 X0.97 Y0.9664
N4865 G2 X1.0065 Y0.92 I-0.0135 J-0.0482
N4870 G1 Y0.8068
N4875 X1.0059 Y0.7953
N4880 X1.0034 Y0.7817
N4885 X0.9984 Y0.7663
N4890 X0.9906 Y0.7501
N4895 X0.9798 Y0.7337
N4900 X0.9649 Y0.7166
N4905 X0.9468 Y0.7006
N4910 X0.9238 Y0.6852
N4915 X0.8966 Y0.6718
N4920 X0.8672 Y0.6619
N4925 X0.8377 Y0.6562
N4930 X0.8101 Y0.6546
N4935 X0.7836 Y0.6566
N4940 X0.7832 Y0.6567
N4945 X0.7724 Y0.6602
N4950 X0.7628 Y0.6661
N4955 X0.7547 Y0.6741
N4960 X0.7486 Y0.6836
N4965 X0.7448 Y0.6943
N4970 X0.7435 Y0.7056
N4975 Y0.8335
N4980 G2 X0.8016 Y0.8811 I0.05 J-0.0017
N4985 G1 X0.9646 Y0.8544
N4990 G2 X1.0065 Y0.8068 I-0.0081 J-0.0493
N4995 G1 Y0.6801
N5000 X1.0062 Y0.6741
N5005 X1.0033 Y0.6589
N5010 X0.9981 Y0.6433
N5015 X0.9894 Y0.6256
N5020 X0.978 Y0.6085
N5025 X0.962 Y0.5903
N5030 X0.943 Y0.5738
N5035 X0.9188 Y0.5578
N5040 X0.8911 Y0.5444
N5045 X0.8622 Y0.5348
N5050 X0.8337 Y0.5295
N5055 X0.8066 Y0.5281
N5060 X0.7897 Y0.5295
N5065 X0.7778 Y0.5319
N5070 X0.7667 Y0.5372
N5075 X0.7573 Y0.5451
N5080 X0.7501 Y0.5549
N5085 X0.7455 Y0.5663
N5090 X0.7438 Y0.5784
N5095 X0.7436 Y0.5902
N5100 X0.7435 Y0.6052
N5105 Y0.7056
N5110 G2 X0.8012 Y0.7532 I0.05 J-0.0017
N5115 G1 X0.9642 Y0.7278
N5120 G2 X1.0065 Y0.6801 I-0.0077 J-0.0494
N5125 G1 Y0.6052
N5130 X1.0064 Y0.5902
N5135 X1.0061 Y0.5752
N5140 X1.0054 Y0.5602
N5145 X1.0009 Y0.5346
N5150 X0.9961 Y0.519
N5155 X0.988 Y0.5017
N5160 X0.9768 Y0.4842
N5165 X0.9616 Y0.4663
N5170 X0.9555 Y0.4608
N5175 G2 X0.8796 Y0.5225 I-0.0313 J0.039
N5180 G1 X0.8949 Y0.5525
N5185 X0.9108 Y0.5838
N5190 G2 X1.0054 Y0.5602 I0.0446 J-0.0226
N5195 G1 X1.0035 Y0.5452
N5200 X1.0012 Y0.5302
N5205 X0.9958 Y0.5152
N5210 X0.9949 Y0.513
N5215 X0.9894 Y0.5002
N5220 X0.9792 Y0.4853
N5225 X0.9739 Y0.4778
N5230 X0.9664 Y0.4703
N5235 X0.9649 Y0.4689
N5240 X0.95 Y0.456
N5245 X0.9489 Y0.4553
N5250 X0.935 Y0.4475
N5255 X0.92 Y0.4403
N5260 X0.905 Y0.4363
N5265 X0.89 Y0.4331
N5270 X0.875 Y0.4328
N5275 X0.86 Y0.4331
N5280 X0.845 Y0.4363
N5285 X0.83 Y0.4403
N5290 X0.815 Y0.4475
N5295 X0.8011 Y0.4553
N5300 X0.8001 Y0.456
N5305 X0.7851 Y0.4689
N5310 X0.7836 Y0.4703
N5315 X0.7761 Y0.4778
N5320 X0.7701 Y0.4862
N5325 X0.7606 Y0.5002
N5330 X0.7551 Y0.513
N5335 X0.7542 Y0.5152
N5340 X0.7488 Y0.5302
N5345 X0.7465 Y0.5452
N5350 X0.7446 Y0.5602
N5355 X0.7439 Y0.5752
N5360 X0.7438 Y0.5784
N5365 X0.7444 Y0.5826 Z-0.5997
N5370 X0.745 Y0.5868 Z-0.5988
N5375 X0.7456 Y0.5908 Z-0.5973
N5380 X0.7469 Y0.5941 Z-0.5955
N5385 X0.7482 Y0.5972 Z-0.5931
N5390 X0.7494 Y0.5999 Z-0.5903
N5395 X0.7503 Y0.6023 Z-0.5872
N5400 X0.7515 Y0.604 Z-0.5839
N5405 X0.7524 Y0.6054 Z-0.5804
N5410 X0.753 Y0.6064 Z-0.5767
N5415 X0.7534 Y0.607 Z-0.5729
N5420 X0.7535 Y0.6072 Z-0.5691
N5425 G0 Z0.2
N5430 X-0.031 Y2.0469
N5435 Z-0.65
N5440 G1 Z-0.7 F15.
N5445 X-0.0309 Y2.0466 Z-0.7056
N5450 X-0.0307 Y2.0457 Z-0.7111
N5455 X-0.0303 Y2.0442 Z-0.7165
N5460 X-0.0297 Y2.0421 Z-0.7217
N5465 X-0.0291 Y2.0395 Z-0.7266
N5470 X-0.0283 Y2.0364 Z-0.7312
N5475 X-0.0273 Y2.0328 Z-0.7354
N5480 X-0.0263 Y2.0287 Z-0.7391
N5485 X-0.0252 Y2.0243 Z-0.7423
N5490 X-0.0239 Y2.0195 Z-0.745
N5495 X-0.0227 Y2.0145 Z-0.7472
N5500 X-0.0213 Y2.0093 Z-0.7487
N5505 X-0.0199 Y2.0039 Z-0.7497
N5510 X-0.0186 Y1.9985 Z-0.75
N5515 G2 X0. Y1.8695 I-0.5861 J-0.1501
N5520 G1 Y1.8651
N5525 X0.0083 Y1.8309
N5530 X0.0153 Y1.7963
N5535 X0.0202 Y1.7615
N5540 X0.0236 Y1.7264
N5545 X0.0251 Y1.7052
N5550 X0.0249 Y1.6963
N5555 X0.0232 Y1.6876
N5560 X0.0199 Y1.6794
N5565 X0.0178 Y1.6751
N5570 X0.0153 Y1.6695
N5575 X0.0107 Y1.6545
N5580 X0.0079 Y1.6395
N5585 X0.0067 Y1.6245
N5590 X0.0065 Y1.6095
N5595 Y1.4446
N5600 Y0.1555
N5605 Y0.1405
N5610 X0.0067 Y0.1255
N5615 X0.0079 Y0.1105
N5620 X0.0107 Y0.0955
N5625 X0.0153 Y0.0805
N5630 X0.0178 Y0.0749
N5635 X0.0205 Y0.0694
N5640 X0.0227 Y0.0655
N5645 X0.0274 Y0.058
N5650 X0.033 Y0.0505
N5655 X0.0355 Y0.0476
N5660 X0.0476 Y0.0355
N5665 X0.0505 Y0.033
N5670 X0.058 Y0.0274
N5675 X0.0655 Y0.0227
N5680 X0.0694 Y0.0205
N5685 X0.0749 Y0.0178
N5690 X0.0805 Y0.0153
N5695 X0.0955 Y0.0107
N5700 X0.1105 Y0.0079
N5705 X0.1255 Y0.0067
N5710 X0.1405 Y0.0065
N5715 X0.3054
N5720 X1.5946
N5725 X1.6095
N5730 X1.6245 Y0.0067
N5735 X1.6395 Y0.0079
N5740 X1.6545 Y0.0107
N5745 X1.6695 Y0.0153
N5750 X1.6751 Y0.0178
N5755 X1.6806 Y0.0205
N5760 X1.6845 Y0.0227
N5765 X1.692 Y0.0275
N5770 X1.6995 Y0.033
N5775 X1.7024 Y0.0355
N5780 X1.7145 Y0.0476
N5785 X1.717 Y0.0505
N5790 X1.7226 Y0.058
N5795 X1.7273 Y0.0655
N5800 X1.7295 Y0.0694
N5805 X1.7322 Y0.0749
N5810 X1.7347 Y0.0805
N5815 X1.7393 Y0.0955
N5820 X1.7421 Y0.1105
N5825 X1.7433 Y0.1255
N5830 X1.7435 Y0.1405
N5835 Y0.3054
N5840 Y1.5946
N5845 Y1.6095
N5850 X1.7433 Y1.6245
N5855 X1.7421 Y1.6395
N5860 X1.7393 Y1.6545
N5865 X1.7347 Y1.6695
N5870 X1.7322 Y1.6751
N5875 X1.7295 Y1.6806
N5880 X1.7273 Y1.6845
N5885 X1.7225 Y1.692
N5890 X1.717 Y1.6995
N5895 X1.7145 Y1.7024
N5900 X1.7024 Y1.7145
N5905 X1.6995 Y1.717
N5910 X1.692 Y1.7225
N5915 X1.6845 Y1.7273
N5920 X1.6806 Y1.7295
N5925 X1.6751 Y1.7322
N5930 X1.6695 Y1.7347
N5935 X1.6545 Y1.7393
N5940 X1.6395 Y1.7421
N5945 X1.6245 Y1.7433
N5950 X1.6095 Y1.7435
N5955 X1.4446
N5960 X0.1555
N5965 X0.1405
N5970 X0.1255 Y1.7433
N5975 X0.1213 Y1.744 Z-0.7497
N5980 X0.1171 Y1.7446 Z-0.7488
N5985 X0.1131 Y1.7452 Z-0.7473
N5990 X0.1098 Y1.7466 Z-0.7455
N5995 X0.1068 Y1.7479 Z-0.7431
N6000 X0.104 Y1.7491 Z-0.7403
N6005 X0.1016 Y1.7501 Z-0.7372
N6010 X0.0999 Y1.7513 Z-0.7339
N6015 X0.0985 Y1.7522 Z-0.7304
N6020 X0.0975 Y1.7528 Z-0.7267
N6025 X0.0969 Y1.7532 Z-0.7229
N6030 X0.0967 Y1.7534 Z-0.7191
N6035 G0 Z0.2
N6040 X0.9565 Y1.2076
N6045 Z-0.5
N6050 G2 X0.7935 Y1.0521 Z-0.5124 I-0.0815 J-0.0777 F13.123
N6055 X0.9565 Y1.2076 Z-0.5247 I0.0815 J0.0777
N6060 X0.7935 Y1.0521 Z-0.5371 I-0.0815 J-0.0777
N6065 X0.9565 Y1.2076 Z-0.5494 I0.0815 J0.0777
N6070 X0.7935 Y1.0521 Z-0.5618 I-0.0815 J-0.0777
N6075 X0.9565 Y1.2076 Z-0.5741 I0.0815 J0.0777
N6080 X0.7935 Y1.0521 Z-0.5865 I-0.0815 J-0.0777
N6085 X0.9565 Y1.2076 Z-0.5988 I0.0815 J0.0777
N6090 X0.7935 Y1.0521 Z-0.6112 I-0.0815 J-0.0777
N6095 X0.9565 Y1.2076 Z-0.6235 I0.0815 J0.0777
N6100 X0.7935 Y1.0521 Z-0.6359 I-0.0815 J-0.0777
N6105 X0.9565 Y1.2076 Z-0.6482 I0.0815 J0.0777
N6110 X0.7935 Y1.0521 Z-0.6606 I-0.0815 J-0.0777
N6115 X0.9565 Y1.2076 Z-0.6729 I0.0815 J0.0777
N6120 X0.7935 Y1.0521 Z-0.6853 I-0.0815 J-0.0777
N6125 X0.9565 Y1.2076 Z-0.6976 I0.0815 J0.0777
N6130 X0.7935 Y1.0521 Z-0.71 I-0.0815 J-0.0777
N6135 X0.9565 Y1.2076 Z-0.7223 I0.0815 J0.0777
N6140 X0.7935 Y1.0521 Z-0.7347 I-0.0815 J-0.0777
N6145 X0.9565 Y1.2076 Z-0.747 I0.0815 J0.0777
N6150 X0.9876 Y1.1298 Z-0.75 I-0.0815 J-0.0777
N6155 X0.7624 I-0.1126 J0.
N6160 X0.9876 I0.1126 J0.
N6165 G1 Y1.1254 F15.
N6170 X0.9887 Y1.1212
N6175 X1.0006 Y1.0991
N6180 X1.0038 Y1.0916
N6185 X1.0058 Y1.0836
N6190 X1.0065 Y1.0755
N6195 Y1.0249
N6200 X1.0062 Y1.0189
N6205 X1.0037 Y1.0058
N6210 X0.9991 Y0.9921
N6215 X0.9922 Y0.978
N6220 X0.9829 Y0.964
N6225 X0.9709 Y0.9504
N6230 X0.9563 Y0.9376
N6235 X0.9391 Y0.9263
N6240 X0.9195 Y0.9167
N6245 X0.8976 Y0.9095
N6250 X0.8738 Y0.9051
N6255 X0.8486 Y0.9037
N6260 X0.8224 Y0.9059
N6265 X0.7958 Y0.9116
N6270 X0.7765 Y0.9186
N6275 X0.7656 Y0.9241
N6280 X0.7564 Y0.9321
N6285 X0.7494 Y0.9421
N6290 X0.745 Y0.9535
N6295 X0.7435 Y0.9656
N6300 Y1.1448
N6305 X0.7436 Y1.1598
N6310 X0.7439 Y1.1748
N6315 X0.7447 Y1.1898
N6320 X0.7465 Y1.2048
N6325 X0.7488 Y1.2198
N6330 X0.7542 Y1.2348
N6335 X0.7551 Y1.237
N6340 X0.7606 Y1.2498
N6345 X0.7708 Y1.2648
N6350 X0.7761 Y1.2723
N6355 X0.7836 Y1.2798
N6360 X0.7851 Y1.2811
N6365 X0.8001 Y1.294
N6370 X0.8011 Y1.2947
N6375 X0.815 Y1.3025
N6380 X0.83 Y1.3097
N6385 X0.845 Y1.3137
N6390 X0.86 Y1.3169
N6395 X0.875 Y1.3172
N6400 X0.89 Y1.3169
N6405 X0.905 Y1.3137
N6410 X0.92 Y1.3097
N6415 X0.935 Y1.3025
N6420 X0.9489 Y1.2947
N6425 X0.95 Y1.294
N6430 X0.9649 Y1.2811
N6435 X0.9664 Y1.2798
N6440 X0.9739 Y1.2723
N6445 X0.9799 Y1.2637
N6450 X0.9894 Y1.2498
N6455 X0.9949 Y1.237
N6460 X0.9958 Y1.2348
N6465 X1.0012 Y1.2198
N6470 X1.0035 Y1.2048
N6475 X1.0053 Y1.1898
N6480 X1.0061 Y1.1748
N6485 X1.0064 Y1.1598
N6490 X1.0065 Y1.1448
N6495 Y1.0755
N6500 G2 X1.0046 Y1.0633 I-0.05 J0.0017
N6505 G3 X1.0044 Y1.039 I0.0433 J-0.0125
N6510 G2 X1.0065 Y1.0249 I-0.0601 J-0.0163
N6515 G1 Y0.92
N6520 X1.006 Y0.91
N6525 X1.0036 Y0.8969
N6530 X0.9989 Y0.8826
N6535 X0.9919 Y0.8681
N6540 X0.9817 Y0.8526
N6545 X0.9689 Y0.8378
N6550 X0.9521 Y0.823
N6555 X0.9322 Y0.8097
N6560 X0.9087 Y0.7981
N6565 X0.8807 Y0.7887
N6570 X0.8507 Y0.7829
N6575 X0.8189 Y0.781
N6580 X0.7899 Y0.7832
N6585 X0.7832 Y0.7846
N6590 X0.7724 Y0.7882
N6595 X0.7628 Y0.7941
N6600 X0.7547 Y0.802
N6605 X0.7486 Y0.8116
N6610 X0.7448 Y0.8222
N6615 X0.7435 Y0.8335
N6620 Y0.9656
N6625 G2 X0.8069 Y1.012 I0.05 J-0.0017
N6630 G1 X0.97 Y0.9664
N6635 G2 X1.0065 Y0.92 I-0.0135 J-0.0482
N6640 G1 Y0.8068
N6645 X1.0059 Y0.7953
N6650 X1.0034 Y0.7817
N6655 X0.9984 Y0.7663
N6660 X0.9906 Y0.7501
N6665 X0.9798 Y0.7337
N6670 X0.9649 Y0.7166
N6675 X0.9468 Y0.7006
N6680 X0.9238 Y0.6852
N6685 X0.8966 Y0.6718
N6690 X0.8672 Y0.6619
N6695 X0.8377 Y0.6562
N6700 X0.8101 Y0.6546
N6705 X0.7836 Y0.6566
N6710 X0.7832 Y0.6567
N6715 X0.7724 Y0.6602
N6720 X0.7628 Y0.6661
N6725 X0.7547 Y0.6741
N6730 X0.7486 Y0.6836
N6735 X0.7448 Y0.6943
N6740 X0.7435 Y0.7056
N6745 Y0.8335
N6750 G2 X0.8016 Y0.8811 I0.05 J-0.0017
N6755 G1 X0.9646 Y0.8544
N6760 G2 X1.0065 Y0.8068 I-0.0081 J-0.0493
N6765 G1 Y0.6801
N6770 X1.0062 Y0.6741
N6775 X1.0033 Y0.6589
N6780 X0.9981 Y0.6433
N6785 X0.9894 Y0.6256
N6790 X0.978 Y0.6085
N6795 X0.962 Y0.5903
N6800 X0.943 Y0.5738
N6805 X0.9188 Y0.5578
N6810 X0.8911 Y0.5444
N6815 X0.8622 Y0.5348
N6820 X0.8337 Y0.5295
N6825 X0.8066 Y0.5281
N6830 X0.7897 Y0.5295
N6835 X0.7778 Y0.5319
N6840 X0.7667 Y0.5372
N6845 X0.7573 Y0.5451
N6850 X0.7501 Y0.5549
N6855 X0.7455 Y0.5663
N6860 X0.7438 Y0.5784
N6865 X0.7436 Y0.5902
N6870 X0.7435 Y0.6052
N6875 Y0.7056
N6880 G2 X0.8012 Y0.7532 I0.05 J-0.0017
N6885 G1 X0.9642 Y0.7278
N6890 G2 X1.0065 Y0.6801 I-0.0077 J-0.0494
N6895 G1 Y0.6052
N6900 X1.0064 Y0.5902
N6905 X1.0061 Y0.5752
N6910 X1.0054 Y0.5602
N6915 X1.0009 Y0.5346
N6920 X0.9961 Y0.519
N6925 X0.988 Y0.5017
N6930 X0.9768 Y0.4842
N6935 X0.9616 Y0.4663
N6940 X0.9555 Y0.4608
N6945 G2 X0.8796 Y0.5225 I-0.0313 J0.039
N6950 G1 X0.8949 Y0.5525
N6955 X0.9108 Y0.5838
N6960 G2 X1.0054 Y0.5602 I0.0446 J-0.0226
N6965 G1 X1.0035 Y0.5452
N6970 X1.0012 Y0.5302
N6975 X0.9958 Y0.5152
N6980 X0.9949 Y0.513
N6985 X0.9894 Y0.5002
N6990 X0.9792 Y0.4853
N6995 X0.9739 Y0.4778
N7000 X0.9664 Y0.4703
N7005 X0.9649 Y0.4689
N7010 X0.95 Y0.456
N7015 X0.9489 Y0.4553
N7020 X0.935 Y0.4475
N7025 X0.92 Y0.4403
N7030 X0.905 Y0.4363
N7035 X0.89 Y0.4331
N7040 X0.875 Y0.4328
N7045 X0.86 Y0.4331
N7050 X0.845 Y0.4363
N7055 X0.83 Y0.4403
N7060 X0.815 Y0.4475
N7065 X0.8011 Y0.4553
N7070 X0.8001 Y0.456
N7075 X0.7851 Y0.4689
N7080 X0.7836 Y0.4703
N7085 X0.7761 Y0.4778
N7090 X0.7701 Y0.4862
N7095 X0.7606 Y0.5002
N7100 X0.7551 Y0.513
N7105 X0.7542 Y0.5152
N7110 X0.7488 Y0.5302
N7115 X0.7465 Y0.5452
N7120 X0.7446 Y0.5602
N7125 X0.7439 Y0.5752
N7130 X0.7438 Y0.5784
N7135 G2 X0.7535 Y0.6072 I0.05 J-0.0009
N7140 G1 X0.7569 Y0.6117 Z-0.7497
N7145 X0.7602 Y0.6162 Z-0.7487
N7150 X0.7634 Y0.6205 Z-0.7472
N7155 X0.7664 Y0.6247 Z-0.745
N7160 X0.7693 Y0.6286 Z-0.7423
N7165 X0.7721 Y0.6323 Z-0.7391
N7170 X0.7745 Y0.6357 Z-0.7354
N7175 X0.7768 Y0.6387 Z-0.7312
N7180 X0.7787 Y0.6413 Z-0.7266
N7185 X0.7803 Y0.6435 Z-0.7217
N7190 X0.7816 Y0.6452 Z-0.7165
N7195 X0.7825 Y0.6465 Z-0.7111
N7200 X0.783 Y0.6472 Z-0.7056
N7205 X0.7832 Y0.6475 Z-0.7
N7210 G0 Z0.6
N7215 M9
N7220 G53 Z0.
N7225 M30
%
