%
(TENON TEMPLATE)
(T1  D=0.25 CR=0. - ZMIN=-0.499999993 - FLAT END MILL)
N10 G90 G94 G17 G91.1
N15 G20
N20 G53 G0 Z0.
(2D ADAPTIVE4)
N25 M9
N30 T1 M6
N35 S3000 M3
N40 G54
N45 M8
N50 G0 X-0.025776184 Y-0.288600884
N55 G43 Z0.599999991 H1
N60 G0 Z0.199999997
N65 Z-0.450000012
N70 G1 Z-0.474999983 F10.
N75 X-0.025699809 Y-0.28830272 Z-0.478910845
N80 X-0.025472564 Y-0.287415568 Z-0.482725408
N85 X-0.025100046 Y-0.285961271 Z-0.486349746
N90 X-0.024591426 Y-0.28397564 Z-0.489694616
N95 X-0.023959228 Y-0.281507568 Z-0.492677655
N100 X-0.02321902 Y-0.278617826 Z-0.495225412
N105 X-0.022389028 Y-0.27537757 Z-0.497275151
N110 X-0.021489688 Y-0.271866585 Z-0.498776402
N115 X-0.020543146 Y-0.268171324 Z-0.499692199
N120 X-0.019572708 Y-0.264382775 Z-0.499999992
N125 G3 X0. Y-0.128282956 I-0.618284173 J0.158373634
N130 G1 X-0.000000006 Y-0.122282956
N135 X-0.007798158 Y-0.084079964
N140 X-0.013197818 Y-0.045464893
N145 X-0.016918815 Y-0.006652081
N150 X-0.019474413 Y0.032254847
N155 X-0.0212255 Y0.071206276
N160 X-0.022423387 Y0.110178641
N165 X-0.023241918 Y0.149160811
N170 X-0.023800801 Y0.188147571
N175 X-0.024182196 Y0.227136481
N180 X-0.024442372 Y0.266126385
N185 X-0.024619816 Y0.305116759
N190 X-0.024823309 Y0.383097994
N195 X-0.02494403 Y0.500070241
N200 X-0.02499739 Y0.811996385
N205 X-0.025 Y1.864747175
N210 Y2.878507179
N215 X-0.024648332 Y2.888248474
N220 X-0.020710584 Y2.907342085
N225 X-0.000848675 Y2.9408949
N230 X0.029126504 Y2.965830105
N235 X0.063742723 Y2.983774501
N240 X0.100610266 Y2.996465428
N245 X0.138577486 Y3.005340756
N250 X0.177078773 Y3.01149954
N255 X0.215837167 Y3.015750074
N260 X0.254718262 Y3.018672372
N265 X0.293657498 Y3.02067644
N270 X0.332624143 Y3.022047929
N275 X0.371603628 Y3.022985383
N280 X0.410589158 Y3.023625772
N285 X0.449577467 Y3.02406281
N290 X0.488567089 Y3.024360777
N295 X0.527557351 Y3.024564127
N300 X0.566547874 Y3.024702898
N305 X0.644529223 Y3.024861794
N310 X0.800492294 Y3.024970227
N315 X0.878473792 Y3.024986147
N320 X1.892233871 Y3.024999964
N325 X1.910677332 Y3.018682885
N330 X1.943431764 Y2.997530539
N335 X1.967674315 Y2.966992236
N340 X1.985086756 Y2.932105477
N345 X1.997387053 Y2.895105617
N350 X2.005981986 Y2.857073987
N355 X2.011942976 Y2.818541639
N360 X2.01605549 Y2.779768396
N365 X2.018882121 Y2.74088011
N370 X2.020819957 Y2.701937458
N375 X2.02214609 Y2.662969274
N380 X2.023052456 Y2.623989075
N385 X2.023671518 Y2.58500317
N390 X2.024093988 Y2.546014861
N395 X2.024382193 Y2.50702505
N400 X2.024578785 Y2.468034789
N405 X2.0247129 Y2.429044378
N410 X2.02486654 Y2.351062955
N415 X2.024971219 Y2.195099958
N420 X2.024986537 Y2.117118385
N425 X2.025000054 Y0.128589118
N430 Y0.109093734
N435 X2.019078112 Y0.0905195
N440 X1.998379024 Y0.057476684
N445 X1.968040016 Y0.032985551
N450 X1.933248925 Y0.015382633
N455 X1.896295923 Y0.002942451
N460 X1.85828712 Y-0.005752826
N465 X1.819765737 Y-0.011784515
N470 X1.780997599 Y-0.015946306
N475 X1.742112017 Y-0.018807172
N480 X1.703170566 Y-0.020768633
N485 X1.664202983 Y-0.022111005
N490 X1.625222935 Y-0.023028536
N495 X1.586237179 Y-0.02365514
N500 X1.54724872 Y-0.024082809
N505 X1.50825906 Y-0.024374583
N510 X1.469268799 Y-0.024573585
N515 X1.430278388 Y-0.024709289
N520 X1.352296964 Y-0.024864899
N525 X1.196333893 Y-0.024970831
N530 X0.221564676 Y-0.024999997
N535 X0.202447617 Y-0.021177887
N540 X0.185064331 Y-0.012352303
N545 X0.1542247 Y0.011505562
N550 X0.131258608 Y0.043014903
N555 X0.114604817 Y0.078270135
N560 X0.102714291 Y0.115403613
N565 X0.094311331 Y0.153478149
N570 X0.088415193 Y0.19202054
N575 X0.084298868 Y0.230793409
N580 X0.081435404 Y0.269678897
N585 X0.079448599 Y0.308619015
N590 X0.078072604 Y0.34758549
N595 X0.077120896 Y0.386564638
N600 X0.076463284 Y0.425549868
N605 X0.076009204 Y0.464537988
N610 X0.075695834 Y0.503527499
N615 X0.075479657 Y0.542517685
N620 X0.075330575 Y0.581508171
N625 X0.075156942 Y0.659489519
N630 X0.075051287 Y0.776461729
N635 X0.075001224 Y1.166369446
N640 X0.074999999 Y2.024166378
N645 Y2.764991099
N650 X0.080468289 Y2.783703842
N655 X0.098130938 Y2.818464444
N660 X0.125418648 Y2.846315339
N665 X0.158067106 Y2.867630786
N670 X0.193660259 Y2.883549788
N675 X0.230853952 Y2.895250396
N680 X0.26890567 Y2.903756269
N685 X0.30741104 Y2.909889522
N690 X0.346153214 Y2.914285435
N695 X0.385017658 Y2.917421596
N700 X0.423944653 Y2.919650641
N705 X0.462903413 Y2.921230586
N710 X0.501878168 Y2.922347662
N715 X0.540860957 Y2.923136133
N720 X0.579847764 Y2.923691517
N725 X0.618836561 Y2.924082298
N730 X0.657826371 Y2.924357136
N735 X0.696816707 Y2.924549974
N740 X0.735807194 Y2.92468514
N745 X0.813788542 Y2.924846139
N750 X0.930760827 Y2.924947664
N755 X1.24268697 Y2.924997225
N760 X1.749567047 Y2.924999928
N765 X1.768932943 Y2.922757967
N770 X1.787419507 Y2.916567645
N775 X1.821581623 Y2.897773202
N780 X1.848753681 Y2.869809669
N785 X1.869481455 Y2.836784903
N790 X1.884927224 Y2.800983819
N795 X1.896262432 Y2.763677282
N800 X1.904492416 Y2.725564852
N805 X1.910421266 Y2.687027398
N810 X1.914667295 Y2.648268572
N815 X1.917694572 Y2.609395605
N820 X1.919845221 Y2.570464067
N825 X1.921368697 Y2.531503092
N830 X1.922445673 Y2.492527248
N835 X1.923205308 Y2.453543896
N840 X1.923740567 Y2.414556789
N845 X1.924116931 Y2.375567879
N850 X1.924381406 Y2.336577919
N855 X1.924567035 Y2.297587658
N860 X1.924788257 Y2.219606385
N865 X1.924927929 Y2.10263425
N870 X1.924994311 Y1.829698818
N875 X1.924999718 Y1.517772675
N880 X1.925000018 Y0.231077296
N885 X1.912392143 Y0.194181213
N890 X1.888022535 Y0.163744284
N895 X1.857053802 Y0.140054292
N900 X1.822400131 Y0.122182388
N905 X1.785720164 Y0.108959102
N910 X1.747943998 Y0.099302671
N915 X1.709584214 Y0.092316303
N920 X1.670918052 Y0.087296259
N925 X1.632092694 Y0.083707759
N930 X1.593185785 Y0.08115286
N935 X1.554237125 Y0.079339602
N940 X1.51526759 Y0.078055962
N945 X1.476287391 Y0.077149155
N950 X1.437301786 Y0.076509663
N955 X1.398313627 Y0.076059361
N960 X1.359324117 Y0.075742682
N965 X1.320334006 Y0.075520225
N970 X1.281343595 Y0.075364118
N975 X1.203362247 Y0.075178001
N980 X1.086390037 Y0.075060556
N985 X0.774463894 Y0.07500334
N990 X0.34556539 Y0.07500006
N995 X0.326493932 Y0.079043428
N1000 X0.290535041 Y0.094117874
N1005 X0.261146271 Y0.119741686
N1010 X0.238315083 Y0.151348921
N1015 X0.221074641 Y0.186321003
N1020 X0.208288497 Y0.223155697
N1025 X0.198921669 Y0.261004647
N1030 X0.192119794 Y0.299397547
N1035 X0.187212445 Y0.338078259
N1040 X0.183689313 Y0.376909549
N1045 X0.181169566 Y0.415818785
N1050 X0.179372866 Y0.454768158
N1055 X0.178094811 Y0.493737957
N1060 X0.177187507 Y0.532718193
N1065 X0.176544452 Y0.571703648
N1070 X0.176089354 Y0.610691769
N1075 X0.175767677 Y0.649681241
N1080 X0.175540541 Y0.688671277
N1085 X0.175380313 Y0.727661764
N1090 X0.175187869 Y0.805643037
N1095 X0.175064943 Y0.922615247
N1100 X0.175022328 Y1.039587607
N1105 X0.175000007 Y2.638209185
N1110 X0.177601886 Y2.657530176
N1115 X0.189433398 Y2.694682324
N1120 X0.212507886 Y2.726112426
N1125 X0.242373493 Y2.751178892
N1130 X0.276250877 Y2.770481861
N1135 X0.312420646 Y2.78504289
N1140 X0.349874309 Y2.795882938
N1145 X0.388036901 Y2.803876381
N1150 X0.426585881 Y2.809729388
N1155 X0.465342942 Y2.813991937
N1160 X0.504210953 Y2.817083344
N1165 X0.543137648 Y2.819317795
N1170 X0.582095131 Y2.820928679
N1175 X0.621068684 Y2.822086905
N1180 X0.66005061 Y2.822918629
N1185 X0.667402838 Y2.823030967
N1190 X0.674740574 Y2.823607678
N1195 X0.681947348 Y2.825103519
N1200 X0.688908344 Y2.827495064
N1205 X0.743140423 Y2.849960327
N1210 X0.769765734 Y2.859449912
N1215 X0.778568523 Y2.861723712
N1220 X0.858281729 Y2.88085547
N1225 X0.884852822 Y2.886181929
N1230 X0.893709829 Y2.886987521
N1235 X0.911423841 Y2.888468645
N1240 X0.973423034 Y2.893335538
N1245 X0.999994128 Y2.89495363
N1250 X1.026565146 Y2.893336439
N1255 X1.08856434 Y2.888469846
N1260 X1.106278352 Y2.886988722
N1265 X1.115135358 Y2.886183431
N1270 X1.141706452 Y2.880858174
N1275 X1.221419657 Y2.861726716
N1280 X1.230276663 Y2.859433692
N1285 X1.261064574 Y2.850177194
N1290 X1.299184814 Y2.841984005
N1295 X1.337787598 Y2.836497449
N1300 X1.376602744 Y2.832801398
N1305 X1.415513407 Y2.83030112
N1310 X1.454467323 Y2.828605832
N1315 X1.493441064 Y2.827454514
N1320 X1.532423966 Y2.82667145
N1325 X1.571411073 Y2.826138594
N1330 X1.610400132 Y2.825775747
N1335 X1.649390093 Y2.825528543
N1340 X1.687154845 Y2.815827798
N1345 X1.719814811 Y2.794529772
N1350 X1.74610183 Y2.765732713
N1355 X1.766513464 Y2.732511505
N1360 X1.782011498 Y2.696733249
N1365 X1.79360232 Y2.659505108
N1370 X1.802178931 Y2.621469272
N1375 X1.808475885 Y2.582990391
N1380 X1.813071844 Y2.544271514
N1385 X1.816411056 Y2.505423929
N1390 X1.818828433 Y2.466508159
N1395 X1.820573431 Y2.427556346
N1400 X1.821830029 Y2.388585909
N1405 X1.82273294 Y2.34960556
N1410 X1.823380838 Y2.310620255
N1415 X1.823844759 Y2.271632247
N1420 X1.824176668 Y2.232642887
N1425 X1.82441381 Y2.193652776
N1430 X1.824583069 Y2.154662365
N1435 X1.824789573 Y2.076681092
N1440 X1.82492504 Y1.959708957
N1445 X1.824993374 Y1.686773525
N1450 X1.824999682 Y1.33585652
N1455 X1.824999982 Y0.361087379
N1460 X1.822414248 Y0.34176421
N1465 X1.810425285 Y0.304662374
N1470 X1.787311374 Y0.273261389
N1475 X1.757335963 Y0.248326242
N1480 X1.723392366 Y0.229140229
N1485 X1.687186834 Y0.214667883
N1490 X1.649713291 Y0.203897146
N1495 X1.611539435 Y0.195957788
N1500 X1.57298411 Y0.19014672
N1505 X1.534223481 Y0.18591618
N1510 X1.495353519 Y0.182849066
N1515 X1.456425885 Y0.180632749
N1520 X1.417467763 Y0.179035532
N1525 X1.378493872 Y0.177887012
N1530 X1.339511871 Y0.177062684
N1535 X1.332579936 Y0.176957649
N1540 X1.325239647 Y0.176381727
N1545 X1.31803032 Y0.174885735
N1550 X1.311066995 Y0.172493533
N1555 X1.256847757 Y0.150033968
N1560 X1.230200595 Y0.1405383
N1565 X1.221419657 Y0.138272836
N1570 X1.141706452 Y0.119143509
N1575 X1.115135358 Y0.113818608
N1580 X1.106278352 Y0.113012988
N1585 X1.08856434 Y0.111531798
N1590 X1.026565146 Y0.106663967
N1595 X0.999994128 Y0.105046334
N1600 X0.973423034 Y0.106664849
N1605 X0.911423841 Y0.111532765
N1610 X0.893709829 Y0.113014246
N1615 X0.884852822 Y0.113820129
N1620 X0.858281729 Y0.119146296
N1625 X0.778568523 Y0.138275783
N1630 X0.769711517 Y0.140568628
N1635 X0.738957923 Y0.149816613
N1640 X0.700838209 Y0.158012007
N1645 X0.6622355 Y0.163499671
N1650 X0.62342043 Y0.167196886
N1655 X0.584509955 Y0.16969754
N1660 X0.545556076 Y0.171393203
N1665 X0.506582298 Y0.172544971
N1670 X0.467599396 Y0.173328186
N1675 X0.428857128 Y0.177723179
N1680 X0.393843763 Y0.194879648
N1685 X0.364917845 Y0.221024836
N1690 X0.342124316 Y0.252659246
N1695 X0.324633516 Y0.287506787
N1700 X0.311443824 Y0.324198918
N1705 X0.301617393 Y0.361931155
N1710 X0.294360439 Y0.400240628
N1715 X0.289035951 Y0.438866165
N1720 X0.28514879 Y0.47766265
N1725 X0.28232199 Y0.516550823
N1730 X0.280272698 Y0.555487693
N1735 X0.278790861 Y0.59445032
N1740 X0.278656389 Y0.599352431
N1745 X0.278030399 Y0.606422875
N1750 X0.276550327 Y0.613364911
N1755 X0.274238061 Y0.620075774
N1760 X0.273718271 Y0.621330682
N1765 X0.27149146 Y0.627639725
N1770 X0.264861246 Y0.64796613
N1775 X0.263110183 Y0.654208867
N1780 X0.243973075 Y0.733916365
N1785 X0.242168246 Y0.742772771
N1790 X0.238290171 Y0.764759619
N1795 X0.237874609 Y0.769341987
N1800 X0.231593988 Y0.849049486
N1805 X0.231075981 Y0.857905891
N1810 X0.230243112 Y0.875618627
N1815 X0.23 Y0.884475032
N1820 Y2.115513208
N1825 X0.230242943 Y2.124369614
N1830 X0.231075231 Y2.142082274
N1835 X0.231593068 Y2.15093868
N1840 X0.237873596 Y2.230646178
N1845 X0.238290171 Y2.235235079
N1850 X0.242165749 Y2.257215395
N1855 X0.24397024 Y2.2660718
N1860 X0.247147196 Y2.279303994
N1865 X0.254342819 Y2.317625031
N1870 X0.261037406 Y2.356036779
N1875 X0.265535651 Y2.394767221
N1880 X0.268572879 Y2.433639586
N1885 X0.270630093 Y2.472576081
N1890 X0.2720264 Y2.511541862
N1895 X0.273301395 Y2.550511698
N1900 X0.285319587 Y2.587604072
N1905 X0.30775609 Y2.619492538
N1910 X0.337007928 Y2.645272683
N1915 X0.370402712 Y2.665398966
N1920 X0.406226398 Y2.68079202
N1925 X0.443448758 Y2.692401315
N1930 X0.48146368 Y2.70106999
N1935 X0.490463287 Y2.703877547
N1940 X0.49889313 Y2.708098044
N1945 X0.506533037 Y2.713621245
N1950 X0.521787959 Y2.726604131
N1955 X0.542684465 Y2.744316942
N1960 X0.54828595 Y2.748550055
N1965 X0.569566216 Y2.762029453
N1970 X0.641833628 Y2.80631148
N1975 X0.654570212 Y2.812971881
N1980 X0.659380485 Y2.815167885
N1985 X0.688908344 Y2.827495064
N1990 X0.717475546 Y2.839328736
N1995 X0.743140423 Y2.849960327
N2000 X0.744897812 Y2.850593507
N2005 X0.769765734 Y2.859449912
N2010 X0.778568523 Y2.861723712
N2015 X0.849424723 Y2.878749577
N2020 X0.858281729 Y2.88085547
N2025 X0.884852822 Y2.886181929
N2030 X0.893709829 Y2.886987521
N2035 X0.911423841 Y2.888468645
N2040 X0.964566028 Y2.892660006
N2045 X0.973423034 Y2.893335538
N2050 X0.999994128 Y2.89495363
N2055 X1.026565146 Y2.893336439
N2060 X1.035422152 Y2.892660907
N2065 X1.08856434 Y2.888469846
N2070 X1.106278352 Y2.886988722
N2075 X1.115135358 Y2.886183431
N2080 X1.141706452 Y2.880858174
N2085 X1.150563458 Y2.878752581
N2090 X1.20025019 Y2.866813479
N2095 X1.221419657 Y2.861726716
N2100 X1.230231608 Y2.859449912
N2105 X1.230276663 Y2.859433692
N2110 X1.256847757 Y2.849965133
N2115 X1.3194356 Y2.824024291
N2120 X1.340620386 Y2.815167885
N2125 X1.345417894 Y2.812977288
N2130 X1.358166342 Y2.80631148
N2135 X1.389703075 Y2.787006108
N2140 X1.412191917 Y2.774727288
N2145 X1.432033599 Y2.765880495
N2150 X1.458209931 Y2.756648026
N2155 X1.49425026 Y2.747109481
N2160 X1.53262221 Y2.740190761
N2165 X1.570659698 Y2.73162181
N2170 X1.604739212 Y2.712677783
N2175 X1.633067995 Y2.685886894
N2180 X1.655666171 Y2.654112568
N2185 X1.673217683 Y2.619295496
N2190 X1.686601113 Y2.582673801
N2195 X1.696673566 Y2.545006519
N2200 X1.704189871 Y2.506746908
N2205 X1.709762183 Y2.468156439
N2210 X1.713872895 Y2.429382895
N2215 X1.715139704 Y2.413076566
N2220 X1.715934183 Y2.407003087
N2225 X1.71736109 Y2.401046453
N2230 X1.719404656 Y2.395272142
N2235 X1.72626991 Y2.378697883
N2240 X1.728513072 Y2.372348515
N2245 X1.735126916 Y2.352067842
N2250 X1.73689279 Y2.345779299
N2255 X1.756031457 Y2.2660718
N2260 X1.757836079 Y2.257215395
N2265 X1.761698085 Y2.235313175
N2270 X1.762128214 Y2.230646178
N2275 X1.768407296 Y2.15093868
N2280 X1.768924983 Y2.142082274
N2285 X1.769757158 Y2.124369614
N2290 X1.770000007 Y2.115513208
N2295 Y0.884475032
N2300 X1.769756858 Y0.875618627
N2305 X1.768924233 Y0.857905891
N2310 X1.768406245 Y0.849049486
N2315 X1.762127313 Y0.769341987
N2320 X1.761698085 Y0.764681523
N2325 X1.757833676 Y0.742772771
N2330 X1.756028754 Y0.733916365
N2335 X1.752840928 Y0.720640543
N2340 X1.745644667 Y0.682319581
N2345 X1.738954229 Y0.643907157
N2350 X1.734458743 Y0.605176377
N2355 X1.731423205 Y0.566303937
N2360 X1.729367324 Y0.527367442
N2365 X1.727971805 Y0.488401623
N2370 X1.726745395 Y0.449430173
N2375 X1.714771 Y0.412323606
N2380 X1.69233998 Y0.380431198
N2385 X1.66308831 Y0.35465094
N2390 X1.629689885 Y0.334530665
N2395 X1.593862368 Y0.319146584
N2400 X1.55663693 Y0.307547089
N2405 X1.518619868 Y0.298887745
N2410 X1.509554555 Y0.296085763
N2415 X1.501063399 Y0.291851168
N2420 X1.493371077 Y0.286296015
N2425 X1.478199396 Y0.273384147
N2430 X1.457302664 Y0.255671374
N2435 X1.451702268 Y0.251439819
N2440 X1.430417158 Y0.237958581
N2445 X1.35814847 Y0.193676648
N2450 X1.345417894 Y0.187021203
N2455 X1.340595005 Y0.184820243
N2460 X1.311066995 Y0.172493533
N2465 X1.282499719 Y0.160659955
N2470 X1.256847757 Y0.150033968
N2475 X1.255072872 Y0.149394696
N2480 X1.230200595 Y0.1405383
N2485 X1.221419657 Y0.138272836
N2490 X1.150563458 Y0.12124896
N2495 X1.141706452 Y0.119143509
N2500 X1.115135358 Y0.113818608
N2505 X1.106278352 Y0.113012988
N2510 X1.08856434 Y0.111531798
N2515 X1.035422152 Y0.107339442
N2520 X1.026565146 Y0.106663967
N2525 X0.999994128 Y0.105046334
N2530 X0.973423034 Y0.106664849
N2535 X0.964566028 Y0.107340372
N2540 X0.911423841 Y0.111532765
N2545 X0.893709829 Y0.113014246
N2550 X0.884852822 Y0.113820129
N2555 X0.858281729 Y0.119146296
N2560 X0.849424723 Y0.121251795
N2565 X0.799737915 Y0.133189601
N2570 X0.778568523 Y0.138275783
N2575 X0.769796672 Y0.1405383
N2580 X0.769711517 Y0.140568628
N2585 X0.743140423 Y0.150038858
N2590 X0.680590126 Y0.175963856
N2595 X0.659405941 Y0.184820243
N2600 X0.654570212 Y0.187026722
N2605 X0.6418515 Y0.193676648
N2610 X0.610285106 Y0.212999855
N2615 X0.587806176 Y0.225273099
N2620 X0.552194813 Y0.241151194
N2625 X0.516757102 Y0.257412993
N2630 X0.485735766 Y0.281034117
N2635 X0.45998363 Y0.310310529
N2640 X0.439459358 Y0.343462201
N2645 X0.437940537 Y0.346837607
N2650 X0.435425428 Y0.351784023
N2655 X0.432451691 Y0.356469079
N2660 X0.42904621 Y0.360850387
N2665 G3 X0.400690394 Y0.366869161 I-0.018407379 J-0.016916493
N2670 X0.394825147 Y0.324570851 I0.009948438 J-0.022935267 F15.
N2675 G1 X0.580672992 Y0.172789679
N2680 G3 X0.620704936 Y0.185949765 I0.015813685 J0.019363024
N2685 X0.610285106 Y0.212999855 I-0.024218259 J0.006202938 F10.
N2690 G1 X0.569582398 Y0.237958581
N2695 X0.54828595 Y0.251447291
N2700 X0.542696555 Y0.255671374
N2705 X0.511377139 Y0.282240533
N2710 X0.480269447 Y0.308809712
N2715 X0.459715738 Y0.326799258
N2720 X0.450858694 Y0.335479609
N2725 X0.442001688 Y0.345728792
N2730 X0.406573588 Y0.38715922
N2735 X0.397716582 Y0.39758089
N2740 X0.380002532 Y0.418963958
N2745 X0.376024547 Y0.423942776
N2750 X0.371145526 Y0.43122055
N2755 X0.326746881 Y0.503650275
N2760 X0.321437505 Y0.51250668
N2765 X0.31633516 Y0.521363048
N2770 X0.311723694 Y0.530219454
N2775 X0.309146352 Y0.535823304
N2780 X0.274238061 Y0.620075774
N2785 G3 X0.249151095 Y0.634598995 I-0.022749094 J-0.010367228
N2790 G1 X0.245257369 Y0.634233272 Z-0.4996922
N2795 X0.241459521 Y0.633876555 Z-0.498776403
N2800 X0.237851065 Y0.633537626 Z-0.497275152
N2805 X0.234520853 Y0.633224833 Z-0.495225413
N2810 X0.231550886 Y0.632945876 Z-0.492677656
N2815 X0.229014296 Y0.632707625 Z-0.489694617
N2820 X0.22697354 Y0.632515946 Z-0.486349747
N2825 X0.225478869 Y0.632375559 Z-0.482725409
N2830 X0.224567087 Y0.632289921 Z-0.478910845
N2835 X0.224260645 Y0.632261141 Z-0.474999983
N2840 G0 X0.224260646 Z0.199999997
N2845 X1.785680966 Y0.765365916
N2850 Z-0.450000012
N2855 G1 Z-0.474999983 F10.
N2860 X1.785466249 Y0.765145392 Z-0.478910843
N2865 X1.784827375 Y0.764489254 Z-0.482725406
N2870 X1.783780074 Y0.763413659 Z-0.486349743
N2875 X1.782350136 Y0.761945091 Z-0.489694613
N2880 X1.780572768 Y0.760119711 Z-0.492677652
N2885 X1.778491737 Y0.757982466 Z-0.495225409
N2890 X1.776158285 Y0.755585981 Z-0.497275149
N2895 X1.773629868 Y0.752989266 Z-0.498776401
N2900 X1.770968744 Y0.750256261 Z-0.499692199
N2905 X1.768240441 Y0.74745426 Z-0.499999993
N2910 G3 X1.752840928 Y0.720640543 Z-0.499999992 I0.044640218 J-0.043466298
N2915 G1 X1.736889937 Y0.654208867
N2920 X1.735126916 Y0.64792986
N2925 X1.728508566 Y0.627639725
N2930 X1.72626991 Y0.621302147
N2935 X1.690841885 Y0.535797772
N2940 X1.688275675 Y0.530219454
N2945 X1.683665899 Y0.521363048
N2950 X1.678562765 Y0.51250668
N2955 X1.673127723 Y0.50344576
N2960 X1.628842692 Y0.43120174
N2965 X1.623975649 Y0.423942776
N2970 X1.619985686 Y0.418949765
N2975 X1.602111426 Y0.397373597
N2980 X1.579458132 Y0.370804419
N2985 X1.556718631 Y0.344235278
N2990 X1.549044632 Y0.335378872
N2995 X1.54027248 Y0.326787881
N3000 X1.519730636 Y0.308809712
N3005 X1.493371077 Y0.286296015
N3010 G3 X1.487311416 Y0.257948853 I0.016889948 J-0.018431727
N3015 G1 X1.488862538 Y0.254358746 Z-0.499692202
N3020 X1.490375467 Y0.250857038 Z-0.498776407
N3025 X1.491812949 Y0.247529955 Z-0.497275158
N3030 X1.493139589 Y0.24445942 Z-0.495225419
N3035 X1.494322721 Y0.241721039 Z-0.492677663
N3040 X1.495333213 Y0.239382241 Z-0.489694624
N3045 X1.496146182 Y0.237500615 Z-0.486349754
N3050 X1.496741612 Y0.236122493 Z-0.482725414
N3055 X1.497104841 Y0.235281808 Z-0.478910848
N3060 X1.497226925 Y0.234999263 Z-0.474999983
N3065 G0 Y0.234999262 Z0.199999997
N3070 X0.214308078 Y2.23457802
N3075 Z-0.450000012
N3080 G1 Z-0.474999983 F10.
N3085 X0.214522795 Y2.234798544 Z-0.478910844
N3090 X0.215161662 Y2.235454691 Z-0.482725407
N3095 X0.216208947 Y2.236530302 Z-0.486349745
N3100 X0.217638862 Y2.237998894 Z-0.489694614
N3105 X0.219416199 Y2.239824305 Z-0.492677653
N3110 X0.221497193 Y2.241961587 Z-0.49522541
N3115 X0.223830604 Y2.244358114 Z-0.49727515
N3120 X0.226358975 Y2.246954874 Z-0.498776402
N3125 X0.229020049 Y2.249687927 Z-0.499692199
N3130 X0.231748303 Y2.252489976 Z-0.499999992
N3135 G3 X0.247147196 Y2.279303994 I-0.044641119 J0.043465472
N3140 G1 X0.263107349 Y2.345779299
N3145 X0.264861246 Y2.352031498
N3150 X0.271486936 Y2.372348515
N3155 X0.273718271 Y2.378669348
N3160 X0.309146352 Y2.464175637
N3165 X0.311718494 Y2.469768674
N3170 X0.316328251 Y2.47862508
N3175 X0.321430334 Y2.487481485
N3180 X0.326860383 Y2.496534933
N3185 X0.371145526 Y2.568779592
N3190 X0.376016136 Y2.576045539
N3195 X0.380002532 Y2.581034683
N3200 X0.397878594 Y2.602614455
N3205 X0.420531814 Y2.629183672
N3210 X0.443270901 Y2.655752888
N3215 X0.45094445 Y2.664609293
N3220 X0.459715738 Y2.673200773
N3225 X0.480256006 Y2.69117851
N3230 X0.506533037 Y2.713621245
N3235 G3 X0.512593037 Y2.74196835 I-0.01688976 J0.018431896
N3240 G1 X0.511041965 Y2.74555848 Z-0.499692204
N3245 X0.509529085 Y2.749060209 Z-0.498776411
N3250 X0.508091649 Y2.752387315 Z-0.497275163
N3255 X0.506765052 Y2.755457871 Z-0.495225426
N3260 X0.505581959 Y2.758196272 Z-0.492677671
N3265 X0.504571502 Y2.760535088 Z-0.489694632
N3270 X0.50375856 Y2.762416729 Z-0.48634976
N3275 X0.503163153 Y2.763794864 Z-0.482725419
N3280 X0.50279994 Y2.764635558 Z-0.478910851
N3285 X0.502677865 Y2.76491811 Z-0.474999983
N3290 G0 Z0.199999997
N3295 X1.357313592 Y2.832058884
N3300 Z-0.450000012
N3305 G1 Z-0.474999983 F10.
N3310 X1.357456968 Y2.831786531 Z-0.478910841
N3315 X1.357883581 Y2.830976177 Z-0.482725401
N3320 X1.358582925 Y2.829647775 Z-0.486349737
N3325 X1.359537781 Y2.827834034 Z-0.489694605
N3330 X1.360724636 Y2.825579614 Z-0.492677645
N3335 X1.362114266 Y2.822940026 Z-0.495225402
N3340 X1.363672454 Y2.819980267 Z-0.497275143
N3345 X1.365360832 Y2.816773213 Z-0.498776397
N3350 X1.367137827 Y2.813397835 Z-0.499692197
N3355 X1.368959682 Y2.809937244 Z-0.499999992
N3360 G3 X1.389703075 Y2.787006108 I0.055132738 J0.02902504
N3365 G1 X1.430433378 Y2.762029453
N3370 X1.451702268 Y2.748557564
N3375 X1.457314679 Y2.744316942
N3380 X1.488635446 Y2.717747726
N3385 X1.519744002 Y2.69117851
N3390 X1.54027248 Y2.673212187
N3395 X1.549129486 Y2.664532098
N3400 X1.557986492 Y2.654285281
N3405 X1.593414517 Y2.612854665
N3410 X1.602271673 Y2.602432732
N3415 X1.619985686 Y2.581049101
N3420 X1.623984059 Y2.576045539
N3425 X1.628842692 Y2.568798215
N3430 X1.673260336 Y2.496337891
N3435 X1.678569974 Y2.487481485
N3440 X1.683672958 Y2.47862508
N3445 X1.688280932 Y2.469768674
N3450 X1.690841885 Y2.464201169
N3455 X1.719404656 Y2.395272142
N3460 G3 X1.744491697 Y2.380748959 I0.022749112 J0.010367266
N3465 G1 X1.748385423 Y2.381114674 Z-0.499692199
N3470 X1.752183272 Y2.381471384 Z-0.498776402
N3475 X1.755791729 Y2.381810305 Z-0.49727515
N3480 X1.75912194 Y2.382123091 Z-0.495225411
N3485 X1.762091907 Y2.38240204 Z-0.492677654
N3490 X1.764628497 Y2.382640284 Z-0.489694615
N3495 X1.766669253 Y2.382831956 Z-0.486349745
N3500 X1.768163923 Y2.382972335 Z-0.482725407
N3505 X1.769075705 Y2.383057965 Z-0.478910844
N3510 X1.769382147 Y2.383086738 Z-0.474999983
N3515 G0 X1.769382146 Z0.599999991
(BORE1)
N3520 M9
N3525 G0 X0.978125024 Y1.484375
N3530 Z0.599999991
N3535 Z0.080000003
N3540 G1 Z0.025 F10.
N3545 G18 G2 X1.003125033 Z0. I0.025000009 K0.
N3550 G1 X1.015625
N3555 G17 G3 X1.031250015 Y1.49999994 I0. J0.01562494
N3560 X0.968749961 Z-0.019685039 I-0.03125003 J0.
N3565 X1.031250003 Z-0.039370078 I0.031250024 J0.
N3570 X0.968749973 Z-0.059055117 I-0.031250018 J0.
N3575 X1.03124999 Z-0.078740156 I0.031250012 J0.
N3580 X0.968749986 Z-0.098425195 I-0.031250005 J0.
N3585 X1.031249978 Z-0.118110234 I0.031249999 J0.
N3590 X0.968749998 Z-0.137795273 I-0.031249993 J0.
N3595 X1.031249966 Z-0.157480313 I0.031249987 J0.
N3600 X0.96875001 Z-0.177165352 I-0.031249981 J0.
N3605 X1.031249954 Z-0.196850391 I0.031249975 J0.
N3610 X0.968750023 Z-0.21653543 I-0.031249969 J0.
N3615 X1.031249941 Z-0.236220469 I0.031249962 J0.
N3620 X0.968750035 Z-0.255905508 I-0.031249956 J0.
N3625 X1.031249929 Z-0.275590547 I0.03124995 J0.
N3630 X0.968750047 Z-0.295275586 I-0.031249944 J0.
N3635 X1.031249917 Z-0.314960625 I0.031249938 J0.
N3640 X0.968750059 Z-0.334645664 I-0.031249932 J0.
N3645 X1.031249904 Z-0.354330703 I0.031249925 J0.
N3650 X0.968750072 Z-0.374015742 I-0.031249919 J0.
N3655 X1.031249892 Z-0.393700781 I0.031249913 J0.
N3660 X0.968750084 Z-0.41338582 I-0.031249907 J0.
N3665 X1.03124988 Z-0.433070859 I0.031249901 J0.
N3670 X0.968750096 Z-0.452755898 I-0.031249895 J0.
N3675 X1.031249867 Z-0.472440938 I0.031249889 J0.
N3680 X0.968750109 Z-0.492125977 I-0.031249882 J0.
N3685 X0.990343244 Y1.470279543 Z-0.499999992 I0.031249876 J0.
N3690 X1.009656726 Y1.529720336 I0.009656741 J0.029720397
N3695 X0.990343244 Y1.470279543 I-0.009656741 J-0.029720397
N3700 X1.010031888 Y1.480311296 I0.00482837 J0.014860198
N3705 G1 X1.013894569 Y1.492199485
N3710 X1.015103091 Y1.495918939 Z-0.499692211
N3715 X1.016281855 Y1.499546811 Z-0.498776425
N3720 X1.017401838 Y1.50299377 Z-0.497275182
N3725 X1.018435461 Y1.506174941 Z-0.495225449
N3730 X1.019357272 Y1.509011993 Z-0.492677696
N3735 X1.020144574 Y1.511435067 Z-0.489694657
N3740 X1.02077798 Y1.513384499 Z-0.486349783
N3745 X1.021241895 Y1.514812287 Z-0.482725437
N3750 X1.021524893 Y1.515683274 Z-0.478910861
N3755 X1.021620007 Y1.515976013 Z-0.474999983
N3760 G0 Y1.515976012 Z0.599999991
(DRILL1)
N3765 G0 X0.999999985 Y2.5
N3770 Z0.599999991
N3775 Z0.199999997
N3780 G98 G81 X0.999999985 Y2.5 Z-0.099999998 R0.199999997 F10.123
N3785 Y0.499999992
N3790 G80
N3795 G0 Z0.599999991
(2D CONTOUR1)
N3800 G0 X1.824999982 Y2.150000024
N3805 Z0.599999991
N3810 Z0.199999997
N3815 G1 Z0.039370079 F10.123
N3820 Z-0.475000021
N3825 G18 G3 X1.800000048 Z-0.499999992 I-0.024999934 K0.000000038
N3830 G1 X1.774999964 F10.
N3835 G17 G3 X1.75000003 Y2.12499994 I0. J-0.025000084
N3840 G1 Y0.875000015
N3845 G2 X1.386381585 Y0.232183802 I-0.750001171 J-0.000002027
N3850 X0.999999985 Y0.124999998 I-0.38637747 J0.64281734
N3855 X0.249999996 Y0.875000015 I0. J0.750000017
N3860 G1 Y2.12499994
N3865 G2 X1.75000003 I0.749999989 J0.
N3870 G3 X1.774999964 Y2.100000006 I0.024999934 J0.
N3875 G1 X1.800000048
N3880 G18 G2 X1.824999982 Z-0.475000021 I0. K0.025000009
N3885 G0 Z0.599999991
N3890 G17
N3895 G53 G0 Z0.
N3900 M30
%
