%
(TENON JIG CONTOUR)
(T1  D=0.237 CR=0. - ZMIN=-0.76 - FLAT END MILL)
N10 G90 G94 G17 G91.1
N15 G20
N20 G53 G0 Z0.
(2D CONTOUR1)
N25 M9
N30 T1 M6
N35 S3000 M3
N40 G54
N45 M8
N50 G0 X0.9454 Y1.2112
N55 G43 Z0.6 H1
N60 G0 Z0.2
N65 G1 Z0.0794 F13.123
N70 Z-0.2363
N75 G18 G2 X0.9691 Z-0.26 I0.0237 K0.
N80 G1 X0.9928 F15.
N85 G17 G2 X1.0165 Y1.1875 I0. J-0.0237
N90 G1 Y0.5625
N95 G2 X0.7335 I-0.1415 J0.
N100 G1 Y1.1875
N105 G2 X1.0165 I0.1415 J0.
N110 X0.9928 Y1.1638 I-0.0237 J0.
N115 G1 X0.9691
N120 G18 G3 X0.9454 Z-0.2363 I0. K0.0237
N125 G0 Z0.2
N130 Y1.2112
N135 G1 Z-0.1806 F13.123
N140 Z-0.7363
N145 G2 X0.9691 Z-0.76 I0.0237 K0.
N150 G1 X0.9928 F15.
N155 G17 G2 X1.0165 Y1.1875 I0. J-0.0237
N160 G1 Y0.5625
N165 G2 X0.7335 I-0.1415 J0.
N170 G1 Y1.1875
N175 G2 X1.0165 I0.1415 J0.
N180 X0.9928 Y1.1638 I-0.0237 J0.
N185 G1 X0.9691
N190 G18 G3 X0.9454 Z-0.7363 I0. K0.0237
N195 G0 Z0.6
N200 G17
N205 M9
N210 G53 G0 Z0.
N215 M30
%
