%
(TENON)
(T1  D=0.25 CR=0. - ZMIN=-0.562500015 - FLAT END MILL)
N10 G90 G94 G17 G91.1
N15 G20
N20 G53 G0 Z0.
(2D ADAPTIVE2)
N25 M9
N30 T1 M6
N35 S3000 M3
N40 G54
N45 G0 X0.531979846 Y-0.310722787
N50 G43 Z0.599999991 H1
N55 G0 Z0.199999997
N60 Z-0.099999998
N65 G1 Z-0.149999998 F15.
N70 X0.531941599 Y-0.310573474 Z-0.153922953
N75 X0.531827095 Y-0.310126456 Z-0.157821722
N80 X0.531637039 Y-0.309384489 Z-0.161672268
N85 X0.531372603 Y-0.308352148 Z-0.165450849
N90 X0.531035418 Y-0.307035797 Z-0.169134172
N95 X0.530627563 Y-0.305443553 Z-0.172699525
N100 X0.530151551 Y-0.303585231 Z-0.176124929
N105 X0.529610318 Y-0.301472289 Z-0.179389263
N110 X0.529007201 Y-0.299117755 Z-0.182472403
N115 X0.528345918 Y-0.296536144 Z-0.185355339
N120 X0.527630546 Y-0.293743373 Z-0.188020298
N125 X0.526865495 Y-0.29075666 Z-0.19045085
N130 X0.526055483 Y-0.28759442 Z-0.192632008
N135 X0.525205504 Y-0.284276149 Z-0.194550325
N140 X0.524320797 Y-0.280822305 Z-0.196193976
N145 X0.523406817 Y-0.277254181 Z-0.197552824
N150 X0.5224692 Y-0.273593778 Z-0.198618494
N155 X0.521513726 Y-0.269863662 Z-0.199384415
N160 X0.520546286 Y-0.26608683 Z-0.199845864
N165 X0.519572844 Y-0.262286569 Z-0.199999997
N170 G2 X0.499999992 Y-0.126186778 I0.618284068 J0.158374244
N175 G1 Y-0.120186787 F10.
N180 X0.50276944 Y-0.114864167
N185 X0.506191066 Y-0.109935426
N190 X0.510488382 Y-0.104806264
N195 X0.516205247 Y-0.099000931
N200 X0.523661103 Y-0.092556908
N205 X0.533269897 Y-0.085515751
N210 X0.545597489 Y-0.077922884
N215 X0.561467719 Y-0.069827301
N220 X0.582178071 Y-0.06128123
N225 X0.609993935 Y-0.052339805
N230 X0.645217445 Y-0.044067342
N235 X0.680943361 Y-0.038341317
N240 X0.716904993 Y-0.034355012
N245 X0.752979564 Y-0.031569396
N250 X0.789108802 Y-0.029617888
N255 X0.825264773 Y-0.028248361
N260 X0.861433885 Y-0.027286105
N265 X0.879521633 Y-0.026947774
N270 X0.888545945 Y-0.026329256
N275 X0.906186292 Y-0.02231681
N280 X0.937574792 Y-0.004319725
N285 X0.961548362 Y0.022780008
N290 X0.979339044 Y0.05428593
N295 X0.992335447 Y0.088053106
N300 X1.001731993 Y0.122993574
N305 X1.008476423 Y0.158541315
N310 X1.013292177 Y0.194401309
N315 X1.016717746 Y0.230420687
N320 X1.019147888 Y0.266520883
N325 X1.020868407 Y0.302661854
N330 X1.022084754 Y0.338823326
N335 X1.022943962 Y0.374994991
N340 X1.023550334 Y0.411171838
N345 X1.023978061 Y0.4473512
N350 X1.024279707 Y0.483531839
N355 X1.024492369 Y0.519713116
N360 X1.024642253 Y0.555894732
N365 X1.0248224 Y0.6282583
N370 X1.024937893 Y0.736803971
N375 X1.024996239 Y1.026259144
N380 X1.024999994 Y1.496623933
N385 Y1.514714759
N390 X1.019848501 Y1.532056763
N395 X1.001523536 Y1.56325498
N400 X0.974274057 Y1.58705824
N405 X0.942692193 Y1.60471383
N410 X0.90888564 Y1.617607507
N415 X0.873924841 Y1.626927834
N420 X0.838366531 Y1.63361662
N425 X0.802501168 Y1.63839205
N430 X0.766479012 Y1.641788633
N435 X0.730377483 Y1.64419805
N440 X0.694235779 Y1.64590385
N445 X0.658073951 Y1.647109835
N450 X0.621902098 Y1.647961684
N455 X0.585725214 Y1.648562874
N460 X0.549545776 Y1.648986846
N465 X0.513365137 Y1.649285865
N470 X0.477183823 Y1.649496724
N475 X0.441002245 Y1.649645407
N480 X0.368638639 Y1.649823977
N485 X0.260093006 Y1.649938418
N490 X0.115365409 Y1.649984825
N495 X0.09761325 Y1.646500084
N500 X0.065409245 Y1.630006775
N505 X0.040692138 Y1.603583388
N510 X0.022309352 Y1.572419264
N515 X0.008862066 Y1.538829053
N520 X-0.00086945 Y1.503980441
N525 X-0.007859073 Y1.468480028
N530 X-0.012852248 Y1.432644251
N535 X-0.016405289 Y1.396637263
N540 X-0.018926422 Y1.360543319
N545 X-0.020711706 Y1.32440552
N550 X-0.021974076 Y1.288245644
N555 X-0.022865761 Y1.25207473
N560 X-0.023495149 Y1.215898258
N565 X-0.023939164 Y1.179719084
N570 X-0.024252283 Y1.143538558
N575 X-0.024473038 Y1.107357356
N580 X-0.024628649 Y1.071175778
N585 X-0.02481561 Y0.998812172
N590 X-0.024935498 Y0.890266539
N595 X-0.024988799 Y0.709357074
N600 X-0.024999964 Y0.112355666
N605 X-0.020483702 Y0.094837513
N610 X-0.002879821 Y0.063226857
N615 X0.024041332 Y0.039052869
N620 X0.055456837 Y0.02110305
N625 X0.089177184 Y0.007985567
N630 X0.12409335 Y-0.001500795
N635 X0.15962856 Y-0.008311018
N640 X0.195482134 Y-0.013174323
N645 X0.231498245 Y-0.016634069
N650 X0.267596789 Y-0.019088553
N655 X0.303736935 Y-0.020826412
N660 X0.339897974 Y-0.022055129
N665 X0.375894749 Y-0.018399792
N670 X0.411130087 Y-0.010177859
N675 X0.445798213 Y0.000178473
N680 X0.480266443 Y0.011181648
N685 X0.51482546 Y0.021896285
N690 X0.549629917 Y0.031784747
N695 X0.584765344 Y0.040423748
N700 X0.62021034 Y0.047688728
N705 X0.655896044 Y0.053660306
N710 X0.691755775 Y0.058478051
N715 X0.727734603 Y0.062306561
N720 X0.763791452 Y0.065311855
N725 X0.798289832 Y0.076220284
N730 X0.827648734 Y0.097366947
N735 X0.85129828 Y0.124749978
N740 X0.869755107 Y0.155870332
N745 X0.883885406 Y0.189178966
N750 X0.894569262 Y0.223747501
N755 X0.902574044 Y0.259032831
N760 X0.908530153 Y0.294721127
N765 X0.912938381 Y0.330633479
N770 X0.916187106 Y0.366669227
N775 X0.918573319 Y0.40277237
N780 X0.920321097 Y0.438912046
N785 X0.921598344 Y0.475071396
N790 X0.922529941 Y0.511241297
N795 X0.923208402 Y0.54741683
N800 X0.923701759 Y0.583595366
N805 X0.924060101 Y0.619775517
N810 X0.924320071 Y0.655956494
N815 X0.924508478 Y0.692137921
N820 X0.924743667 Y0.764501301
N825 X0.924903915 Y0.87304686
N830 X0.924986667 Y1.090138278
N835 X0.924999057 Y1.379593526
N840 X0.921722848 Y1.397385334
N845 X0.908748146 Y1.431160874
N850 X0.886079082 Y1.459360949
N855 X0.857652229 Y1.481744961
N860 X0.825882033 Y1.499059182
N865 X0.792183238 Y1.512232052
N870 X0.757384263 Y1.522139752
N875 X0.721965024 Y1.529529301
N880 X0.686200059 Y1.535006095
N885 X0.65024436 Y1.539045619
N890 X0.614184357 Y1.542013574
N895 X0.57806781 Y1.544187501
N900 X0.541920812 Y1.545775857
N905 X0.505757444 Y1.546934233
N910 X0.469585366 Y1.547777221
N915 X0.43340867 Y1.548390126
N920 X0.397229495 Y1.548834973
N925 X0.361049006 Y1.549157571
N930 X0.324867879 Y1.549391409
N935 X0.288686358 Y1.549560517
N940 X0.252504668 Y1.549682918
N945 X0.234501155 Y1.54790638
N950 X0.19987876 Y1.537398241
N955 X0.17052795 Y1.516240338
N960 X0.147080891 Y1.488683656
N965 X0.128874469 Y1.457416204
N970 X0.114986897 Y1.424005614
N975 X0.104522311 Y1.389370115
N980 X0.09670648 Y1.354042414
N985 X0.090907577 Y1.318328287
N990 X0.086627035 Y1.282400447
N995 X0.083479919 Y1.246355688
N1000 X0.081173491 Y1.2102474
N1005 X0.079487543 Y1.174104796
N1010 X0.078257759 Y1.137943793
N1015 X0.077362305 Y1.101772954
N1020 X0.076711262 Y1.065596933
N1025 X0.076238536 Y1.029418134
N1030 X0.075895674 Y0.993237833
N1035 X0.075647244 Y0.957056781
N1040 X0.075467403 Y0.920875354
N1045 X0.075243289 Y0.848511899
N1050 X0.075090987 Y0.739966265
N1055 X0.075012572 Y0.522874885
N1060 X0.075000881 Y0.233419655
N1065 X0.086167037 Y0.199003858
N1070 X0.107637278 Y0.169880691
N1075 X0.135349523 Y0.146617814
N1080 X0.166698741 Y0.128552472
N1085 X0.200151684 Y0.114767298
N1090 X0.234808922 Y0.104374698
N1095 X0.270361769 Y0.097657198
N1100 X0.306477359 Y0.095467802
N1105 X0.342626684 Y0.09700288
N1110 X0.378559405 Y0.101242037
N1115 X0.414237563 Y0.107258511
N1120 X0.449730768 Y0.114284322
N1125 X0.485144037 Y0.121702688
N1130 X0.503983648 Y0.125608332
N1135 X0.507900095 Y0.126282014
N1140 X0.511853338 Y0.126687476
N1145 X0.515824979 Y0.12682283
N1150 X0.522489285
N1155 X0.537482172 Y0.127566396
N1160 X0.552475021 Y0.129201384
N1165 X0.567467907 Y0.132399244
N1170 X0.582460756 Y0.135979427
N1175 X0.617980244 Y0.142871217
N1180 X0.653637038 Y0.149013067
N1185 X0.687481062 Y0.161808119
N1190 X0.71697145 Y0.182771082
N1195 X0.741353223 Y0.209504225
N1200 X0.745544584 Y0.216037758
N1205 X0.748638844 Y0.220406206
N1210 X0.752120581 Y0.224472575
N1215 X0.755960434 Y0.228202643
N1220 G2 X0.826350183 Y0.221473589 I0.031830345 J-0.038559399 F15.
N1225 X0.819621124 Y0.151083835 I-0.038559404 J-0.031830345
N1230 X0.581307899 Y0.114010572 I-0.150379646 J0.182170446
N1235 X0.582460756 Y0.135979427 I0.00432664 J0.010787624
N1240 G1 X0.597453643 Y0.139674953 F10.
N1245 X0.621679824 Y0.145759639
N1250 X0.642432265 Y0.153619502
N1255 X0.657425077 Y0.161171861
N1260 X0.68741085 Y0.17690912
N1265 X0.702403737 Y0.184857845
N1270 X0.711470777 Y0.190708431
N1275 X0.717396548 Y0.19472768
N1280 X0.732389435 Y0.207321006
N1285 X0.76437462 Y0.235657223
N1290 X0.77736802 Y0.248737485
N1295 X0.779212066 Y0.250640141
N1300 X0.791615163 Y0.265623078
N1305 X0.812347592 Y0.295588933
N1310 X0.822346605 Y0.310602845
N1315 X0.831444658 Y0.325554788
N1320 X0.834730554 Y0.331410385
N1325 X0.837339491 Y0.337266021
N1330 X0.84431836 Y0.355520661
N1335 X0.852332378 Y0.376648527
N1340 X0.861077872 Y0.400469435
N1345 X0.864814173 Y0.415452371
N1350 X0.867325265 Y0.429417693
N1355 X0.87292934 Y0.475384081
N1360 X0.874188416 Y0.490367018
N1365 X0.874990253 Y0.505349955
N1370 Y1.119650067
N1375 X0.874188416 Y1.134632967
N1380 X0.87292934 Y1.149615941
N1385 X0.867325265 Y1.195582292
N1390 X0.864814173 Y1.209547614
N1395 X0.861077947 Y1.224530588
N1400 X0.858060807 Y1.23277116
N1405 X0.847335725 Y1.267326986
N1410 X0.836876847 Y1.301964287
N1415 X0.818110714 Y1.332899079
N1420 X0.792898869 Y1.358850885
N1425 X0.790775629 Y1.360846392
N1430 X0.788754666 Y1.362945677
N1435 X0.78684101 Y1.365143033
N1440 G2 X0.799201948 Y1.437589752 I0.039604292 J0.030520582 F15.
N1445 X0.870422754 Y1.419453959 I0.027243354 J-0.041926138
N1450 G1 X0.908789372 Y1.348531528
N1455 X0.9483619 Y1.275379752
N1460 G2 X0.925720937 Y1.206370549 I-0.043977527 J-0.023790269
N1465 X0.858060807 Y1.23277116 I-0.021336565 J0.045218933
N1470 G1 X0.852332378 Y1.248351645 F10.
N1475 X0.84431851 Y1.269479286
N1480 X0.837339491 Y1.287734415
N1485 X0.834730704 Y1.293589825
N1490 X0.831444883 Y1.299445235
N1495 X0.822327907 Y1.314428134
N1500 X0.812347442 Y1.329411034
N1505 X0.791614487 Y1.359376982
N1510 X0.779211014 Y1.374359882
N1515 X0.77736802 Y1.376261373
N1520 X0.764373194 Y1.389342781
N1525 X0.732389435 Y1.417677271
N1530 X0.717396548 Y1.430270428
N1535 X0.711467548 Y1.434291629
N1540 X0.702403737 Y1.440140281
N1545 X0.685153946 Y1.449274529
N1550 X0.656609498 Y1.464257428
N1555 X0.642432265 Y1.471382502
N1560 X0.621687371 Y1.479240327
N1565 X0.597453643 Y1.485326271
N1570 X0.582460756 Y1.489021271
N1575 X0.567467907 Y1.492601079
N1580 X0.552475021 Y1.495798667
N1585 X0.537482172 Y1.49743358
N1590 X0.522489285 Y1.498177145
N1595 X0.4775107
N1600 X0.462517851 Y1.49743358
N1605 X0.447524964 Y1.495798667
N1610 X0.432532115 Y1.492601079
N1615 X0.417539229 Y1.489021271
N1620 X0.40254638 Y1.485326271
N1625 X0.378312652 Y1.479240327
N1630 X0.376572646 Y1.478586873
N1635 X0.342107495 Y1.467573962
N1640 X0.308785814 Y1.45347445
N1645 X0.279917323 Y1.431662942
N1650 X0.270596621 Y1.420969775
N1655 X0.268909218 Y1.419115893
N1660 X0.267143719 Y1.417336201
N1665 X0.26530339 Y1.415633855
N1670 G2 X0.194914003 Y1.422367143 I-0.031828054 J0.038561333 F15.
N1675 X0.2016473 Y1.492756521 I0.038561333 J0.031828045
N1680 X0.378282089 Y1.509016292 I0.100245814 J-0.121452902
N1685 X0.376572646 Y1.478586873 I-0.008210385 J-0.014801476
N1690 G1 X0.357567757 Y1.471382502 F10.
N1695 X0.342574908 Y1.463829401
N1700 X0.312589172 Y1.44809002
N1705 X0.297596304 Y1.440140582
N1710 X0.288532006 Y1.434291629
N1715 X0.282603437 Y1.430270728
N1720 X0.267610569 Y1.417677722
N1725 X0.235625365 Y1.389342781
N1730 X0.222631965 Y1.376262875
N1735 X0.220787469 Y1.374359882
N1740 X0.208383977 Y1.359376982
N1745 X0.187650684 Y1.329411034
N1750 X0.177653361 Y1.31440065
N1755 X0.168553187 Y1.299445235
N1760 X0.165268324 Y1.293592078
N1765 X0.162660494 Y1.28773907
N1770 X0.155680311 Y1.269479286
N1775 X0.147667626 Y1.248352021
N1780 X0.138922714 Y1.224530588
N1785 X0.135186507 Y1.209547614
N1790 X0.132674767 Y1.195576585
N1795 X0.127070795 Y1.149615941
N1800 X0.125811597 Y1.134632967
N1805 X0.12500977 Y1.119650067
N1810 Y0.505349955
N1815 X0.125811597 Y0.490367018
N1820 X0.127070795 Y0.475384081
N1825 X0.132674767 Y0.4294234
N1830 X0.135186507 Y0.415452371
N1835 X0.138922723 Y0.400469435
N1840 X0.141939563 Y0.392228825
N1845 X0.148810439 Y0.370089201
N1850 X0.156726725 Y0.334783952
N1855 X0.172812526 Y0.302374419
N1860 X0.196115032 Y0.274695487
N1865 X0.203471559 Y0.269123926
N1870 X0.206946125 Y0.266275368
N1875 X0.210191133 Y0.263167854
N1880 X0.21318736 Y0.259819782
N1885 G2 X0.200826747 Y0.187373924 I-0.039604574 J-0.030520131 F15.
N1890 X0.129606264 Y0.205507541 I-0.02724396 J0.041925726
N1895 G1 X0.091224242 Y0.276451561
N1900 X0.05163901 Y0.349619558
N1905 G2 X0.074278595 Y0.418630413 I0.043976527 J0.023792109
N1910 X0.141939563 Y0.392228825 I0.021336942 J-0.045218746
N1915 G1 X0.147667626 Y0.376648114 F10.
N1920 X0.155680414 Y0.355520661
N1925 X0.162660494 Y0.337261328
N1930 X0.165268417 Y0.331408058
N1935 X0.168553375 Y0.325554788
N1940 X0.177670276 Y0.31057187
N1945 X0.18765059 Y0.295588933
N1950 X0.208383264 Y0.265623078
N1955 X0.220786436 Y0.250640141
N1960 X0.222631965 Y0.248735984
N1965 X0.235623919 Y0.235657223
N1970 X0.267610569 Y0.207320517
N1975 X0.282603437 Y0.194727361
N1980 X0.288528795 Y0.190708431
N1985 X0.297596304 Y0.184857639
N1990 X0.314844143 Y0.175725494
N1995 X0.343392815 Y0.160742576
N2000 X0.357567757 Y0.153619502
N2005 X0.378320161 Y0.145759639
N2010 X0.40254638 Y0.139674953
N2015 X0.417539229 Y0.135979427
N2020 X0.432532115 Y0.132399244
N2025 X0.447524964 Y0.129201384
N2030 X0.462517851 Y0.127566396
N2035 X0.4775107 Y0.12682283
N2040 X0.515824979
N2045 X0.518361461 Y0.126413103 Z-0.199890332 F15.
N2050 X0.520880175 Y0.126006246 Z-0.199567538
N2055 X0.523363697 Y0.125605074 Z-0.199033849
N2060 X0.525794849 Y0.125212361 Z-0.198292956
N2065 X0.528156814 Y0.124830824 Z-0.197349984
N2070 X0.53038192 Y0.123862035 Z-0.196139442
N2075 X0.532501263 Y0.122939294 Z-0.194720993
N2080 X0.534498554 Y0.122069694 Z-0.193105541
N2085 X0.536358441 Y0.121259917 Z-0.191305502
N2090 X0.538066631 Y0.120516189 Z-0.189334711
N2095 X0.539609992 Y0.119844224 Z-0.187208314
N2100 X0.540868553 Y0.118993127 Z-0.184897163
N2105 X0.541951021 Y0.118261112 Z-0.182459504
N2110 X0.542848737 Y0.117654035 Z-0.179914837
N2115 X0.543554519 Y0.117176753 Z-0.177283518
N2120 X0.544062722 Y0.116833084 Z-0.174586595
N2125 X0.54436928 Y0.116625776 Z-0.171845644
N2130 X0.544471741 Y0.116556489 Z-0.169082589
N2135 G0 Z0.199999997
N2140 X0.531979846 Y-0.310722787
N2145 Z-0.299999995
N2150 G1 Z-0.350000014 F15.
N2155 X0.531941599 Y-0.310573473 Z-0.353922969
N2160 X0.531827094 Y-0.310126454 Z-0.357821738
N2165 X0.531637038 Y-0.309384486 Z-0.361672283
N2170 X0.531372602 Y-0.308352144 Z-0.365450864
N2175 X0.531035417 Y-0.307035793 Z-0.369134186
N2180 X0.530627561 Y-0.305443548 Z-0.372699538
N2185 X0.53015155 Y-0.303585226 Z-0.376124941
N2190 X0.529610317 Y-0.301472284 Z-0.379389274
N2195 X0.529007199 Y-0.299117749 Z-0.382472413
N2200 X0.528345916 Y-0.296536138 Z-0.385355348
N2205 X0.527630544 Y-0.293743366 Z-0.388020306
N2210 X0.526865494 Y-0.290756654 Z-0.390450856
N2215 X0.526055482 Y-0.287594414 Z-0.392632013
N2220 X0.525205502 Y-0.284276143 Z-0.39455033
N2225 X0.524320796 Y-0.280822299 Z-0.396193978
N2230 X0.523406816 Y-0.277254177 Z-0.397552826
N2235 X0.522469199 Y-0.273593774 Z-0.398618494
N2240 X0.521513725 Y-0.269863659 Z-0.399384414
N2245 X0.520546285 Y-0.266086829 Z-0.399845862
N2250 X0.519572844 Y-0.262286569 Z-0.399999994
N2255 G2 X0.499999992 Y-0.126186778 I0.618284068 J0.158374244
N2260 G1 Y-0.120186787 F10.
N2265 X0.50276944 Y-0.114864167
N2270 X0.506191066 Y-0.109935426
N2275 X0.510488382 Y-0.104806264
N2280 X0.516205247 Y-0.099000931
N2285 X0.523661103 Y-0.092556908
N2290 X0.533269897 Y-0.085515751
N2295 X0.545597489 Y-0.077922884
N2300 X0.561467719 Y-0.069827301
N2305 X0.582178071 Y-0.06128123
N2310 X0.609993935 Y-0.052339805
N2315 X0.645217445 Y-0.044067342
N2320 X0.680943361 Y-0.038341317
N2325 X0.716904993 Y-0.034355012
N2330 X0.752979564 Y-0.031569396
N2335 X0.789108802 Y-0.029617888
N2340 X0.825264773 Y-0.028248361
N2345 X0.861433885 Y-0.027286105
N2350 X0.879521633 Y-0.026947774
N2355 X0.888545945 Y-0.026329256
N2360 X0.906186292 Y-0.02231681
N2365 X0.937574792 Y-0.004319725
N2370 X0.961548362 Y0.022780008
N2375 X0.979339044 Y0.05428593
N2380 X0.992335447 Y0.088053106
N2385 X1.001731993 Y0.122993574
N2390 X1.008476423 Y0.158541315
N2395 X1.013292177 Y0.194401309
N2400 X1.016717746 Y0.230420687
N2405 X1.019147888 Y0.266520883
N2410 X1.020868407 Y0.302661854
N2415 X1.022084754 Y0.338823326
N2420 X1.022943962 Y0.374994991
N2425 X1.023550334 Y0.411171838
N2430 X1.023978061 Y0.4473512
N2435 X1.024279707 Y0.483531839
N2440 X1.024492369 Y0.519713116
N2445 X1.024642253 Y0.555894732
N2450 X1.0248224 Y0.6282583
N2455 X1.024937893 Y0.736803971
N2460 X1.024996239 Y1.026259144
N2465 X1.024999994 Y1.496623933
N2470 Y1.514714759
N2475 X1.019848501 Y1.532056763
N2480 X1.001523536 Y1.56325498
N2485 X0.974274057 Y1.58705824
N2490 X0.942692193 Y1.60471383
N2495 X0.90888564 Y1.617607507
N2500 X0.873924841 Y1.626927834
N2505 X0.838366531 Y1.63361662
N2510 X0.802501168 Y1.63839205
N2515 X0.766479012 Y1.641788633
N2520 X0.730377483 Y1.64419805
N2525 X0.694235779 Y1.64590385
N2530 X0.658073951 Y1.647109835
N2535 X0.621902098 Y1.647961684
N2540 X0.585725214 Y1.648562874
N2545 X0.549545776 Y1.648986846
N2550 X0.513365137 Y1.649285865
N2555 X0.477183823 Y1.649496724
N2560 X0.441002245 Y1.649645407
N2565 X0.368638639 Y1.649823977
N2570 X0.260093006 Y1.649938418
N2575 X0.115365409 Y1.649984825
N2580 X0.09761325 Y1.646500084
N2585 X0.065409245 Y1.630006775
N2590 X0.040692138 Y1.603583388
N2595 X0.022309352 Y1.572419264
N2600 X0.008862066 Y1.538829053
N2605 X-0.00086945 Y1.503980441
N2610 X-0.007859073 Y1.468480028
N2615 X-0.012852248 Y1.432644251
N2620 X-0.016405289 Y1.396637263
N2625 X-0.018926422 Y1.360543319
N2630 X-0.020711706 Y1.32440552
N2635 X-0.021974076 Y1.288245644
N2640 X-0.022865761 Y1.25207473
N2645 X-0.023495149 Y1.215898258
N2650 X-0.023939164 Y1.179719084
N2655 X-0.024252283 Y1.143538558
N2660 X-0.024473038 Y1.107357356
N2665 X-0.024628649 Y1.071175778
N2670 X-0.02481561 Y0.998812172
N2675 X-0.024935498 Y0.890266539
N2680 X-0.024988799 Y0.709357074
N2685 X-0.024999964 Y0.112355666
N2690 X-0.020483702 Y0.094837513
N2695 X-0.002879821 Y0.063226857
N2700 X0.024041332 Y0.039052869
N2705 X0.055456837 Y0.02110305
N2710 X0.089177184 Y0.007985567
N2715 X0.12409335 Y-0.001500795
N2720 X0.15962856 Y-0.008311018
N2725 X0.195482134 Y-0.013174323
N2730 X0.231498245 Y-0.016634069
N2735 X0.267596789 Y-0.019088553
N2740 X0.303736935 Y-0.020826412
N2745 X0.339897974 Y-0.022055129
N2750 X0.375894749 Y-0.018399792
N2755 X0.411130087 Y-0.010177859
N2760 X0.445798213 Y0.000178473
N2765 X0.480266443 Y0.011181648
N2770 X0.51482546 Y0.021896285
N2775 X0.549629917 Y0.031784747
N2780 X0.584765344 Y0.040423748
N2785 X0.62021034 Y0.047688728
N2790 X0.655896044 Y0.053660306
N2795 X0.691755775 Y0.058478051
N2800 X0.727734603 Y0.062306561
N2805 X0.763791452 Y0.065311855
N2810 X0.798289832 Y0.076220284
N2815 X0.827648734 Y0.097366947
N2820 X0.85129828 Y0.124749978
N2825 X0.869755107 Y0.155870332
N2830 X0.883885406 Y0.189178966
N2835 X0.894569262 Y0.223747501
N2840 X0.902574044 Y0.259032831
N2845 X0.908530153 Y0.294721127
N2850 X0.912938381 Y0.330633479
N2855 X0.916187106 Y0.366669227
N2860 X0.918573319 Y0.40277237
N2865 X0.920321097 Y0.438912046
N2870 X0.921598344 Y0.475071396
N2875 X0.922529941 Y0.511241297
N2880 X0.923208402 Y0.54741683
N2885 X0.923701759 Y0.583595366
N2890 X0.924060101 Y0.619775517
N2895 X0.924320071 Y0.655956494
N2900 X0.924508478 Y0.692137921
N2905 X0.924743667 Y0.764501301
N2910 X0.924903915 Y0.87304686
N2915 X0.924986667 Y1.090138278
N2920 X0.924999057 Y1.379593526
N2925 X0.921722848 Y1.397385334
N2930 X0.908748146 Y1.431160874
N2935 X0.886079082 Y1.459360949
N2940 X0.857652229 Y1.481744961
N2945 X0.825882033 Y1.499059182
N2950 X0.792183238 Y1.512232052
N2955 X0.757384263 Y1.522139752
N2960 X0.721965024 Y1.529529301
N2965 X0.686200059 Y1.535006095
N2970 X0.65024436 Y1.539045619
N2975 X0.614184357 Y1.542013574
N2980 X0.57806781 Y1.544187501
N2985 X0.541920812 Y1.545775857
N2990 X0.505757444 Y1.546934233
N2995 X0.469585366 Y1.547777221
N3000 X0.43340867 Y1.548390126
N3005 X0.397229495 Y1.548834973
N3010 X0.361049006 Y1.549157571
N3015 X0.324867879 Y1.549391409
N3020 X0.288686358 Y1.549560517
N3025 X0.252504668 Y1.549682918
N3030 X0.234501155 Y1.54790638
N3035 X0.19987876 Y1.537398241
N3040 X0.17052795 Y1.516240338
N3045 X0.147080891 Y1.488683656
N3050 X0.128874469 Y1.457416204
N3055 X0.114986897 Y1.424005614
N3060 X0.104522311 Y1.389370115
N3065 X0.09670648 Y1.354042414
N3070 X0.090907577 Y1.318328287
N3075 X0.086627035 Y1.282400447
N3080 X0.083479919 Y1.246355688
N3085 X0.081173491 Y1.2102474
N3090 X0.079487543 Y1.174104796
N3095 X0.078257759 Y1.137943793
N3100 X0.077362305 Y1.101772954
N3105 X0.076711262 Y1.065596933
N3110 X0.076238536 Y1.029418134
N3115 X0.075895674 Y0.993237833
N3120 X0.075647244 Y0.957056781
N3125 X0.075467403 Y0.920875354
N3130 X0.075243289 Y0.848511899
N3135 X0.075090987 Y0.739966265
N3140 X0.075012572 Y0.522874885
N3145 X0.075000881 Y0.233419655
N3150 X0.086167037 Y0.199003858
N3155 X0.107637278 Y0.169880691
N3160 X0.135349523 Y0.146617814
N3165 X0.166698741 Y0.128552472
N3170 X0.200151684 Y0.114767298
N3175 X0.234808922 Y0.104374698
N3180 X0.270361769 Y0.097657198
N3185 X0.306477359 Y0.095467802
N3190 X0.342626684 Y0.09700288
N3195 X0.378559405 Y0.101242037
N3200 X0.414237563 Y0.107258511
N3205 X0.449730768 Y0.114284322
N3210 X0.485144037 Y0.121702688
N3215 X0.503983648 Y0.125608332
N3220 X0.507900095 Y0.126282014
N3225 X0.511853338 Y0.126687476
N3230 X0.515824979 Y0.12682283
N3235 X0.522489285
N3240 X0.537482172 Y0.127566396
N3245 X0.552475021 Y0.129201384
N3250 X0.567467907 Y0.132399244
N3255 X0.582460756 Y0.135979427
N3260 X0.617980244 Y0.142871217
N3265 X0.653637038 Y0.149013067
N3270 X0.687481062 Y0.161808119
N3275 X0.71697145 Y0.182771082
N3280 X0.741353223 Y0.209504225
N3285 X0.745544584 Y0.216037758
N3290 X0.748638844 Y0.220406206
N3295 X0.752120581 Y0.224472575
N3300 X0.755960434 Y0.228202643
N3305 G2 X0.826350183 Y0.221473589 I0.031830345 J-0.038559399 F15.
N3310 X0.819621124 Y0.151083835 I-0.038559404 J-0.031830345
N3315 X0.581307899 Y0.114010572 I-0.150379646 J0.182170446
N3320 X0.582460756 Y0.135979427 I0.00432664 J0.010787624
N3325 G1 X0.597453643 Y0.139674953 F10.
N3330 X0.621679824 Y0.145759639
N3335 X0.642432265 Y0.153619502
N3340 X0.657425077 Y0.161171861
N3345 X0.68741085 Y0.17690912
N3350 X0.702403737 Y0.184857845
N3355 X0.711470777 Y0.190708431
N3360 X0.717396548 Y0.19472768
N3365 X0.732389435 Y0.207321006
N3370 X0.76437462 Y0.235657223
N3375 X0.77736802 Y0.248737485
N3380 X0.779212066 Y0.250640141
N3385 X0.791615163 Y0.265623078
N3390 X0.812347592 Y0.295588933
N3395 X0.822346605 Y0.310602845
N3400 X0.831444658 Y0.325554788
N3405 X0.834730554 Y0.331410385
N3410 X0.837339491 Y0.337266021
N3415 X0.84431836 Y0.355520661
N3420 X0.852332378 Y0.376648527
N3425 X0.861077872 Y0.400469435
N3430 X0.864814173 Y0.415452371
N3435 X0.867325265 Y0.429417693
N3440 X0.87292934 Y0.475384081
N3445 X0.874188416 Y0.490367018
N3450 X0.874990253 Y0.505349955
N3455 Y1.119650067
N3460 X0.874188416 Y1.134632967
N3465 X0.87292934 Y1.149615941
N3470 X0.867325265 Y1.195582292
N3475 X0.864814173 Y1.209547614
N3480 X0.861077947 Y1.224530588
N3485 X0.858060807 Y1.23277116
N3490 X0.847335725 Y1.267326986
N3495 X0.836876847 Y1.301964287
N3500 X0.818110714 Y1.332899079
N3505 X0.792898869 Y1.358850885
N3510 X0.790775629 Y1.360846392
N3515 X0.788754666 Y1.362945677
N3520 X0.78684101 Y1.365143033
N3525 G2 X0.799201948 Y1.437589752 I0.039604292 J0.030520582 F15.
N3530 X0.870422754 Y1.419453959 I0.027243354 J-0.041926138
N3535 G1 X0.908789372 Y1.348531528
N3540 X0.9483619 Y1.275379752
N3545 G2 X0.925720937 Y1.206370549 I-0.043977527 J-0.023790269
N3550 X0.858060807 Y1.23277116 I-0.021336565 J0.045218933
N3555 G1 X0.852332378 Y1.248351645 F10.
N3560 X0.84431851 Y1.269479286
N3565 X0.837339491 Y1.287734415
N3570 X0.834730704 Y1.293589825
N3575 X0.831444883 Y1.299445235
N3580 X0.822327907 Y1.314428134
N3585 X0.812347442 Y1.329411034
N3590 X0.791614487 Y1.359376982
N3595 X0.779211014 Y1.374359882
N3600 X0.77736802 Y1.376261373
N3605 X0.764373194 Y1.389342781
N3610 X0.732389435 Y1.417677271
N3615 X0.717396548 Y1.430270428
N3620 X0.711467548 Y1.434291629
N3625 X0.702403737 Y1.440140281
N3630 X0.685153946 Y1.449274529
N3635 X0.656609498 Y1.464257428
N3640 X0.642432265 Y1.471382502
N3645 X0.621687371 Y1.479240327
N3650 X0.597453643 Y1.485326271
N3655 X0.582460756 Y1.489021271
N3660 X0.567467907 Y1.492601079
N3665 X0.552475021 Y1.495798667
N3670 X0.537482172 Y1.49743358
N3675 X0.522489285 Y1.498177145
N3680 X0.4775107
N3685 X0.462517851 Y1.49743358
N3690 X0.447524964 Y1.495798667
N3695 X0.432532115 Y1.492601079
N3700 X0.417539229 Y1.489021271
N3705 X0.40254638 Y1.485326271
N3710 X0.378312652 Y1.479240327
N3715 X0.376572646 Y1.478586873
N3720 X0.342107495 Y1.467573962
N3725 X0.308785814 Y1.45347445
N3730 X0.279917323 Y1.431662942
N3735 X0.270596621 Y1.420969775
N3740 X0.268909218 Y1.419115893
N3745 X0.267143719 Y1.417336201
N3750 X0.26530339 Y1.415633855
N3755 G2 X0.194914003 Y1.422367143 I-0.031828054 J0.038561333 F15.
N3760 X0.2016473 Y1.492756521 I0.038561333 J0.031828045
N3765 X0.378282089 Y1.509016292 I0.100245814 J-0.121452902
N3770 X0.376572646 Y1.478586873 I-0.008210385 J-0.014801476
N3775 G1 X0.357567757 Y1.471382502 F10.
N3780 X0.342574908 Y1.463829401
N3785 X0.312589172 Y1.44809002
N3790 X0.297596304 Y1.440140582
N3795 X0.288532006 Y1.434291629
N3800 X0.282603437 Y1.430270728
N3805 X0.267610569 Y1.417677722
N3810 X0.235625365 Y1.389342781
N3815 X0.222631965 Y1.376262875
N3820 X0.220787469 Y1.374359882
N3825 X0.208383977 Y1.359376982
N3830 X0.187650684 Y1.329411034
N3835 X0.177653361 Y1.31440065
N3840 X0.168553187 Y1.299445235
N3845 X0.165268324 Y1.293592078
N3850 X0.162660494 Y1.28773907
N3855 X0.155680311 Y1.269479286
N3860 X0.147667626 Y1.248352021
N3865 X0.138922714 Y1.224530588
N3870 X0.135186507 Y1.209547614
N3875 X0.132674767 Y1.195576585
N3880 X0.127070795 Y1.149615941
N3885 X0.125811597 Y1.134632967
N3890 X0.12500977 Y1.119650067
N3895 Y0.505349955
N3900 X0.125811597 Y0.490367018
N3905 X0.127070795 Y0.475384081
N3910 X0.132674767 Y0.4294234
N3915 X0.135186507 Y0.415452371
N3920 X0.138922723 Y0.400469435
N3925 X0.141939563 Y0.392228825
N3930 X0.148810439 Y0.370089201
N3935 X0.156726725 Y0.334783952
N3940 X0.172812526 Y0.302374419
N3945 X0.196115032 Y0.274695487
N3950 X0.203471559 Y0.269123926
N3955 X0.206946125 Y0.266275368
N3960 X0.210191133 Y0.263167854
N3965 X0.21318736 Y0.259819782
N3970 G2 X0.200826747 Y0.187373924 I-0.039604574 J-0.030520131 F15.
N3975 X0.129606264 Y0.205507541 I-0.02724396 J0.041925726
N3980 G1 X0.091224242 Y0.276451561
N3985 X0.05163901 Y0.349619558
N3990 G2 X0.074278595 Y0.418630413 I0.043976527 J0.023792109
N3995 X0.141939563 Y0.392228825 I0.021336942 J-0.045218746
N4000 G1 X0.147667626 Y0.376648114 F10.
N4005 X0.155680414 Y0.355520661
N4010 X0.162660494 Y0.337261328
N4015 X0.165268417 Y0.331408058
N4020 X0.168553375 Y0.325554788
N4025 X0.177670276 Y0.31057187
N4030 X0.18765059 Y0.295588933
N4035 X0.208383264 Y0.265623078
N4040 X0.220786436 Y0.250640141
N4045 X0.222631965 Y0.248735984
N4050 X0.235623919 Y0.235657223
N4055 X0.267610569 Y0.207320517
N4060 X0.282603437 Y0.194727361
N4065 X0.288528795 Y0.190708431
N4070 X0.297596304 Y0.184857639
N4075 X0.314844143 Y0.175725494
N4080 X0.343392815 Y0.160742576
N4085 X0.357567757 Y0.153619502
N4090 X0.378320161 Y0.145759639
N4095 X0.40254638 Y0.139674953
N4100 X0.417539229 Y0.135979427
N4105 X0.432532115 Y0.132399244
N4110 X0.447524964 Y0.129201384
N4115 X0.462517851 Y0.127566396
N4120 X0.4775107 Y0.12682283
N4125 X0.515824979
N4130 X0.518361461 Y0.126413103 Z-0.399890329 F15.
N4135 X0.520880175 Y0.126006246 Z-0.399567535
N4140 X0.523363697 Y0.125605074 Z-0.399033846
N4145 X0.525794849 Y0.125212361 Z-0.398292953
N4150 X0.528156814 Y0.124830824 Z-0.397349981
N4155 X0.530381921 Y0.123862035 Z-0.396139436
N4160 X0.532501265 Y0.122939293 Z-0.394720985
N4165 X0.534498556 Y0.122069693 Z-0.393105529
N4170 X0.536358443 Y0.121259916 Z-0.391305487
N4175 X0.538066632 Y0.120516188 Z-0.389334692
N4180 X0.539609992 Y0.119844224 Z-0.387208293
N4185 X0.540868552 Y0.118993128 Z-0.384897144
N4190 X0.541951019 Y0.118261113 Z-0.382459488
N4195 X0.542848735 Y0.117654037 Z-0.379914824
N4200 X0.543554517 Y0.117176755 Z-0.377283507
N4205 X0.54406272 Y0.116833085 Z-0.374586587
N4210 X0.544369279 Y0.116625777 Z-0.371845638
N4215 X0.544471741 Y0.116556489 Z-0.369082586
N4220 G0 Z0.199999997
N4225 X0.531979846 Y-0.310722787
N4230 Z-0.462500017
N4235 G1 Z-0.512499997 F15.
N4240 X0.5319416 Y-0.310573474 Z-0.516422952
N4245 X0.531827095 Y-0.310126457 Z-0.520321722
N4250 X0.53163704 Y-0.309384491 Z-0.524172267
N4255 X0.531372604 Y-0.308352151 Z-0.52795085
N4260 X0.531035419 Y-0.307035801 Z-0.531634173
N4265 X0.530627564 Y-0.305443558 Z-0.535199527
N4270 X0.530151552 Y-0.303585236 Z-0.538624931
N4275 X0.52961032 Y-0.301472295 Z-0.541889267
N4280 X0.529007202 Y-0.299117761 Z-0.544972408
N4285 X0.528345919 Y-0.29653615 Z-0.547855345
N4290 X0.527630547 Y-0.293743379 Z-0.550520305
N4295 X0.526865497 Y-0.290756667 Z-0.552950858
N4300 X0.526055485 Y-0.287594427 Z-0.555132017
N4305 X0.525205505 Y-0.284276155 Z-0.557050336
N4310 X0.524320798 Y-0.28082231 Z-0.558693988
N4315 X0.523406819 Y-0.277254186 Z-0.560052838
N4320 X0.522469201 Y-0.273593781 Z-0.561118509
N4325 X0.521513727 Y-0.269863664 Z-0.561884431
N4330 X0.520546286 Y-0.266086832 Z-0.562345881
N4335 X0.519572844 Y-0.262286569 Z-0.562500015
N4340 G2 X0.499999992 Y-0.126186778 I0.618284068 J0.158374244
N4345 G1 Y-0.120186787 F10.
N4350 X0.50276944 Y-0.114864167
N4355 X0.506191066 Y-0.109935426
N4360 X0.510488382 Y-0.104806264
N4365 X0.516205247 Y-0.099000931
N4370 X0.523661103 Y-0.092556908
N4375 X0.533269897 Y-0.085515751
N4380 X0.545597489 Y-0.077922884
N4385 X0.561467719 Y-0.069827301
N4390 X0.582178071 Y-0.06128123
N4395 X0.609993935 Y-0.052339805
N4400 X0.645217445 Y-0.044067342
N4405 X0.680943361 Y-0.038341317
N4410 X0.716904993 Y-0.034355012
N4415 X0.752979564 Y-0.031569396
N4420 X0.789108802 Y-0.029617888
N4425 X0.825264773 Y-0.028248361
N4430 X0.861433885 Y-0.027286105
N4435 X0.879521633 Y-0.026947774
N4440 X0.888545945 Y-0.026329256
N4445 X0.906186292 Y-0.02231681
N4450 X0.937574792 Y-0.004319725
N4455 X0.961548362 Y0.022780008
N4460 X0.979339044 Y0.05428593
N4465 X0.992335447 Y0.088053106
N4470 X1.001731993 Y0.122993574
N4475 X1.008476423 Y0.158541315
N4480 X1.013292177 Y0.194401309
N4485 X1.016717746 Y0.230420687
N4490 X1.019147888 Y0.266520883
N4495 X1.020868407 Y0.302661854
N4500 X1.022084754 Y0.338823326
N4505 X1.022943962 Y0.374994991
N4510 X1.023550334 Y0.411171838
N4515 X1.023978061 Y0.4473512
N4520 X1.024279707 Y0.483531839
N4525 X1.024492369 Y0.519713116
N4530 X1.024642253 Y0.555894732
N4535 X1.0248224 Y0.6282583
N4540 X1.024937893 Y0.736803971
N4545 X1.024996239 Y1.026259144
N4550 X1.024999994 Y1.496623933
N4555 Y1.514714759
N4560 X1.019848501 Y1.532056763
N4565 X1.001523536 Y1.56325498
N4570 X0.974274057 Y1.58705824
N4575 X0.942692193 Y1.60471383
N4580 X0.90888564 Y1.617607507
N4585 X0.873924841 Y1.626927834
N4590 X0.838366531 Y1.63361662
N4595 X0.802501168 Y1.63839205
N4600 X0.766479012 Y1.641788633
N4605 X0.730377483 Y1.64419805
N4610 X0.694235779 Y1.64590385
N4615 X0.658073951 Y1.647109835
N4620 X0.621902098 Y1.647961684
N4625 X0.585725214 Y1.648562874
N4630 X0.549545776 Y1.648986846
N4635 X0.513365137 Y1.649285865
N4640 X0.477183823 Y1.649496724
N4645 X0.441002245 Y1.649645407
N4650 X0.368638639 Y1.649823977
N4655 X0.260093006 Y1.649938418
N4660 X0.115365409 Y1.649984825
N4665 X0.09761325 Y1.646500084
N4670 X0.065409245 Y1.630006775
N4675 X0.040692138 Y1.603583388
N4680 X0.022309352 Y1.572419264
N4685 X0.008862066 Y1.538829053
N4690 X-0.00086945 Y1.503980441
N4695 X-0.007859073 Y1.468480028
N4700 X-0.012852248 Y1.432644251
N4705 X-0.016405289 Y1.396637263
N4710 X-0.018926422 Y1.360543319
N4715 X-0.020711706 Y1.32440552
N4720 X-0.021974076 Y1.288245644
N4725 X-0.022865761 Y1.25207473
N4730 X-0.023495149 Y1.215898258
N4735 X-0.023939164 Y1.179719084
N4740 X-0.024252283 Y1.143538558
N4745 X-0.024473038 Y1.107357356
N4750 X-0.024628649 Y1.071175778
N4755 X-0.02481561 Y0.998812172
N4760 X-0.024935498 Y0.890266539
N4765 X-0.024988799 Y0.709357074
N4770 X-0.024999964 Y0.112355666
N4775 X-0.020483702 Y0.094837513
N4780 X-0.002879821 Y0.063226857
N4785 X0.024041332 Y0.039052869
N4790 X0.055456837 Y0.02110305
N4795 X0.089177184 Y0.007985567
N4800 X0.12409335 Y-0.001500795
N4805 X0.15962856 Y-0.008311018
N4810 X0.195482134 Y-0.013174323
N4815 X0.231498245 Y-0.016634069
N4820 X0.267596789 Y-0.019088553
N4825 X0.303736935 Y-0.020826412
N4830 X0.339897974 Y-0.022055129
N4835 X0.375894749 Y-0.018399792
N4840 X0.411130087 Y-0.010177859
N4845 X0.445798213 Y0.000178473
N4850 X0.480266443 Y0.011181648
N4855 X0.51482546 Y0.021896285
N4860 X0.549629917 Y0.031784747
N4865 X0.584765344 Y0.040423748
N4870 X0.62021034 Y0.047688728
N4875 X0.655896044 Y0.053660306
N4880 X0.691755775 Y0.058478051
N4885 X0.727734603 Y0.062306561
N4890 X0.763791452 Y0.065311855
N4895 X0.798289832 Y0.076220284
N4900 X0.827648734 Y0.097366947
N4905 X0.85129828 Y0.124749978
N4910 X0.869755107 Y0.155870332
N4915 X0.883885406 Y0.189178966
N4920 X0.894569262 Y0.223747501
N4925 X0.902574044 Y0.259032831
N4930 X0.908530153 Y0.294721127
N4935 X0.912938381 Y0.330633479
N4940 X0.916187106 Y0.366669227
N4945 X0.918573319 Y0.40277237
N4950 X0.920321097 Y0.438912046
N4955 X0.921598344 Y0.475071396
N4960 X0.922529941 Y0.511241297
N4965 X0.923208402 Y0.54741683
N4970 X0.923701759 Y0.583595366
N4975 X0.924060101 Y0.619775517
N4980 X0.924320071 Y0.655956494
N4985 X0.924508478 Y0.692137921
N4990 X0.924743667 Y0.764501301
N4995 X0.924903915 Y0.87304686
N5000 X0.924986667 Y1.090138278
N5005 X0.924999057 Y1.379593526
N5010 X0.921722848 Y1.397385334
N5015 X0.908748146 Y1.431160874
N5020 X0.886079082 Y1.459360949
N5025 X0.857652229 Y1.481744961
N5030 X0.825882033 Y1.499059182
N5035 X0.792183238 Y1.512232052
N5040 X0.757384263 Y1.522139752
N5045 X0.721965024 Y1.529529301
N5050 X0.686200059 Y1.535006095
N5055 X0.65024436 Y1.539045619
N5060 X0.614184357 Y1.542013574
N5065 X0.57806781 Y1.544187501
N5070 X0.541920812 Y1.545775857
N5075 X0.505757444 Y1.546934233
N5080 X0.469585366 Y1.547777221
N5085 X0.43340867 Y1.548390126
N5090 X0.397229495 Y1.548834973
N5095 X0.361049006 Y1.549157571
N5100 X0.324867879 Y1.549391409
N5105 X0.288686358 Y1.549560517
N5110 X0.252504668 Y1.549682918
N5115 X0.234501155 Y1.54790638
N5120 X0.19987876 Y1.537398241
N5125 X0.17052795 Y1.516240338
N5130 X0.147080891 Y1.488683656
N5135 X0.128874469 Y1.457416204
N5140 X0.114986897 Y1.424005614
N5145 X0.104522311 Y1.389370115
N5150 X0.09670648 Y1.354042414
N5155 X0.090907577 Y1.318328287
N5160 X0.086627035 Y1.282400447
N5165 X0.083479919 Y1.246355688
N5170 X0.081173491 Y1.2102474
N5175 X0.079487543 Y1.174104796
N5180 X0.078257759 Y1.137943793
N5185 X0.077362305 Y1.101772954
N5190 X0.076711262 Y1.065596933
N5195 X0.076238536 Y1.029418134
N5200 X0.075895674 Y0.993237833
N5205 X0.075647244 Y0.957056781
N5210 X0.075467403 Y0.920875354
N5215 X0.075243289 Y0.848511899
N5220 X0.075090987 Y0.739966265
N5225 X0.075012572 Y0.522874885
N5230 X0.075000881 Y0.233419655
N5235 X0.086167037 Y0.199003858
N5240 X0.107637278 Y0.169880691
N5245 X0.135349523 Y0.146617814
N5250 X0.166698741 Y0.128552472
N5255 X0.200151684 Y0.114767298
N5260 X0.234808922 Y0.104374698
N5265 X0.270361769 Y0.097657198
N5270 X0.306477359 Y0.095467802
N5275 X0.342626684 Y0.09700288
N5280 X0.378559405 Y0.101242037
N5285 X0.414237563 Y0.107258511
N5290 X0.449730768 Y0.114284322
N5295 X0.485144037 Y0.121702688
N5300 X0.503983648 Y0.125608332
N5305 X0.507900095 Y0.126282014
N5310 X0.511853338 Y0.126687476
N5315 X0.515824979 Y0.12682283
N5320 X0.522489285
N5325 X0.537482172 Y0.127566396
N5330 X0.552475021 Y0.129201384
N5335 X0.567467907 Y0.132399244
N5340 X0.582460756 Y0.135979427
N5345 X0.617980244 Y0.142871217
N5350 X0.653637038 Y0.149013067
N5355 X0.687481062 Y0.161808119
N5360 X0.71697145 Y0.182771082
N5365 X0.741353223 Y0.209504225
N5370 X0.745544584 Y0.216037758
N5375 X0.748638844 Y0.220406206
N5380 X0.752120581 Y0.224472575
N5385 X0.755960434 Y0.228202643
N5390 G2 X0.826350183 Y0.221473589 I0.031830345 J-0.038559399 F15.
N5395 X0.819621124 Y0.151083835 I-0.038559404 J-0.031830345
N5400 X0.581307899 Y0.114010572 I-0.150379646 J0.182170446
N5405 X0.582460756 Y0.135979427 I0.00432664 J0.010787624
N5410 G1 X0.597453643 Y0.139674953 F10.
N5415 X0.621679824 Y0.145759639
N5420 X0.642432265 Y0.153619502
N5425 X0.657425077 Y0.161171861
N5430 X0.68741085 Y0.17690912
N5435 X0.702403737 Y0.184857845
N5440 X0.711470777 Y0.190708431
N5445 X0.717396548 Y0.19472768
N5450 X0.732389435 Y0.207321006
N5455 X0.76437462 Y0.235657223
N5460 X0.77736802 Y0.248737485
N5465 X0.779212066 Y0.250640141
N5470 X0.791615163 Y0.265623078
N5475 X0.812347592 Y0.295588933
N5480 X0.822346605 Y0.310602845
N5485 X0.831444658 Y0.325554788
N5490 X0.834730554 Y0.331410385
N5495 X0.837339491 Y0.337266021
N5500 X0.84431836 Y0.355520661
N5505 X0.852332378 Y0.376648527
N5510 X0.861077872 Y0.400469435
N5515 X0.864814173 Y0.415452371
N5520 X0.867325265 Y0.429417693
N5525 X0.87292934 Y0.475384081
N5530 X0.874188416 Y0.490367018
N5535 X0.874990253 Y0.505349955
N5540 Y1.119650067
N5545 X0.874188416 Y1.134632967
N5550 X0.87292934 Y1.149615941
N5555 X0.867325265 Y1.195582292
N5560 X0.864814173 Y1.209547614
N5565 X0.861077947 Y1.224530588
N5570 X0.858060807 Y1.23277116
N5575 X0.847335725 Y1.267326986
N5580 X0.836876847 Y1.301964287
N5585 X0.818110714 Y1.332899079
N5590 X0.792898869 Y1.358850885
N5595 X0.790775629 Y1.360846392
N5600 X0.788754666 Y1.362945677
N5605 X0.78684101 Y1.365143033
N5610 G2 X0.799201948 Y1.437589752 I0.039604292 J0.030520582 F15.
N5615 X0.870422754 Y1.419453959 I0.027243354 J-0.041926138
N5620 G1 X0.908789372 Y1.348531528
N5625 X0.9483619 Y1.275379752
N5630 G2 X0.925720937 Y1.206370549 I-0.043977527 J-0.023790269
N5635 X0.858060807 Y1.23277116 I-0.021336565 J0.045218933
N5640 G1 X0.852332378 Y1.248351645 F10.
N5645 X0.84431851 Y1.269479286
N5650 X0.837339491 Y1.287734415
N5655 X0.834730704 Y1.293589825
N5660 X0.831444883 Y1.299445235
N5665 X0.822327907 Y1.314428134
N5670 X0.812347442 Y1.329411034
N5675 X0.791614487 Y1.359376982
N5680 X0.779211014 Y1.374359882
N5685 X0.77736802 Y1.376261373
N5690 X0.764373194 Y1.389342781
N5695 X0.732389435 Y1.417677271
N5700 X0.717396548 Y1.430270428
N5705 X0.711467548 Y1.434291629
N5710 X0.702403737 Y1.440140281
N5715 X0.685153946 Y1.449274529
N5720 X0.656609498 Y1.464257428
N5725 X0.642432265 Y1.471382502
N5730 X0.621687371 Y1.479240327
N5735 X0.597453643 Y1.485326271
N5740 X0.582460756 Y1.489021271
N5745 X0.567467907 Y1.492601079
N5750 X0.552475021 Y1.495798667
N5755 X0.537482172 Y1.49743358
N5760 X0.522489285 Y1.498177145
N5765 X0.4775107
N5770 X0.462517851 Y1.49743358
N5775 X0.447524964 Y1.495798667
N5780 X0.432532115 Y1.492601079
N5785 X0.417539229 Y1.489021271
N5790 X0.40254638 Y1.485326271
N5795 X0.378312652 Y1.479240327
N5800 X0.376572646 Y1.478586873
N5805 X0.342107495 Y1.467573962
N5810 X0.308785814 Y1.45347445
N5815 X0.279917323 Y1.431662942
N5820 X0.270596621 Y1.420969775
N5825 X0.268909218 Y1.419115893
N5830 X0.267143719 Y1.417336201
N5835 X0.26530339 Y1.415633855
N5840 G2 X0.194914003 Y1.422367143 I-0.031828054 J0.038561333 F15.
N5845 X0.2016473 Y1.492756521 I0.038561333 J0.031828045
N5850 X0.378282089 Y1.509016292 I0.100245814 J-0.121452902
N5855 X0.376572646 Y1.478586873 I-0.008210385 J-0.014801476
N5860 G1 X0.357567757 Y1.471382502 F10.
N5865 X0.342574908 Y1.463829401
N5870 X0.312589172 Y1.44809002
N5875 X0.297596304 Y1.440140582
N5880 X0.288532006 Y1.434291629
N5885 X0.282603437 Y1.430270728
N5890 X0.267610569 Y1.417677722
N5895 X0.235625365 Y1.389342781
N5900 X0.222631965 Y1.376262875
N5905 X0.220787469 Y1.374359882
N5910 X0.208383977 Y1.359376982
N5915 X0.187650684 Y1.329411034
N5920 X0.177653361 Y1.31440065
N5925 X0.168553187 Y1.299445235
N5930 X0.165268324 Y1.293592078
N5935 X0.162660494 Y1.28773907
N5940 X0.155680311 Y1.269479286
N5945 X0.147667626 Y1.248352021
N5950 X0.138922714 Y1.224530588
N5955 X0.135186507 Y1.209547614
N5960 X0.132674767 Y1.195576585
N5965 X0.127070795 Y1.149615941
N5970 X0.125811597 Y1.134632967
N5975 X0.12500977 Y1.119650067
N5980 Y0.505349955
N5985 X0.125811597 Y0.490367018
N5990 X0.127070795 Y0.475384081
N5995 X0.132674767 Y0.4294234
N6000 X0.135186507 Y0.415452371
N6005 X0.138922723 Y0.400469435
N6010 X0.141939563 Y0.392228825
N6015 X0.148810439 Y0.370089201
N6020 X0.156726725 Y0.334783952
N6025 X0.172812526 Y0.302374419
N6030 X0.196115032 Y0.274695487
N6035 X0.203471559 Y0.269123926
N6040 X0.206946125 Y0.266275368
N6045 X0.210191133 Y0.263167854
N6050 X0.21318736 Y0.259819782
N6055 G2 X0.200826747 Y0.187373924 I-0.039604574 J-0.030520131 F15.
N6060 X0.129606264 Y0.205507541 I-0.02724396 J0.041925726
N6065 G1 X0.091224242 Y0.276451561
N6070 X0.05163901 Y0.349619558
N6075 G2 X0.074278595 Y0.418630413 I0.043976527 J0.023792109
N6080 X0.141939563 Y0.392228825 I0.021336942 J-0.045218746
N6085 G1 X0.147667626 Y0.376648114 F10.
N6090 X0.155680414 Y0.355520661
N6095 X0.162660494 Y0.337261328
N6100 X0.165268417 Y0.331408058
N6105 X0.168553375 Y0.325554788
N6110 X0.177670276 Y0.31057187
N6115 X0.18765059 Y0.295588933
N6120 X0.208383264 Y0.265623078
N6125 X0.220786436 Y0.250640141
N6130 X0.222631965 Y0.248735984
N6135 X0.235623919 Y0.235657223
N6140 X0.267610569 Y0.207320517
N6145 X0.282603437 Y0.194727361
N6150 X0.288528795 Y0.190708431
N6155 X0.297596304 Y0.184857639
N6160 X0.314844143 Y0.175725494
N6165 X0.343392815 Y0.160742576
N6170 X0.357567757 Y0.153619502
N6175 X0.378320161 Y0.145759639
N6180 X0.40254638 Y0.139674953
N6185 X0.417539229 Y0.135979427
N6190 X0.432532115 Y0.132399244
N6195 X0.447524964 Y0.129201384
N6200 X0.462517851 Y0.127566396
N6205 X0.4775107 Y0.12682283
N6210 X0.515824979
N6215 G2 X0.544471741 Y0.116556489 I-0.001744961 J-0.049969535 F15.
N6220 G1 X0.547586819 Y0.114171981 Z-0.56234588
N6225 X0.550682691 Y0.111802175 Z-0.56188443
N6230 X0.55374027 Y0.109461681 Z-0.561118507
N6235 X0.556740706 Y0.107164929 Z-0.560052836
N6240 X0.559665499 Y0.10492608 Z-0.558693985
N6245 X0.562496618 Y0.102758935 Z-0.557050333
N6250 X0.565216607 Y0.100676857 Z-0.555132014
N6255 X0.567808697 Y0.098692683 Z-0.552950854
N6260 X0.570256907 Y0.096818645 Z-0.550520301
N6265 X0.572546142 Y0.095066297 Z-0.547855341
N6270 X0.57466229 Y0.093446444 Z-0.544972403
N6275 X0.576592302 Y0.091969071 Z-0.541889262
N6280 X0.578324281 Y0.090643289 Z-0.538624927
N6285 X0.579847547 Y0.08947727 Z-0.535199523
N6290 X0.58115271 Y0.088478203 Z-0.531634169
N6295 X0.582231722 Y0.087652249 Z-0.527950847
N6300 X0.583077931 Y0.087004498 Z-0.524172265
N6305 X0.58368612 Y0.086538946 Z-0.52032172
N6310 X0.58405254 Y0.086258461 Z-0.516422951
N6315 X0.58417493 Y0.086164774 Z-0.512499997
N6320 G0 Y0.086164775 Z0.599999991
N6325 G53 Z0.
N6330 M30
%
