%
(UPPER POST DUAL MORTISE)
(T1  D=0.5 CR=0. - ZMIN=-0.8 - FLAT END MILL)
N10 G90 G94 G17 G91.1
N15 G20
N20 G53 G0 Z0.
(SLOT1 2)
N25 T1 M6
N30 S3000 M3
N35 G54
N40 G0 X6.6772 Y0.5
N45 G43 Z0.75 H1
N50 G0 Z0.1
N55 G1 X6.0522 Z0.0813 F15.
N60 X6.6772 Z0.0625
N65 X6.0522 Z0.0438
N70 X6.6772 Z0.025
N75 X6.0522 Z0.0062
N80 X6.6772 Z-0.0125
N85 X6.0522 Z-0.0312
N90 X6.6772 Z-0.05
N95 X6.0522
N100 X6.6772
N105 X6.0522 Z-0.0708
N110 X6.6772 Z-0.0917
N115 X6.0522 Z-0.1125
N120 X6.6772 Z-0.1333
N125 X6.0522 Z-0.1542
N130 X6.6772 Z-0.175
N135 X6.0522 Z-0.1958
N140 X6.6772 Z-0.2167
N145 X6.0522 Z-0.2375
N150 X6.6772 Z-0.2583
N155 X6.0522 Z-0.2792
N160 X6.6772 Z-0.3
N165 X6.0522
N170 X6.6772
N175 X6.0522 Z-0.3208
N180 X6.6772 Z-0.3417
N185 X6.0522 Z-0.3625
N190 X6.6772 Z-0.3833
N195 X6.0522 Z-0.4042
N200 X6.6772 Z-0.425
N205 X6.0522 Z-0.4458
N210 X6.6772 Z-0.4667
N215 X6.0522 Z-0.4875
N220 X6.6772 Z-0.5083
N225 X6.0522 Z-0.5292
N230 X6.6772 Z-0.55
N235 X6.0522
N240 X6.6772
N245 X6.0522 Z-0.5708
N250 X6.6772 Z-0.5917
N255 X6.0522 Z-0.6125
N260 X6.6772 Z-0.6333
N265 X6.0522 Z-0.6542
N270 X6.6772 Z-0.675
N275 X6.0522 Z-0.6958
N280 X6.6772 Z-0.7167
N285 X6.0522 Z-0.7375
N290 X6.6772 Z-0.7583
N295 X6.0522 Z-0.7792
N300 X6.6772 Z-0.8
N305 X6.0522
N310 X6.6772
N315 G0 Z0.75
N320 Y-0.5
N325 Z0.1
N330 G1 X6.0522 Z0.0813 F15.
N335 X6.6772 Z0.0625
N340 X6.0522 Z0.0438
N345 X6.6772 Z0.025
N350 X6.0522 Z0.0062
N355 X6.6772 Z-0.0125
N360 X6.0522 Z-0.0312
N365 X6.6772 Z-0.05
N370 X6.0522
N375 X6.6772
N380 X6.0522 Z-0.0708
N385 X6.6772 Z-0.0917
N390 X6.0522 Z-0.1125
N395 X6.6772 Z-0.1333
N400 X6.0522 Z-0.1542
N405 X6.6772 Z-0.175
N410 X6.0522 Z-0.1958
N415 X6.6772 Z-0.2167
N420 X6.0522 Z-0.2375
N425 X6.6772 Z-0.2583
N430 X6.0522 Z-0.2792
N435 X6.6772 Z-0.3
N440 X6.0522
N445 X6.6772
N450 X6.0522 Z-0.3208
N455 X6.6772 Z-0.3417
N460 X6.0522 Z-0.3625
N465 X6.6772 Z-0.3833
N470 X6.0522 Z-0.4042
N475 X6.6772 Z-0.425
N480 X6.0522 Z-0.4458
N485 X6.6772 Z-0.4667
N490 X6.0522 Z-0.4875
N495 X6.6772 Z-0.5083
N500 X6.0522 Z-0.5292
N505 X6.6772 Z-0.55
N510 X6.0522
N515 X6.6772
N520 X6.0522 Z-0.5708
N525 X6.6772 Z-0.5917
N530 X6.0522 Z-0.6125
N535 X6.6772 Z-0.6333
N540 X6.0522 Z-0.6542
N545 X6.6772 Z-0.675
N550 X6.0522 Z-0.6958
N555 X6.6772 Z-0.7167
N560 X6.0522 Z-0.7375
N565 X6.6772 Z-0.7583
N570 X6.0522 Z-0.7792
N575 X6.6772 Z-0.8
N580 X6.0522
N585 X6.6772
N590 G0 Z0.75
N595 G53 Z0.
N600 M30
%
