%
(UPPER POST BACK DUAL MORTISE)
(T1  D=0.5 CR=0. - ZMIN=-0.8 - FLAT END MILL)
N10 G90 G94 G17 G91.1
N15 G20
N20 G53 G0 Z0.
(SLOT1 4)
N25 T1 M6
N30 S3000 M3
N35 G54
N40 G0 X5.2275 Y0.5
N45 G43 Z0.75 H1
N50 G0 Z0.1
N55 G1 X5.8525 Z0.0813 F15.
N60 X5.2275 Z0.0625
N65 X5.8525 Z0.0438
N70 X5.2275 Z0.025
N75 X5.8525 Z0.0062
N80 X5.2275 Z-0.0125
N85 X5.8525 Z-0.0312
N90 X5.2275 Z-0.05
N95 X5.8525
N100 X5.2275
N105 X5.8525 Z-0.0708
N110 X5.2275 Z-0.0917
N115 X5.8525 Z-0.1125
N120 X5.2275 Z-0.1333
N125 X5.8525 Z-0.1542
N130 X5.2275 Z-0.175
N135 X5.8525 Z-0.1958
N140 X5.2275 Z-0.2167
N145 X5.8525 Z-0.2375
N150 X5.2275 Z-0.2583
N155 X5.8525 Z-0.2792
N160 X5.2275 Z-0.3
N165 X5.8525
N170 X5.2275
N175 X5.8525 Z-0.3208
N180 X5.2275 Z-0.3417
N185 X5.8525 Z-0.3625
N190 X5.2275 Z-0.3833
N195 X5.8525 Z-0.4042
N200 X5.2275 Z-0.425
N205 X5.8525 Z-0.4458
N210 X5.2275 Z-0.4667
N215 X5.8525 Z-0.4875
N220 X5.2275 Z-0.5083
N225 X5.8525 Z-0.5292
N230 X5.2275 Z-0.55
N235 X5.8525
N240 X5.2275
N245 X5.8525 Z-0.5708
N250 X5.2275 Z-0.5917
N255 X5.8525 Z-0.6125
N260 X5.2275 Z-0.6333
N265 X5.8525 Z-0.6542
N270 X5.2275 Z-0.675
N275 X5.8525 Z-0.6958
N280 X5.2275 Z-0.7167
N285 X5.8525 Z-0.7375
N290 X5.2275 Z-0.7583
N295 X5.8525 Z-0.7792
N300 X5.2275 Z-0.8
N305 X5.8525
N310 X5.2275
N315 G0 Z0.75
N320 Y-0.5
N325 Z0.1
N330 G1 X5.8525 Z0.0813 F15.
N335 X5.2275 Z0.0625
N340 X5.8525 Z0.0438
N345 X5.2275 Z0.025
N350 X5.8525 Z0.0062
N355 X5.2275 Z-0.0125
N360 X5.8525 Z-0.0312
N365 X5.2275 Z-0.05
N370 X5.8525
N375 X5.2275
N380 X5.8525 Z-0.0708
N385 X5.2275 Z-0.0917
N390 X5.8525 Z-0.1125
N395 X5.2275 Z-0.1333
N400 X5.8525 Z-0.1542
N405 X5.2275 Z-0.175
N410 X5.8525 Z-0.1958
N415 X5.2275 Z-0.2167
N420 X5.8525 Z-0.2375
N425 X5.2275 Z-0.2583
N430 X5.8525 Z-0.2792
N435 X5.2275 Z-0.3
N440 X5.8525
N445 X5.2275
N450 X5.8525 Z-0.3208
N455 X5.2275 Z-0.3417
N460 X5.8525 Z-0.3625
N465 X5.2275 Z-0.3833
N470 X5.8525 Z-0.4042
N475 X5.2275 Z-0.425
N480 X5.8525 Z-0.4458
N485 X5.2275 Z-0.4667
N490 X5.8525 Z-0.4875
N495 X5.2275 Z-0.5083
N500 X5.8525 Z-0.5292
N505 X5.2275 Z-0.55
N510 X5.8525
N515 X5.2275
N520 X5.8525 Z-0.5708
N525 X5.2275 Z-0.5917
N530 X5.8525 Z-0.6125
N535 X5.2275 Z-0.6333
N540 X5.8525 Z-0.6542
N545 X5.2275 Z-0.675
N550 X5.8525 Z-0.6958
N555 X5.2275 Z-0.7167
N560 X5.8525 Z-0.7375
N565 X5.2275 Z-0.7583
N570 X5.8525 Z-0.7792
N575 X5.2275 Z-0.8
N580 X5.8525
N585 X5.2275
N590 G0 Z0.75
N595 G53 Z0.
N600 M30
%
